Sungjin-Park-dev/lg_sgu_vision_v2/data/curved_structure/trajectory/47/trajectory_dp_ee_s0010_eev50mms_av20dps_jv0p30_corner30d_x2p5.csv
time,ur20-shoulder_pan_joint,ur20-shoulder_lift_joint,ur20-elbow_joint,ur20-wrist_1_joint,ur20-wrist_2_joint,ur20-wrist_3_joint,target-POS_X,target-POS_Y,target-POS_Z,target-ROT_X,target-ROT_Y,target-ROT_Z,target-ROT_W
0.0,-0.7886799017535608,-2.296989679336548,-2.3880410194396973,-1.5977032820331019,-0.2650299370288849,0.0,-0.024745188653469086,0.9951819181442261,-0.006844291463494301,0.18316806852817535,0.6829277276992798,0.6830882430076599,0.18289226293563843
0.19942909479141235,-0.7865618518215507,-2.2826471166967384,-2.3835399120946223,-1.6166429255274317,-0.2629032947041443,0.0,-0.029041476547718048,0.9977137446403503,0.0017906185239553452,0.18314184248447418,0.6829442977905273,0.683070182800293,0.18292437493801117
0.3989066369831562,-0.7844535636324299,-2.2683706565631767,-2.3790595496111084,-1.635495279327872,-0.26078645372321435,0.0,-0.03323996812105179,1.000128984451294,0.010509420186281204,0.1831156313419342,0.682960569858551,0.6830523014068604,0.18295647203922272
0.5820195004343987,-0.7813263150572282,-2.2612624391874148,-2.3701179004321884,-1.6515730267949231,-0.2576698242396363,0.0,-0.03995031863451004,1.0041368007659912,0.015277480706572533,0.18310357630252838,0.6829667091369629,0.6830481290817261,0.18296121060848236
0.7815419137477875,-0.7775768091807586,-2.258524199574815,-2.3584530653080296,-1.665962730670281,-0.253942632864817,0.0,-0.04825187474489212,1.009108543395996,0.0177041906863451,0.18310025334358215,0.6829666495323181,0.6830521821975708,0.18294931948184967
0.9811042249202728,-0.7738363694752144,-2.2557925809275314,-2.3468164353374394,-1.6803176407570168,-0.25022445370525737,0.0,-0.05656109005212784,1.0140011310577393,0.020269792526960373,0.18309685587882996,0.6829667687416077,0.6830562353134155,0.18293751776218414
1.1805331148207188,-0.7701084208572762,-2.253070084439811,-2.335218665547962,-1.6946246130467073,-0.24651869129486947,0.0,-0.06486857682466507,1.01880943775177,0.02297081984579563,0.1830935776233673,0.6829667091369629,0.6830602884292603,0.18292562663555145
1.3799883611500263,-0.7663897172097534,-2.2503543394935046,-2.323649657163101,-1.7088961053582352,-0.24282211883513874,0.0,-0.0731789842247963,1.0235364437103271,0.025807812809944153,0.18309032917022705,0.6829668283462524,0.6830642819404602,0.18291379511356354
1.5794949047267437,-0.7626798734153111,-2.2476450648399426,-2.312108212070261,-1.723133595679526,-0.2391343535006857,0.0,-0.08149129897356033,1.0281819105148315,0.028779717162251472,0.18308700621128082,0.682966947555542,0.6830682158470154,0.1829020380973816
1.778866946697235,-0.7588699781389922,-2.2447527586619316,-2.2998697930470193,-1.741377563000765,-0.23528521988552906,0.0,-0.08986426144838333,1.0327136516571045,0.031734347343444824,0.1821330189704895,0.6834878325462341,0.6825388073921204,0.1838824599981308
1.9783052802085876,-0.7540993681445005,-2.2401805578937246,-2.2812111171908716,-1.7955358285664933,-0.22993029191327508,0.0,-0.09872153401374817,1.0368133783340454,0.033778876066207886,0.17266729474067688,0.6884986162185669,0.6772279143333435,0.19369544088840485
2.1777535043656826,-0.749332687788299,-2.235612123330516,-2.2625678108256624,-1.8496494829830528,-0.2245797748926655,0.0,-0.10748499631881714,1.0407109260559082,0.03651014715433121,0.16311605274677277,0.6932432055473328,0.6718572974205017,0.20350594818592072
2.6418484367631043,-0.7445955626611127,-2.2310720147970957,-2.244040100042296,-1.903427612185076,-0.2192624331101835,0.0,-0.11610861122608185,1.044391393661499,0.03990751504898071,0.15353460609912872,0.6976973414421082,0.6664581894874573,0.21325796842575073
8.267574838126382,-0.790662786529597,-2.3404844409333925,-2.2542024545794654,-1.1780975783557475,0.012236189878934767,0.0,-0.034636110067367554,1.0320003032684326,-0.010319694876670837,0.43250641226768494,0.5620737671852112,0.6975424885749817,0.10220424830913544
13.80599507440175,-0.8594576632703514,-2.5008918246215157,-2.2771537564030493,-0.1041740496352539,0.34499465673544805,0.0,0.005128085613250732,1.023111343383789,-0.16925039887428284,-0.7470364570617676,-0.32954472303390503,-0.5614553093910217,0.1345541626214981
20.083803012521305,-0.9282525400111057,-2.661299208309639,-2.3001050582266327,0.9697494790852366,0.6777531235919605,0.0,-0.07334157824516296,1.0837852954864502,-0.20221510529518127,-0.8489183783531189,-0.12203902006149292,-0.2829873263835907,0.4293742775917053
28.305702569848993,-0.9924137492754184,-2.8122108975832303,-2.321718387888743,1.9825171895217981,0.9909406792524016,0.0,-0.11470281332731247,1.0448018312454224,0.005394257605075836,-0.7100036144256592,-0.0013792100362479687,-0.002420793054625392,0.7041924595832825
28.68666111149767,-0.9794467380348125,-2.805065061931927,-2.3210609326004357,1.9773354114067856,0.9783669320383407,0.0,-0.12349791079759598,1.0455641746520996,0.010034874081611633,-0.7092140913009644,-0.0010381017345935106,-0.0018016218673437834,0.7049901485443115
28.886136809670717,-0.9664972606254106,-2.7979288887906497,-2.320404366314986,1.9721606400276444,0.965810186888762,0.0,-0.13230480253696442,1.046172022819519,0.014676593244075775,-0.7084369659423828,-0.000677549047395587,-0.001163373701274395,0.7057727575302124
29.085628265821725,-0.9535635047646907,-2.790801379450227,-2.3197485971457823,1.966992151173858,0.9532686864841188,0.0,-0.14112159609794617,1.0466253757476807,0.019318869337439537,-0.7076728940010071,-0.00029797398019582033,-0.0005064620054326952,0.7065399289131165
29.2793577263584,-0.9402600094400169,-2.7859169829980255,-2.3179086725963485,1.9622327051222836,0.9402599706422311,0.0,-0.15014836192131042,1.0469224452972412,0.022186243906617165,-0.70710688829422,-9.641770759571955e-08,-8.829345432559421e-08,0.7071065306663513
29.48328553666524,-0.9258147118657577,-2.787816907751099,-2.3124798901181505,1.9587039640966493,0.9258147729074303,0.0,-0.15980057418346405,1.047052025794983,0.019673636183142662,-0.7071068286895752,-9.552886837127517e-08,-7.15695662734106e-08,0.7071066498756409
29.682782729763307,-0.9114143529778783,-2.789710921921702,-2.3070679963438336,1.9551862008293786,0.9114145135484133,0.0,-0.16945765912532806,1.0470170974731445,0.017176175490021706,-0.7071068286895752,-9.979977022567255e-08,1.6184023010623605e-08,0.7071066498756409
29.94088894252934,-0.8995484964789646,-2.788701799856474,-2.304004779081824,1.951113935034368,0.89954872064854,0.0,-0.17745859920978546,1.0468887090682983,0.01688552275300026,-0.7071067094802856,-3.292009864708234e-08,9.984462678858108e-08,0.7071067094802856
30.262307536516637,-0.8993879884112844,-2.7741103148121913,-2.311883506469372,1.944401051706472,0.8993881089911724,0.0,-0.17761793732643127,1.046950340270996,0.026855450123548508,-0.7071067094802856,-6.240857430839242e-08,5.2945324569009244e-08,0.7071067094802856
30.569811027124366,-0.8992267934554877,-2.759456386067582,-2.319795950568444,1.9376594408519685,0.8992268100023804,0.0,-0.1776781678199768,1.046886682510376,0.03683259338140488,-0.7071068286895752,-3.2921118275908157e-08,-2.9528170131243314e-08,0.7071067094802856
30.828293245036182,-0.8817982255329497,-2.755274089196221,-2.314217397921969,1.9278843149953675,0.8726616751004941,0.0,-0.1859772652387619,1.0477792024612427,0.03765062242746353,-0.7071033120155334,0.0032269880175590515,-0.003233494469895959,0.7070954442024231
31.027841530490694,-0.8612562899995797,-2.753088598157952,-2.3061471208646234,1.917611719199816,0.8413352085215882,0.0,-0.19589634239673615,1.0484557151794434,0.03681214898824692,-0.707080066204071,0.0070357066579163074,-0.007050365209579468,0.7070633172988892
31.227228026587543,-0.8409324781358264,-2.7509263136634097,-2.298162537701298,1.907448202526228,0.8103413806969622,0.0,-0.20583392679691315,1.0486903190612793,0.03605266660451889,-0.7070364952087402,0.010803695768117905,-0.010826647281646729,0.7070116400718689
31.42676213731247,-0.8208110118568049,-2.7487855570556303,-2.290257449721252,1.8973858746816865,0.7796561300357293,0.0,-0.2157852053642273,1.0484912395477295,0.035369232296943665,-0.7069733738899231,0.01453359518200159,-0.01456531509757042,0.706940770149231
31.67532625505483,-0.8009320051049829,-2.746670596124358,-2.2824476164243146,1.887444795816612,0.7493406303292304,0.0,-0.2257184535264969,1.047868013381958,0.034761395305395126,-0.7068914175033569,0.0182179007679224,-0.01825864426791668,0.706851601600647
32.24581282796606,-0.7893114094161959,-2.7343901387288936,-2.2656523091664553,1.830970576512436,0.7343425470643726,0.0,-0.2447049766778946,1.059251070022583,0.02895772084593773,-0.7134788036346436,0.012400566600263119,-0.026459749788045883,0.7000672221183777
34.481330969172234,-0.8257216676430998,-2.6613375155024044,-2.194770705593346,1.4962921811442518,0.8088372361226777,0.0,-0.3089526891708374,1.140764832496643,-0.00947924330830574,-0.7590322494506836,-0.04675045982003212,-0.05861843377351761,0.6467210650444031
36.34236396177363,-0.8621319258700036,-2.588284892275915,-2.123889102020237,1.1616137857760678,0.8833319251809826,0.0,-0.35587671399116516,1.2118139266967773,-0.047012846916913986,-0.8023356199264526,-0.09962715953588486,-0.0849490761756897,0.5823361873626709
37.742627420264,-0.8985421840969074,-2.515232269049426,-2.0530074984471276,0.8269353904078836,0.9578266142392875,0.0,-0.3839927017688751,1.2673851251602173,-0.07899999618530273,-0.8424631953239441,-0.14519357681274414,-0.1051495298743248,0.5080533027648926
39.00519361249514,-0.9349524423238113,-2.442179645822937,-1.9821258948740186,0.49225699503969933,1.0323213032975924,0.0,-0.3931964635848999,1.303213357925415,-0.10060787200927734,-0.8784741163253784,-0.18258431553840637,-0.11906696856021881,0.4251694679260254
40.83426906669129,-0.9713627005507148,-2.369127022596448,-1.9112442913009098,0.15757859967151688,1.106815992355897,0.0,-0.38466936349868774,1.3160709142684937,-0.10715116560459137,-0.9094361662864685,-0.21112143993377686,-0.1267033815383911,0.3351115584373474
42.663344520887456,-1.0077729587776187,-2.296074399369959,-1.8403626877278005,-0.17709979569666734,1.1813106814142018,0.0,-0.3606942892074585,1.3039733171463013,-0.09442957490682602,-0.9344487190246582,-0.23032744228839874,-0.12821707129478455,0.23940564692020416
43.926603723129354,-1.0441832170045224,-2.2230217761434696,-1.7694810841546915,-0.5117781910648516,1.255805370472507,0.0,-0.32440176606178284,1.26628839969635,-0.0590423047542572,-0.9526668190956116,-0.23993337154388428,-0.12392119318246841,0.13964730501174927
45.883801359495244,-1.0805934752314263,-2.1499691529169804,-1.6985994805815823,-0.8464565864330358,1.3303000595308117,0.0,-0.27947571873664856,1.2037421464920044,0.0013412386178970337,-0.9633238315582275,-0.23988308012485504,-0.1142774373292923,0.03746891766786575
49.46043589493136,-1.1157443009107164,-2.081544049960085,-1.6316017213556764,-1.1608745137709469,1.4011992744861017,0.0,-0.23239032924175262,1.1244028806686401,0.08177785575389862,0.9660162329673767,0.2306850552558899,0.10038894414901733,0.05932201072573662
49.75189530617826,-1.1317276918363666,-2.083527784105536,-1.6237004071681582,-1.1670201665169857,1.4173872638742928,0.0,-0.22310687601566315,1.1277308464050293,0.08327125012874603,0.968595027923584,0.2224702537059784,0.09209883958101273,0.06203574314713478
49.95137854806416,-1.1476391802512977,-2.085502594270693,-1.6158346376488963,-1.1731381725725,1.433502430349879,0.0,-0.21383312344551086,1.1310237646102905,0.08489547669887543,0.9710302352905273,0.2142503559589386,0.08380404114723206,0.06460534781217575
50.29260219249392,-1.1620851711161044,-2.0860761063553115,-1.6107926157318395,-1.1764688870474167,1.4480980020918826,0.0,-0.20514479279518127,1.133491039276123,0.0865691602230072,0.9731866121292114,0.20672494173049927,0.07612349838018417,0.0661647617816925
50.66311625891272,-1.1548892287029557,-2.065153676948911,-1.6488314983950678,-1.1371751627090718,1.4402295092277035,0.0,-0.20529326796531677,1.123531699180603,0.08709116280078888,0.9730880260467529,0.20994789898395538,0.07796116173267365,0.054255492985248566
50.86264450230543,-1.1479197176651246,-2.044889603904121,-1.6856734292175977,-1.0991178757311795,1.4326086105712907,0.0,-0.2051496058702469,1.1135727167129517,0.08766284584999084,0.9728710651397705,0.2129621058702469,0.07965678721666336,0.042706336826086044
51.07221559758386,-1.1411609828140226,-2.0252383692666163,-1.721401163987009,-1.0622115403455752,1.4252181877616807,0.0,-0.2047347128391266,1.1036261320114136,0.08827802538871765,0.9725475311279297,0.2157832384109497,0.08122078329324722,0.03149479255080223
51.25211759565473,-1.145026967196771,-2.011576163655235,-1.745355802053055,-1.034762786605031,1.43028676017029,0.0,-0.20017381012439728,1.0976868867874146,0.08884519338607788,0.973659873008728,0.21331343054771423,0.07691341638565063,0.023832418024539948
51.49097753061804,-1.1633620707896655,-2.005505591684999,-1.7542835723155694,-1.019093073076162,1.4523415017221617,0.0,-0.19023540616035461,1.0972412824630737,0.08951666951179504,0.9766657948493958,0.20377156138420105,0.0646498054265976,0.02052728272974491
51.69036888821873,-1.1818540930791082,-1.9993830654819418,-1.7632877497860155,-1.0032892522590642,1.4745849960279784,0.0,-0.18032388389110565,1.0967962741851807,0.09049440920352936,0.9794144630432129,0.19421841204166412,0.05233339965343475,0.016957705840468407
51.88988711058053,-1.2004800860633504,-1.9932161829031179,-1.7723571605712898,-0.9873709361843783,1.4969896396305178,0.0,-0.17044198513031006,1.0963497161865234,0.09178571403026581,0.981898307800293,0.18467408418655396,0.039987239986658096,0.013125036843121052
52.089363144029704,-1.2191838178008219,-1.9870235617897958,-1.7814644240867548,-0.9713861823070905,1.5194877928280448,0.0,-0.16060881316661835,1.095899224281311,0.09339272975921631,0.984107255935669,0.17517507076263428,0.027656445279717445,0.009039847180247307
52.28517961992773,-1.2380555533742033,-1.9863537990159819,-1.7823080038151993,-0.9659402659323761,1.5413630542912504,0.0,-0.15090206265449524,1.0970927476882935,0.09385611116886139,0.9859976172447205,0.16573697328567505,0.016351085156202316,0.00851484015583992
52.48465721799883,-1.2569988140998278,-1.989946949826372,-1.776773604585082,-0.9686417623074944,1.562690424623728,0.0,-0.14125114679336548,1.0995746850967407,0.09343409538269043,0.9876359701156616,0.156290203332901,0.005797720514237881,0.010711968876421452
52.68415422483238,-1.2758665855256097,-1.9935257818538008,-1.771261260054469,-0.9713324931616795,1.5839328049285009,0.0,-0.131596177816391,1.1020723581314087,0.09323200583457947,0.9890672564506531,0.14684037864208221,-0.004753135144710541,0.012700923718512058
52.883672316809026,-1.2946351083065557,-1.9970857884343447,-1.7657779116735437,-0.9740090701772965,1.605063445621278,0.0,-0.1219414472579956,1.1045832633972168,0.09324631094932556,0.9902912378311157,0.13740400969982147,-0.015283657237887383,0.014481340534985065
53.0831608672336,-1.3132761714861185,-2.0006216185240175,-1.7603318014603222,-0.9766674701928661,1.6260505852473432,0.0,-0.11229342967271805,1.1071038246154785,0.09347373247146606,0.9913092851638794,0.12799976766109467,-0.025773486122488976,0.0160530935972929
53.332764863270036,-1.3300604604827964,-2.005862548125628,-1.751694466865978,-0.983090508640279,1.6447892032700375,0.0,-0.10374228656291962,1.1105140447616577,0.0937616378068924,0.9920489192008972,0.11946451663970947,-0.035021331161260605,0.018457923084497452
53.603112315016254,-1.334045650685126,-2.0241933733317548,-1.7186341833310774,-1.0180812468979428,1.6479256628138181,0.0,-0.10322558134794235,1.120451807975769,0.09305824339389801,0.9920819401741028,0.11704783886671066,-0.03541135787963867,0.028621742501854897
53.87040644212769,-1.338146431625791,-2.0430558854868837,-1.6846149838124083,-1.0540868941222437,1.651153095600033,0.0,-0.10253841429948807,1.1303794384002686,0.09237764775753021,0.9920050501823425,0.11451586335897446,-0.03585061430931091,0.03907442465424538
54.102837184518094,-1.326563790094944,-2.0524833331427184,-1.6660299162361056,-1.0765341588487094,1.6376100296019072,0.0,-0.1100526824593544,1.1347038745880127,0.09211896359920502,0.9913203120231628,0.12027128040790558,-0.028093427419662476,0.045052021741867065
54.30235378637862,-1.311265742083307,-2.05954230781917,-1.651344980429511,-1.0955055187709049,1.6201034402850691,0.0,-0.11960083991289139,1.137593388557434,0.09214332699775696,0.9903460741043091,0.12807075679302216,-0.01833879016339779,0.049761831760406494
54.501097688525434,-1.2958279273152495,-2.0662128135268985,-1.6375882811398326,-1.11358694209952,1.6024057601493409,0.0,-0.1292189508676529,1.140089750289917,0.0922325849533081,0.9891892671585083,0.13602404296398163,-0.008442437276244164,0.054136767983436584
54.700551221221204,-1.278772416597826,-2.0704479616214675,-1.6297415196063385,-1.126205642223888,1.582638055448769,0.0,-0.13916054368019104,1.1405174732208252,0.09157223999500275,0.9877839684486389,0.14492106437683105,0.002440656302496791,0.05722501873970032
54.90000745475244,-1.2617824996384834,-2.074666821767575,-1.6219249359189536,-1.1387758121120781,1.5629463753282533,0.0,-0.14911535382270813,1.1409327983856201,0.09114068746566772,0.9861754179000854,0.15383920073509216,0.01332763209939003,0.06011510267853737
55.23183997182595,-1.244878872299486,-2.078864254861321,-1.6141480516627311,-1.1512821397113435,1.543354706738437,0.0,-0.15907813608646393,1.1413371562957764,0.0909346491098404,0.9843668937683105,0.16276273131370544,0.02420046553015709,0.06280460953712463
55.3354986257998,-1.2476061496543713,-2.085867494608098,-1.602403959074276,-1.1633598212485325,1.5467152826587942,0.0,-0.1585962027311325,1.1443313360214233,0.09022155404090881,0.9843747019767761,0.16131795942783356,0.02304626815021038,0.06672114133834839
55.57570032703471,-1.2652786521008388,-2.094978921131785,-1.5876868146158274,-1.1750599576534555,1.5675489312435793,0.0,-0.15001974999904633,1.1493093967437744,0.08914735913276672,0.9857273697853088,0.15188011527061462,0.012648378498852253,0.07151234149932861
55.775196737821815,-1.2827540012924794,-2.1039887011908185,-1.573133853636234,-1.1866295681195005,1.5881501610387303,0.0,-0.14140412211418152,1.1542582511901855,0.08826597034931183,0.9868710041046143,0.14245834946632385,0.0022889384999871254,0.07606543600559235
55.97470091583919,-1.300021661826872,-2.1128914030391654,-1.5587538497112714,-1.198061677650015,1.6085065521352726,0.0,-0.13275279104709625,1.1591752767562866,0.08757162094116211,0.9878097772598267,0.13306491076946259,-0.008019610308110714,0.08038192987442017
56.174203771378515,-1.3170726112456819,-2.1216823749606117,-1.5445543164810192,-1.2093503128977865,1.6286074681942448,0.0,-0.12406917661428452,1.1640572547912598,0.0870572179555893,0.988548219203949,0.12371139228343964,-0.0182656142860651,0.08446425944566727
56.37369695978951,-1.3338992051886769,-2.1303576757461076,-1.5305416199456614,-1.2204904128898306,1.6484438974803137,0.0,-0.11535640060901642,1.1689013242721558,0.08671611547470093,0.989091694355011,0.11440843343734741,-0.028438398614525795,0.08831577748060226
56.58058911857302,-1.3504963667542935,-2.138914687893366,-1.5167199880007063,-1.231478616447334,1.6680098549676798,0.0,-0.10661683231592178,1.1737051010131836,0.08654169738292694,0.989445686340332,0.10516516119241714,-0.038529060781002045,0.09194052219390869
56.78470509158224,-1.3672902716889148,-2.141606565225671,-1.5151266246102402,-1.230729973571491,1.6878823102791658,0.0,-0.09688881039619446,1.1748641729354858,0.08561602234840393,0.9898403286933899,0.09592649340629578,-0.04911881685256958,0.0927446112036705
56.984193511621655,-1.3841473980953252,-2.143181280285113,-1.5158685706828832,-1.227736397524324,1.7078436638575103,0.0,-0.08696796745061874,1.1753548383712769,0.08470761775970459,0.990093469619751,0.08668014407157898,-0.059816475957632065,0.0928620994091034
57.179725763904216,-1.3996650280428975,-2.141192410319172,-1.5230501317154113,-1.2179376877421337,1.7256654114224252,0.0,-0.07728791236877441,1.1743422746658325,0.08396115899085999,0.9903388619422913,0.07836292684078217,-0.06957173347473145,0.09081757813692093
57.37951582705125,-1.4128221376150438,-2.1328906374785586,-1.5416422278213744,-1.1960790851358178,1.7397113392048977,0.0,-0.06809830665588379,1.1705176830291748,0.0833251029253006,0.9907479882240295,0.07173195481300354,-0.07761751115322113,0.08513718843460083
57.6974229979158,-1.4260059461751897,-2.12457201831374,-1.5602720518301183,-1.1741761260874226,1.7537857696045482,0.0,-0.05896942317485809,1.1665304899215698,0.08284604549407959,0.9910247325897217,0.06516080349683762,-0.08560681343078613,0.07934350520372391
58.01118296673576,-1.4157464540405107,-2.1029490865823153,-1.596028772760127,-1.1363825655787778,1.7397931314139534,0.0,-0.06266448646783829,1.1575877666473389,0.08465152978897095,0.9919636249542236,0.07185472548007965,-0.07924347370862961,0.06756794452667236
58.21066766148488,-1.4053388232350306,-2.0814937594975347,-1.6314435639057268,-1.0989798080589208,1.725650368495611,0.0,-0.06622567772865295,1.1484688520431519,0.08656167984008789,0.9926820993423462,0.07845039665699005,-0.072891466319561,0.055808793753385544
58.3964276417164,-1.4019640485034628,-2.061913267103443,-1.6666379895028884,-1.0606632584307094,1.7207521070129757,0.0,-0.06610631197690964,1.1392184495925903,0.08738794922828674,0.9931491613388062,0.08115053921937943,-0.07135695964097977,0.04447028040885925
58.59588203122894,-1.4053899394761895,-2.0444111720903355,-1.701120703833917,-1.022013806833587,1.7247997070796652,0.0,-0.06263553351163864,1.1298713684082031,0.08718568086624146,0.9934263229370117,0.08021889626979828,-0.0743623822927475,0.03375150263309479
58.79537851652185,-1.4087028822772911,-2.02748610350541,-1.734466557836536,-0.9846385886919211,1.7287138618526663,0.0,-0.059283047914505005,1.1204770803451538,0.08711287379264832,0.9935759902000427,0.07934961467981339,-0.07722625881433487,0.02337581105530262
58.994934196677605,-1.4119132398700913,-2.011085119334417,-1.7667798581295886,-0.9484206934406813,1.7325068149005485,0.0,-0.056041259318590164,1.111040711402893,0.08715666830539703,0.9936100244522095,0.07853738963603973,-0.07996092736721039,0.013313100673258305
59.19433602234403,-1.415026466933089,-1.9951803528699437,-1.7981155078381195,-0.9132985837062843,1.7361850107824743,0.0,-0.05290728807449341,1.1015771627426147,0.08730565011501312,0.9935388565063477,0.07777861505746841,-0.08257400244474411,0.0035481799859553576
59.64319621345499,-1.4180526778857605,-1.9797201318515254,-1.828575311905772,-0.8791581528901624,1.739760399418996,0.0,-0.04987266659736633,1.09208345413208,0.08755041658878326,-0.9933715462684631,-0.07706854492425919,0.08507692068815231,0.005949149373918772
59.94535733707175,-1.4250338141827223,-1.9922488938473908,-1.80661975699767,-0.9032102633033043,1.7497511540256978,0.0,-0.04812408611178398,1.098541498184204,0.08702099323272705,0.9933087229728699,0.07298390567302704,-0.08949355781078339,0.0013859622413292527
60.14482286520228,-1.4329982464135924,-2.0109941241861784,-1.7730528749975054,-0.9401469834447216,1.7613100906903454,0.0,-0.04642419144511223,1.108350396156311,0.08641922473907471,0.9931259751319885,0.0679711401462555,-0.09448106586933136,0.012409694492816925
60.394999925502844,-1.4426933004819755,-2.028391752700692,-1.7430287080103708,-0.9729134898700886,1.7749738094009313,0.0,-0.04348215460777283,1.1168763637542725,0.08566085994243622,0.9927310943603516,0.062041930854320526,-0.10067252069711685,0.022378437221050262
60.67067980561092,-1.4628274033105781,-2.0345568510377627,-1.740578863386005,-0.9735420650807496,1.8011005139265008,0.0,-0.03379685431718826,1.1172568798065186,0.08330999314785004,0.991879403591156,0.05151044949889183,-0.1137390062212944,0.024195676669478416
60.91539194466992,-1.4829368810561518,-2.0407144091303175,-1.7381320150524502,-0.9741698715103585,1.827195264097129,0.0,-0.024044157937169075,1.117719292640686,0.08127853274345398,0.9907464385032654,0.040951844304800034,-0.12681420147418976,0.02573953941464424
61.15117825643691,-1.4982163443716394,-2.037344088952826,-1.753950359873291,-0.9535172484328727,1.846125510660424,0.0,-0.015792015939950943,1.1133652925491333,0.07898122072219849,0.9898375868797302,0.03371090069413185,-0.13653917610645294,0.021024994552135468
61.350658853366696,-1.5122102734419287,-2.03134628393253,-1.7748312366582097,-0.9269602899860196,1.8631386801843273,0.0,-0.008043806999921799,1.107475996017456,0.07679885625839233,0.9889025688171387,0.027464577928185463,-0.14528028666973114,0.014524959959089756
61.550131832077824,-1.526230310758903,-2.025337288904607,-1.7957510705565567,-0.9003537846521668,1.8801835909029008,0.0,-0.00039637088775634766,1.1013646125793457,0.0748906135559082,0.9878188967704773,0.02131759747862816,-0.15393789112567902,0.00790436565876007
61.86017014609091,-1.5402606888635761,-2.019323861809888,-1.8166863343397284,-0.8737276551035669,1.8972410734712564,0.0,0.007135957479476929,1.0950335264205933,0.07325953245162964,0.9865895509719849,0.015279670245945454,-0.16249947249889374,0.0011731396662071347
62.151858020550314,-1.526908957662797,-2.002217719346159,-1.8442446954964804,-0.8419242643918996,1.8782776802552055,0.0,0.001876741647720337,1.0873311758041382,0.07429206371307373,-0.9878557324409485,-0.023518851026892662,0.15334804356098175,0.008496572263538837
62.351326677924696,-1.5115281285895783,-1.984158434468622,-1.8725666005900397,-0.8094089756113273,1.8566293422353677,0.0,-0.004007395356893539,1.0794124603271484,0.07575501501560211,-0.9890080094337463,-0.032612159848213196,0.14300811290740967,0.018660573288798332
62.650684474250816,-1.49599257187346,-1.9659174772918704,-1.9011734176084827,-0.7765665904195491,1.8347632268578493,0.0,-0.00962836667895317,1.0713613033294678,0.07749412953853607,-0.9898555874824524,-0.04156457632780075,0.13270451128482819,0.029118308797478676
62.77734414645123,-1.4999544214627019,-1.963778180601111,-1.9097469861496483,-0.7656193146223125,1.8389223919770574,0.0,-0.007192190736532211,1.068514108657837,0.07612159848213196,-0.9895679354667664,-0.03996306285262108,0.1347734034061432,0.031532514840364456
63.09390572788973,-1.5201109462518758,-1.9750523415103842,-1.9015889456505692,-0.7729701152139653,1.8647065310760698,0.0,0.0018519088625907898,1.0700984001159668,0.07222642004489899,-0.9883003234863281,-0.029648421332240105,0.14709429442882538,0.027326788753271103
63.293326273139904,-1.540153884535624,-1.9862629700125247,-1.8934768775262476,-0.7802794924074868,1.8903453708099238,0.0,0.011006303131580353,1.0717341899871826,0.06862883269786835,-0.9867450594902039,-0.01928524486720562,0.15941838920116425,0.02340877801179886
63.49285948979516,-1.5600542816480698,-1.9973938708771746,-1.885422500728205,-0.7875368868441937,1.9158018724955956,0.0,0.02026832103729248,1.0734195709228516,0.06532606482505798,-0.9849070310592651,-0.008897475898265839,0.17171931266784668,0.01978241838514805
63.69228586512465,-1.5797479362847562,-2.008409134350812,-1.8774517997377618,-0.794718885212926,1.9409939101028404,0.0,0.02961699664592743,1.0751478672027588,0.06231899559497833,-0.9827970266342163,0.0014717696467414498,0.1839485466480255,0.01645577885210514
63.891696873631666,-1.5992048745291085,-2.0192919951049855,-1.869576906032337,-0.8018145564486322,1.9658831411275621,0.0,0.03904564678668976,1.076914668083191,0.059600383043289185,-0.9804251790046692,0.01179701741784811,0.1960785835981369,0.013427944853901863
64.31076415424634,-1.6184095384837458,-2.0300337511317683,-1.861804116429375,-0.8088182268053428,1.990449663974899,0.0,0.04855252057313919,1.0787149667739868,0.057159289717674255,-0.9778021574020386,0.02206028625369072,0.20809118449687958,0.010694182477891445
64.65447065300744,-1.6075051135915668,-2.01545971373021,-1.884644187120183,-0.7811209660320677,1.975247717318662,0.0,0.04351191222667694,1.0724071264266968,0.05849692225456238,-0.9793955087661743,0.014848149381577969,0.20051181316375732,0.018947189673781395
64.85394437677662,-1.5931018267416923,-1.9978840168844954,-1.9111717001555275,-0.7492238442489975,1.9554155861193723,0.0,0.0370485857129097,1.0650724172592163,0.06047223508358002,-0.9812027812004089,0.005773012526333332,0.19074846804141998,0.028681863099336624
65.05340834028523,-1.5785533650195702,-1.980131169533425,-1.9379665916272033,-0.7170052221980936,1.9353835611636598,0.0,0.03081592172384262,1.0576119422912598,0.0626993179321289,-0.9827160239219666,-0.0031922569032758474,0.18100158870220184,0.0386955626308918
65.34414827807514,-1.5674687030764698,-1.9645788954940553,-1.9633793805637574,-0.6859166700695125,1.9201635611145198,0.0,0.026250675320625305,1.0503607988357544,0.06442983448505402,-0.9835715293884277,-0.010193707421422005,0.17366619408130646,0.04819895699620247
65.67588470479846,-1.5870900801640613,-1.9690472065672924,-1.9752751260340835,-0.666501578331636,1.947590605436913,0.0,0.03396239131689072,1.0457826852798462,0.060064613819122314,-0.9810842275619507,-0.0015140423784032464,0.1866307556629181,0.05138469487428665
65.87539080134034,-1.6070600088866753,-1.9735948921473958,-1.987382186006699,-0.6467415993853266,1.9755048602695435,0.0,0.0417763888835907,1.0410081148147583,0.05610840022563934,-0.9782846570014954,0.00722496910020709,0.19973881542682648,0.05487438291311264
66.18154006964588,-1.6273219653733204,-1.9782090802408492,-1.9996662920620474,-0.6266926628493759,2.003827315729057,0.0,0.04967319220304489,1.0360409021377563,0.05259320139884949,-0.9751706719398499,0.015987934544682503,0.21294282376766205,0.05866723507642746
67.33657651869706,-1.6587543251614907,-2.0180164948594226,-1.9749613358722231,-0.7278808982942199,2.0805146496464464,0.0,0.04565007984638214,1.0084359645843506,0.027364581823349,-0.9667074084281921,0.04361094534397125,0.2520432770252228,0.006989737972617149
68.45669159023217,-1.7019429926078349,-2.0954858237467597,-1.9104924895503852,-0.959188659329147,2.2087283547809826,0.0,0.029235705733299255,0.9629882574081421,-0.000950053334236145,0.9373713731765747,-0.10116824507713318,-0.3182581961154938,0.09905331581830978
69.45939982508658,-1.745131660054179,-2.1729551526340973,-1.8460236432285473,-1.1904964203640742,2.3369420599155193,0.0,0.01626695692539215,0.9334481358528137,-0.006579726934432983,0.8876016736030579,-0.16986213624477386,-0.38077470660209656,0.1957566887140274
70.89178261262595,-1.7883203275005233,-2.2504244815214345,-1.7815547969067094,-1.4218041813990012,2.4651557650500555,0.0,0.010885059833526611,0.9256487488746643,0.0017703399062156677,0.8184541463851929,-0.2469528466463089,-0.43612679839134216,0.2809634804725647
72.34101520820862,-1.8315089949468666,-2.3278938104087703,-1.717085950584873,-1.6531119424339233,2.593369470184589,0.0,0.01717144250869751,0.9410479068756104,0.013684365898370743,0.7317110896110535,-0.32941529154777527,-0.481046587228775,0.35309839248657227
73.19003909457741,-1.8746976623932108,-2.4053631392961075,-1.652617104263035,-1.8844197034688503,2.7215831753191253,0.0,0.03817395865917206,0.9765947461128235,0.018651818856596947,0.6298333406448364,-0.4140697717666626,-0.5126069784164429,0.41120585799217224
74.43229175735532,-1.917886329839555,-2.482832468183445,-1.5881482579411972,-2.1157274645037774,2.849796880453662,0.0,0.07510091364383698,1.0253151655197144,0.0076654646545648575,0.5158834457397461,-0.4977143704891205,-0.5283520221710205,0.4549601078033447
75.29164572752418,-1.931747559230254,-2.52265041685228,-1.5383680994777478,-2.224261234401857,2.888090400937354,0.0,0.0944952666759491,1.0525314807891846,-0.002128271386027336,0.4717715084552765,-0.5264683961868286,-0.525786817073822,0.47308647632598877
75.53781693158996,-1.925486782063248,-2.5372582110064217,-1.4974541574487288,-2.2499867470318904,2.8645693052850207,0.0,0.09463682770729065,1.0623996257781982,-0.0006720311939716339,0.47973373532295227,-0.5192769169807434,-0.5187926292419434,0.48068827390670776
75.73728791727078,-1.9189842268115211,-2.552430127536807,-1.4549602047791348,-2.2767057250107503,2.84013987424466,0.0,0.09477978944778442,1.0722076892852783,0.0011316128075122833,0.4878922998905182,-0.511689305305481,-0.51140296459198,0.4884692430496216
75.93662717668664,-1.9122189732296404,-2.5682149780575205,-1.4107495284561755,-2.30450412955759,2.814723512606636,0.0,0.0949300080537796,1.081931233406067,0.003315754234790802,0.49625831842422485,-0.5036687254905701,-0.5035814046859741,0.49643853306770325
76.13459877027523,-1.9076896637600504,-2.579458376740933,-1.380790008122353,-2.322936538168902,2.80469919340741,0.0,0.09506197273731232,1.0917775630950928,0.004322852939367294,0.5000001192092896,-0.49999988079071045,-0.4999999403953552,0.4999999403953552
76.33408115534436,-1.9050606049447476,-2.5868008318973326,-1.362964108740626,-2.33342003447512,2.8073283232399686,0.0,0.09511096775531769,1.1017508506774902,0.004203770309686661,0.5000000596046448,-0.4999999701976776,-0.5,0.49999991059303284
76.67143023873528,-1.90240988340185,-2.594203786881657,-1.3449913288097863,-2.3439899119316574,2.809979116385285,0.0,0.09508021175861359,1.1117233037948608,0.004117397591471672,0.5000000596046448,-0.5,-0.5000000596046448,0.4999998211860657
76.95734639404237,-1.8927324219233062,-2.5898197274818804,-1.3356035693196333,-2.322745209964226,2.79018252821306,0.0,0.08794161677360535,1.1129748821258545,0.008466754108667374,0.5183902978897095,-0.48713141679763794,-0.49787241220474243,0.4960820972919464
77.94625749563703,-1.8584166954219348,-2.5438426540028862,-1.3567896902963916,-2.1894452331246,2.6914301148562,0.0,0.06095093488693237,1.0854312181472778,0.021795161068439484,0.5987703204154968,-0.42804813385009766,-0.48320525884628296,0.47409021854400635
78.5363871135772,-1.8241009689205632,-2.497865580523892,-1.3779758112731502,-2.0561452562849745,2.5926777014993405,0.0,0.04206295311450958,1.063517451286316,0.026025526225566864,0.673965334892273,-0.36813023686408997,-0.4607531428337097,0.44492393732070923
79.2147505244478,-1.7897852424191918,-2.4518885070448975,-1.3991619322499085,-1.922845279445349,2.4939252881424805,0.0,0.030933141708374023,1.0503466129302979,0.023856688290834427,0.7429208755493164,-0.30845892429351807,-0.43130621314048767,0.40852978825569153
80.15509839169897,-1.7554695159178204,-2.4059114335659033,-1.4203480532266668,-1.7895453026057235,2.3951728747856205,0.0,0.026653707027435303,1.0482374429702759,0.018561705946922302,0.8047138452529907,-0.2501342296600342,-0.39577630162239075,0.3650062680244446
81.08790703682239,-1.7211537894164488,-2.359934360086909,-1.4415341742034251,-1.6562453257660978,2.2964204614287604,0.0,0.027872085571289062,1.0585243701934814,0.013759791851043701,0.8585669994354248,-0.19425338506698608,-0.3551771640777588,0.3146066665649414
81.66152398901025,-1.6868380629150774,-2.3139572866079146,-1.4627202951801834,-1.5229453489264722,2.197668048071901,0.0,0.032949671149253845,1.0814439058303833,0.01315973699092865,0.9038613438606262,-0.1418875753879547,-0.31060194969177246,0.25773829221725464
82.38377611951867,-1.652522336413706,-2.2679802131289204,-1.4839064161569417,-1.3896453720868465,2.098915634715041,0.0,0.04014135152101517,1.1161062717437744,0.020295605063438416,0.9401432871818542,-0.09405963867902756,-0.2632003426551819,0.19495882093906403
83.35471894459764,-1.6182066099123347,-2.2220031396499262,-1.5050925371337,-1.256345395247221,2.000163221358181,0.0,0.04778262972831726,1.1605514287948608,0.03826957941055298,0.9671305418014526,-0.05172227695584297,-0.2141544371843338,0.12696951627731323
83.95783227813551,-1.6100445000364816,-2.195006921111135,-1.5348511669340814,-1.1864998789178487,1.9721689758452112,0.0,0.051552824676036835,1.1716021299362183,0.04811927676200867,0.974252462387085,-0.039419714361429214,-0.2002255916595459,0.09585392475128174
84.35175368328946,-1.6158239409599244,-2.178716740389847,-1.568274427533124,-1.151876075715969,1.9820583281632904,0.0,0.0533476248383522,1.1618270874023438,0.04899904131889343,0.9740052819252014,-0.04094754159450531,-0.20529824495315552,0.08654279261827469
84.57962915479439,-1.6214084085345104,-2.1629761199341258,-1.6005701318278394,-1.1184203299351891,1.9916140564916058,0.0,0.05497615039348602,1.1520299911499023,0.04998020827770233,0.9736727476119995,-0.042338497936725616,-0.2101384401321411,0.07752705365419388
84.76445464761439,-1.6176886797818837,-2.1528707499082977,-1.6159314139930068,-1.1025383580466586,1.9881866393727226,0.0,0.052042365074157715,1.1476200819015503,0.05188605189323425,0.9745603799819946,-0.039307139813899994,-0.20829364657402039,0.07280619442462921
85.09201326945501,-1.6015033263371536,-2.149924545387386,-1.6093041680972677,-1.1094769560738043,1.9674203587091181,0.0,0.04307638108730316,1.1505770683288574,0.05510970950126648,0.9770562052726746,-0.03038690611720085,-0.19756534695625305,0.07352392375469208
85.29764068355638,-1.5854451566716956,-2.1470014920090645,-1.6027289988016513,-1.1163610309097847,1.9468172585447991,0.0,0.03417934477329254,1.1535125970840454,0.05853442847728729,0.9793469905853271,-0.02152339182794094,-0.18690051138401031,0.0740557610988617
85.50445417564725,-1.5703690147022802,-2.139248309714254,-1.6061658076722496,-1.1124379553989112,1.9271246293786815,0.0,0.025984659790992737,1.1535494327545166,0.061975568532943726,0.9815714359283447,-0.012668627314269543,-0.17673923075199127,0.07155493646860123
85.73645725342035,-1.55731151809595,-2.1199757770177805,-1.6332347811424517,-1.0830016571017012,1.9091925696574759,0.0,0.01945209503173828,1.1467152833938599,0.0651426911354065,0.9838793873786926,-0.003785183886066079,-0.16765430569648743,0.06212031468749046
86.15253054528118,-1.5441607539599782,-2.10056558382108,-1.6604971037944776,-1.0533551002145987,1.8911324242118772,0.0,0.013112865388393402,1.139756679534912,0.06844894587993622,0.9859369993209839,0.004998106975108385,-0.1585921198129654,0.052456315606832504
86.39802786171656,-1.53900758879951,-2.1080448695590692,-1.6432151582133743,-1.0739745196355863,1.886545553270689,0.0,0.009281419217586517,1.144173502922058,0.06913107633590698,0.9860084056854248,0.006806137505918741,-0.15606443583965302,0.058179330080747604
86.59752458915334,-1.537421711391732,-2.1283670214463006,-1.6044906956523899,-1.1188289957131017,1.8881084996694901,0.0,0.006405293941497803,1.1537158489227295,0.06872011721134186,0.9850927591323853,0.005443533416837454,-0.1564396172761917,0.07133883237838745
86.79687407449107,-1.5357635021209717,-2.149616066609518,-1.5640000104904175,-1.165729284286499,1.8897427320480347,0.0,0.003382645547389984,1.1632109880447388,0.06848247349262238,0.9839539527893066,0.00399428978562355,-0.15677893161773682,0.08508235216140747
