Sungjin-Park-dev/lg_sgu_vision_v2/data/sample/trajectory/337/trajectory_dp_ee_s0005.csv
time,ur20-shoulder_pan_joint,ur20-shoulder_lift_joint,ur20-elbow_joint,ur20-wrist_1_joint,ur20-wrist_2_joint,ur20-wrist_3_joint,target-POS_X,target-POS_Y,target-POS_Z,target-ROT_X,target-ROT_Y,target-ROT_Z,target-ROT_W
0.0,1.9935601393329065,-0.6619694868670862,1.4491405487060547,-0.7871711889850062,-2.7188093662261963,0.0,-0.28499817848205566,1.006584882736206,0.09066534042358398,0.5000048279762268,0.4999951422214508,0.4999951422214508,0.5000048279762268
1.0,1.9919044402583892,-0.6595038672000909,1.4412070880805767,-0.7817032505866063,-2.7204651627406307,0.0,-0.285014271736145,1.0114574432373047,0.09180749952793121,0.5000048279762268,0.4999951124191284,0.4999951720237732,0.500004768371582
2.0,1.990248741183872,-0.6570382475330956,1.433273627455099,-0.7762353121882065,-2.7221209592550655,0.0,-0.2850080728530884,1.0163148641586304,0.09296170622110367,0.500004768371582,0.4999951422214508,0.4999951422214508,0.5000047087669373
3.0,1.9886088149913541,-0.6545299908598783,1.4252733885757742,-0.7707430564748288,-2.723760928986328,0.0,-0.2850097417831421,1.021178126335144,0.09411147236824036,0.5000046491622925,0.4999952018260956,0.49999508261680603,0.5000048875808716
4.0,1.98698162936541,-0.651987294087744,1.41721920947241,-0.7652311584176879,-2.7253881146122723,0.0,-0.28501343727111816,1.0260425806045532,0.09525992721319199,0.5000045299530029,0.49999526143074036,0.49999502301216125,0.5000050067901611
5.0,1.9853576822993604,-0.6494368075993615,1.4091532895128727,-0.7597153971497012,-2.7270120692583015,0.0,-0.28500065207481384,1.03089439868927,0.09641703218221664,0.5000043511390686,0.49999532103538513,0.49999502301216125,0.5000051259994507
6.0,1.983760975764449,-0.6468207993930222,1.4009886135727299,-0.7541671412178031,-2.7286088471307535,0.0,-0.285014271736145,1.0357582569122314,0.09755842387676239,0.5000045895576477,0.49999526143074036,0.4999951422214508,0.5000049471855164
7.0,1.9821595552517821,-0.6441970679111635,1.3927998329521583,-0.7486025050967642,-2.7302103391915717,0.0,-0.2850058078765869,1.0406197309494019,0.09871511906385422,0.5000047087669373,0.49999523162841797,0.4999951720237732,0.5000048279762268
8.0,1.9805790508862158,-0.6415255030038953,1.3845411106106535,-0.7430154563288099,-2.7317908358683676,0.0,-0.2850106954574585,1.045482873916626,0.0998624637722969,0.5000047087669373,0.49999523162841797,0.49999523162841797,0.5000048279762268
9.0,1.9790072917043278,-0.6388256660181548,1.376235321177641,-0.7374094551735153,-2.733362546342233,0.0,-0.28501200675964355,1.0503445863723755,0.10101211816072464,0.5000047087669373,0.4999952018260956,0.4999951422214508,0.5000048279762268
10.0,1.9774392667601146,-0.6361051740920228,1.3678909140469802,-0.7317855435633643,-2.734930548699966,0.0,-0.2850027084350586,1.0552037954330444,0.10216891765594482,0.5000046491622925,0.4999952018260956,0.4999951422214508,0.5000048279762268
11.0,1.9758966313832678,-0.6333279914566364,1.3594644615728897,-0.7261364714787492,-2.7364732586393017,0.0,-0.2850140333175659,1.0600659847259521,0.103311687707901,0.500004768371582,0.49999523162841797,0.4999951720237732,0.5000047087669373
12.0,1.9743483630771368,-0.6305406679456879,1.3510072399283164,-0.7204667718213119,-2.7380216017801864,0.0,-0.2850029468536377,1.0649274587631226,0.1044701337814331,0.5000048279762268,0.4999951720237732,0.49999523162841797,0.5000046491622925
13.0,1.9728244320943142,-0.627696951369752,1.342467652088058,-0.7147708899934102,-2.7395455304490293,0.0,-0.2850116491317749,1.069791316986084,0.10561496019363403,0.500004768371582,0.4999952018260956,0.4999952018260956,0.5000046491622925
14.0,1.971304704388395,-0.624829847059738,1.3338845143773843,-0.7090547818799721,-2.7410652321693,0.0,-0.28501057624816895,1.0746530294418335,0.1067662239074707,0.500004768371582,0.49999523162841797,0.49999523162841797,0.500004768371582
15.0,1.9700430797334862,-0.6219061277399819,1.3267597280992103,-0.7048534907800893,-2.742326672058305,0.0,-0.2849990129470825,1.0786892175674438,0.10704775154590607,0.5000047087669373,0.4999952018260956,0.4999951422214508,0.500004768371582
16.0,1.9715632256616484,-0.6247840298713747,1.3353706664695462,-0.7105865481771659,-2.7408066237631505,0.0,-0.2850135564804077,1.0738303661346436,0.1058875322341919,0.5000048279762268,0.49999523162841797,0.4999951720237732,0.500004768371582
17.0,1.9730781672602997,-0.6276520792967117,1.3439521246696906,-0.7162999780376705,-2.7392917794632528,0.0,-0.28500568866729736,1.068968653678894,0.10474269092082977,0.5000047087669373,0.4999952018260956,0.4999952018260956,0.500004768371582
18.0,1.9746115082885771,-0.6304604116114604,1.3524564114593611,-0.721995988562477,-2.737758412420091,0.0,-0.28501009941101074,1.0641108751296997,0.10357731580734253,0.5000047087669373,0.4999952018260956,0.4999952018260956,0.5000047087669373
19.0,1.976153641319684,-0.6332308371784326,1.360905843353071,-0.7276750710865506,-2.736216182110301,0.0,-0.28501224517822266,1.0592536926269531,0.10240635275840759,0.500004768371582,0.4999951422214508,0.4999951422214508,0.500004768371582
20.0,1.9776987355399211,-0.635988675547605,1.3693201987765593,-0.7333316412069573,-2.734671008437761,0.0,-0.2850019931793213,1.0543922185897827,0.101250559091568,0.500004768371582,0.4999952018260956,0.4999952018260956,0.500004768371582
21.0,1.9792725543510707,-0.6387173323230879,1.3776604995829977,-0.7389432347093932,-2.733097189626611,0.0,-0.28501415252685547,1.0495268106460571,0.10011059045791626,0.500004768371582,0.4999951422214508,0.4999951422214508,0.500004768371582
22.0,1.9808410116286834,-0.6414366933748772,1.3859723874602192,-0.7445357111784414,-2.7315287323489987,0.0,-0.2850039005279541,1.0446606874465942,0.0989859402179718,0.5000047087669373,0.4999951422214508,0.4999952018260956,0.500004768371582
23.0,1.9824323290989037,-0.6440898786500081,1.3942034110674435,-0.7501136446256111,-2.729937450958712,0.0,-0.28501176834106445,1.039799690246582,0.09783516079187393,0.500004768371582,0.49999529123306274,0.49999523162841797,0.5000047087669373
24.0,1.984029017822647,-0.6467153172068341,1.4023921467161171,-0.7556770878674564,-2.728340810951635,0.0,-0.28501152992248535,1.034937858581543,0.09668491780757904,0.5000048279762268,0.4999951422214508,0.49999526143074036,0.5000045895576477
25.0,1.9856320605880733,-0.6493148197689821,1.4105350821628218,-0.7612205812432754,-2.726737816847834,0.0,-0.2850048542022705,1.0300767421722412,0.09553907066583633,0.5000048279762268,0.4999952018260956,0.4999952018260956,0.5000047087669373
26.0,1.9872566934756306,-0.6518618073540142,1.4185991189162586,-0.7667374842569817,-2.7251132326785092,0.0,-0.28501462936401367,1.0252220630645752,0.0943831205368042,0.5000048279762268,0.49999523162841797,0.4999951720237732,0.5000047087669373
27.0,1.988881326363188,-0.6544087949390465,1.4266631556696951,-0.7722543872706881,-2.7234886485091847,0.0,-0.2850022315979004,1.0203511714935303,0.09323921799659729,0.5000047087669373,0.4999952018260956,0.4999952018260956,0.5000047087669373
28.0,1.9877888541164805,-0.65253519764473,1.4210103592082992,-0.7684751783402078,-2.7245811282797803,0.0,-0.285061240196228,1.0237373113632202,0.09393332153558731,0.500004768371582,0.49999526143074036,0.49999526143074036,0.5000046491622925
29.0,1.986200119673744,-0.6498542082726119,1.412852269268223,-0.7629980929198636,-2.726169862722517,0.0,-0.28511548042297363,1.0286184549331665,0.09497226774692535,0.5000047087669373,0.4999952018260956,0.4999952018260956,0.500004768371582
30.0,1.9846035868894876,-0.6471600591991791,1.4046541351459412,-0.7574941230929805,-2.7277663955067735,0.0,-0.28514766693115234,1.0335071086883545,0.09602785110473633,0.5000047087669373,0.49999529123306274,0.49999529123306274,0.5000047087669373
31.0,1.9830061514241495,-0.644464386851421,1.396451365791204,-0.7519870413165742,-2.7293638309721118,0.0,-0.2851574420928955,1.0383819341659546,0.09709541499614716,0.5000047087669373,0.49999523162841797,0.49999529123306274,0.5000047087669373
32.0,1.9814006718618802,-0.6417551400900917,1.3882072903097253,-0.7464522279036928,-2.730969310534381,0.0,-0.2851449251174927,1.0432645082473755,0.09817983210086823,0.5000046491622925,0.49999532103538513,0.49999532103538513,0.5000047087669373
33.0,1.9797937420840246,-0.6390434460899606,1.379955768027279,-0.7409124149424728,-2.7325762403122362,0.0,-0.2851097583770752,1.048134207725525,0.09927655011415482,0.500004768371582,0.4999951720237732,0.49999523162841797,0.5000047087669373
34.0,1.9781796990364644,-0.6363197484472025,1.3716677193799103,-0.735348079326778,-2.734190283359797,0.0,-0.2850516736507416,1.0530084371566772,0.10038942843675613,0.500004768371582,0.49999523162841797,0.49999529123306274,0.5000047087669373
35.0,1.9765876679939252,-0.6335679760273938,1.363328430372423,-0.7297605735543187,-2.7357822921713937,0.0,-0.2850046157836914,1.0578736066818237,0.10150692611932755,0.5000047087669373,0.49999526143074036,0.49999526143074036,0.5000046491622925
36.0,1.97504724822961,-0.6307490120513435,1.3548655607386528,-0.7241166678965989,-2.7373226371148838,0.0,-0.28501391410827637,1.0627424716949463,0.10261958837509155,0.500004768371582,0.4999951422214508,0.4999952018260956,0.5000047087669373
37.0,1.9735014378808096,-0.6279201833203572,1.3463730759215382,-0.7184530118104705,-2.7388683723810288,0.0,-0.28500068187713623,1.0676096677780151,0.10374760627746582,0.500004768371582,0.4999951720237732,0.4999951720237732,0.5000047087669373
38.0,1.9719849560178369,-0.6250542799825228,1.337797778613465,-0.7127435969761927,-2.740384907577324,0.0,-0.2850123345851898,1.0724759101867676,0.10488618910312653,0.500004768371582,0.4999951422214508,0.49999526143074036,0.5000047087669373
39.0,1.9704695216088912,-0.6221750319530694,1.329187210348565,-0.7070122523678103,-2.7419004167277854,0.0,-0.2850092649459839,1.077337622642517,0.10603901743888855,0.500004768371582,0.49999523162841797,0.49999523162841797,0.500004768371582
40.0,1.9689862888439675,-0.6195165891878657,1.320641100975301,-0.7011245848321644,-2.7433836698307967,0.0,-0.28500425815582275,1.0821237564086914,0.10744524747133255,0.5000047087669373,0.49999526143074036,0.49999526143074036,0.5000047087669373
41.0,1.9675522950488935,-0.6171801084369669,1.31220518641007,-0.6950251836897386,-2.74481760596057,0.0,-0.28500688076019287,1.0867998600006104,0.10920906811952591,0.5000048279762268,0.4999951124191284,0.4999951720237732,0.5000047087669373
42.0,1.966107301234473,-0.6146032071285671,1.3036235339326534,-0.6890204450299934,-2.746262553032368,0.0,-0.28500497341156006,1.0915327072143555,0.11076493561267853,0.500004768371582,0.49999523162841797,0.4999951720237732,0.5000048279762268
43.0,1.9646405652650798,-0.6115664343343196,1.2947594061950818,-0.6831930641501233,-2.747729263065215,0.0,-0.2850135564804077,1.0963941812515259,0.11190949380397797,0.500004768371582,0.4999951720237732,0.49999523162841797,0.5000047087669373
44.0,1.96316803160737,-0.6085176578376225,1.2858602404882429,-0.677342648900914,-2.7492017706838574,0.0,-0.2849992513656616,1.1012533903121948,0.11306963860988617,0.5000048279762268,0.4999951720237732,0.49999523162841797,0.500004768371582
45.0,1.961723334331935,-0.6053990862717918,1.276855415723616,-0.6714564802373683,-2.750646444930501,0.0,-0.28501224517822266,1.1061187982559204,0.11421191692352295,0.500004768371582,0.4999951422214508,0.4999951422214508,0.500004768371582
46.0,1.960277216650519,-0.602262516228673,1.2678096428968624,-0.6655473749717673,-2.7520925398555542,0.0,-0.28500819206237793,1.1109806299209595,0.11536550521850586,0.5000048279762268,0.4999952018260956,0.4999952018260956,0.5000046491622925
47.0,1.9588426844700744,-0.5990850937089169,1.2586947120754635,-0.6596098437665493,-2.7535270274111148,0.0,-0.2850062847137451,1.1158419847488403,0.11651714146137238,0.5000048279762268,0.4999951422214508,0.4999951422214508,0.500004768371582
48.0,1.9574234469618412,-0.5958601377255851,1.249502215573916,-0.6536421329709692,-2.7549461935628736,0.0,-0.2850126028060913,1.1207035779953003,0.11766321957111359,0.5000048279762268,0.4999951124191284,0.4999951720237732,0.500004768371582
49.0,1.9559987336263331,-0.592622222224754,1.240273139678176,-0.6476508026270343,-2.756370836080608,0.0,-0.2849959135055542,1.1255604028701782,0.11882443726062775,0.500004768371582,0.4999951422214508,0.4999952018260956,0.5000048279762268
50.0,1.9546046273653106,-0.589302958162613,1.2309175360868931,-0.6416145845695796,-2.7577651107845176,0.0,-0.2850126028060913,1.1304270029067993,0.1199643462896347,0.5000048279762268,0.4999951422214508,0.4999952018260956,0.500004768371582
51.0,1.9532047140062792,-0.5859698678289277,1.2215229620752721,-0.6355532228693171,-2.7591651932880787,0.0,-0.2850062847137451,1.1352888345718384,0.12111980468034744,0.500004768371582,0.4999951720237732,0.49999523162841797,0.5000046491622925
52.0,1.9518199575246342,-0.5825858832786706,1.2120434494060615,-0.6294577480096842,-2.7605499852171946,0.0,-0.28500819206237793,1.1401512622833252,0.12226924300193787,0.500004768371582,0.49999526143074036,0.49999526143074036,0.5000045895576477
53.0,1.9504460327068183,-0.579158080061315,1.2024872542468028,-0.6233293544475188,-2.761923838646657,0.0,-0.28501200675964355,1.1450128555297852,0.1234169602394104,0.5000048279762268,0.4999951422214508,0.4999952018260956,0.5000046491622925
54.0,1.9490701845095135,-0.5757076830990201,1.1928794636056372,-0.6171719539945465,-2.763299633693197,0.0,-0.28499865531921387,1.1498703956604004,0.12457609921693802,0.500004768371582,0.49999529123306274,0.49999523162841797,0.5000047087669373
55.0,1.947721278345639,-0.5721800156559438,1.1831487560665057,-0.6109688653277667,-2.764648636998521,0.0,-0.2850130796432495,1.1547343730926514,0.1257169246673584,0.500004768371582,0.4999952018260956,0.4999952018260956,0.5000046491622925
56.0,1.9463651300599003,-0.5686334085725838,1.1733658054791076,-0.6047324729922334,-2.76600488294725,0.0,-0.2850039005279541,1.1595966815948486,0.126874178647995,0.500004768371582,0.4999951720237732,0.49999523162841797,0.500004768371582
57.0,1.9450278721328442,-0.5650247428843287,1.16347970578292,-0.5984549742260591,-2.7673421094668664,0.0,-0.28500938415527344,1.16446053981781,0.12802107632160187,0.500004768371582,0.4999952018260956,0.49999526143074036,0.5000047087669373
58.0,1.9436970244236613,-0.5613756498251714,1.153516999701189,-0.5921412881549064,-2.768672859777944,0.0,-0.28501081466674805,1.1693220138549805,0.12917090952396393,0.5000047087669373,0.49999526143074036,0.4999952018260956,0.5000047087669373
59.0,1.9423613499782062,-0.5575690703546831,1.1434505807927071,-0.5858814132279424,-2.77000845684016,0.0,-0.2850005626678467,1.1742039918899536,0.13018271327018738,0.5000047087669373,0.49999523162841797,0.4999951720237732,0.500004768371582
60.0,1.9410251067331685,-0.5532366277308483,1.1331342750347504,-0.5798976520522393,-2.77134469669109,0.0,-0.285011887550354,1.1791759729385376,0.1306498497724533,0.500004768371582,0.49999523162841797,0.4999951720237732,0.5000048279762268
61.0,1.9396798525813805,-0.548874969440907,1.1227484016516347,-0.5738735396050366,-2.772689947425883,0.0,-0.28499794006347656,1.1841500997543335,0.13112616539001465,0.500004768371582,0.49999523162841797,0.49999523162841797,0.5000047087669373
62.0,1.940088190872721,-0.5499269277372105,1.1259112351251055,-0.5759842488884968,-2.772281568600424,0.0,-0.2850085496902466,1.1826534271240234,0.13060857355594635,0.5000048279762268,0.4999951720237732,0.4999951720237732,0.500004768371582
63.0,1.94142437119437,-0.5542123910779467,1.1362720972921985,-0.5820596494089231,-2.7709454120294903,0.0,-0.28500914573669434,1.1776888370513916,0.13004833459854126,0.500004768371582,0.4999951124191284,0.4999951720237732,0.5000048279762268
64.0,1.9427563543934265,-0.5582979804093925,1.1465009349722097,-0.588202913948929,-2.7696134532317993,0.0,-0.2850029468536377,1.1727551221847534,0.12930728495121002,0.500004768371582,0.4999952018260956,0.4999951422214508,0.500004768371582
65.0,1.944089232195564,-0.5619666916331604,1.1565127103447408,-0.5945460269461053,-2.76828060147999,0.0,-0.2850130796432495,1.1678928136825562,0.12814924120903015,0.500004768371582,0.4999951422214508,0.4999951422214508,0.500004768371582
66.0,1.9454142882267822,-0.5656138736374337,1.166465733284502,-0.6008519164433478,-2.766955571346228,0.0,-0.2849992513656616,1.1630295515060425,0.12700806558132172,0.500004768371582,0.4999952018260956,0.4999952018260956,0.5000047087669373
67.0,1.9467651308354752,-0.569183548589486,1.1762934547574133,-0.607110011788351,-2.7656046903040914,0.0,-0.28501176834106445,1.1581717729568481,0.12584947049617767,0.500004768371582,0.4999952018260956,0.49999526143074036,0.5000047087669373
68.0,1.9481149139464808,-0.5727268935430122,1.1860629170903323,-0.6133361778454138,-2.7642548585154154,0.0,-0.2850083112716675,1.1533102989196777,0.1247013509273529,0.5000048875808716,0.4999951124191284,0.4999951720237732,0.5000047087669373
69.0,1.949474249677708,-0.5762264458597867,1.1957535697882196,-0.6195272865047318,-2.7628954942999737,0.0,-0.2850053310394287,1.1484476327896118,0.12355256080627441,0.5000048279762268,0.4999951720237732,0.4999951720237732,0.500004768371582
70.0,1.9508497798556987,-0.5796710367427131,1.2053520353150584,-0.6256811123442108,-2.761519964121983,0.0,-0.2850126624107361,1.1435855627059937,0.12239667773246765,0.5000047087669373,0.4999951422214508,0.4999952018260956,0.500004768371582
71.0,1.9522189826311682,-0.5830997825984737,1.2149063481537572,-0.6318066307472147,-2.7601507613465137,0.0,-0.2849966287612915,1.1387194395065308,0.12125662714242935,0.5000048279762268,0.4999951124191284,0.4999951720237732,0.500004768371582
72.0,1.9536175441850454,-0.586447002925544,1.2243323491447815,-0.6378854806277773,-2.7587521997926365,0.0,-0.28501248359680176,1.1338623762130737,0.12009589374065399,0.5000048279762268,0.4999951720237732,0.4999951720237732,0.500004768371582
73.0,1.9550114528076712,-0.5897778756647941,1.2337157912025791,-0.6439381229271922,-2.7573582911700107,0.0,-0.28500688076019287,1.1290010213851929,0.11894935369491577,0.500004768371582,0.4999952018260956,0.4999952018260956,0.500004768371582
74.0,1.956419359223162,-0.5930614999674384,1.2430202277555455,-0.6499589447870157,-2.7559504355306093,0.0,-0.2850074768066406,1.1241395473480225,0.11779841035604477,0.5000048279762268,0.4999951422214508,0.4999952018260956,0.5000046491622925
75.0,1.9578398152160967,-0.5963007965819849,1.252249608867894,-0.655948980516364,-2.754530077074582,0.0,-0.2850123643875122,1.1192775964736938,0.11664420366287231,0.5000047087669373,0.49999526143074036,0.49999526143074036,0.5000047087669373
76.0,1.9592574547018848,-0.5995227569156326,1.2614372319355696,-0.6619145983160997,-2.7531125205749807,0.0,-0.2849982976913452,1.11441171169281,0.11550267040729523,0.500004768371582,0.4999952018260956,0.49999526143074036,0.5000046491622925
77.0,1.9607035075401744,-0.6026707099403797,1.270511118092785,-0.6678405330742171,-2.751666370068254,0.0,-0.2850130796432495,1.1095532178878784,0.11434219777584076,0.5000048279762268,0.4999952018260956,0.49999526143074036,0.5000047087669373
78.0,1.9621437030803848,-0.605805912048482,1.2795482500909885,-0.6737424645833823,-2.7502260772552165,0.0,-0.2850050926208496,1.104691982269287,0.11319729685783386,0.5000047087669373,0.4999952018260956,0.4999951422214508,0.500004768371582
79.0,1.9636023081350504,-0.6088901448952634,1.2885051842288235,-0.6796151501790474,-2.748767452143182,0.0,-0.28500938415527344,1.099831223487854,0.11204387247562408,0.5000048279762268,0.4999951124191284,0.4999951124191284,0.5000048279762268
80.0,1.965069826699003,-0.6119396452803814,1.2974016751615347,-0.6854621147336206,-2.747299959572249,0.0,-0.28501152992248535,1.094969391822815,0.11089177429676056,0.5000048279762268,0.4999951124191284,0.4999951720237732,0.500004768371582
81.0,1.9660164549930463,-0.6135262426072463,1.303191421197313,-0.689665289860053,-2.746353304860687,0.0,-0.2849966287612915,1.0918117761611938,0.1096436157822609,0.500004768371582,0.49999523162841797,0.49999523162841797,0.500004768371582
82.0,1.9645574906357481,-0.6103576653922375,1.2943384000974045,-0.6839806317746494,-2.747812253341934,0.0,-0.2850126028060913,1.0966672897338867,0.11061102151870728,0.500004768371582,0.4999952018260956,0.4999951422214508,0.500004768371582
83.0,1.9630914514522937,-0.6073003528884412,1.2854238070331947,-0.678123105754882,-2.7492782925253882,0.0,-0.2850075960159302,1.1015291213989258,0.11176516860723495,0.5000047087669373,0.4999952018260956,0.4999952018260956,0.5000048279762268
84.0,1.961638813062782,-0.604200602798391,1.276439275705215,-0.6722383199682386,-2.7507309309148997,0.0,-0.2850073575973511,1.1063907146453857,0.1129159927368164,0.5000046491622925,0.49999523162841797,0.4999951720237732,0.5000048875808716
85.0,1.9602000215803703,-0.6010573159340219,1.2673831524653147,-0.6663257269112967,-2.7521697223973116,0.0,-0.2850126028060913,1.1112524271011353,0.11406295001506805,0.500004768371582,0.4999951720237732,0.4999951720237732,0.5000048279762268
86.0,1.9587575724336483,-0.5978991754911841,1.2582892586549401,-0.6603902108716828,-2.7536121760742964,0.0,-0.2849973440170288,1.1161096096038818,0.11522341519594193,0.5000048279762268,0.49999523162841797,0.4999951720237732,0.5000047087669373
87.0,1.9573444282281847,-0.5946646886165052,1.249078163130276,-0.6544136994118082,-2.7550254174698705,0.0,-0.28501296043395996,1.120975136756897,0.11636379361152649,0.5000048279762268,0.4999951422214508,0.4999952018260956,0.5000046491622925
88.0,1.955925352940116,-0.5914166263340478,1.239828407879146,-0.6484121040411606,-2.7564445903559647,0.0,-0.28500545024871826,1.1258370876312256,0.11751982569694519,0.5000046491622925,0.49999526143074036,0.4999952018260956,0.5000046491622925
89.0,1.954523249974706,-0.5881161172165549,1.2304933532363207,-0.6423774956250905,-2.757846732421555,0.0,-0.28500866889953613,1.1306999921798706,0.11866845190525055,0.5000047087669373,0.4999952018260956,0.49999526143074036,0.5000045895576477
90.0,1.9531305494682027,-0.5847758950131648,1.2210881700842788,-0.63631236427681,-2.7592394329280583,0.0,-0.2850116491317749,1.135561466217041,0.11981691420078278,0.5000047087669373,0.4999952018260956,0.49999526143074036,0.5000046491622925
91.0,1.9517377949125159,-0.5814114972729162,1.2116309160470566,-0.6302193854118123,-2.76063217263445,0.0,-0.2849997282028198,1.1404197216033936,0.12097495049238205,0.5000046491622925,0.49999523162841797,0.49999523162841797,0.5000047087669373
92.0,1.9503707640649606,-0.5779755159175218,1.2020607901181883,-0.6240853865696389,-2.761999106327805,0.0,-0.2850130796432495,1.1452821493148804,0.12211623787879944,0.5000047087669373,0.4999952018260956,0.4999951720237732,0.5000047087669373
93.0,1.9489963435763542,-0.5745209609733021,1.1924389317828767,-0.6179182296976146,-2.763373429137033,0.0,-0.2850029468536377,1.1501446962356567,0.12327428162097931,0.5000048875808716,0.4999951720237732,0.4999951720237732,0.500004768371582
94.0,1.9476426337939134,-0.5710031165185606,1.1827144327673813,-0.6117115325179632,-2.764727126186809,0.0,-0.2850099802017212,1.1550089120864868,0.12442052364349365,0.5000048279762268,0.4999952018260956,0.4999952018260956,0.5000046491622925
95.0,1.9462938895267896,-0.5674492314052643,1.1729205273910415,-0.605471390472288,-2.7660758931888436,0.0,-0.2850102186203003,1.1598706245422363,0.12557072937488556,0.5000048279762268,0.4999951422214508,0.4999951422214508,0.500004768371582
96.0,1.944948667553533,-0.5638606483241525,1.1630577067810899,-0.5991970498447438,-2.7674211446409873,0.0,-0.28500211238861084,1.1647295951843262,0.12672674655914307,0.5000047087669373,0.4999952018260956,0.4999952018260956,0.5000047087669373
97.0,1.943625415016391,-0.5602041344693596,1.1530840848243813,-0.5928798931706248,-2.7687444457503325,0.0,-0.2850133180618286,1.1695903539657593,0.12786918878555298,0.5000047087669373,0.4999952018260956,0.49999526143074036,0.5000047087669373
98.0,1.9422938529942597,-0.5565246592023371,1.1430478325989897,-0.5865230673350388,-2.770076056649681,0.0,-0.285000205039978,1.1744519472122192,0.12902900576591492,0.5000047087669373,0.49999526143074036,0.4999952018260956,0.5000048279762268
99.0,1.9409665468126092,-0.5524161121590815,1.1327733333560506,-0.5803571482774358,-2.7714033528951227,0.0,-0.28501081466674805,1.1793904304504395,0.12976786494255066,0.5000047087669373,0.4999951720237732,0.4999951720237732,0.500004768371582
100.0,1.939634238002203,-0.5481893585322117,1.1223971192391584,-0.574207740129918,-2.7727356380637285,0.0,-0.2850072383880615,1.1843448877334595,0.13041715323925018,0.5000048279762268,0.4999951720237732,0.4999951720237732,0.500004768371582
101.0,1.936520364580022,-0.5515752015385555,1.1236594039755352,-0.5893757981295119,-2.7678985704590673,0.0,-0.28207600116729736,1.1852999925613403,0.1317773312330246,0.5075625777244568,0.49551621079444885,0.5004536509513855,0.49637699127197266
102.0,1.9312911003975894,-0.5640311884533818,1.1388008319061278,-0.6299250383540616,-2.7557174989819435,0.0,-0.27578410506248474,1.1815463304519653,0.1338530033826828,0.5239766836166382,0.4856155216693878,0.5012387037277222,0.48824745416641235
103.0,1.926061836215157,-0.5764871753682079,1.1539422598367202,-0.6704742785786102,-2.74353642750482,0.0,-0.269630491733551,1.177852988243103,0.1357695609331131,0.540197491645813,0.47559329867362976,0.5017261505126953,0.4798629879951477
104.0,1.9208325720327246,-0.588943162283034,1.1690836877673123,-0.7110235188031588,-2.7313553560276964,0.0,-0.26361751556396484,1.1742315292358398,0.13753700256347656,0.5562149882316589,0.46545693278312683,0.5019189119338989,0.471223920583725
105.0,1.915603307850292,-0.6013991491978603,1.184225115697905,-0.7515727590277084,-2.7191742845505726,0.0,-0.2577470541000366,1.1706939935684204,0.1391656994819641,0.5720198154449463,0.4552137553691864,0.5018207430839539,0.46233049035072327
106.0,1.9103740436678598,-0.6138551361126864,1.1993665436284973,-0.7921219992522571,-2.7069932130734493,0.0,-0.25202035903930664,1.1672512292861938,0.14066720008850098,0.5876029133796692,0.4448711574077606,0.5014353394508362,0.45318326354026794
107.0,1.9051447794854275,-0.6263111230275125,1.2145079715590894,-0.8326712394768058,-2.694812141596326,0.0,-0.2464383840560913,1.1639142036437988,0.14205336570739746,0.6029548048973083,0.4344367980957031,0.500766396522522,0.44378283619880676
108.0,1.899915515302995,-0.6387671099423389,1.229649399489682,-0.8732204797013554,-2.682631070119202,0.0,-0.24100139737129211,1.1606926918029785,0.14333656430244446,0.6180665493011475,0.42391809821128845,0.4998181164264679,0.4341302812099457
109.0,1.8946862511205624,-0.651223096857165,1.2447908274202744,-0.9137697199259041,-2.6704499986420784,0.0,-0.23570984601974487,1.1575963497161865,0.14452975988388062,0.6329293251037598,0.41332271695137024,0.4985947608947754,0.42422646284103394
110.0,1.8894569869381301,-0.6636790837719913,1.259932255350867,-0.9543189601504536,-2.6582689271649547,0.0,-0.23056313395500183,1.154633641242981,0.14564640820026398,0.6475343108177185,0.4026584029197693,0.49710068106651306,0.4140729606151581
111.0,1.8842277227556976,-0.6761350706868173,1.2750736832814593,-0.9948682003750022,-2.6460878556878313,0.0,-0.2255605310201645,1.1518129110336304,0.14670082926750183,0.6618731617927551,0.39193278551101685,0.49534064531326294,0.40367093682289124
112.0,1.8789984585732653,-0.6885910576016434,1.2902151112120515,-1.0354174405995509,-2.6339067842107076,0.0,-0.2207009643316269,1.1491411924362183,0.14770722389221191,0.6759374737739563,0.3811536133289337,0.49331924319267273,0.3930222988128662
113.0,1.8737691943908328,-0.7010470445164698,1.305356539142644,-1.0759666808241004,-2.621725712733584,0.0,-0.2159828394651413,1.146625280380249,0.14868046343326569,0.6897190809249878,0.3703286945819855,0.4910416305065155,0.38212865591049194
114.0,1.8685399302084005,-0.7135030314312958,1.3204979670732364,-1.116515921048649,-2.6095446412564605,0.0,-0.2114042490720749,1.144270420074463,0.14963556826114655,0.7032099366188049,0.3594658672809601,0.4885128438472748,0.3709923028945923
115.0,1.863310666025968,-0.725959018346122,1.3356393950038286,-1.1570651612731977,-2.5973635697793367,0.0,-0.20696336030960083,1.1420822143554688,0.1505882889032364,0.7164022922515869,0.3485727608203888,0.48573818802833557,0.35961517691612244
116.0,1.8580814018435357,-0.7384150052609483,1.3507808229344211,-1.1976144014977474,-2.585182498302213,0.0,-0.20265695452690125,1.1400642395019531,0.15155425667762756,0.7292885780334473,0.33765748143196106,0.48272326588630676,0.34799984097480774
117.0,1.8528521376611031,-0.7508709921757744,1.3659222508650135,-1.238163641722296,-2.5730014268250896,0.0,-0.1984824687242508,1.1382197141647339,0.1525493860244751,0.7418612837791443,0.32672762870788574,0.4794735014438629,0.33614882826805115
118.0,1.8476228734786708,-0.7633269790906004,1.3810636787956057,-1.2787128819468447,-2.560820355347966,0.0,-0.19443672895431519,1.1365509033203125,0.15358975529670715,0.7541131377220154,0.3157912492752075,0.4759947657585144,0.3240649700164795
119.0,1.8423936092962383,-0.7757829660054267,1.3962051067261982,-1.3192621221713945,-2.548639283870842,0.0,-0.19051623344421387,1.1350593566894531,0.1546916514635086,0.7660372853279114,0.3048560619354248,0.47229301929473877,0.31175118684768677
120.0,1.837164345113806,-0.7882389529202528,1.4113465346567906,-1.3598113623959431,-2.5364582123937187,0.0,-0.18671730160713196,1.1337448358535767,0.15587127208709717,0.7776268720626831,0.2939300239086151,0.4683741629123688,0.29921072721481323
121.0,1.8319350809313735,-0.8006949398350789,1.426487962587383,-1.4003606026204918,-2.5242771409165954,0.0,-0.18303582072257996,1.1326079368591309,0.15714499354362488,0.7888754606246948,0.2830207347869873,0.46424445509910583,0.2864468991756439
122.0,1.826705816748941,-0.8131509267499053,1.4416293905179756,-1.4409098428450413,-2.5120960694394716,0.0,-0.17946757376194,1.1316460371017456,0.15852899849414825,0.7997764348983765,0.27213627099990845,0.45991018414497375,0.27346324920654297
123.0,1.8214765525665086,-0.8256069136647313,1.4567708184485677,-1.48145908306959,-2.499914997962348,0.0,-0.17600852251052856,1.130857229232788,0.16003970801830292,0.8103237748146057,0.26128411293029785,0.45537763833999634,0.2602634131908417
124.0,1.8162472883840761,-0.8380629005795577,1.4719122463791603,-1.5220083232941395,-2.487733926485224,0.0,-0.17265373468399048,1.130237340927124,0.16169258952140808,0.8205114603042603,0.2504723370075226,0.45065364241600037,0.24685156345367432
125.0,1.8110180242016438,-0.8505188874943838,1.4870536743097527,-1.5625575635186881,-2.4755528550081007,0.0,-0.16939866542816162,1.129783034324646,0.16350439190864563,0.8303340673446655,0.23970824480056763,0.4457446336746216,0.23323139548301697
126.0,1.8057887600192115,-0.8629748744092098,1.5021951022403448,-1.6031068037432368,-2.463371783530977,0.0,-0.16623857617378235,1.129488229751587,0.16548998653888702,0.8397858142852783,0.22899988293647766,0.4406575560569763,0.2194075733423233
127.0,1.800559495836779,-0.8754308613240361,1.5173365301709374,-1.6436560439677865,-2.451190712053853,0.0,-0.16316856443881989,1.1293466091156006,0.16766507923603058,0.8488616347312927,0.21835465729236603,0.4353990852832794,0.2053842693567276
128.0,1.7953302316543467,-0.8878868482388622,1.5324779581015298,-1.6842052841923352,-2.43900964057673,0.0,-0.16018366813659668,1.1293511390686035,0.17004425823688507,0.8575564622879028,0.20778018236160278,0.429976224899292,0.19116635620594025
129.0,1.7901009674719142,-0.9003428351536883,1.547619386032122,-1.7247545244168838,-2.426828569099606,0.0,-0.15727877616882324,1.1294931173324585,0.17264284193515778,0.8658657073974609,0.19728386402130127,0.4243960976600647,0.17675836384296417
130.0,1.7848717032894816,-0.9127988220685146,1.5627608139627145,-1.7653037646414333,-2.4146474976224823,0.0,-0.15444913506507874,1.1297639608383179,0.17547431588172913,0.873784601688385,0.18687330186367035,0.4186657667160034,0.1621655970811844
131.0,1.7796424391070493,-0.9252548089833408,1.5779022418933069,-1.805853004865982,-2.402466426145359,0.0,-0.1516897827386856,1.1301528215408325,0.1785525679588318,0.8813090920448303,0.176555797457695,0.41279247403144836,0.14739297330379486
132.0,1.771063651544992,-0.9377490042757298,1.5862840708615902,-1.8277971573266207,-2.375410402723908,0.0,-0.14865970611572266,1.1281676292419434,0.18140888214111328,0.8904489874839783,0.16600896418094635,0.40003225207328796,0.13969860970973969
133.0,1.7607975164579788,-0.9509906205496024,1.5927700212928269,-1.8444569631626164,-2.341509608381471,0.0,-0.1457374393939972,1.1255195140838623,0.18445824086666107,0.9003782272338867,0.1549023687839508,0.383961945772171,0.1337813436985016
134.0,1.7498478897082732,-0.9651138280208493,1.5996877888594132,-1.8622259340636016,-2.3053517903299823,0.0,-0.14310705661773682,1.1231054067611694,0.18794801831245422,0.9104411602020264,0.143278568983078,0.36663347482681274,0.12707488238811493
135.0,1.73840209255521,-0.9798770132473102,1.6069190275243581,-1.880800086516499,-2.2675555201579582,0.0,-0.1408623903989792,1.1210341453552246,0.1918964982032776,0.9203745126724243,0.1313890516757965,0.34833163022994995,0.11963601410388947
136.0,1.740607768634733,-0.9726845744423438,1.5994612467988472,-1.8759954252782178,-2.276616006516907,0.0,-0.14143797755241394,1.125567078590393,0.19047151505947113,0.9182378649711609,0.13368584215641022,0.3526827096939087,0.12075643986463547
137.0,1.7431581709461645,-0.9649445104062417,1.5916420208073125,-1.8706023192273216,-2.286856938986924,0.0,-0.14212942123413086,1.1302587985992432,0.1888948678970337,0.9157686233520508,0.1363518387079239,0.35759437084198,0.12207414209842682
138.0,1.7457000421389899,-0.9572303369537601,1.5838489501968493,-1.8652272531645355,-2.2970636154459787,0.0,-0.14287009835243225,1.1349387168884277,0.18731072545051575,0.9132714867591858,0.1390233188867569,0.362476646900177,0.12336225807666779
139.0,1.748232880460131,-0.9495435768254247,1.5760835732819005,-1.8598712881019013,-2.307234021145509,0.0,-0.1436600685119629,1.1396061182022095,0.18571889400482178,0.9107473492622375,0.14169944822788239,0.3673286437988281,0.12462053447961807
140.0,1.7507612038599483,-0.9418705187628406,1.5683320385713782,-1.854524870336727,-2.317386297546702,0.0,-0.14450041949748993,1.1442681550979614,0.1841164380311966,0.9081918001174927,0.14438465237617493,0.37215858697891235,0.12585139274597168
141.0,1.7532760869663797,-0.9342382498459552,1.5606217101799162,-1.8492068735493965,-2.327484605545998,0.0,-0.14538824558258057,1.1489088535308838,0.18250860273838043,0.9056146144866943,0.1470690369606018,0.37694934010505676,0.12705053389072418
142.0,1.749411970819807,-0.9351378109305725,1.5611545141575576,-1.8537737991040388,-2.3159263995616937,0.0,-0.14419138431549072,1.1489579677581787,0.18057043850421906,0.9085313677787781,0.14373236894607544,0.3714134991168976,0.1263481080532074
143.0,1.7334037397772601,-0.9522799705328759,1.5773803042326606,-1.8771592928850631,-2.2631392823278307,0.0,-0.139712855219841,1.1407430171966553,0.17837804555892944,0.9213170409202576,0.1290954351425171,0.3460162878036499,0.12158114463090897
144.0,1.7173955087347128,-0.9694221301351799,1.5936060943077643,-1.9005447866660876,-2.2103521650939664,0.0,-0.1363135427236557,1.1332565546035767,0.17676816880702972,0.9331381320953369,0.11475733667612076,0.32031822204589844,0.11610391736030579
145.0,1.701387277692166,-0.9865642897374834,1.6098318843828674,-1.923930280447112,-2.1575650478601034,0.0,-0.13390906155109406,1.1265066862106323,0.17581148445606232,0.9439897537231445,0.10075097531080246,0.2943599224090576,0.10993026942014694
146.0,1.6853790466496188,-1.003706449339787,1.6260576744579707,-1.947315774228136,-2.1047779306262404,0.0,-0.13241413235664368,1.1204915046691895,0.17557393014431,0.9538689255714417,0.08710875362157822,0.26818159222602844,0.10307551175355911
147.0,1.6693708156070715,-1.020848608942091,1.6422834645330742,-1.9707012680091607,-2.051990813392376,0.0,-0.13174235820770264,1.1152007579803467,0.17611703276634216,0.9627743363380432,0.07386238873004913,0.2418239265680313,0.09555665403604507
148.0,1.6533625845645246,-1.0379907685443945,1.6585092546081772,-1.994086761790185,-1.9992036961585133,0.0,-0.1318081021308899,1.110614538192749,0.17749755084514618,0.9707062244415283,0.06104280799627304,0.21532684564590454,0.08739182353019714
149.0,1.6373543535219772,-1.0551329281466983,1.6747350446832807,-2.0174722555712097,-1.946416578924649,0.0,-0.13252557814121246,1.1067047119140625,0.17976710200309753,0.9776671528816223,0.04868000000715256,0.18873029947280884,0.07860078662633896
150.0,1.6213461224794303,-1.072275087749002,1.690960834758384,-2.040857749352234,-1.893629461690786,0.0,-0.13381114602088928,1.1034349203109741,0.18297113478183746,0.9836606383323669,0.036803241819143295,0.16207367181777954,0.06920486688613892
151.0,1.6053378914368834,-1.0894172473513055,1.707186624833487,-2.064243243133258,-1.840842344456923,0.0,-0.13558301329612732,1.10076105594635,0.18714982271194458,0.9886924624443054,0.025440743193030357,0.13539612293243408,0.059226326644420624
152.0,1.589329660394336,-1.1065594069536093,1.7234124149085905,-2.0876287369142825,-1.788055227223059,0.0,-0.1377621293067932,1.0986312627792358,0.19233669340610504,0.9927698373794556,0.014619837515056133,0.10873620212078094,0.04868922755122185
153.0,1.5733214293517892,-1.123701566555913,1.7396382049836938,-2.111014230695307,-1.735268109989196,0.0,-0.14027222990989685,1.0969873666763306,0.19855856895446777,0.9959015846252441,0.004366545472294092,0.08213194459676743,0.037618767470121384
154.0,1.5573131983092423,-1.1408437261582165,1.7558639950587969,-2.134399724476331,-1.682480992755333,0.0,-0.14304119348526,1.0957648754119873,0.2058369219303131,0.9980981945991516,-0.0052940924651920795,0.05562060326337814,0.026041129603981972
155.0,1.541304967266695,-1.1579858857605205,1.7720897851339004,-2.157785218257356,-1.6296938755214687,0.0,-0.14600104093551636,1.0948944091796875,0.21418538689613342,0.9993717074394226,-0.014338267035782337,0.029238790273666382,0.013983886688947678
156.0,1.5252967362241479,-1.1751280453628241,1.7883155752090036,-2.18117071203838,-1.5769067582876057,0.0,-0.14908812940120697,1.0943008661270142,0.2236112654209137,0.9997357130050659,-0.022743433713912964,0.0030224432703107595,0.0014756619930267334
157.0,1.5234472155594183,-1.1814052730686797,1.7968378083442256,-2.186228786572543,-1.5707963705062866,0.0,-0.14966361224651337,1.0898429155349731,0.22478394210338593,0.9997197985649109,-0.02367231249809265,2.1168903074908485e-08,4.3253617576510806e-08
158.0,1.5234511925991456,-1.186260187174513,1.8043515792167693,-2.1888876433392532,-1.5707963705062866,0.0,-0.14990437030792236,1.084851861000061,0.22478275001049042,0.9997197985649109,-0.023670347407460213,2.0680495538272226e-08,3.963412709140357e-08
159.0,1.52236431963752,-1.1892719214790906,1.8090160096304804,-2.1905404117107694,-1.5707963367806475,0.0,-0.14887560904026031,1.0819110870361328,0.22477209568023682,0.9997068047523499,-0.024213606491684914,2.155591438679494e-08,2.211818284081346e-08
160.0,1.517899428044609,-1.188975724290302,1.808559638310575,-2.1903803388737173,-1.570796314870016,0.0,-0.14402732253074646,1.082869291305542,0.22477209568023682,-0.9996501803398132,0.026445381343364716,-2.3030679585644975e-08,3.191375341771163e-08
161.0,1.5134320020820902,-1.188907441582506,1.8084538119523763,-2.1903428580070776,-1.5707963153550146,0.0,-0.13918425142765045,1.083572268486023,0.22477243840694427,-0.9995886087417603,0.02867821417748928,-2.341407778772009e-08,5.5975572621491665e-08
162.0,1.5142152546761278,-1.1839687092951448,1.8008083471681464,-2.1876360260272447,-1.5707963385699049,0.0,-0.1397450566291809,1.0885447263717651,0.22478333115577698,-0.9995998740196228,0.028286775574088097,-2.394901343905076e-08,7.393857970328099e-08
163.0,1.5149985072701655,-1.1790299770077832,1.7931628823839165,-2.184929194047412,-1.570796361784795,0.0,-0.14031456410884857,1.0935041904449463,0.22477799654006958,0.9996108412742615,-0.027895266190171242,1.9243644899802348e-08,1.0809400663447377e-07
164.0,1.5157710624701866,-1.1740908420695755,1.7854758472970926,-2.18218133519649,-1.5707963560124552,0.0,-0.14087969064712524,1.0984704494476318,0.22478091716766357,-0.999621570110321,0.027509178966283798,-2.2380346464956347e-08,4.474400849829863e-09
165.0,1.5165371804476402,-1.1691514648337473,1.7777637970253015,-2.179408788173847,-1.5707963327968715,0.0,-0.14144571125507355,1.1034352779388428,0.2247820496559143,-0.999631941318512,0.027126235887408257,-2.29833325704476e-08,5.052632445767813e-08
166.0,1.5172995616309497,-1.1642114924886477,1.7700361691772888,-2.1766212186454896,-1.570796314870016,0.0,-0.14201553165912628,1.1083941459655762,0.2247760146856308,-0.9996422529220581,0.026745205745100975,-2.4337225568160648e-08,7.61566312235118e-08
167.0,1.5180492764476454,-1.1592695029405882,1.7622557390383913,-2.173782728312427,-1.570796314870016,0.0,-0.14257843792438507,1.1133641004562378,0.22478348016738892,-0.9996522068977356,0.02637048438191414,-2.3095461543221063e-08,5.83481316596135e-08
168.0,1.5187989912643411,-1.1543275133925286,1.7544753088994938,-2.1709442379793638,-1.570796314870016,0.0,-0.14314955472946167,1.1183208227157593,0.22477519512176514,-0.9996619820594788,0.025995759293437004,-2.1994358334609387e-08,1.998996523866481e-08
169.0,1.5195352485975968,-1.1493817213053166,1.7466365026474746,-2.1680511547739405,-1.5707963341682012,0.0,-0.14371256530284882,1.1232911348342896,0.224782332777977,-0.9996715784072876,0.025627704337239265,-2.4344103621842805e-08,8.315539901104785e-08
170.0,1.5202687743157997,-1.1444351573744511,1.7387858471466697,-2.1651469902461757,-1.5707963573835537,0.0,-0.14428019523620605,1.1282529830932617,0.22478005290031433,-0.9996808171272278,0.02526107430458069,-2.25892904381908e-08,4.011091903066699e-08
171.0,1.5209955830851494,-1.1394858670678467,1.7309037399494738,-2.16221415230041,-1.5707963488815082,0.0,-0.1448475867509842,1.1332155466079712,0.22477856278419495,0.9996899962425232,-0.024897778406739235,1.9503829662426142e-08,9.444504911471086e-08
172.0,1.5217136582719457,-1.134533031844032,1.7229807382936642,-2.159244032298658,-1.5707962991395308,0.0,-0.1454121172428131,1.1381832361221313,0.22478270530700684,0.99969881772995,-0.024538889527320862,-3.799100056767202e-08,7.675563296061227e-09
173.0,1.5224066089864143,-1.1294171638738593,1.7146900319148117,-2.1555256393159397,-1.5708220861081192,0.0,-0.14594589173793793,1.143137812614441,0.22474882006645203,0.9997072815895081,-0.024192508310079575,6.317168754321756e-06,0.0002719960466492921
174.0,1.5224669250159386,-1.1201654603808286,1.6970817066032866,-2.132888011239795,-1.5715007976994118,0.0,-0.14551129937171936,1.1480854749679565,0.22416655719280243,0.9996805787086487,-0.024159085005521774,0.00017301768821198493,0.007418505381792784
175.0,1.5225285942166829,-1.1107061978193091,1.6790783440316432,-2.109742515072134,-1.5721947359725545,0.0,-0.14507292211055756,1.1530344486236572,0.2236136943101883,0.9996005892753601,-0.024118594825267792,0.00034387060441076756,0.014725076965987682
176.0,1.522591694927157,-1.1010273600690577,1.6606570744922247,-2.0860597490426565,-1.5729047824387306,0.0,-0.1446303278207779,1.1579843759536743,0.22309288382530212,0.9994635581970215,-0.024070654064416885,0.0005191161180846393,0.02220022864639759
177.0,1.5226563051709252,-1.0911169793183544,1.6417951202206769,-2.0618104295852824,-1.5736318150651754,0.0,-0.1441836953163147,1.1629329919815063,0.22260728478431702,0.9992654919624329,-0.02401466853916645,0.0006987965316511691,0.029853016138076782
178.0,1.522722568641391,-1.0809530148465123,1.6224505321661848,-2.0369406261305953,-1.5743774507749364,0.0,-0.14373227953910828,1.1678835153579712,0.22215965390205383,0.999001681804657,-0.02395002730190754,0.0008834305917844176,0.03769983723759651
179.0,1.522790802010091,-1.0704868933109686,1.6025308630061603,-2.0113314864840595,-1.5751452529431966,0.0,-0.14327439665794373,1.172849178314209,0.22175276279449463,0.9986657500267029,-0.02387586236000061,0.0010738163255155087,0.04577723145484924
180.0,1.5228608756623763,-1.059738495932537,1.5820739517184677,-1.9850316572200941,-1.5759337630693646,0.0,-0.142811581492424,1.1778098344802856,0.2213922142982483,0.9982528686523438,-0.023791620507836342,0.0012695544864982367,0.054069552570581436
181.0,1.5229329641554887,-1.0486810478744386,1.5610288390352778,-1.9579756240474913,-1.5767449453746343,0.0,-0.14234326779842377,1.182767391204834,0.2210823893547058,0.9977564811706543,-0.023696450516581535,0.0014709985116496682,0.06259626895189285
182.0,1.5230075612172527,-1.0372388176358938,1.539251388808793,-1.929978082546413,-1.5775843555761164,0.0,-0.14186660945415497,1.1877421140670776,0.22082772850990295,0.9971662759780884,-0.023588983342051506,0.0016795990522950888,0.07141483575105667
183.0,1.523084424908435,-1.0254489155848616,1.516812231429616,-1.9011298366113267,-1.5784492712306515,0.0,-0.1413843333721161,1.1927036046981812,0.2206360101699829,0.9964767694473267,-0.023468581959605217,0.0018944807816296816,0.0804954320192337
184.0,1.5229446624776088,-1.0184740182847896,1.5028116560959164,-1.880827285487528,-1.579112181067324,0.0,-0.140860453248024,1.1948020458221436,0.22079865634441376,0.9959194660186768,-0.023470714688301086,0.0020585842430591583,0.08711649477481842
185.0,1.5222730612515958,-1.0240759230021368,1.5109858129816982,-1.8834398761860713,-1.5792197025236947,0.0,-0.14025762677192688,1.1899237632751465,0.22166693210601807,0.9959131479263306,-0.023800602182745934,0.002083367435261607,0.08709839731454849
186.0,1.5215901349384018,-1.030019913518001,1.5199277917847445,-1.887445649271506,-1.5792769580430868,0.0,-0.1396685242652893,1.185027837753296,0.22247914969921112,0.9959485530853271,-0.024141386151313782,0.0020946539007127285,0.08659792691469193
187.0,1.5205266779412707,-1.0479133061297559,1.55582690874347,-1.9407427594697386,-1.577549531629954,0.0,-0.13933752477169037,1.1800518035888672,0.22220459580421448,0.9973066449165344,-0.024839600548148155,0.0016351992962881923,0.06899140775203705
188.0,1.5195508076256337,-1.0643329928147345,1.5887693621685657,-1.9896503014690616,-1.5759643766461882,0.0,-0.1390647143125534,1.1750706434249878,0.22228991985321045,0.9982791543006897,-0.025447875261306763,0.0012276772176846862,0.05281530320644379
189.0,1.5186458284493418,-1.0795598875086756,1.6193187434623564,-2.0350050031787164,-1.5744943736872734,0.0,-0.1388395130634308,1.1700878143310547,0.22265484929084778,0.998947024345398,-0.025983814150094986,0.0008624243200756609,0.03780133277177811
190.0,1.5178039623771375,-1.0937248609839578,1.647737615754486,-2.077196675191278,-1.5731268885013474,0.0,-0.13865500688552856,1.1651325225830078,0.22323912382125854,0.9993658065795898,-0.026457853615283966,0.0005339117487892509,0.02382649853825569
191.0,1.517014338232845,-1.1070108282281979,1.6743929573299818,-2.116770146565354,-1.5718442624929827,0.0,-0.13850532472133636,1.1601992845535278,0.2239997386932373,0.9995811581611633,-0.026880579069256783,0.00023592151410412043,0.010714187286794186
192.0,1.5162936404452159,-1.1185529824781237,1.69727866526364,-2.1495221655757537,-1.5707963705062866,0.0,-0.13835084438323975,1.1552716493606567,0.22477436065673828,-0.9996286034584045,0.027247965335845947,-2.2563535040376337e-08,1.7174070165992816e-08
193.0,1.5157489641983775,-1.1235084683317127,1.7052673999358652,-2.1525553644881916,-1.5707963705062866,0.0,-0.13799989223480225,1.1502958536148071,0.22478285431861877,-0.9996212124824524,0.02752019837498665,-2.41982220927639e-08,7.981309835258799e-08
194.0,1.515204287951539,-1.1284639541853019,1.7132561346080903,-2.1555885634006295,-1.5707963705062866,0.0,-0.13765522837638855,1.1453055143356323,0.22477605938911438,-0.9996137022972107,0.0277924295514822,-2.4157692735116143e-08,7.205264296317182e-08
195.0,1.5152573742487412,-1.12600655074667,1.7092978879960707,-2.154087802446399,-1.570796314870016,0.0,-0.13757629692554474,1.147810459136963,0.22477951645851135,-0.999614417552948,0.027765914797782898,-2.4331733072813222e-08,8.560049025163607e-08
196.0,1.5154994909366601,-1.121079132362306,1.7013490909928617,-2.151066377095342,-1.570796314870016,0.0,-0.1375756710767746,1.1528089046478271,0.2247818112373352,0.9996177554130554,-0.02764490246772766,2.0582717752404278e-08,2.8453431610842017e-08
197.0,1.5156903142666505,-1.1152483284139076,1.6913669523112167,-2.1439159911665473,-1.5709636709923431,0.0,-0.13745500147342682,1.1577794551849365,0.22464114427566528,0.9996192455291748,-0.02754935808479786,4.230438207741827e-05,0.001501233084127307
198.0,1.5155736313881012,-1.1038748396012008,1.6689526869712679,-2.111701630893836,-1.5721452367372037,0.0,-0.13659361004829407,1.162621259689331,0.2237880378961563,0.9995457530021667,-0.02759767323732376,0.00034047517692670226,0.012099960818886757
199.0,1.5154514942607216,-1.091969706053447,1.6454906845337434,-2.077981435840439,-1.5733820338378701,0.0,-0.13570228219032288,1.1674834489822388,0.22302831709384918,0.9993488192558289,-0.02763146534562111,0.000651033828034997,0.02319267950952053
200.0,1.515323597425351,-1.0795031535964767,1.6209222676436912,-2.0426710733983695,-1.5746771554652117,0.0,-0.1347799152135849,1.1723514795303345,0.22237980365753174,0.9990110993385315,-0.02764854021370411,0.0009743357659317553,0.034805625677108765
201.0,1.5151891205291645,-1.0663952195674484,1.595089850148636,-2.005544056684704,-1.5760389087574196,0.0,-0.1338222324848175,1.177227258682251,0.22186237573623657,0.9985108971595764,-0.027646195143461227,0.0013120301300659776,0.047010719776153564
202.0,1.5150471401085401,-1.0525558907330026,1.5678160387676014,-1.9663454315005593,-1.577476644983473,0.0,-0.13282464444637299,1.1821081638336182,0.2215001881122589,0.9978213906288147,-0.027621157467365265,0.001665638294070959,0.059889111667871475
203.0,1.51489662382684,-1.0378845416256894,1.5389025261944895,-1.9247901854707141,-1.579000817893084,0.0,-0.13178196549415588,1.1869879961013794,0.2213243544101715,0.9969096779823303,-0.027569321915507317,0.0020370471756905317,0.0735308825969696
204.0,1.5148143871037907,-1.0229094226665159,1.509563256886052,-1.88318190876121,-1.5805093401802712,0.0,-0.13082566857337952,1.191853404045105,0.22131288051605225,0.9958159923553467,-0.027458347380161285,0.002400614321231842,0.08712416887283325
205.0,1.5159181707404796,-1.0173632383839777,1.5014439101931096,-1.8805982392382308,-1.5803180518130193,0.0,-0.13194401562213898,1.196649432182312,0.22046804428100586,0.995830774307251,-0.02691706269979477,0.002353340620175004,0.08712554723024368
206.0,1.5166660059410855,-1.0117674760939115,1.493214803080726,-1.877957894335894,-1.5801883643601582,0.0,-0.13261960446834564,1.2015300989151,0.2196200042963028,0.9958406686782837,-0.0265502892434597,0.0023212481755763292,0.08712634444236755
207.0,1.517349808746253,-1.0061627951002883,1.484965950910158,-1.8753073539672065,-1.5800697584396477,0.0,-0.13322129845619202,1.2064101696014404,0.21875408291816711,0.9958494901657104,-0.0262149628251791,0.0022918875329196453,0.08712722361087799
208.0,1.5153713167082126,-1.0037093834902684,1.4814325870295615,-1.874246670774246,-1.580412758591972,0.0,-0.130581796169281,1.208816409111023,0.21832191944122314,0.9958235025405884,-0.02718522772192955,0.0023767342790961266,0.08712442964315414
209.0,1.511497009248878,-1.0034999852018116,1.4812571139708126,-1.8743181220475669,-1.5810844676075075,0.0,-0.12562783062458038,1.2094541788101196,0.21820873022079468,0.9957698583602905,-0.02908511646091938,0.002542968839406967,0.08712003380060196
210.0,1.5101003516873368,-1.0078429718059336,1.4876798955553778,-1.8764118527931013,-1.581326634685119,0.0,-0.12407848984003067,1.2057758569717407,0.2188706248998642,0.9957495927810669,-0.02976999059319496,0.0026028850115835667,0.08711844682693481
211.0,1.5093899577039285,-1.0134468855282093,1.495930272654945,-1.879065717861012,-1.5814498265243235,0.0,-0.12347985059022903,1.2008885145187378,0.2197290062904358,0.9957391023635864,-0.030118323862552643,0.0026334263384342194,0.0871175155043602
212.0,1.5085339497690318,-1.0190305390185463,1.504123181690978,-1.8816841502791593,-1.581598215392079,0.0,-0.12270371615886688,1.1960275173187256,0.2205815464258194,0.9957263469696045,-0.030538097023963928,0.002670113230124116,0.08711633831262589
213.0,1.5073149995210333,-1.024209802261681,1.511708438726435,-1.8841034227153712,-1.5818094611701572,0.0,-0.1214570701122284,1.1915583610534668,0.22136393189430237,0.9957078099250793,-0.031135790050029755,0.0027224572841078043,0.08711467683315277
214.0,1.5033218665962524,-1.0246877176245293,1.5125299544115278,-1.8844925780787876,-1.58250132577893,0.0,-0.11646038293838501,1.1915669441223145,0.22136390209197998,0.9956446886062622,-0.03309379890561104,0.0028936779126524925,0.08710864186286926
215.0,1.4994779983631805,-1.0251439967302323,1.5133145192685313,-1.884865238490267,-1.5831673128675634,0.0,-0.1116519495844841,1.191558599472046,0.22136390209197998,0.9955801963806152,-0.034978512674570084,0.0030585925560444593,0.08710360527038574
216.0,1.5011726237133052,-1.0208649528601919,1.5070290356630933,-1.8828385382216493,-1.5828737508726487,0.0,-0.11351875960826874,1.1951909065246582,0.22073152661323547,0.9956090450286865,-0.03414759412407875,0.0029858772177249193,0.0871061459183693
217.0,1.5020752362658214,-1.015288881330935,1.4988731717778243,-1.8802480545658216,-1.5827173841604645,0.0,-0.11431718617677689,1.2000432014465332,0.21986961364746094,0.9956241250038147,-0.03370506688952446,0.0029472007881850004,0.08710744976997375
218.0,1.5028123548111534,-1.0096861027434287,1.490621667913157,-1.8775907727563959,-1.5825895909615355,0.0,-0.1149124801158905,1.2049379348754883,0.21901986002922058,0.9956363439559937,-0.033343613147735596,0.002915543271228671,0.08710847795009613
219.0,1.5035494733564854,-1.0040833241559224,1.4823701640484896,-1.87493349094697,-1.5824617977626065,0.0,-0.11551620066165924,1.2098139524459839,0.21814943850040436,0.9956483840942383,-0.03298221156001091,0.002883882960304618,0.08710955828428268
220.0,1.5005292122255376,-1.0031129380212471,1.4810377028315405,-1.8746078818778513,-1.5829851265553947,0.0,-0.11159985512495041,1.210983395576477,0.2179398238658905,0.995598316192627,-0.03446311503648758,0.0030134900007396936,0.0871046930551529
221.0,1.4966821351830077,-1.0033486414943447,1.4815020374040604,-1.874882893628524,-1.583651734057172,0.0,-0.10669917613267899,1.211156964302063,0.21790841221809387,0.9955311417579651,-0.03634927421808243,0.0031786267645657063,0.0870993584394455
222.0,1.4958895217970944,-1.0089479020862375,1.489750346837458,-1.8775420836915004,-1.583788957196402,0.0,-0.10605747252702713,1.2062873840332031,0.2187800109386444,0.995516836643219,-0.03673788160085678,0.0032125976867973804,0.08709809184074402
223.0,1.4950969084111811,-1.0145471626781302,1.4979986562708558,-1.8802012737544769,-1.5839261803356317,0.0,-0.10542503744363785,1.201398491859436,0.21963131427764893,0.9955024123191833,-0.037126485258340836,0.0032465674448758364,0.0870969220995903
224.0,1.4942401529577176,-1.020128365733712,1.5061617763678232,-1.882794429148089,-1.5840745811383032,0.0,-0.10471794754266739,1.1965339183807373,0.2204972505569458,0.9954866766929626,-0.03754652664065361,0.003283348400145769,0.08709543198347092
225.0,1.4933752192324583,-1.025707266408882,1.5143140346143071,-1.8853791649585063,-1.584224407120629,0.0,-0.1040099710226059,1.1916561126708984,0.22134700417518616,0.9954705834388733,-0.037970591336488724,0.003320487914606929,0.0870940163731575
226.0,1.489443542531102,-1.0262164232981539,1.5151637049470643,-1.8857740648263883,-1.5849047875371243,0.0,-0.09909883141517639,1.191567063331604,0.22136372327804565,0.9953952431678772,-0.0398980975151062,0.0034889844246208668,0.08708690106868744
227.0,1.4854496923807308,-1.0266164759578167,1.5158550509568784,-1.8861213735606284,-1.585596066782476,0.0,-0.09410330653190613,1.1915606260299683,0.22136372327804565,0.9953147768974304,-0.04185594990849495,0.003660304471850395,0.08708025515079498
228.0,1.486767753538886,-1.0229100664891022,1.5104208223816835,-1.884374321212565,-1.5853678794527941,0.0,-0.09548403322696686,1.1947444677352905,0.22081364691257477,0.9953418374061584,-0.04120982065796852,0.0036037396639585495,0.08708260208368301
229.0,1.4875989132492289,-1.017328531216313,1.5022669099320218,-1.8817901019020842,-1.5852241245387575,0.0,-0.09611951559782028,1.1996231079101562,0.21995136141777039,0.9953585863113403,-0.04080238193273544,0.003568126820027828,0.08708413690328598
230.0,1.4884552422913753,-1.0117420626822544,1.494070163116805,-1.8791677182875925,-1.58507595260832,0.0,-0.0967954769730568,1.20449697971344,0.2190907895565033,0.9953757524490356,-0.04038255289196968,0.003531418042257428,0.08708563446998596
231.0,1.489335621329878,-1.006150880279886,1.4858324868743154,-1.8765088676194825,-1.584923560095899,0.0,-0.09751079231500626,1.2093653678894043,0.21823078393936157,0.9953930974006653,-0.03995097428560257,0.0034936112351715565,0.0870872437953949
232.0,1.4872766456771764,-1.004205611277409,1.48303065542214,-1.8756822020553456,-1.5852798667324322,0.0,-0.09473948180675507,1.2112623453140259,0.21789057552814484,0.9953522086143494,-0.04096035286784172,0.0035819162148982286,0.08708317577838898
233.0,1.4833452301577503,-1.0045828770887844,1.4836915882716564,-1.8760226826141873,-1.5859602270020705,0.0,-0.08974382281303406,1.211257815361023,0.2178906500339508,0.9952709674835205,-0.042887523770332336,0.0037505989894270897,0.087076336145401
234.0,1.4818459399859656,-1.0092518515113456,1.4905903754500625,-1.8782747463354283,-1.5862195960086491,0.0,-0.08819545060396194,1.2072556018829346,0.21860402822494507,0.9952389597892761,-0.0436224490404129,0.003814846044406295,0.08707370609045029
235.0,1.4808857368480361,-1.0148302734273185,1.498800009400731,-1.8809205687696746,-1.5863856579432745,0.0,-0.08741740882396698,1.202392816543579,0.21945708990097046,0.9952182769775391,-0.044093139469623566,0.0038560007233172655,0.08707200735807419
236.0,1.4800550565552273,-1.020412218168983,1.5069555497241434,-1.8835070434399477,-1.5865293363505013,0.0,-0.08681277185678482,1.1975171566009521,0.22032824158668518,0.9952001571655273,-0.044500283896923065,0.003891673171892762,0.08707035332918167
237.0,1.4792243762624184,-1.0259941629106477,1.515111090047556,-1.886093518110221,-1.5866730147577282,0.0,-0.08621789515018463,1.1926229000091553,0.22117879986763,0.9951818585395813,-0.04490749165415764,0.003927281126379967,0.08706875890493393
238.0,1.4759521521884946,-1.0346915531463705,1.5313793929803186,-1.9063944171937033,-1.5857064526114952,0.0,-0.08305113762617111,1.1891229152679443,0.22134631872177124,0.9956382513046265,-0.04665018245577812,0.0036085399333387613,0.08071736991405487
239.0,1.472597992294535,-1.0467438685296715,1.5547582033741336,-1.938434698321756,-1.583789226791071,0.0,-0.08024337142705917,1.1849970817565918,0.22140952944755554,0.9963369965553284,-0.04850253462791443,0.003030712716281414,0.07036242634057999
240.0,1.4693293457722771,-1.0584889134912212,1.5775409775125664,-1.9696581214119842,-1.5819208801086129,0.0,-0.0775531455874443,1.180790901184082,0.22157983481884003,0.9969119429588318,-0.050285760313272476,0.0024994094856083393,0.06026230752468109
241.0,1.466144192495056,-1.0699339468393205,1.5997417958687499,-2.000083983524846,-1.5801002578669319,0.0,-0.07497696578502655,1.1765153408050537,0.2218482494354248,0.9973716139793396,-0.05200217291712761,0.002012153621762991,0.050412699580192566
242.0,1.463046102864313,-1.0810661392499128,1.6213357724083373,-2.0296781787531875,-1.5783294008947446,0.0,-0.07251585274934769,1.1721878051757812,0.22220589220523834,0.9977235198020935,-0.05365109071135521,0.001567260711453855,0.040826018899679184
243.0,1.4600207899092552,-1.0919368272970764,1.6424224886634629,-2.0585771819745164,-1.576600142810553,0.0,-0.07015681266784668,1.167799711227417,0.22264620661735535,0.9979766011238098,-0.055241186171770096,0.0011606985935941339,0.03145955502986908
244.0,1.4570775022279623,-1.1025127785099598,1.6629374810343747,-2.086692646869076,-1.5749177700800003,0.0,-0.06790512055158615,1.163375735282898,0.223160058259964,0.9981369376182556,-0.05676877126097679,0.0007917502080090344,0.022343439981341362
245.0,1.4542009313664808,-1.112848999901023,1.682987450887053,-2.114170805931384,-1.5732735324454603,0.0,-0.0657472014427185,1.1589043140411377,0.22374337911605835,0.9982119202613831,-0.05824284255504608,0.0004567177384160459,0.013431025668978691
246.0,1.4513957546415475,-1.122928684729309,1.702539796883277,-2.140966979555244,-1.5716701034444813,0.0,-0.06368479877710342,1.1544020175933838,0.22438880801200867,0.9982073307037354,-0.059662096202373505,0.0001544500992167741,0.004737889394164085
247.0,1.450844078147706,-1.1237470575606907,1.7041219061867856,-2.143096110769148,-1.5716015328714807,0.0,-0.06312324106693268,1.1540343761444092,0.22444136440753937,0.9981938004493713,-0.05993806943297386,0.0001598578382981941,0.004054343793541193
248.0,1.453071249419901,-1.1130909897172592,1.6834393051976737,-2.1146617542960895,-1.57343710115966,0.0,-0.064393550157547,1.1588120460510254,0.22374892234802246,0.9981806874275208,-0.05880589410662651,0.0005390293663367629,0.013295779004693031
249.0,1.4553711195208692,-1.1020870888799241,1.6620815873521886,-2.085299249890129,-1.575332585659201,0.0,-0.06574678421020508,1.1635842323303223,0.2231242060661316,0.9980772733688354,-0.05761399120092392,0.0009519212762825191,0.02283666841685772
250.0,1.4577434943716514,-1.0907362836340067,1.6400505549623996,-2.055011075362635,-1.577287826416001,0.0,-0.06718549132347107,1.1683355569839478,0.22257666289806366,0.9978746175765991,-0.05636061355471611,0.0014002182288095355,0.03267516568303108
251.0,1.4601958791522525,-1.0790026648833797,1.6172765112585423,-2.023701411875466,-1.579309008976087,0.0,-0.0687168538570404,1.1730657815933228,0.22211521863937378,0.9975628852844238,-0.055039845407009125,0.00188742158934474,0.04284089058637619
252.0,1.4627386660667983,-1.0668365103486694,1.593662949153794,-1.9912375818746562,-1.5814046982848566,0.0,-0.07035045325756073,1.1777771711349487,0.22174972295761108,0.9971296191215515,-0.05364382639527321,0.00241778208874166,0.05337521806359291
253.0,1.4653728524025103,-1.054233048434434,1.56920060735158,-1.9576068529670054,-1.5835757162767612,0.0,-0.0720902532339096,1.1824524402618408,0.2214934527873993,0.9965627789497375,-0.0521695539355278,0.0029939396772533655,0.06428035348653793
254.0,1.4681072876446997,-1.0411499381150722,1.5438073052060155,-1.9226962435318011,-1.5858293564342583,0.0,-0.0739455372095108,1.1870859861373901,0.22135990858078003,0.9958471059799194,-0.05060945451259613,0.003620424075052142,0.07559064030647278
255.0,1.4709472828062493,-1.0277696095572564,1.5178889706155823,-1.8872312073878215,-1.5881040153292698,0.0,-0.07594992965459824,1.1916520595550537,0.22134719789028168,0.9949904680252075,-0.0489642433822155,0.00428222818300128,0.08705206215381622
256.0,1.472601798015737,-1.0226124684654898,1.5103472017388007,-1.8848265209422663,-1.5878172944079028,0.0,-0.07758047431707382,1.1961212158203125,0.22057071328163147,0.9950303435325623,-0.048153460025787354,0.004211108200252056,0.08705157786607742
257.0,1.473458774845093,-1.0170372459968684,1.502200469280967,-1.8822540626784534,-1.5876678884763817,0.0,-0.0781802237033844,1.2010066509246826,0.2197103500366211,0.9950511455535889,-0.04773358628153801,0.004174069967120886,0.08704667538404465
258.0,1.4743979964340037,-1.011468210648791,1.4940397217578076,-1.8796558706022557,-1.5875046805253592,0.0,-0.07889474928379059,1.2058674097061157,0.21884459257125854,0.9950736165046692,-0.04727334901690483,0.0041335332207381725,0.08704408258199692
259.0,1.4755102702687874,-1.005912193699836,1.4858494849572301,-1.8770035316837277,-1.5873124315693508,0.0,-0.07984080165624619,1.210697054862976,0.2179907262325287,0.9950993657112122,-0.0467282235622406,0.004085892345756292,0.08704628795385361
260.0,1.4721609815903465,-1.0055411427763294,1.4853813810363656,-1.8769629017304723,-1.5878910938298014,0.0,-0.07552965730428696,1.2112605571746826,0.21789094805717468,0.9950209856033325,-0.04836977273225784,0.004229400772601366,0.08703890442848206
261.0,1.4684942507948546,-1.0063627266387034,1.4866730923972404,-1.8774948266774245,-1.5885246233542099,0.0,-0.07091783732175827,1.2107775211334229,0.2179757058620453,0.9949318766593933,-0.050166718661785126,0.004386553540825844,0.08703169971704483
262.0,1.4672172710166103,-1.011881223157351,1.4948111363639354,-1.8801368860222438,-1.5887453795391437,0.0,-0.06979309767484665,1.2059837579727173,0.21882107853889465,0.994900107383728,-0.050792500376701355,0.0044413972645998,0.08702890574932098
263.0,1.466291077347828,-1.0174530754220075,1.502968259055377,-1.8827386810314597,-1.5889052782584097,0.0,-0.06913052499294281,1.2011191844940186,0.2196919322013855,0.9948768019676208,-0.05124640837311745,0.004481108393520117,0.08702681958675385
264.0,1.465407546287776,-1.023031416812812,1.5111277021014358,-1.8853355790919384,-1.589057775492337,0.0,-0.06853330135345459,1.1962300539016724,0.22054779529571533,0.9948544502258301,-0.05167940631508827,0.004518924746662378,0.08702482283115387
265.0,1.4636841666495446,-1.0282964761648947,1.518806720084409,-1.887799030078155,-1.589353351264272,0.0,-0.06685871630907059,1.191673994064331,0.22135503590106964,0.9948110580444336,-0.05252408608794212,0.00459227105602622,0.08701182156801224
266.0,1.461463483121259,-1.0333760302001993,1.52620126148558,-1.8901834623568674,-1.5897336488722413,0.0,-0.06455892324447632,1.187307596206665,0.2221277952194214,0.9947541356086731,-0.0536126010119915,0.004686709027737379,0.08699256181716919
267.0,1.4592749860102425,-1.0396770951803989,1.5363013469479703,-1.8973627900664831,-1.589708458170263,0.0,-0.06248248368501663,1.182871699333191,0.222763329744339,0.9948388934135437,-0.05472613498568535,0.004674225114285946,0.0853157564997673
268.0,1.4574487436915722,-1.0569061503354023,1.5707277099833827,-1.9479926437178448,-1.5859904361567436,0.0,-0.06235559284687042,1.1778830289840698,0.22246535122394562,0.9960663914680481,-0.05599198862910271,0.003700746688991785,0.06857725232839584
269.0,1.455760133532032,-1.0728367622134598,1.6025595790531733,-1.9948068503418492,-1.5825526175927784,0.0,-0.06229852885007858,1.1728947162628174,0.22249475121498108,0.9969526529312134,-0.057095080614089966,0.002823181450366974,0.05308070778846741
270.0,1.4541836205570224,-1.087709831751566,1.6322783121330364,-2.038513329152568,-1.5793430161692654,0.0,-0.06229996681213379,1.1679049730300903,0.2227841317653656,0.9975641369819641,-0.058065902441740036,0.002024268265813589,0.03859948366880417
271.0,1.4527056703602164,-1.1016530446520656,1.6601390453464444,-2.0794873014470996,-1.5763340773715864,0.0,-0.0623512826859951,1.1629302501678467,0.223283588886261,0.9979481101036072,-0.05892372131347656,0.001294140238314867,0.025014813989400864
272.0,1.4513145658679378,-1.1147769416173336,1.6863626564093217,-2.1180536056761574,-1.5735019465680666,0.0,-0.06244562938809395,1.1579809188842773,0.22395333647727966,0.9981421828269958,-0.05968444421887398,0.0006240499787963927,0.012222890742123127
273.0,1.4499975135113892,-1.127202219172794,1.7111903159699688,-2.154566924517545,-1.5708205775051862,0.0,-0.06257741898298264,1.153052568435669,0.22476398944854736,0.9981764554977417,-0.060362670570611954,5.538612640521023e-06,0.000109225555206649
274.0,1.449140575090304,-1.132272422687618,1.7192329783686622,-2.1577570426460406,-1.5707963705062866,0.0,-0.06221320107579231,1.1480793952941895,0.2248591035604477,-0.9981504678726196,0.06079037860035896,-2.7297963001160497e-08,6.91849351142082e-08
275.0,1.4482877246395474,-1.137276229269654,1.7271236874022073,-2.160643934311547,-1.5707963705062866,0.0,-0.061854537576436996,1.1430927515029907,0.22493082284927368,0.9981244802474976,-0.061215996742248535,1.9494263980845972e-08,4.7578218698163255e-08
276.0,1.4474381231039408,-1.1422609739598915,1.7349843369521678,-2.163519828426357,-1.5707963705062866,0.0,-0.061507418751716614,1.1381114721298218,0.22498629987239838,-0.9980983734130859,0.061639994382858276,-3.0001054085460055e-08,1.2550580663628352e-07
277.0,1.4465904032774,-1.14723467836962,1.7428275766283219,-2.166389352971667,-1.5707963705062866,0.0,-0.061171285808086395,1.1331276893615723,0.22502551972866058,-0.9980722069740295,0.06206303462386131,-3.0732152822565695e-08,1.4778306933749263e-07
278.0,1.4457439885256922,-1.1522007257017985,1.7506587415429915,-2.1692544598495482,-1.5707963705062866,0.0,-0.06084590032696724,1.1281380653381348,0.22504852712154388,-0.9980458617210388,0.06248541176319122,-2.6690562648923333e-08,8.053552846831735e-08
279.0,1.444901262118469,-1.157145132941752,1.7584557813034591,-2.172107081712099,-1.5707963705062866,0.0,-0.06053192541003227,1.123157262802124,0.22505545616149902,-0.9980194568634033,0.06290598958730698,-2.2572040236923385e-08,5.630486299423865e-09
280.0,1.4440585357112459,-1.1620895401817048,1.7662528210639266,-2.1749597035746495,-1.5707963705062866,0.0,-0.06022820994257927,1.1181634664535522,0.22504663467407227,-0.9979928135871887,0.06332648545503616,-2.411392507895016e-08,3.339249232681141e-08
281.0,1.4432201221747247,-1.1670086431367312,1.7740099574535528,-2.177797726405831,-1.5707963705062866,0.0,-0.05993605777621269,1.1131824254989624,0.2250218689441681,-0.9979662299156189,0.06374484300613403,-2.6422215526622495e-08,6.50563336535015e-08
282.0,1.4423823223751853,-1.1719241452011833,1.7817614154502763,-2.1806336717424455,-1.5707963705062866,0.0,-0.05965416505932808,1.1081924438476562,0.22498129308223724,-0.9979394674301147,0.06416288763284683,-2.782429930903163e-08,8.708494192433136e-08
283.0,1.4415468103430926,-1.176826224577289,1.7894917066559868,-2.183461873005327,-1.5707963705062866,0.0,-0.05938305705785751,1.103203535079956,0.22492527961730957,-0.9979124665260315,0.06457977741956711,-2.806412346956222e-08,7.207813723653089e-08
284.0,1.4407138222483784,-1.1817134956192281,1.797198645988626,-2.186281530761224,-1.5707963705062866,0.0,-0.05912273749709129,1.0982176065444946,0.22485345602035522,0.9978855848312378,-0.06499543786048889,1.888777667602426e-08,2.8464548051942984e-08
285.0,1.4398617631449389,-1.1866034323732315,1.8048978745192563,-2.189090808140397,-1.5707963690705848,0.0,-0.05885135009884834,1.0932228565216064,0.22477319836616516,0.9978578090667725,-0.06542052328586578,2.0963254243611118e-08,3.391993530499349e-08
286.0,1.4387193331947115,-1.1915339566535945,1.8124797001300414,-2.1917420362615205,-1.570796345775213,0.0,-0.05826963484287262,1.0882673263549805,0.22478348016738892,0.997820258140564,-0.06599047780036926,1.3523478337162942e-08,1.1473009919882315e-07
287.0,1.4375769032444838,-1.1964644809339577,1.8200615257408268,-2.1943932643826445,-1.5707963224798411,0.0,-0.05770076811313629,1.083299994468689,0.22477751970291138,0.9977824091911316,-0.06656046956777573,1.496583834637022e-08,1.0269101125004454e-07
288.0,1.4341485519083153,-1.1978388012332766,1.822176405243412,-2.1951338443604262,-1.570796314870016,0.0,-0.054179683327674866,1.0820866823196411,0.22477197647094727,0.9976667761802673,-0.0682707354426384,1.975375063523188e-08,3.462199060777493e-08
289.0,1.4296111884054525,-1.197487833206199,1.8216390020446132,-2.1949474755593608,-1.570796314870016,0.0,-0.04921853542327881,1.0826786756515503,0.22477185726165771,0.9975093007087708,-0.07053393125534058,2.179137581492796e-08,2.6611829184730595e-08
290.0,1.4300822677849132,-1.1931215995821332,1.8149220155624175,-2.192596687215703,-1.5707963352347565,0.0,-0.04909733682870865,1.0871119499206543,0.2247828245162964,0.9975259304046631,-0.07029896974563599,1.8289195935494718e-08,5.774667499736097e-08
291.0,1.4312543612152244,-1.1881933634220463,1.8073400946461382,-2.1899429527175336,-1.5707963584498779,0.0,-0.04966641589999199,1.0920735597610474,0.22477960586547852,0.9975669980049133,-0.06971437484025955,9.115799670667002e-09,1.7446063793613575e-07
292.0,1.43241414296718,-1.183265329694772,1.799726733049659,-2.187257610174326,-1.570796359347574,0.0,-0.050233542919158936,1.0970370769500732,0.22477936744689941,0.9976071715354919,-0.0691358670592308,1.5671071551537352e-08,7.899981824266433e-08
293.0,1.4335606225908273,-1.178337514685626,1.7920794014330033,-2.1845381167819373,-1.5707963361324526,0.0,-0.05079727992415428,1.1020033359527588,0.2247830033302307,0.997646689414978,-0.0685640200972557,1.646378144926075e-08,4.301114131521899e-08
294.0,1.4347050295261519,-1.1734095640053182,1.7844264104995335,-2.1818131019752656,-1.570796312638706,0.0,-0.05137156695127487,1.1069601774215698,0.22477339208126068,0.9976857900619507,-0.0679931566119194,1.548862726963307e-08,1.1013187162234317e-07
295.0,1.4358268673256052,-1.1684801360257668,1.7767117962680974,-2.1790279654668434,-1.5707962861110576,0.0,-0.051930420100688934,1.1119316816329956,0.22478339076042175,-0.9977236986160278,0.06743349879980087,3.749003596453804e-08,1.2474989041777462e-08
296.0,1.4369487051250587,-1.163550708046216,1.7689971820366615,-2.176242828958422,-1.570796259583409,0.0,-0.05250201001763344,1.1168906688690186,0.2247772216796875,-0.9977613687515259,0.06687388569116592,3.5424378097559384e-08,2.9381382660176314e-08
297.0,1.4380540925231742,-1.1586189883214046,1.7612350910526744,-2.173412491478793,-1.5707962695382336,0.0,-0.05306549742817879,1.1218578815460205,0.22478125989437103,-0.9977982044219971,0.06632240116596222,3.4515355906705736e-08,7.04562665987396e-08
298.0,1.439152007028629,-1.1536862275298145,1.7534514328942212,-2.170561620639578,-1.5707962960658821,0.0,-0.05363208055496216,1.1268219947814941,0.2247815728187561,-0.9978345036506653,0.06577464193105698,3.543454596410811e-08,2.2864856674686962e-08
299.0,1.4402431508762268,-1.1487519601914944,1.7456471822977853,-2.1676916417030947,-1.570796314870016,0.0,-0.054202478379011154,1.131782054901123,0.22477686405181885,-0.9978702068328857,0.06523024290800095,-2.5980636308986504e-08,5.3455853077366555e-08
300.0,1.4413178104723998,-1.1438140249237632,1.7377927961115256,-2.1647751410420932,-1.570796314870016,0.0,-0.0547640398144722,1.1367515325546265,0.22478309273719788,0.9979050755500793,-0.06469404697418213,1.833116058946871e-08,3.973633511122898e-08
301.0,1.442392470068573,-1.1388760896560322,1.7299384099252657,-2.1618586403810918,-1.570796314870016,0.0,-0.05533808469772339,1.1417070627212524,0.22477369010448456,0.9979397654533386,-0.06415783613920212,2.1249638493259226e-08,2.2480273642599968e-08
302.0,1.4434470297393578,-1.1339319238450225,1.7220186784241975,-2.1588831347180992,-1.570796314870016,0.0,-0.05589793249964714,1.1466786861419678,0.22478225827217102,0.9979734420776367,-0.06363163888454437,1.8368277565627977e-08,2.9779753774050732e-08
303.0,1.4444992217888384,-1.1289870241224822,1.7140912497323928,-2.1559006787059336,-1.570796314870016,0.0,-0.056467026472091675,1.151639699935913,0.224779412150383,-0.9980067610740662,0.06310657411813736,-2.6239556305540646e-08,7.829829939964839e-08
304.0,1.445774546644513,-1.1203880963496622,1.6979143250642483,-2.1364945114690497,-1.5721532189514191,0.0,-0.05677506700158119,1.15657639503479,0.22433960437774658,0.9980294108390808,-0.06246507167816162,0.00030765379779040813,0.0059448652900755405
305.0,1.4473345545020857,-1.107617077632265,1.6724473506174582,-2.0991034102245116,-1.57498618795936,0.0,-0.05684711039066315,1.161511778831482,0.2235688865184784,0.9979289174079895,-0.0616430900990963,0.0009640824282541871,0.018354957923293114
306.0,1.4489856902239986,-1.0941000398127747,1.645492722771183,-2.0595281076727803,-1.577984644861597,0.0,-0.056973524391651154,1.1664677858352661,0.22294963896274567,0.9976563453674316,-0.06072501838207245,0.0016790601657703519,0.03148571774363518
307.0,1.450743284840727,-1.0797114752687733,1.6168001639646643,-2.0174011414899313,-1.5811764307577674,0.0,-0.057162556797266006,1.1714457273483276,0.22251465916633606,0.9971781969070435,-0.05969397351145744,0.002462240867316723,0.04545549675822258
308.0,1.4526205591873567,-1.0643431515118635,1.586153845368791,-1.9724056276417952,-1.5845855546397971,0.0,-0.05742378532886505,1.1764296293258667,0.22230777144432068,0.9964531660079956,-0.05853210762143135,0.0033231584820896387,0.06036469712853432
309.0,1.4546390214291545,-1.0478189917486758,1.5532026483064514,-1.9240260469397004,-1.5882510752632697,0.0,-0.05777044594287872,1.181411623954773,0.2223850041627884,0.9954268336296082,-0.057213686406612396,0.004275831859558821,0.07637766748666763
310.0,1.4563246690782874,-1.0347783493897798,1.5283386230822331,-1.8910296128901092,-1.5906189234925405,0.0,-0.058257635682821274,1.1863467693328857,0.22229060530662537,0.994615912437439,-0.056130629032850266,0.004906690213829279,0.08697393536567688
311.0,1.4572513419138438,-1.0292054595272917,1.5202514774021818,-1.888465857932939,-1.590462580323006,0.0,-0.058854248374700546,1.191235899925232,0.2214345782995224,0.994640052318573,-0.05567625164985657,0.004867782350629568,0.08699189871549606
312.0,1.4581761104599031,-1.0236321550693062,1.512155966167139,-1.8858977498606662,-1.5903061692794456,0.0,-0.059459347277879715,1.1961115598678589,0.22056317329406738,0.9946641325950623,-0.055222779512405396,0.004828920587897301,0.08700815588235855
313.0,1.4590857832196347,-1.0180555640075502,1.5039941390537284,-1.8832951335397483,-1.5901492201812522,0.0,-0.06005359813570976,1.2010058164596558,0.21971285343170166,0.9946886897087097,-0.054777052253484726,0.004789922386407852,0.08701024949550629
314.0,1.459995455979366,-1.0124789729457944,1.495832311940318,-1.8806925172188307,-1.5899922710830585,0.0,-0.06065882369875908,1.2058814764022827,0.21884173154830933,0.9947131276130676,-0.05433132126927376,0.004750982858240604,0.08701250702142715
315.0,1.4614078035852165,-1.0070112206182706,1.4877749416686155,-1.8780766408334622,-1.5897484850068113,0.0,-0.06192591041326523,1.2106304168701172,0.21800178289413452,0.9947507381439209,-0.053639329969882965,0.0046904501505196095,0.08701562881469727
316.0,1.4581966901683245,-1.0064927167835258,1.4870734818869662,-1.8779553316245918,-1.5903025642824158,0.0,-0.057772066444158554,1.2112611532211304,0.21789073944091797,0.9946646690368652,-0.055212732404470444,0.004828049801290035,0.08700768649578094
317.0,1.454442273146033,-1.0071420997188165,1.4880993035448735,-1.8784038331182238,-1.590950386259569,0.0,-0.053040482103824615,1.2108746767044067,0.21795792877674103,0.9945608377456665,-0.057052165269851685,0.004988956265151501,0.08699931204319
318.0,1.4528991919365821,-1.0125336891453067,1.4960384442387298,-1.8809811634034062,-1.5912157531608495,0.0,-0.05163232982158661,1.2061926126480103,0.21879062056541443,0.9945170879364014,-0.057808153331279755,0.005054677836596966,0.08699589967727661
319.0,1.451962642316704,-1.018107085519499,1.5041999256036545,-1.883584579269412,-1.5913750840533827,0.0,-0.05102848634123802,1.2013136148452759,0.2196579873561859,0.9944902062416077,-0.05826708301901817,0.005093647167086601,0.08699531853199005
320.0,1.4510249577572096,-1.0236765268576453,1.5123491833224263,-1.8861717816313808,-1.5915347454530782,0.0,-0.05043448135256767,1.1964191198349,0.22050794959068298,0.9944627285003662,-0.05872639641165733,0.005132459569722414,0.08699866384267807
321.0,1.4500699822539826,-1.029185712738365,1.520312212298449,-1.8885119692782084,-1.5916994421697785,0.0,-0.04982458055019379,1.1915446519851685,0.22138065099716187,0.9944292306900024,-0.05919317901134491,0.0051693664863705635,0.08706244826316833
322.0,1.4491150067507554,-1.034694898619085,1.5282752412744718,-1.8908521569250363,-1.5918641388864787,0.0,-0.04922616481781006,1.1866531372070312,0.22223277390003204,0.9943956136703491,-0.05965995416045189,0.0052061527967453,0.08712636679410934
323.0,1.4471245692214072,-1.0498364315669826,1.557818559900722,-1.932343415837604,-1.5886000933976754,0.0,-0.048768479377031326,1.181701421737671,0.22216936945915222,0.9954155087471008,-0.060978520661592484,0.004340556915849447,0.07355805486440659
324.0,1.4450302933432901,-1.0661666463694173,1.5903140830552394,-1.9799896596515638,-1.584772613100181,0.0,-0.04843395575881004,1.1767187118530273,0.22218608856201172,0.9963762760162354,-0.06233561411499977,0.00335287326015532,0.05776888132095337
325.0,1.4430788637856984,-1.0813830102593283,1.6205931523200505,-2.0243860495724455,-1.581206197490053,0.0,-0.048185572028160095,1.1717345714569092,0.22247150540351868,0.997048020362854,-0.06353368610143661,0.0024584706407040358,0.04304114729166031
326.0,1.4412546382297309,-1.09560749495512,1.6488984794321138,-2.0658884593167794,-1.5778722588019325,0.0,-0.048011161386966705,1.166771411895752,0.22297215461730957,0.9974809885025024,-0.0645950436592102,0.0016458528116345406,0.029263045638799667
327.0,1.43953648712828,-1.1090048590955863,1.675557917896519,-2.1049776008880157,-1.5747321808601316,0.0,-0.04790009558200836,1.1618239879608154,0.22364789247512817,0.99771648645401,-0.0655423253774643,0.0009019644348882139,0.01627936027944088
328.0,1.437911192366568,-1.1216781715533006,1.7007765646440614,-2.1419541956601016,-1.5717618063535659,0.0,-0.04784425348043442,1.1568959951400757,0.22446776926517487,0.9977856278419495,-0.06639125943183899,0.00021808792371302843,0.003993576392531395
329.0,1.4366617894518843,-1.1290840774186996,1.7142447997316146,-2.155957163513943,-1.5707963550688426,0.0,-0.0474526584148407,1.151949405670166,0.2247808426618576,-0.997751772403717,0.06701697409152985,-2.7984787820400925e-08,9.466971562233084e-08
330.0,1.435577314859024,-1.1340268382362084,1.7221723776493514,-2.158941907657072,-1.5707963318537213,0.0,-0.046885423362255096,1.1469861268997192,0.22478143870830536,-0.9977152943611145,0.06755802035331726,-2.885922434359145e-08,1.0264641758794824e-07
331.0,1.4344866465571398,-1.138967689105637,1.7300803590240723,-2.1619089910201152,-1.57079632110168,0.0,-0.04632282257080078,1.1420177221298218,0.22477617859840393,-0.997678279876709,0.06810208410024643,-2.3640900792543107e-08,3.790299984984813e-08
332.0,1.4333790973199365,-1.1439033344173162,1.737934930079737,-2.164827939980147,-1.570796344317726,0.0,-0.04575057700276375,1.1370598077774048,0.22478318214416504,0.9976404309272766,-0.06865458190441132,1.9541046114568417e-08,3.004128146244511e-08
333.0,1.4322715480827335,-1.1488389797289948,1.7457895011354014,-2.1677468889401785,-1.570796367533772,0.0,-0.04519139230251312,1.1320880651474,0.2247740477323532,0.9976022839546204,-0.06920699030160904,2.0996676397544434e-08,2.6324746826844603e-08
334.0,1.4311432314982895,-1.1537698352741845,1.7535819301289974,-2.1706084451181726,-1.57079635026336,0.0,-0.04461788013577461,1.1271311044692993,0.22478245198726654,-0.9975631237030029,0.06976979225873947,-2.5407134174315615e-08,6.848822664551335e-08
335.0,1.4300118654832061,-1.1586999875008175,1.7613652343217283,-2.1734615738689183,-1.5707963270480074,0.0,-0.04405340924859047,1.1221649646759033,0.22477969527244568,-0.9975234270095825,0.07033409923315048,-2.8014170538881444e-08,5.719411078075609e-08
336.0,1.428868791515941,-1.1636284953174658,1.7691157370077748,-2.1762835329110772,-1.5707963259073767,0.0,-0.04348709434270859,1.1172007322311401,0.22477924823760986,-0.9974830746650696,0.07090423256158829,-2.3327759279823113e-08,4.5347485766455975e-09
337.0,1.4277127996650896,-1.1685551887863603,1.776830048390832,-2.179071101082767,-1.5707963491227293,0.0,-0.04291750118136406,1.1122398376464844,0.22478270530700684,0.9974420070648193,-0.07148074358701706,1.908737168321295e-08,2.9253872213530485e-08
338.0,1.4265548093715124,-1.1734817545095202,1.7845390553868286,-2.1818534983698483,-1.5707963686744733,0.0,-0.042358651757240295,1.1072685718536377,0.2247733473777771,0.9974003434181213,-0.07205825299024582,1.5053343460635915e-08,8.874854273699384e-08
339.0,1.4253734901520168,-1.1784068289861496,1.79218614134242,-2.1845755330643937,-1.5707963454588896,0.0,-0.04178362712264061,1.1023123264312744,0.22478356957435608,0.9973576664924622,-0.07264739274978638,1.8422136704998593e-08,4.4818055044970606e-08
340.0,1.4241921709325212,-1.1833319034627792,1.7998332272980115,-2.1872975677589395,-1.570796322243306,0.0,-0.04122231528162956,1.097343921661377,0.2247772067785263,0.9973145723342896,-0.07323643565177917,2.0148695156763097e-08,4.6837907774488485e-08
341.0,1.423865724941052,-1.181590939057114,1.7970854785251396,-2.1862907856872456,-1.570796314870016,0.0,-0.04059863090515137,1.099150538444519,0.22480779886245728,0.9973026514053345,-0.07339926064014435,1.501038404683186e-08,9.711865800454689e-08
342.0,1.4239371524097715,-1.1767474796043484,1.789499785685343,-2.1835485448591485,-1.570796314870016,0.0,-0.039944060146808624,1.1041041612625122,0.2248472422361374,0.9973052740097046,-0.07336358726024628,1.6170599081988257e-08,8.655042904592847e-08
343.0,1.4240086639809495,-1.1718983172076733,1.7819051610518144,-2.180803075172468,-1.570796314870016,0.0,-0.03929099440574646,1.1090517044067383,0.22487151622772217,0.9973078966140747,-0.07332798838615417,1.7202179236619486e-08,2.2982312941621785e-08
344.0,1.4240805338805258,-1.1670248567489339,1.7742724814624802,-2.178043848554716,-1.570796314870016,0.0,-0.03863731399178505,1.114011526107788,0.22488003969192505,0.9973104596138,-0.07329213619232178,2.0463506444912127e-08,4.0811585222400026e-08
345.0,1.424152403780102,-1.1621513962901946,1.7666398018731462,-2.1752846219369646,-1.570796314870016,0.0,-0.03798621892929077,1.1189590692520142,0.22487294673919678,0.9973130822181702,-0.07325629144906998,1.9446929400146473e-08,3.423364702825893e-08
346.0,1.4242245991215106,-1.1572558677903129,1.7589725599253752,-2.1725129009680146,-1.570796314870016,0.0,-0.03733474761247635,1.123916745185852,0.22484993934631348,-0.9973157048225403,0.07322026789188385,-2.644085483893832e-08,4.575945666829284e-08
347.0,1.4242969253799347,-1.1523514618757895,1.7512914144152143,-2.1697361538376785,-1.570796314870016,0.0,-0.03668474033474922,1.1288702487945557,0.22481124103069305,0.9973183870315552,-0.07318418473005295,1.8697797088407242e-08,5.563153848697766e-08
348.0,1.4246381129678494,-1.1474398910839616,1.743566660937751,-2.166922990563958,-1.5707963207154394,0.0,-0.036339156329631805,1.1338218450546265,0.22477605938911438,0.9973308444023132,-0.07301405072212219,1.7061800861029042e-08,5.138736014487222e-08
349.0,1.4257782336581328,-1.142507029548449,1.7357123244939643,-2.164001615140629,-1.5707963439307917,0.0,-0.03689983859658241,1.138791561126709,0.22478322684764862,-0.9973723888397217,0.07244550436735153,-2.759295014698182e-08,7.784093725149432e-08
350.0,1.4269183543484163,-1.137574168012936,1.7278579880501772,-2.1610802397173003,-1.5707963671461442,0.0,-0.03747393563389778,1.1437478065490723,0.22477447986602783,0.9974134564399719,-0.07187692821025848,2.1273068639970916e-08,1.079530909109394e-09
351.0,1.4280382142939287,-1.132634860292827,1.7199408759381156,-2.1581023646380477,-1.5707963506508789,0.0,-0.038034118711948395,1.1487184762954712,0.2247820347547531,0.9974535703659058,-0.07131844013929367,1.6469808628016835e-08,7.129673207373344e-08
352.0,1.429154645467577,-1.1276944616702547,1.7120131401571046,-2.1551149279936728,-1.5707963274352952,0.0,-0.03860284388065338,1.1536800861358643,0.2247796654701233,0.9974932074546814,-0.07076165825128555,2.0364122832461362e-08,3.7087175996930455e-08
353.0,1.430519339459688,-1.1193766315956304,1.6965134329587153,-2.137088977971571,-1.572194060547382,0.0,-0.038924556225538254,1.158616304397583,0.22434982657432556,0.9975266456604004,-0.07007617503404617,0.00031717942329123616,0.005457649473100901
354.0,1.4322391529262564,-1.1066123163369774,1.6711631801165947,-2.0999779505224354,-1.5753552352171807,0.0,-0.038981132209300995,1.1635427474975586,0.22352173924446106,0.9974454045295715,-0.0691719576716423,0.0010495377937331796,0.017799012362957
355.0,1.4340569717042935,-1.0931206136511802,1.6443683174525892,-2.0607521136042535,-1.5786965526257963,0.0,-0.039096176624298096,1.1684874296188354,0.2228386104106903,0.9971957206726074,-0.06816304475069046,0.0018457729602232575,0.03083907440304756
356.0,1.4359915851246259,-1.078762070657551,1.6158518880196666,-2.019006021286067,-1.5822525492842072,0.0,-0.03927861899137497,1.1734575033187866,0.22233091294765472,0.9967449903488159,-0.06702987849712372,0.002717341063544154,0.04470926523208618
357.0,1.4380585111895374,-1.0634215140089833,1.5853851546383808,-1.9744048180617837,-1.586051748701911,0.0,-0.039539363235235214,1.1784402132034302,0.22204038500785828,0.996052622795105,-0.0657520517706871,0.003675231011584401,0.05951610952615738
358.0,1.4402769443685188,-1.0469564839186662,1.5526851885701107,-1.926534315708094,-1.5901294320718589,0.0,-0.039891503751277924,1.18341863155365,0.2220209538936615,0.9950671792030334,-0.06430429965257645,0.004732799716293812,0.07539062947034836
359.0,1.4422056720856553,-1.033179575723553,1.5262595782244954,-1.890774199938836,-1.593054397711635,0.0,-0.04037926346063614,1.1883634328842163,0.22193366289138794,0.9941985607147217,-0.06304655224084854,0.00551053648814559,0.08697143942117691
360.0,1.443184213281159,-1.0276231681235521,1.5181921433306722,-1.8882418954306444,-1.5928858899005585,0.0,-0.04097554832696915,1.193253517150879,0.22107914090156555,0.9942288398742676,-0.06256724148988724,0.005468611139804125,0.08697404712438583
361.0,1.4441619161583992,-1.0220659964978078,1.5101197164276745,-1.8857055838486139,-1.5927176364733384,0.0,-0.04158211499452591,1.1981282234191895,0.2202063798904419,0.9942587614059448,-0.06208837404847145,0.005426831543445587,0.08697658777236938
362.0,1.445124274749299,-1.0164948404102008,1.5019559175224948,-1.8830959281787145,-1.5925540391998814,0.0,-0.042175594717264175,1.203023076057434,0.21935701370239258,0.9942882657051086,-0.0616169273853302,0.005386834964156151,0.08697735518217087
363.0,1.446086633340199,-1.0109236843225937,1.4937921186173153,-1.8804862725088154,-1.592390441926424,0.0,-0.04278089851140976,1.2078996896743774,0.21848726272583008,0.9943174719810486,-0.06114545091986656,0.005346774123609066,0.0869782343506813
364.0,1.4468633643792421,-1.0081043834147132,1.489628131367093,-1.8791264874208846,-1.5922566638611813,0.0,-0.043460946530103683,1.2103588581085205,0.21805912256240845,0.9943408966064453,-0.06076496094465256,0.005313582718372345,0.08697964996099472
365.0,1.4438975413107653,-1.0124316163442795,1.4959817258927104,-1.8812182343290453,-1.5927664360638967,0.0,-0.04015771299600601,1.2066712379455566,0.2187444567680359,0.9942511916160583,-0.0622178353369236,0.005440091248601675,0.0869707241654396
366.0,1.4409317182422887,-1.016758849273846,1.5023353204183278,-1.883309981237206,-1.5932762082666123,0.0,-0.03687824681401253,1.2029632329940796,0.2194172590970993,0.9941592216491699,-0.06367051601409912,0.005566699430346489,0.08696246892213821
367.0,1.4379647015319048,-1.0210878237660235,1.5086914720474918,-1.8854025700016446,-1.5937861856351283,0.0,-0.03362136334180832,1.1992344856262207,0.22007817029953003,0.99406498670578,-0.06512364745140076,0.005693352781236172,0.0869547575712204
368.0,1.4349945992594135,-1.0254213001943073,1.5150542337845623,-1.8874973349629933,-1.594296693356857,0.0,-0.030385060235857964,1.1954816579818726,0.22072751820087433,0.9939686059951782,-0.0665782019495964,0.005820147693157196,0.08694759011268616
369.0,1.432024496986922,-1.0297547766225914,1.5214169955216328,-1.889592099924342,-1.5948072010785856,0.0,-0.027172876521945,1.1917095184326172,0.2213645875453949,0.993869960308075,-0.06803261488676071,0.005946975201368332,0.08694098889827728
370.0,1.4301767997848944,-1.0309283352409144,1.5231669798910892,-1.8902089684206693,-1.5951247685316017,0.0,-0.024995937943458557,1.190702199935913,0.22152143716812134,0.9938073754310608,-0.06893729418516159,0.006025897804647684,0.08693723380565643
371.0,1.4307283194061071,-1.0253473556187913,1.515056840359222,-1.8876667331716581,-1.5950299130984804,0.0,-0.024993285536766052,1.1956275701522827,0.22066029906272888,0.9938260912895203,-0.06866726279258728,0.0060023111291229725,0.08693885803222656
372.0,1.431280982022613,-1.0197652822692238,1.5069396992852584,-1.885118817890653,-1.594935015414789,0.0,-0.024999644607305527,1.2005382776260376,0.21978169679641724,0.9938448071479797,-0.0683966651558876,0.005978735163807869,0.08694025874137878
373.0,1.4318484531399736,-1.0141690387267486,1.4987318471272184,-1.8824973128414675,-1.5948395703381124,0.0,-0.025026846677064896,1.2054685354232788,0.21892575919628143,0.9938639998435974,-0.06811874359846115,0.005955601576715708,0.0869402065873146
374.0,1.4324159242573342,-1.0085727951842733,1.4905239949691789,-1.8798758077922824,-1.5947441252614358,0.0,-0.02506236545741558,1.2103803157806396,0.21804898977279663,0.9938831329345703,-0.06784076243638992,0.0059324707835912704,0.08694026619195938
375.0,1.4357493341039667,-1.0074810455801686,1.488881527975608,-1.8792488802294445,-1.5941709063497498,0.0,-0.02918938361108303,1.2112610340118408,0.21789053082466125,0.9939932823181152,-0.06620844453573227,0.005789908580482006,0.08694909512996674
376.0,1.439669209229821,-1.007360201902934,1.4886528596913382,-1.8790516268473405,-1.593496184691113,0.0,-0.03418558090925217,1.2112576961517334,0.21789060533046722,0.9941193461418152,-0.0642886757850647,0.005621977150440216,0.0869603157043457
377.0,1.4389926015110153,-1.0109635960629413,1.4939488479188388,-1.8807574950486898,-1.5936120337408861,0.0,-0.03374134749174118,1.2081069946289062,0.2184542715549469,0.9940977096557617,-0.06462007015943527,0.0056505887769162655,0.08695942163467407
378.0,1.438004675880901,-1.0165324691622228,1.5021152327897438,-1.8833737572347888,-1.59377994475591,0.0,-0.03313838317990303,1.2032268047332764,0.21931993961334229,0.9940659999847412,-0.06510396301746368,0.005691686645150185,0.0869584009051323
379.0,1.437014377349584,-1.0220992105782047,1.5102678206439142,-1.885978978437031,-1.593948547156404,0.0,-0.032543472945690155,1.1983340978622437,0.22017216682434082,0.9940340518951416,-0.065589040517807,0.005733118858188391,0.08695708215236664
380.0,1.436009839863866,-1.027653160504484,1.5183376174017233,-1.8885179465371729,-1.5941212983205186,0.0,-0.031937673687934875,1.1934583187103271,0.22104336321353912,0.9940013885498047,-0.06608094274997711,0.005776086822152138,0.08695410192012787
381.0,1.4350053023781482,-1.0332071104307634,1.526407414159533,-1.8910569146373146,-1.5942940494846332,0.0,-0.031343940645456314,1.188564658164978,0.2218940109014511,0.9939686059951782,-0.06657291203737259,0.005819045938551426,0.08695130050182343
382.0,1.4327277282104973,-1.0492358716449275,1.5578281647616814,-1.9358906941387382,-1.5903113174840613,0.0,-0.030896279960870743,1.1836062669754028,0.2218334972858429,0.9950522184371948,-0.0681009292602539,0.004764311481267214,0.07218460738658905
383.0,1.4304404503906434,-1.065526740106005,1.590123009922762,-1.983119504186308,-1.5860648935604063,0.0,-0.03056814894080162,1.1786186695098877,0.2219495177268982,0.9959681034088135,-0.06958058476448059,0.003669306868687272,0.056501828134059906
384.0,1.42831354034447,-1.0806754078760494,1.6201535685267494,-2.0270369634853354,-1.5821161989046293,0.0,-0.03033236414194107,1.173646092414856,0.22232091426849365,0.9966003894805908,-0.07088349014520645,0.002679110737517476,0.04190313443541527
385.0,1.4263205823388585,-1.0948700179212532,1.6482928131978987,-2.0681885167696783,-1.5784161916381707,0.0,-0.030174851417541504,1.1686886548995972,0.2228974997997284,0.9970009922981262,-0.07203976809978485,0.0017767808167263865,0.028213325887918472
386.0,1.4244429355100674,-1.1082433376110092,1.6748039405636488,-2.1069590695392844,-1.574930264242406,0.0,-0.03008471056818962,1.1637492179870605,0.22364097833633423,0.9972087144851685,-0.07307148724794388,0.000950049958191812,0.01530874241143465
387.0,1.422666298723961,-1.1208972250987208,1.6998888731489037,-2.143643918474645,-1.5716318660825142,0.0,-0.030053572729229927,1.1588321924209595,0.22452160716056824,0.9972536563873291,-0.0739956647157669,0.0001893194712465629,0.003094554878771305
388.0,1.4213537427839258,-1.1277551436212625,1.712107757991877,-2.15514888517108,-1.570796314870016,0.0,-0.029611054807901382,1.1538859605789185,0.2247815728187561,-0.9972096085548401,0.074651800096035,-2.2502783636468848e-08,3.107052037876201e-08
389.0,1.4201881596383328,-1.132691055612604,1.720032881877579,-2.1581381234225097,-1.570796314870016,0.0,-0.029024280607700348,1.1489239931106567,0.22478096187114716,0.9971659183502197,-0.07523292303085327,1.7417619346815627e-08,8.298298581621566e-08
390.0,1.4195428823451477,-1.1375758749422737,1.7278457973515404,-2.1610662413502735,-1.5707963184327658,0.0,-0.02903664857149124,1.143997311592102,0.2247835397720337,-0.9971416592597961,0.07555463910102844,-2.5465935138413442e-08,2.989394687347158e-08
391.0,1.4199636948491308,-1.1423560070671643,1.7354288014332702,-2.1638691257194322,-1.570796329295474,0.0,-0.030251797288656235,1.1391571760177612,0.2248091697692871,-0.9971574544906616,0.07534482330083847,-2.44266402660287e-08,3.625411792995692e-08
392.0,1.4203845073531138,-1.1471361391920547,1.743011805515,-2.166672010088591,-1.5707963401581826,0.0,-0.03146479278802872,1.1343036890029907,0.22481989860534668,0.9971733093261719,-0.07513502240180969,1.8728346873331247e-08,4.65024001528036e-08
393.0,1.4208032518486418,-1.1518927802049725,1.7505575442673789,-2.1694611201793736,-1.570796350967508,0.0,-0.032669756561517715,1.1294604539871216,0.22481608390808105,0.9971891045570374,-0.0749262273311615,2.0070981321396175e-08,3.108743840130046e-08
394.0,1.4212213684598232,-1.1566422888962329,1.7580919685993976,-2.172246048152933,-1.5707963617606255,0.0,-0.0338706411421299,1.124611258506775,0.22479772567749023,-0.9972047209739685,0.07471777498722076,-2.3584068031823335e-08,2.659321651776736e-08
395.0,1.4234630538204225,-1.1596697338056985,1.7627966974783122,-2.1716058611916536,-1.5741042751109349,0.0,-0.035705819725990295,1.1204040050506592,0.22447073459625244,0.9972859025001526,-0.07359793782234192,0.0015642225043848157,0.001277304021641612
396.0,1.4335078233157366,-1.1553354901074318,1.7554043284015755,-2.1563144401003447,-1.5915657242212764,0.0,-0.04025333747267723,1.1189792156219482,0.22297900915145874,0.9975698590278625,-0.06850947439670563,0.009860794059932232,0.007970052771270275
397.0,1.4436789688702363,-1.1509467160749056,1.7479189538584217,-2.1408306333562073,-1.609246860714914,0.0,-0.04483969882130623,1.1175285577774048,0.22163742780685425,0.997722327709198,-0.06323999911546707,0.018328208476305008,0.014659838750958443
398.0,1.4539754895274004,-1.1465038436134514,1.7403413104949268,-2.125155964742108,-1.6271459445667165,0.0,-0.049465157091617584,1.1160579919815063,0.2204524576663971,0.9977364540100098,-0.057787615805864334,0.026965759694576263,0.021340398117899895
399.0,1.4643868350101406,-1.1420114250895523,1.7326791627045035,-2.1093064952268596,-1.6452446355722057,0.0,-0.05412637069821358,1.1145745515823364,0.2194313406944275,0.9976055026054382,-0.05215569585561752,0.035764507949352264,0.027999280020594597
400.0,1.4749003607788782,-1.1374749165284577,1.7249418161365662,-2.093301473931041,-1.6635209529398385,0.0,-0.05881929025053978,1.1130852699279785,0.21858051419258118,0.997323215007782,-0.046349503099918365,0.04471316933631897,0.0346231609582901
401.0,1.4855051056587816,-1.132899047595986,1.717137337581488,-2.0771575873440806,-1.6819558421759704,0.0,-0.06354101002216339,1.1115989685058594,0.2179054319858551,0.9968840479850769,-0.040374018251895905,0.05380148068070412,0.04119975492358208
402.0,1.4961875884340023,-1.1282896353370042,1.7092756484340015,-2.0608953582812073,-1.7005258680425306,0.0,-0.06828804314136505,1.1101232767105103,0.21741074323654175,0.9962829947471619,-0.03423631563782692,0.0630166232585907,0.047715745866298676
