Sungjin-Park-dev/lg_sgu_vision_v2/data/sample/trajectory/337/trajectory_dp_joint_s0030.csv
time,ur20-shoulder_pan_joint,ur20-shoulder_lift_joint,ur20-elbow_joint,ur20-wrist_1_joint,ur20-wrist_2_joint,ur20-wrist_3_joint,target-POS_X,target-POS_Y,target-POS_Z,target-ROT_X,target-ROT_Y,target-ROT_Z,target-ROT_W
0.0,1.9935601393329065,-0.6619694868670862,1.4491405487060547,-0.7871711889850062,-2.7188093662261963,0.0,-0.28499817848205566,1.006584882736206,0.09066534042358398,0.5000048279762268,0.4999951422214508,0.4999951422214508,0.5000048279762268
1.0,1.9873736599943617,-0.6525998947639792,1.4191596671861697,-0.7665591156142157,-2.7249960839833203,0.0,-0.28501462936401367,1.0248719453811646,0.09498202800750732,0.5000045895576477,0.49999526143074036,0.49999508261680603,0.5000049471855164
2.0,1.9814566686503174,-0.6430330016882797,1.389178785666285,-0.7461456598969878,-2.730913245301197,0.0,-0.285000205039978,1.0427607297897339,0.09922574460506439,0.500004768371582,0.49999523162841797,0.4999951720237732,0.500004768371582
3.0,1.9758478325658142,-0.6332401396995112,1.3591979041464,-0.7259577720650209,-2.736522059815421,0.0,-0.28501415252685547,1.0602195262908936,0.10334797203540802,0.5000047087669373,0.4999951720237732,0.4999951124191284,0.5000048279762268
4.0,1.9704782797439289,-0.6232707219277679,1.3292170226265152,-0.7059463746324254,-2.741891642682826,0.0,-0.2850005626678467,1.0772885084152222,0.10739700496196747,0.5000047087669373,0.4999952018260956,0.4999952018260956,0.500004768371582
5.0,1.9746933730683998,-0.6306074808165679,1.3529049531011335,-0.7222974650441095,-2.737676542476189,0.0,-0.2850109338760376,1.0638536214828491,0.10351485013961792,0.5000047087669373,0.49999526143074036,0.49999526143074036,0.5000047087669373
6.0,1.980258577609494,-0.6404268804780725,1.3828858346210184,-0.7424589899354841,-2.732111166368188,0.0,-0.28501033782958984,1.046469807624817,0.09940221905708313,0.500004768371582,0.4999952018260956,0.4999952018260956,0.500004768371582
7.0,1.986101806617061,-0.6500512552511841,1.4128667161409032,-0.7628157374800144,-2.726268084905226,0.0,-0.28501009941101074,1.0286747217178345,0.09520361572504044,0.5000048279762268,0.49999523162841797,0.49999523162841797,0.5000047087669373
8.0,1.9862229460608065,-0.6498927278007799,1.4129694818832792,-0.7630767857891161,-2.7261470363354547,0.0,-0.2851148843765259,1.0285483598709106,0.09495730698108673,0.5000047087669373,0.4999952018260956,0.49999526143074036,0.5000047087669373
9.0,1.980384366265276,-0.6400401243958221,1.3829886003633944,-0.7429485633414854,-2.7319856161309852,0.0,-0.28512513637542725,1.0463463068008423,0.09887207299470901,0.500004768371582,0.49999523162841797,0.49999523162841797,0.5000047087669373
10.0,1.9747090820403506,-0.6301301688454045,1.3530077188435095,-0.7228776692073945,-2.7376607868788323,0.0,-0.28501296043395996,1.0638089179992676,0.10286536067724228,0.500004768371582,0.4999951422214508,0.4999952018260956,0.5000047087669373
11.0,1.969391832439001,-0.6201773624817954,1.3230268373236247,-0.702849538646712,-2.742978142543919,0.0,-0.2849997282028198,1.0807976722717285,0.10694913566112518,0.5000047087669373,0.49999526143074036,0.49999526143074036,0.5000047087669373
12.0,1.964357042802954,-0.6109794211857313,1.2930459558037397,-0.6820666218937926,-2.748012780513764,0.0,-0.2850123643875122,1.0973314046859741,0.11213205754756927,0.500004768371582,0.4999951720237732,0.49999523162841797,0.500004768371582
13.0,1.959518718212257,-0.6006173641710104,1.2630650742838547,-0.6624480095652862,-2.7528510263579506,0.0,-0.28499674797058105,1.1135215759277344,0.11597490310668945,0.5000048875808716,0.4999951124191284,0.4999951720237732,0.5000047087669373
14.0,1.9549274873079672,-0.590071663845047,1.23308419276397,-0.6430125074326926,-2.7574422118323088,0.0,-0.28501081466674805,1.1293021440505981,0.1196993887424469,0.500004768371582,0.4999951422214508,0.4999952018260956,0.500004768371582
15.0,1.9505346051965644,-0.5793790594492582,1.203103311244085,-0.6237244321613109,-2.761835270759087,0.0,-0.28501248359680176,1.1447001695632935,0.12334267050027847,0.5000048279762268,0.49999523162841797,0.49999523162841797,0.5000047087669373
16.0,1.9463313924252408,-0.5685451777092505,1.1731224297242,-0.6045773268858516,-2.7660386230115246,0.0,-0.28500330448150635,1.1597172021865845,0.12690308690071106,0.5000047087669373,0.4999952018260956,0.49999526143074036,0.5000046491622925
17.0,1.9423213218209934,-0.5574392888234337,1.1431415482043152,-0.5857021652250398,-2.7700484848956997,0.0,-0.285001277923584,1.1743534803390503,0.13019657135009766,0.500004768371582,0.4999951422214508,0.4999951422214508,0.500004768371582
18.0,1.939989053859512,-0.5496089706254838,1.1251425178248469,-0.5755334885742746,-2.7723807038514643,0.0,-0.2850075960159302,1.1830204725265503,0.1306503564119339,0.500004768371582,0.4999951720237732,0.4999951124191284,0.5000048279762268
19.0,1.9439042718140858,-0.5614575930298277,1.155123399344732,-0.5936658077708475,-2.768465558246524,0.0,-0.28501319885253906,1.1685694456100464,0.12830932438373566,0.5000047087669373,0.4999952018260956,0.4999952018260956,0.5000048279762268
20.0,1.9479824654101159,-0.5723792000142486,1.1851042808646168,-0.6127252303719272,-2.7643873118283158,0.0,-0.2850097417831421,1.1537885665893555,0.12481346726417542,0.500004768371582,0.4999952018260956,0.4999952018260956,0.500004768371582
21.0,1.9522446080157627,-0.5831639534669566,1.2150851623845016,-0.6319212732002761,-2.760125135961919,0.0,-0.2849961519241333,1.1386280059814453,0.12123538553714752,0.500004768371582,0.4999951422214508,0.4999952018260956,0.5000047087669373
22.0,1.9567342223514357,-0.593779533521829,1.2450660439043866,-0.651286716571284,-2.7556355940226998,0.0,-0.2850104570388794,1.1230639219284058,0.11754165589809418,0.5000048875808716,0.4999951124191284,0.4999951720237732,0.5000046491622925
23.0,1.961426352961859,-0.6042442924343002,1.2750469254242716,-0.6708027587244039,-2.7509434758245757,0.0,-0.28501200675964355,1.1071161031723022,0.1137661337852478,0.500004768371582,0.4999951422214508,0.4999952018260956,0.500004768371582
24.0,1.9662127248135017,-0.6142272154525934,1.3043419478471034,-0.6901148069197748,-2.7461570717849533,0.0,-0.2849966287612915,1.0911659002304077,0.10988495498895645,0.5000048279762268,0.4999952018260956,0.49999526143074036,0.5000047087669373
25.0,1.9613086375701876,-0.6034792777825737,1.2743610663272185,-0.6708814914430838,-2.7510611064074943,0.0,-0.2850104570388794,1.1075084209442139,0.11317826062440872,0.5000046491622925,0.4999952018260956,0.4999951422214508,0.5000048279762268
26.0,1.956623675650309,-0.5930149880806248,1.2443801848073335,-0.6513654711950746,-2.755746219618075,0.0,-0.28501200675964355,1.1234474182128906,0.11694970726966858,0.5000048279762268,0.4999951422214508,0.4999952018260956,0.5000046491622925
27.0,1.952140075595947,-0.5824003643053509,1.2143993032874487,-0.6319989070013802,-2.760229906800314,0.0,-0.28499937057495117,1.1390036344528198,0.1206400990486145,0.500004768371582,0.49999526143074036,0.4999952018260956,0.5000047087669373
28.0,1.9478772945657838,-0.5716214379039805,1.184418421767564,-0.612797221321032,-2.7644924614594135,0.0,-0.2850074768066406,1.1541601419448853,0.12422142177820206,0.5000048279762268,0.4999951720237732,0.4999951720237732,0.5000047087669373
29.0,1.9438049850192005,-0.5607003362031544,1.154437540247679,-0.5937371534515458,-2.768564869156105,0.0,-0.2850130796432495,1.168932557106018,0.1277136206626892,0.5000047087669373,0.4999952018260956,0.4999952018260956,0.5000047087669373
30.0,1.9398986834516874,-0.5490283124999311,1.124456658727794,-0.5754283152615484,-2.7724711973068246,0.0,-0.28501009941101074,1.1833640336990356,0.13028788566589355,0.5000047087669373,0.4999952018260956,0.4999952018260956,0.5000047087669373
31.0,1.9360366467724506,-0.5527274062219254,1.1250600175354106,-0.5931266871448339,-2.7667717960251847,0.0,-0.28148841857910156,1.184950351715088,0.13197627663612366,0.5090886950492859,0.4946056306362152,0.5005388259887695,0.49563562870025635
32.0,1.9321702870325024,-0.5619369861262253,1.136255131286374,-0.6231075686647187,-2.757765480278736,0.0,-0.27683231234550476,1.1821733713150024,0.13351531326770782,0.5212303400039673,0.48728880286216736,0.5011276602745056,0.48963209986686707
33.0,1.9283039272925542,-0.5711465660305254,1.1474502450373374,-0.6530884501846036,-2.748759164532287,0.0,-0.27225184440612793,1.1794284582138062,0.13496661186218262,0.533267080783844,0.4799048602581024,0.5015533566474915,0.48348909616470337
34.0,1.924437567552606,-0.5803561459348254,1.1586453587883008,-0.6830693317044885,-2.7397528487858382,0.0,-0.2677476108074188,1.1767195463180542,0.13633398711681366,0.5451949834823608,0.47245678305625916,0.5018172860145569,0.4772069752216339
35.0,1.9205712078126578,-0.5895657258391255,1.1698404725392642,-0.7130502132243735,-2.7307465330393894,0.0,-0.2633208632469177,1.1740525960922241,0.13762161135673523,0.5570100545883179,0.46494749188423157,0.5019208192825317,0.4707854986190796
36.0,1.9167048480727096,-0.5987753057434254,1.1810355862902275,-0.7430310947442582,-2.7217402172929406,0.0,-0.25897178053855896,1.171431541442871,0.13883362710475922,0.5687087774276733,0.4573799967765808,0.5018655061721802,0.46422499418258667
37.0,1.9128384883327614,-0.6079848856477255,1.192230700041191,-0.7730119762641432,-2.7127339015464917,0.0,-0.2547012269496918,1.1688612699508667,0.1399747133255005,0.5802872180938721,0.44975733757019043,0.5016525387763977,0.45752573013305664
38.0,1.9089721285928132,-0.6171944655520255,1.2034258137921543,-0.8029928577840282,-2.703727585800043,0.0,-0.25050973892211914,1.1663458347320557,0.14104971289634705,0.5917416214942932,0.4420824646949768,0.501283586025238,0.45068788528442383
39.0,1.905105768852865,-0.6264040454563254,1.2146209275431177,-0.8329737393039129,-2.694721270053594,0.0,-0.2463972270488739,1.163889765739441,0.14206327497959137,0.6030683517456055,0.4343585968017578,0.5007603764533997,0.4437117576599121
40.0,1.9012394091129168,-0.6356136253606255,1.225816041294081,-0.8629546208237979,-2.6857149543071452,0.0,-0.24236422777175903,1.1614971160888672,0.14302070438861847,0.6142638325691223,0.42658859491348267,0.5000843405723572,0.4365977346897125
41.0,1.8973730493729686,-0.6448232052649254,1.2370111550450444,-0.8929355023436827,-2.6767086385606964,0.0,-0.2384105920791626,1.1591711044311523,0.14392703771591187,0.6253243088722229,0.4187757968902588,0.4992574155330658,0.42934632301330566
42.0,1.8935066896330204,-0.6540327851692255,1.2482062687960078,-0.9229163838635677,-2.6677023228142476,0.0,-0.23453620076179504,1.1569160223007202,0.1447877585887909,0.6362465023994446,0.41092297434806824,0.49828124046325684,0.42195791006088257
43.0,1.8896403298930722,-0.6632423650735255,1.2594013825469712,-0.9528972653834527,-2.6586960070677987,0.0,-0.23074108362197876,1.1547350883483887,0.14560841023921967,0.6470266580581665,0.40303337574005127,0.49715757369995117,0.41443321108818054
44.0,1.885773970153124,-0.6724519449778255,1.2705964962979346,-0.9828781469033374,-2.64968969132135,0.0,-0.22702476382255554,1.1526315212249756,0.1463947296142578,0.6576615571975708,0.395110160112381,0.49588847160339355,0.4067724943161011
45.0,1.8819076104131758,-0.6816615248821255,1.281791610048898,-1.0128590284232224,-2.640683375574901,0.0,-0.22338683903217316,1.1506088972091675,0.14715248346328735,0.668147623538971,0.3871563971042633,0.49447569251060486,0.3989766538143158
46.0,1.8780412506732276,-0.6908711047864255,1.2929867237998613,-1.0428399099431072,-2.6316770598284522,0.0,-0.21982675790786743,1.1486687660217285,0.14788739383220673,0.6784815788269043,0.3791753351688385,0.492921382188797,0.3910464942455292
47.0,1.8741748909332794,-0.7000806846907255,1.3041818375508247,-1.0728207914629921,-2.6226707440820034,0.0,-0.21634379029273987,1.1468147039413452,0.14860573410987854,0.6886602640151978,0.37116995453834534,0.49122726917266846,0.3829825520515442
48.0,1.8703085311933312,-0.7092902645950255,1.315376951301788,-1.102801672982877,-2.6136644283355546,0.0,-0.21293731033802032,1.1450484991073608,0.1493135690689087,0.6986802220344543,0.36314353346824646,0.4893958568572998,0.3747858703136444
49.0,1.866442171453383,-0.7184998444993256,1.3265720650527515,-1.1327825545027619,-2.6046581125891057,0.0,-0.20960643887519836,1.1433725357055664,0.15001727640628815,0.7085384726524353,0.3550991415977478,0.48742902278900146,0.3664570152759552
50.0,1.8625758117134348,-0.7277094244036255,1.3377671788037149,-1.1627634360226469,-2.5956517968426565,0.0,-0.2063499391078949,1.1417884826660156,0.1507229059934616,0.7182318568229675,0.347040057182312,0.48532894253730774,0.35799720883369446
51.0,1.8587094519734868,-0.7369190043079256,1.3489622925546783,-1.1927443175425316,-2.586645481096208,0.0,-0.20316699147224426,1.140297532081604,0.15143705904483795,0.7277573347091675,0.33896929025650024,0.4830978214740753,0.3494073450565338
52.0,1.8548430922335384,-0.7461285842122256,1.3601574063056416,-1.2227251990624166,-2.577639165349759,0.0,-0.2000565379858017,1.1389013528823853,0.1521659791469574,0.7371118664741516,0.3308901786804199,0.4807381331920624,0.340688556432724
53.0,1.8509767324935904,-0.7553381641165255,1.371352520056605,-1.2527060805823014,-2.5686328496033104,0.0,-0.19701680541038513,1.1376010179519653,0.15291647613048553,0.7462925314903259,0.32280582189559937,0.47825199365615845,0.33184176683425903
54.0,1.8471103727536422,-0.7645477440208256,1.3825476338075684,-1.2826869621021864,-2.559626533856861,0.0,-0.19404704868793488,1.136396884918213,0.153694748878479,0.7552964091300964,0.31471937894821167,0.47564181685447693,0.3228682279586792
55.0,1.843244013013694,-0.7737573239251256,1.393742747558532,-1.3126678436220713,-2.5506202181104123,0.0,-0.1911454051733017,1.1352896690368652,0.15450751781463623,0.7641207575798035,0.30663400888442993,0.47290998697280884,0.31376928091049194
56.0,1.8393776532737458,-0.7829669038294256,1.4049378613094952,-1.342648725141956,-2.5416139023639635,0.0,-0.1883106231689453,1.1342798471450806,0.1553613543510437,0.7727628350257874,0.29855284094810486,0.4700588583946228,0.3045460283756256
57.0,1.8355112935337976,-0.7921764837337256,1.4161329750604588,-1.372629606661841,-2.5326075866175146,0.0,-0.18554100394248962,1.1333664655685425,0.15626297891139984,0.781220018863678,0.2904791831970215,0.4670911431312561,0.29519978165626526
58.0,1.8316449337938494,-0.8013860636380257,1.427328088811422,-1.4026104881817258,-2.523601270871066,0.0,-0.18283486366271973,1.1325498819351196,0.15721869468688965,0.7894894480705261,0.28241613507270813,0.46400925517082214,0.285732239484787
59.0,1.8277785740539012,-0.8105956435423256,1.4385232025623855,-1.4325913697016108,-2.514594955124617,0.0,-0.18019059300422668,1.1318291425704956,0.1582353413105011,0.7975687980651855,0.2743667662143707,0.4608157277107239,0.27614450454711914
60.0,1.823912214313953,-0.8198052234466257,1.449718316313349,-1.4625722512214958,-2.505588639378168,0.0,-0.1776064932346344,1.1312031745910645,0.1593192219734192,0.8054555058479309,0.26633426547050476,0.45751291513442993,0.26643821597099304
61.0,1.8200458545740048,-0.8290148033509257,1.4609134300643123,-1.4925531327413806,-2.4965823236317193,0.0,-0.17508038878440857,1.1306709051132202,0.16047699749469757,0.8131470680236816,0.2583218216896057,0.4541039764881134,0.25661501288414
62.0,1.8161794948340566,-0.8382243832552256,1.4721085438152757,-1.5225340142612656,-2.4875760078852704,0.0,-0.17261090874671936,1.13023042678833,0.16171520948410034,0.8206411600112915,0.25033241510391235,0.45059120655059814,0.2466762512922287
63.0,1.8123131350941084,-0.8474339631595256,1.483303657566239,-1.5525148957811503,-2.4785696921388216,0.0,-0.17019571363925934,1.129880428314209,0.16304010152816772,0.8279356360435486,0.24236923456192017,0.44697731733322144,0.23662377893924713
64.0,1.8084467753541602,-0.8566435430638257,1.4944987713172024,-1.5824957773010353,-2.4695633763923728,0.0,-0.16783323884010315,1.1296186447143555,0.1644580066204071,0.8350281119346619,0.23443548381328583,0.4432651698589325,0.2264593243598938
65.0,1.804580415614212,-0.8658531229681257,1.5056938850681658,-1.6124766588209203,-2.460557060645924,0.0,-0.16552132368087769,1.1294420957565308,0.1659751832485199,0.8419166207313538,0.2265341579914093,0.43945741653442383,0.21618470549583435
66.0,1.8007140558742638,-0.8750627028724257,1.5168889988191292,-1.642457540340805,-2.451550744899475,0.0,-0.16325801610946655,1.1293487548828125,0.16759787499904633,0.8485987782478333,0.21866828203201294,0.4355568587779999,0.20580162107944489
67.0,1.7968476961343156,-0.8842722827767258,1.5280841125700926,-1.67243842186069,-2.4425444291530263,0.0,-0.16104133427143097,1.1293351650238037,0.16933201253414154,0.8550728559494019,0.21084102988243103,0.43156638741493225,0.1953120082616806
68.0,1.7929813363943674,-0.8934818626810257,1.539279226321056,-1.7024193033805748,-2.4335381134065774,0.0,-0.15886926651000977,1.1293985843658447,0.17118370532989502,0.861336886882782,0.20305532217025757,0.4274888336658478,0.18471771478652954
69.0,1.7891149766544192,-0.9026914425853256,1.5504743400720193,-1.7324001849004595,-2.4245317976601286,0.0,-0.15673966705799103,1.1295346021652222,0.17315839231014252,0.8673888444900513,0.19531413912773132,0.42332684993743896,0.174020916223526
70.0,1.785248616914471,-0.9119010224896258,1.5616694538229827,-1.7623810664203448,-2.4155254819136798,0.0,-0.1546507626771927,1.1297403573989868,0.17526203393936157,0.873227059841156,0.18762065470218658,0.4190836250782013,0.1632234752178192
71.0,1.7813822571745228,-0.9211106023939257,1.572864567573946,-1.7923619479402295,-2.406519166167231,0.0,-0.15260030329227448,1.1300110816955566,0.1775001585483551,0.8788497447967529,0.179977685213089,0.4147619307041168,0.15232759714126587
72.0,1.7764128840987794,-0.9308493790285844,1.5829045266714,-1.8191164634761745,-2.393074619214223,0.0,-0.1503654420375824,1.1296947002410889,0.1798950582742691,0.885086715221405,0.1718718409538269,0.4083329141139984,0.1426379531621933
73.0,1.7673338113017862,-0.9425598812849223,1.5886405135470625,-1.833849913668167,-2.3630937376943377,0.0,-0.14754539728164673,1.1271625757217407,0.18249374628067017,0.8941115140914917,0.16195130348205566,0.3942144513130188,0.13759064674377441
74.0,1.7582547385047935,-0.95427038354126,1.594376500422725,-1.848583363860159,-2.333112856174453,0.0,-0.14508292078971863,1.124921202659607,0.18524543941020966,0.9027636647224426,0.15218205749988556,0.37995460629463196,0.1322600096464157
75.0,1.7491756657078006,-0.9659808857975978,1.6001124872983874,-1.8633168140521512,-2.303131974654568,0.0,-0.1429612636566162,1.1229710578918457,0.18817119300365448,0.9110410213470459,0.14257273077964783,0.3655637204647064,0.12664994597434998
76.0,1.7400965929108074,-0.9776913880539357,1.60584847417405,-1.8780502642441437,-2.273151093134683,0.0,-0.1411634087562561,1.1213117837905884,0.19129113852977753,0.9189417958259583,0.13313177227973938,0.35105252265930176,0.1207645833492279
77.0,1.7439543408301341,-0.9625282618567794,1.5892010599351751,-1.8689187304854462,-2.2900538942201627,0.0,-0.1423557698726654,1.131724238395691,0.18840013444423676,0.9149904847145081,0.13718701899051666,0.3591249883174896,0.1224803477525711
78.0,1.7514207809957083,-0.93986880740748,1.566309854596623,-1.8531301219764564,-2.3200347757400475,0.0,-0.14472822844982147,1.1454850435256958,0.18369626998901367,0.9075192809104919,0.1450873613357544,0.37341633439064026,0.12616825103759766
79.0,1.7500999012749932,-0.9344011515441142,1.5604572344192498,-1.8527688415082388,-2.3181948491792768,0.0,-0.1444092094898224,1.149327039718628,0.18067660927772522,0.9079602956771851,0.14436756074428558,0.3724976181983948,0.12653684616088867
80.0,1.7410078935394073,-0.9441371834201253,1.5696728066137497,-1.866050826868923,-2.2882139676593916,0.0,-0.1417005956172943,1.1445549726486206,0.17935124039649963,0.9153634309768677,0.13601301610469818,0.3581203818321228,0.12393487989902496
81.0,1.731915885803822,-0.9538732152961362,1.5788883788082495,-1.8793328122296074,-2.258233086139507,0.0,-0.13935263454914093,1.1400163173675537,0.17820271849632263,0.9224564433097839,0.12774968147277832,0.34363988041877747,0.12110180407762527
82.0,1.7228238780682363,-0.9636092471721472,1.5881039510027493,-1.8926147975902916,-2.228252204619622,0.0,-0.13735045492649078,1.1357132196426392,0.1772443950176239,0.9292380213737488,0.11958380043506622,0.3290635645389557,0.11803996562957764
83.0,1.7137318703326507,-0.9733452790481584,1.5973195231972492,-1.9058967829509759,-2.198271323099737,0.0,-0.1356784999370575,1.1316466331481934,0.17648932337760925,0.9357073903083801,0.11152137815952301,0.3143989145755768,0.114751897752285
84.0,1.7046398625970653,-0.9830813109241693,1.606535095391749,-1.9191787683116601,-2.168290441579852,0.0,-0.13432127237319946,1.1278184652328491,0.1759495884180069,0.9418635368347168,0.10356839001178741,0.29965323209762573,0.11124029010534286
85.0,1.6955478548614797,-0.9928173428001803,1.615750667586249,-1.9324607536723442,-2.1383095600599673,0.0,-0.13326290249824524,1.124227523803711,0.1756380796432495,0.9477063417434692,0.0957307294011116,0.28483396768569946,0.10750789195299149
86.0,1.6864558471258941,-1.0025533746761914,1.624966239780749,-1.9457427390330286,-2.108328678540082,0.0,-0.13248789310455322,1.120873212814331,0.17556588351726532,0.9532350301742554,0.0880143791437149,0.2699485719203949,0.1035577580332756
87.0,1.6773638393903085,-1.0122894065522023,1.6341818119752487,-1.959024724393713,-2.0783477970201973,0.0,-0.13198032975196838,1.117753028869629,0.17574442923069,0.9584495425224304,0.08042500168085098,0.2550043761730194,0.0993928387761116
88.0,1.6682718316547231,-1.0220254384282133,1.6433973841697485,-1.972306709754397,-2.0483669155003126,0.0,-0.1317242681980133,1.1148637533187866,0.1761845052242279,0.9633499383926392,0.07296831905841827,0.24000895023345947,0.09501652419567108
89.0,1.6591798239191375,-1.0317614703042242,1.6526129563642482,-1.9855886951150812,-2.018386033980428,0.0,-0.13170422613620758,1.11220121383667,0.17689576745033264,0.9679363369941711,0.06565002351999283,0.2249692976474762,0.0904323011636734
90.0,1.650087816183552,-1.0414975021802353,1.6618285285587482,-1.9988706804757654,-1.9884051524605426,0.0,-0.13190457224845886,1.1097606420516968,0.1778879463672638,0.9722091555595398,0.05847562104463577,0.20989280939102173,0.0856437012553215
91.0,1.6409958084479663,-1.0512335340562462,1.6710441007532482,-2.0121526658364495,-1.9584242709406579,0.0,-0.1323094516992569,1.1075365543365479,0.17917028069496155,0.9761688113212585,0.05145054683089256,0.19478699564933777,0.08065444976091385
92.0,1.631903800712381,-1.0609695659322573,1.680259672947748,-2.0254346511971337,-1.928443389420773,0.0,-0.132903590798378,1.1055216789245605,0.18075096607208252,0.9798161387443542,0.04458010941743851,0.179658904671669,0.07546842098236084
93.0,1.6228117929767953,-1.0707055978082685,1.689475245142248,-2.0387166365578184,-1.8984625079008879,0.0,-0.13367201387882233,1.1037087440490723,0.18263790011405945,0.983151912689209,0.03786967694759369,0.16451574862003326,0.0700896829366684
94.0,1.6137197852412097,-1.0804416296842794,1.6986908173367476,-2.0519986219185022,-1.8684816263810031,0.0,-0.13459961116313934,1.102089762687683,0.18483808636665344,0.9861773252487183,0.031324323266744614,0.14936470985412598,0.06452226638793945
95.0,1.6046277775056244,-1.0901776615602903,1.7079063895312474,-2.0652806072791865,-1.8385007448611184,0.0,-0.13567161560058594,1.100655436515808,0.1873582899570465,0.9888935089111328,0.024949053302407265,0.13421283662319183,0.0587705597281456
96.0,1.5955357697700387,-1.0999136934363012,1.7171219617257474,-2.0785625926398708,-1.8085198633412336,0.0,-0.13687385618686676,1.099395751953125,0.19020429253578186,0.9913018941879272,0.018748939037322998,0.11906725913286209,0.05283907800912857
97.0,1.5864437620344531,-1.1096497253123123,1.7263375339202471,-2.091844578000555,-1.7785389818213484,0.0,-0.13819225132465363,1.0983006954193115,0.19338113069534302,0.9934040904045105,0.01272871159017086,0.10393489897251129,0.04673215374350548
98.0,1.5773517542988675,-1.1193857571883232,1.7355531061147471,-2.1051265633612393,-1.7485581003014636,0.0,-0.13961312174797058,1.0973587036132812,0.19689330458641052,0.9952016472816467,0.006893121637403965,0.08882265537977219,0.04045475274324417
99.0,1.5682597465632822,-1.1291217890643344,1.7447686783092469,-2.1184085487219235,-1.7185772187815789,0.0,-0.14112301170825958,1.0965583324432373,0.2007451057434082,0.9966967701911926,0.001246674102731049,0.07373746484518051,0.03401155397295952
100.0,1.5591677388276965,-1.1388578209403453,1.7539842505037468,-2.131690534082608,-1.6885963372616937,0.0,-0.1427093744277954,1.0958871841430664,0.20493926107883453,0.9978913068771362,-0.0042060487903654575,0.058685965836048126,0.027407435700297356
101.0,1.550075731092111,-1.1485938528163564,1.7631998226982466,-2.144972519443292,-1.658615455741809,0.0,-0.14435969293117523,1.0953322649002075,0.20947831869125366,0.9987875819206238,-0.009460761211812496,0.043674927204847336,0.020647568628191948
102.0,1.5409837233565256,-1.1583298846923673,1.7724153948927466,-2.1582545048039763,-1.6286345742219241,0.0,-0.14606192708015442,1.0948801040649414,0.21436390280723572,0.9993879795074463,-0.014513309113681316,0.02871095761656761,0.013737143948674202
103.0,1.5318917156209397,-1.1680659165683784,1.7816309670872466,-2.1715364901646605,-1.598653692702039,0.0,-0.14780482649803162,1.094516634941101,0.21959729492664337,0.9996950030326843,-0.01935950294137001,0.013800586573779583,0.006681517697870731
104.0,1.5234448228832342,-1.178484447994559,1.7923173554819694,-2.1846291587844076,-1.5707963705062866,0.0,-0.14951887726783752,1.0928399562835693,0.2247771918773651,0.9997196793556213,-0.023673562332987785,2.0679372880749725e-08,6.49546265663048e-08
105.0,1.5136688680656791,-1.187413903367844,1.806141721893694,-2.1895242760780884,-1.5707963223755055,0.0,-0.13935300707817078,1.0850772857666016,0.2247774600982666,-0.9995920658111572,0.02855983003973961,-2.29033112475463e-08,1.0150336571257412e-08
106.0,1.516696418764885,-1.1681248107903524,1.7761608403738092,-2.178832511757733,-1.5707963279714914,0.0,-0.14156439900398254,1.1044654846191406,0.22478032112121582,-0.9996341466903687,0.02704663574695587,-2.460529557879454e-08,6.898144988554122e-08
107.0,1.5195779057507506,-1.1490940608594078,1.746179958853924,-2.1678822671835394,-1.5707963355182573,0.0,-0.14374525845050812,1.1235798597335815,0.22478258609771729,-0.9996720552444458,0.025606432929635048,-2.2395985510570426e-08,2.111862329456926e-08
108.0,1.522328291799985,-1.1302936727304098,1.7161990773340392,-2.156701770194432,-1.570796256563088,0.0,-0.145901620388031,1.1424237489700317,0.22477379441261292,-0.9997063279151917,0.02423166297376156,3.5557423672116784e-08,8.246816918244804e-08
109.0,1.5224819596958694,-1.1178593337685656,1.6926925659840608,-2.1272452410640934,-1.571669976798581,0.0,-0.14540383219718933,1.1493022441864014,0.22402776777744293,0.9996659159660339,-0.0241498164832592,0.00021462728909682482,0.009199883788824081
110.0,1.5225618411979789,-1.105606538318942,1.6693724057114065,-2.097264359544208,-1.5725688506442095,0.0,-0.1448388397693634,1.1556569337844849,0.22333352267742157,0.999535322189331,-0.024094201624393463,0.0004361795145086944,0.018663816154003143
111.0,1.5226417227000884,-1.0933537428693185,1.6460522454387525,-2.0672834780243234,-1.573467724489838,0.0,-0.1442839652299881,1.1618266105651855,0.2227126955986023,0.9993153810501099,-0.02402789518237114,0.0006582335336133838,0.028125997632741928
112.0,1.5227216042021978,-1.081100947419695,1.6227320851660982,-2.0373025965044387,-1.5743665983354667,0.0,-0.14373879134655,1.1678123474121094,0.22216594219207764,0.999005913734436,-0.023951014503836632,0.0008807447156868875,0.03758561983704567
113.0,1.5228014857043075,-1.0688481519700712,1.5994119248934442,-2.0073217149845535,-1.5752654721810952,0.0,-0.14320337772369385,1.173614501953125,0.22169402241706848,0.9986072182655334,-0.023863520473241806,0.0011036727810278535,0.04704185202717781
114.0,1.5228813672064168,-1.056595356520448,1.5760917646207904,-1.977340833464669,-1.5761643460267238,0.0,-0.1426776796579361,1.179234266281128,0.22129768133163452,0.9981191754341125,-0.02376543916761875,0.001326800207607448,0.056493740528821945
115.0,1.5229612487085264,-1.0443425610708243,1.5527716043481365,-1.9473599519447844,-1.5770632198723524,0.0,-0.142161563038826,1.1846723556518555,0.22097790241241455,0.9975418448448181,-0.023656785488128662,0.0015500822337344289,0.06594055891036987
116.0,1.523041130210636,-1.032089765621201,1.5294514440754825,-1.9173790704248999,-1.577962093717981,0.0,-0.14165499806404114,1.1899293661117554,0.220735102891922,0.9968752861022949,-0.023537583649158478,0.0017734207212924957,0.07538145780563354
117.0,1.5231210117127454,-1.0198369701715775,1.5061312838028282,-1.8873981889050149,-1.5788609675636096,0.0,-0.14115779101848602,1.1950066089630127,0.22057010233402252,0.9961196184158325,-0.023407846689224243,0.0019967767875641584,0.08481539040803909
118.0,1.5215368556499131,-1.0309163740515044,1.5217263406815016,-1.8901158391499249,-1.5791904138288337,0.0,-0.1396511346101761,1.1847895383834839,0.2224561721086502,0.996023952960968,-0.02417723834514618,0.002071258844807744,0.08571643382310867
119.0,1.5209386360069737,-1.040981829418343,1.5419204406656262,-1.9200967206698094,-1.5782186957294129,0.0,-0.13946174085140228,1.182034969329834,0.22226542234420776,0.9968173503875732,-0.02457346022129059,0.0018113026162609458,0.0758146196603775
120.0,1.5203404163640344,-1.0510472847851817,1.5621145406497514,-1.9500776021896944,-1.5772469776299918,0.0,-0.1392831802368164,1.1791322231292725,0.2221960723400116,0.9975124597549438,-0.024958083406090736,0.0015563627239316702,0.06590519100427628
121.0,1.519742196721095,-1.0611127401520204,1.5823086406338762,-1.980058483709579,-1.576275259530571,0.0,-0.13911591470241547,1.176079273223877,0.2222478985786438,0.9981091022491455,-0.02533101476728916,0.0013065049424767494,0.05598905310034752
122.0,1.5191439770781554,-1.071178195518859,1.6025027406180008,-2.0100393652294635,-1.5753035414311498,0.0,-0.13895997405052185,1.1728743314743042,0.2224200963973999,0.9986072778701782,-0.025692202150821686,0.0010619709501042962,0.04606716334819794
123.0,1.5185457574352161,-1.081243650885698,1.6226968406021258,-2.0400202467493487,-1.574331823331729,0.0,-0.13881619274616241,1.1695148944854736,0.2227119356393814,0.9990070462226868,-0.026041438803076744,0.0008228268707171082,0.036140620708465576
124.0,1.5179475377922769,-1.0913091062525369,1.6428909405862508,-2.0700011282692334,-1.573360105232308,0.0,-0.13868482410907745,1.1659996509552002,0.22312289476394653,0.9993081092834473,-0.026378672569990158,0.0005891362088732421,0.02621023915708065
125.0,1.5173493181493372,-1.1013745616193755,1.6630850405703757,-2.099982009789118,-1.572388387132887,0.0,-0.1385660469532013,1.1623260974884033,0.22365206480026245,0.9995107650756836,-0.026703819632530212,0.0003611362772062421,0.016277119517326355
126.0,1.5167510985063979,-1.1114400169862142,1.6832791405545007,-2.129962891309003,-1.571416669033466,0.0,-0.13846038281917572,1.1584926843643188,0.22429853677749634,0.9996147751808167,-0.027016840875148773,0.00013882543134968728,0.006342271808534861
127.0,1.5156299750285687,-1.1245910364648752,1.7070126071336977,-2.153217992650427,-1.5707963705062866,0.0,-0.13792410492897034,1.1492066383361816,0.22478264570236206,-0.9996195435523987,0.027579661458730698,-2.290704159690904e-08,1.0131051553230463e-08
128.0,1.5157031098849485,-1.1164955621415407,1.6938249340415776,-2.1474486659075955,-1.5708340987324434,0.0,-0.1375500112771988,1.1572370529174805,0.22474221885204315,0.9996204972267151,-0.027543125674128532,9.527912880002987e-06,0.0003388182376511395
129.0,1.5155945168373892,-1.1059106174872044,1.6729646894853165,-2.1174677843877108,-1.5719337444278643,0.0,-0.13674703240394592,1.161768913269043,0.22393164038658142,0.9995671510696411,-0.027590185403823853,0.00028721734997816384,0.010202860459685326
130.0,1.5154859237898297,-1.0953256728328682,1.6521044449290552,-2.0874869028678256,-1.573033390123285,0.0,-0.1359523981809616,1.166133999824524,0.2232285439968109,0.9994168281555176,-0.027623716741800308,0.0005636348505504429,0.020066002383828163
131.0,1.5153773307422702,-1.0847407281785324,1.6312442003727943,-2.057506021347941,-1.5741330358187058,0.0,-0.13516589999198914,1.170333981513977,0.22263391315937042,0.9991693496704102,-0.027643702924251556,0.0008387726848013699,0.0299270860850811
132.0,1.515268737694711,-1.074155783524196,1.6103839558165332,-2.027525139828056,-1.5752326815141264,0.0,-0.13438762724399567,1.174370527267456,0.22214838862419128,0.9988248944282532,-0.0276501402258873,0.0011123731965199113,0.03978531435132027
133.0,1.5151601446471514,-1.06357083886986,1.589523711260272,-1.9975442583081713,-1.5763323272095473,0.0,-0.1336175948381424,1.1782454252243042,0.2217731773853302,0.998383641242981,-0.02764296717941761,0.0013844298664480448,0.049639612436294556
134.0,1.5150515515995922,-1.0529858942155237,1.568663466704011,-1.9675633767882863,-1.577431972904968,0.0,-0.13285547494888306,1.1819605827331543,0.2215084433555603,0.9978452920913696,-0.027622288092970848,0.0016546817496418953,0.059489138424396515
135.0,1.5149429585520326,-1.0424009495611875,1.5478032221477496,-1.937582495268401,-1.5785316186003888,0.0,-0.13210135698318481,1.1855177879333496,0.221355602145195,0.9972102046012878,-0.027588045224547386,0.0019231223268434405,0.06933274865150452
136.0,1.5148343655044734,-1.0318160049068512,1.5269429775914882,-1.9076016137485161,-1.5796312642958095,0.0,-0.13135528564453125,1.1889187097549438,0.2213146984577179,0.996478259563446,-0.027540238574147224,0.0021894965320825577,0.07916969060897827
137.0,1.5155241098890335,-1.0193432768879092,1.5043425912069033,-1.881520632883361,-1.580386343509295,0.0,-0.13154345750808716,1.194939374923706,0.22077202796936035,0.9958255887031555,-0.027110278606414795,0.002370242727920413,0.08712504804134369
138.0,1.5106397987581726,-1.0035875657730804,1.4814148625404595,-1.8743966052393295,-1.5812330873320135,0.0,-0.12453843653202057,1.2094744443893433,0.2182052582502365,0.995757520198822,-0.029505474492907524,0.0025797646958380938,0.0871191993355751
139.0,1.5076489125565524,-1.0240025653459388,1.5113957440603452,-1.883994351198996,-1.5817515992170825,0.0,-0.12186557799577713,1.1917059421539307,0.22133846580982208,0.99571293592453,-0.030972061678767204,0.0027081011794507504,0.0871150866150856
140.0,1.5026282064989611,-1.0110857992061082,1.4926830738014631,-1.8782546197906673,-1.5826215164937874,0.0,-0.11476292461156845,1.2037169933319092,0.21923409402370453,0.9956333041191101,-0.03343391790986061,0.0029234630055725574,0.08710820972919464
141.0,1.4956317376586208,-1.0107689671772675,1.4924329703950976,-1.878406940419389,-1.583833586708537,0.0,-0.10585073381662369,1.2046993970870972,0.21905922889709473,0.9955121874809265,-0.036864303052425385,0.0032236240804195404,0.08709766715765
142.0,1.485420344175716,-1.026619415684404,1.5158601312086828,-1.8861239257064406,-1.5856011465436717,0.0,-0.09406664967536926,1.1915606260299683,0.22136391699314117,0.9953141808509827,-0.04187032952904701,0.0036615319550037384,0.08708019554615021
143.0,1.4891988832483822,-1.007019287547162,1.487111940377999,-1.8769218330848572,-1.5849472292870899,0.0,-0.09739900380373001,1.2086106538772583,0.21836578845977783,0.9953904151916504,-0.04001800715923309,0.0034995058085769415,0.08708692342042923
144.0,1.4805309832658753,-1.0172141206302328,1.5022829464214267,-1.8820251587814885,-1.5864470178070922,0.0,-0.0871579572558403,1.2003127336502075,0.21983182430267334,0.9952104687690735,-0.04426702857017517,0.0038712320383638144,0.0870712623000145
145.0,1.4764236637043244,-1.032997297155214,1.5280929133026695,-1.9018903500055215,-1.5859759669105613,0.0,-0.08344947546720505,1.1896873712539673,0.22134651243686676,0.9955311417579651,-0.04638801887631416,0.003692406928166747,0.08217214792966843
146.0,1.4732850935407964,-1.0442749460030158,1.5499690429686834,-1.9318712315254063,-1.584181971410357,0.0,-0.08081474900245667,1.185857892036438,0.22138729691505432,0.9962027668952942,-0.04812489449977875,0.0031464213971048594,0.07248449325561523
147.0,1.4701465233772686,-1.0555525948508178,1.5718451726346978,-1.9618521130452913,-1.582387975910153,0.0,-0.0782213807106018,1.1818598508834839,0.22152721881866455,0.9967780709266663,-0.04984200373291969,0.002629260066896677,0.06278820335865021
148.0,1.4670079532137408,-1.0668302436986197,1.5937213023007117,-1.9918329945651763,-1.5805939804099487,0.0,-0.07567110657691956,1.1776922941207886,0.22176560759544373,0.9972567558288574,-0.05153881013393402,0.0021412780042737722,0.05308437719941139
149.0,1.463869383050213,-1.0781078925464216,1.6155974319667261,-2.0218138760850612,-1.5787999849097445,0.0,-0.07316544651985168,1.173354148864746,0.22210149466991425,0.9976391196250916,-0.05321493744850159,0.0016826419159770012,0.04337414354085922
150.0,1.460730812886685,-1.0893855413942233,1.6374735616327398,-2.0517947576049456,-1.5770059894095403,0.0,-0.07070646435022354,1.1688437461853027,0.22253471612930298,0.9979252815246582,-0.05486981198191643,0.0012536006979644299,0.03365829214453697
151.0,1.4575922427231571,-1.100663190242025,1.6593496912987538,-2.0817756391248303,-1.575211993909336,0.0,-0.06829575449228287,1.1641604900360107,0.22306424379348755,0.998115062713623,-0.05650301277637482,0.0008543639560230076,0.02393791824579239
152.0,1.4544536725596293,-1.1119408390898273,1.6812258209647686,-2.111756520644716,-1.5734179984091319,0.0,-0.06593505293130875,1.1593031883239746,0.22368910908699036,0.9982086420059204,-0.05811409279704094,0.0004851506382692605,0.01421409286558628
153.0,1.4513151023961013,-1.1232184879376292,1.7031019506307827,-2.141737402164601,-1.5716240029089275,0.0,-0.06362603604793549,1.1542705297470093,0.22440840303897858,0.9982061386108398,-0.059702660888433456,0.00014616249245591462,0.004487909842282534
154.0,1.4511319515587768,-1.1223697056538184,1.7014485729901514,-2.139420823066002,-1.5718387895705808,0.0,-0.0632852092385292,1.1546605825424194,0.22434699535369873,0.9981968998908997,-0.05979294702410698,0.00020769608090631664,0.005249032750725746
155.0,1.4534802571411252,-1.1111340616263379,1.6796410595911706,-2.109439941546117,-1.5737741931525715,0.0,-0.0646311491727829,1.159672737121582,0.2236311286687851,0.9981690049171448,-0.05859561637043953,0.0006108896341174841,0.014992744661867619
156.0,1.4558285627234737,-1.099898417598857,1.65783354619219,-2.079459060026233,-1.5757095967345625,0.0,-0.06602081656455994,1.1645137071609497,0.2230110466480255,0.9980457425117493,-0.05737421289086342,0.0010365634225308895,0.024734074249863625
157.0,1.458176868305822,-1.0886627735713765,1.6360260327932092,-2.0494781785063485,-1.5776450003165532,0.0,-0.0674528256058693,1.1691848039627075,0.22248747944831848,0.9978271126747131,-0.0561290867626667,0.0014845570549368858,0.03447188436985016
158.0,1.4605251738881704,-1.0774271295438957,1.6142185193942284,-2.019497296986464,-1.579580403898544,0.0,-0.06892573088407516,1.1736868619918823,0.222061425447464,0.9975130558013916,-0.05486058443784714,0.001954691717401147,0.04420536756515503
159.0,1.4628734794705187,-1.0661914855164147,1.5924110059952472,-1.989516415466579,-1.5815158074805347,0.0,-0.07043838500976562,1.1780216693878174,0.22173359990119934,0.9971035122871399,-0.05356904864311218,0.0024466044269502163,0.053933579474687576
160.0,1.465221785052867,-1.0549558414889342,1.5706034925962664,-1.9595355339466947,-1.5834512110625254,0.0,-0.07198925316333771,1.1821898221969604,0.22150477766990662,0.996598482131958,-0.05225485563278198,0.002960131736472249,0.06365522742271423
161.0,1.4675700906352156,-1.0437201974614534,1.5487959791972856,-1.9295546524268103,-1.5853866146445164,0.0,-0.07357712835073471,1.1861932277679443,0.2213754653930664,0.9959979057312012,-0.0509183369576931,0.0034950810950249434,0.07336949557065964
162.0,1.469918396217564,-1.0324845534339728,1.526988465798305,-1.8995737709069258,-1.587322018226507,0.0,-0.07520071417093277,1.190033197402954,0.22134622931480408,0.9953018426895142,-0.049559857696294785,0.004051072057336569,0.08307550102472305
163.0,1.4736525547266879,-1.0157765748645502,1.5003583274668753,-1.8816723775725164,-1.5876341047581668,0.0,-0.07831734418869019,1.20210862159729,0.219512939453125,0.9950558543205261,-0.04763861745595932,0.0041656591929495335,0.08704549819231033
164.0,1.4674423878775729,-1.0109083756348798,1.4933764927279363,-1.8796711213200021,-1.588706462760478,0.0,-0.06999025493860245,1.2068301439285278,0.2186736762523651,0.9949057102203369,-0.050682201981544495,0.004431756678968668,0.0870293378829956
165.0,1.4623175419739407,-1.0314224703902264,1.523357374247821,-1.8892664269169608,-1.5895873891577872,0.0,-0.06544095277786255,1.1889891624450684,0.22183260321617126,0.9947762489318848,-0.05319395288825035,0.004650377202779055,0.08699994534254074
166.0,1.4587184539314333,-1.0449275057000247,1.546792493270704,-1.912791814689521,-1.5885754220451616,0.0,-0.062436819076538086,1.1813955307006836,0.22263610363006592,0.9952425956726074,-0.05511987954378128,0.004374934826046228,0.08021745830774307
167.0,1.4576370296207948,-1.0551298314831214,1.5671783454288497,-1.9427726962094054,-1.5863737649310956,0.0,-0.062365658581256866,1.1784164905548096,0.2224803864955902,0.9959527254104614,-0.055864930152893066,0.00379999284632504,0.07030405104160309
168.0,1.4565556053101565,-1.0653321572662187,1.5875641975869965,-1.9727535777292906,-1.5841721078170294,0.0,-0.062318071722984314,1.1752898693084717,0.22244462370872498,0.9965649843215942,-0.05658354237675667,0.003233816009014845,0.06038294732570648
169.0,1.455474180999518,-1.0755344830493156,1.6079500497451429,-2.0027344592491754,-1.5819704507029635,0.0,-0.06229478120803833,1.1720136404037476,0.22252848744392395,0.997079074382782,-0.0572754368185997,0.0026767568197101355,0.050454962998628616
170.0,1.4543927566888792,-1.0857368088324126,1.6283359019032888,-2.0327153407690597,-1.5797687935888973,0.0,-0.06229672208428383,1.1685855388641357,0.22273112833499908,0.9974949955940247,-0.05794038623571396,0.002129089552909136,0.04052123427391052
171.0,1.453311332378241,-1.0959391346155098,1.6487217540614356,-2.0626962222889453,-1.5775671364748314,0.0,-0.06232433393597603,1.165004014968872,0.2230524718761444,0.9978129267692566,-0.05857831984758377,0.0015910895308479667,0.030582617968320847
172.0,1.4522299080676024,-1.1061414603986073,1.6691076062195827,-2.0926771038088314,-1.575365479360765,0.0,-0.06237848103046417,1.1612669229507446,0.22349098324775696,0.998032808303833,-0.05918901041150093,0.0010630186880007386,0.020640403032302856
173.0,1.451148483756964,-1.116343786181704,1.6894934583777288,-2.1226579853287157,-1.5731638222466988,0.0,-0.06245994567871094,1.1573724746704102,0.2240460067987442,0.9981545805931091,-0.05977221950888634,0.0005452118348330259,0.010695531032979488
174.0,1.4500670594463254,-1.1265461119648013,1.7098793105358756,-2.1526388668486014,-1.5709621651326329,0.0,-0.06256935745477676,1.1533186435699463,0.2247169017791748,0.998178243637085,-0.06032789871096611,3.781938721658662e-05,0.0007489001145586371
175.0,1.4469892218338203,-1.1448947477101665,1.739137643436519,-2.1650393554831773,-1.5707963705062866,0.0,-0.06132810562849045,1.1354740858078003,0.22500893473625183,-0.9980846047401428,0.06186404451727867,-2.4669231990515073e-08,3.195021136548348e-08
176.0,1.443748802220118,-1.1639067948717945,1.7691185249564032,-2.1760081488598364,-1.5707963705062866,0.0,-0.060119133442640305,1.116324782371521,0.22503934800624847,-0.9979829788208008,0.06348102539777756,-2.496631523740689e-08,7.948135305468895e-08
177.0,1.4405083826064158,-1.1829188420334225,1.7990994064762875,-2.186976942236495,-1.5707963705062866,0.0,-0.05906013026833534,1.096985936164856,0.22483336925506592,0.997878909111023,-0.06509791314601898,1.6809829972430634e-08,5.228517352406925e-08
178.0,1.4306616779282262,-1.1975690892561144,1.821763421529516,-2.1949906236282266,-1.570796314870016,0.0,-0.050367504358291626,1.0825436115264893,0.22477203607559204,-0.9975463151931763,0.07001001387834549,-2.5655564783733098e-08,4.2222460194807354e-08
179.0,1.4333926641485888,-1.1790594360486437,1.7931997300277045,-2.1849365206126223,-1.5707963395334512,0.0,-0.05071384459733963,1.1012765169143677,0.2247833013534546,0.9976409673690796,-0.06864780932664871,1.4002298875936958e-08,1.184715401336689e-07
180.0,1.4377742760100425,-1.159876160822504,1.7632188485078197,-2.1741390696719534,-1.5707962627773482,0.0,-0.05292319133877754,1.1205908060073853,0.2247786521911621,0.9977889060974121,-0.06646198034286499,-4.115712215480016e-08,3.799193137865586e-08
181.0,1.4419410152283818,-1.140950471893074,1.733237966987935,-2.163083836103085,-1.570796314870016,0.0,-0.05509544536471367,1.1396269798278809,0.22477954626083374,0.9979252219200134,-0.06438308209180832,1.8715699212634718e-08,6.547642072973758e-08
182.0,1.4453133567164007,-1.1241636319507213,1.7054432051640123,-2.1475485579030478,-1.5713156995974142,0.0,-0.056762754917144775,1.1550699472427368,0.22460156679153442,0.9980298280715942,-0.0626995861530304,0.0001172174743260257,0.002275458537042141
183.0,1.4465642000772876,-1.1139235912375463,1.6850233106397583,-2.117567676383162,-1.5735872269220872,0.0,-0.05680571869015694,1.1591054201126099,0.22392694652080536,0.9979975819587708,-0.06205453351140022,0.0006375477532856166,0.01222700159996748
184.0,1.4478150434381742,-1.1036835505243712,1.6646034161155048,-2.087586794863277,-1.5758587542467601,0.0,-0.05687873065471649,1.1629818677902222,0.22336779534816742,0.9978672862052917,-0.06138099357485771,0.0011699892347678542,0.02217663638293743
185.0,1.4490658867990611,-1.0934435098111965,1.6441835215912517,-2.0576059133433926,-1.578130281571433,0.0,-0.05698100104928017,1.1667016744613647,0.22292479872703552,0.9976387619972229,-0.06067916378378868,0.0017142693977802992,0.03212328627705574
186.0,1.4503167301599478,-1.083203469098021,1.6237636270669973,-2.027625031823506,-1.5804018088961063,0.0,-0.05711168050765991,1.1702654361724854,0.22259889543056488,0.9973120093345642,-0.05994924530386925,0.0022701022680848837,0.04206601902842522
187.0,1.4515675735208347,-1.0729634283848457,1.6033437325427433,-1.9976441503036206,-1.5826733362207792,0.0,-0.057269807904958725,1.1736761331558228,0.2223910093307495,0.9968870878219604,-0.0591915063560009,0.002837215084582567,0.05200360715389252
188.0,1.4528184168817213,-1.0627233876716708,1.58292383801849,-1.9676632687837359,-1.5849448635454522,0.0,-0.057454876601696014,1.176934838294983,0.22230176627635956,0.9963638782501221,-0.05840601399540901,0.0034153165761381388,0.06193522363901138
189.0,1.4540692602426082,-1.052483346958496,1.5625039434942367,-1.9376823872638513,-1.5872163908701251,0.0,-0.057665884494781494,1.180044174194336,0.22233161330223083,0.9957424998283386,-0.05759306624531746,0.00400412967428565,0.0718596950173378
190.0,1.4553201036034948,-1.0422433062453211,1.5420840489699836,-1.9077015057439666,-1.589487918194798,0.0,-0.05790209025144577,1.1830058097839355,0.22248142957687378,0.9950228333473206,-0.05675286054611206,0.004603358916938305,0.08177605271339417
191.0,1.45761111739696,-1.027041816582664,1.5171116888679421,-1.8874704945825571,-1.5904018809723905,0.0,-0.059088900685310364,1.1931291818618774,0.22109678387641907,0.994649350643158,-0.05549982190132141,0.004852707032114267,0.08699888736009598
192.0,1.46152816045858,-1.0065746520555257,1.4871308073480574,-1.8778668440796964,-1.5897277091415836,0.0,-0.06203748285770416,1.2110087871551514,0.21793442964553833,0.9947539567947388,-0.053580332547426224,0.004685310181230307,0.08701585233211517
193.0,1.4512964625233469,-1.0220715140623668,1.510005292296218,-1.8854364224679219,-1.591488418167038,0.0,-0.05060601979494095,1.1978321075439453,0.22026269137859344,0.9944708943367004,-0.05859348177909851,0.005121311638504267,0.08699489384889603
194.0,1.44848190516251,-1.0392525406341395,1.536757656720085,-1.9014630720094619,-1.5910807487048089,0.0,-0.04902127385139465,1.1847316026687622,0.22231975197792053,0.9946600198745728,-0.060059934854507446,0.004995556548237801,0.0837801843881607
195.0,1.4471641048083637,-1.049528150965517,1.5572051117897077,-1.9314439535293464,-1.588672348290981,0.0,-0.0487753301858902,1.18179190158844,0.22217196226119995,0.9953948855400085,-0.06095222756266594,0.0043595219030976295,0.073855921626091
196.0,1.4458463044542174,-1.0598037612968945,1.5776525668593304,-1.9614248350492307,-1.5862639478771534,0.0,-0.04855608940124512,1.1787049770355225,0.22214367985725403,0.9960314631462097,-0.06181558594107628,0.003734343219548464,0.06392323970794678
197.0,1.444528504100071,-1.070079371628272,1.5981000219289534,-1.991405716569115,-1.5838555474633258,0.0,-0.048364054411649704,1.1754690408706665,0.22223469614982605,0.9965696334838867,-0.06264989078044891,0.0031204447150230408,0.05398312583565712
198.0,1.4432107037459248,-1.0803549819596494,1.6185474769985762,-2.0213865980889993,-1.581447147049498,0.0,-0.04820038378238678,1.172081708908081,0.22244419157505035,0.9970094561576843,-0.06345478445291519,0.0025180759839713573,0.044036589562892914
199.0,1.4418929033917784,-1.090630592291027,1.6389949320681994,-2.0513674796088845,-1.5790387466356703,0.0,-0.048065658658742905,1.1685415506362915,0.222771555185318,0.9973509311676025,-0.06423018872737885,0.0019275335362181067,0.03408469259738922
200.0,1.4405751030376321,-1.1009062026224046,1.659442387137822,-2.081348361128769,-1.5766303462218427,0.0,-0.04796099662780762,1.1648467779159546,0.22321578860282898,0.9975941777229309,-0.06497577577829361,0.0013491158606484532,0.02412852831184864
201.0,1.4392573026834856,-1.111181812953782,1.679889842207445,-2.111329242648653,-1.5742219458080149,0.0,-0.04788701981306076,1.1609947681427002,0.22377631068229675,0.9977390766143799,-0.06569142639636993,0.0007831217953935266,0.01416907086968422
202.0,1.4379395023293393,-1.1214574232851595,1.7003372972770678,-2.1413101241685375,-1.571813545394187,0.0,-0.04784487560391426,1.1569842100143433,0.2244521826505661,0.9977856278419495,-0.06637683510780334,0.00022984077804721892,0.004207490012049675
203.0,1.4350137889516996,-1.1365952467473093,1.7262917877013617,-2.1604928712872593,-1.5707963197904398,0.0,-0.04659578949213028,1.1444014310836792,0.2247755527496338,-0.9976962208747864,0.0678391233086586,-2.4625384398291317e-08,8.927396599744952e-09
204.0,1.4307521108779147,-1.1554742210977953,1.7562726692212465,-2.1715947903611124,-1.570796342237661,0.0,-0.04442127048969269,1.1254159212112427,0.22478318214416504,-0.9975494146347046,0.06996487826108932,-2.296950007973919e-08,2.487331407508009e-08
205.0,1.4262899547163488,-1.1745859682399282,1.7862535507411312,-2.1824637851987334,-1.5707963634694826,0.0,-0.042228538542985916,1.1061583757400513,0.2247769832611084,0.997390866279602,-0.07219035178422928,1.864167309406639e-08,5.5823004885269256e-08
206.0,1.423948548883521,-1.1759746906549409,1.7882894649100036,-2.183111011845972,-1.570796314870016,0.0,-0.03983975574374199,1.104893445968628,0.2248523235321045,0.9973056316375732,-0.0733579471707344,1.829846318912587e-08,5.684920978410446e-08
207.0,1.4242308511757664,-1.1568319192474414,1.7583085833901189,-2.1722728723243128,-1.570796314870016,0.0,-0.037278398871421814,1.1243454217910767,0.22484712302684784,0.9973159432411194,-0.07321716845035553,1.9746925872254906e-08,3.217972732727503e-08
208.0,1.4268501715746593,-1.1378691685202662,1.728327701870234,-2.161254947080517,-1.570796365757794,0.0,-0.03743922710418701,1.1434516906738281,0.22477543354034424,0.9974110722541809,-0.07191094011068344,1.8563349968303555e-08,6.244342642958145e-08
209.0,1.4301933887276836,-1.1217958113398132,1.7013179850982427,-2.144122512013273,-1.5715949332480297,0.0,-0.03891976550221443,1.1576547622680664,0.22452646493911743,0.9975250959396362,-0.07024198025465012,0.0001807111839298159,0.0031183885876089334
210.0,1.4315827742371028,-1.1114839054251453,1.6808382792210494,-2.1141416304933878,-1.5741487510685899,0.0,-0.03895348310470581,1.161691427230835,0.22381702065467834,0.9974941611289978,-0.06952284276485443,0.0007675794186070561,0.013089187443256378
211.0,1.4329721597465217,-1.1011719995104776,1.660358573343856,-2.084160748973503,-1.5767025688891496,0.0,-0.03902081772685051,1.1655690670013428,0.22322231531143188,0.9973649382591248,-0.06877166777849197,0.001367892837151885,0.02305784821510315
212.0,1.4343615452559408,-1.0908600935958097,1.6398788674666624,-2.0541798674536182,-1.5792563867097096,0.0,-0.03912089020013809,1.1692899465560913,0.22274380922317505,0.9971373677253723,-0.06798867881298065,0.001981347566470504,0.033023275434970856
213.0,1.43575093076536,-1.0805481876811416,1.6193991615894683,-2.024198985933732,-1.5818102045302698,0.0,-0.03925269842147827,1.1728554964065552,0.22238165140151978,0.9968115091323853,-0.06717412918806076,0.002607624977827072,0.04298442229628563
214.0,1.4371403162747791,-1.0702362817664737,1.5989194557122748,-1.9942181044138472,-1.5843640223508297,0.0,-0.039415393024683,1.176268219947815,0.22213730216026306,0.9963871240615845,-0.06632818281650543,0.003246413543820381,0.052940141409635544
215.0,1.4385297017841983,-1.0599243758518058,1.5784397498350813,-1.9642372228939622,-1.5869178401713897,0.0,-0.039608024060726166,1.1795293092727661,0.2220107614994049,0.9958643913269043,-0.06545111536979675,0.0038973893970251083,0.06288951635360718
216.0,1.4399190872936172,-1.0496124699371379,1.557960043957888,-1.9342563413740772,-1.5894716579919497,0.0,-0.03982974588871002,1.1826411485671997,0.22200340032577515,0.9952431917190552,-0.06454314291477203,0.004560237284749746,0.07283134013414383
217.0,1.4413084728030365,-1.0393005640224702,1.5374803380806943,-1.9042754598541924,-1.5920254758125096,0.0,-0.040079619735479355,1.1856058835983276,0.22211533784866333,0.9945234656333923,-0.06360451877117157,0.0052346219308674335,0.08276473730802536
218.0,1.443992894440666,-1.023031269324289,1.511525093814349,-1.8861491609036576,-1.5927466325114228,0.0,-0.041477084159851074,1.1972815990447998,0.22035732865333557,0.9942536354064941,-0.06217118352651596,0.005433991551399231,0.08697623759508133
219.0,1.4445337951755182,-1.0115033011307437,1.4946186981669625,-1.8807694947974976,-1.5926570753479563,0.0,-0.040864408016204834,1.2074642181396484,0.21859857439994812,0.9942706227302551,-0.061906132847070694,0.005412972532212734,0.08697257190942764
220.0,1.430538884158388,-1.0319223343641666,1.5245995796868472,-1.8906398785574776,-1.595062551484358,0.0,-0.02557525411248207,1.1898154020309448,0.22167858481407166,0.9938197731971741,-0.06876003742218018,0.006010444834828377,0.08693782240152359
221.0,1.4319734988448594,-1.012935872496657,1.4969231970879457,-1.8819196482930731,-1.5948185384361782,0.0,-0.02503393031656742,1.2065523862838745,0.2187342494726181,0.9938682317733765,-0.06805748492479324,0.005950534250587225,0.08694025874137878
222.0,1.4379367212956702,-1.016915524779093,1.5026769585713433,-1.8835537171490702,-1.5937914945356038,0.0,-0.03309721127152443,1.202890396118164,0.2193789780139923,0.9940638542175293,-0.06513730436563492,0.0056945220567286015,0.08695825934410095
223.0,1.4346286030842064,-1.035697112924948,1.5309890728139675,-1.8966405175509449,-1.5938403686861182,0.0,-0.031225228682160378,1.1874727010726929,0.22196215391159058,0.9941048622131348,-0.0668100044131279,0.00569723779335618,0.08520191162824631
224.0,1.433176637530744,-1.0460385675729826,1.5514898630202452,-1.9266213990708296,-1.5911447358211344,0.0,-0.03096950054168701,1.1845417022705078,0.22184547781944275,0.9948436617851257,-0.06780103594064713,0.0049827806651592255,0.07526014745235443
225.0,1.4317246719772814,-1.0563800222210173,1.571990653226523,-1.9566022805907144,-1.5884491029561505,0.0,-0.03074313886463642,1.181464672088623,0.22184818983078003,0.9954839944839478,-0.06875975430011749,0.004280358087271452,0.06530941277742386
226.0,1.4302727064238185,-1.0667214768690523,1.5924914434328017,-1.9865831621106,-1.5857534700911666,0.0,-0.030547132715582848,1.1782383918762207,0.22196966409683228,0.9960256814956665,-0.06968589872121811,0.00359018100425601,0.05535094812512398
227.0,1.4288207408703562,-1.077062931517087,1.6129922336390794,-2.016564043630485,-1.5830578372261828,0.0,-0.030382415279746056,1.1748616695404053,0.22220957279205322,0.9964688420295715,-0.07057920098304749,0.0029127306770533323,0.04538555070757866
228.0,1.4273687753168935,-1.0874043861651217,1.6334930238453573,-2.0465449251503696,-1.580362204361199,0.0,-0.030249960720539093,1.1713324785232544,0.22256673872470856,0.9968134760856628,-0.07143945246934891,0.002248208038508892,0.03541448339819908
229.0,1.4259168097634312,-1.0977458408131564,1.653993814051635,-2.0765258066702543,-1.577666571496215,0.0,-0.030150650069117546,1.1676485538482666,0.22304099798202515,0.9970595240592957,-0.07226637750864029,0.0015970172826200724,0.025438761338591576
230.0,1.4244648442099683,-1.1080872954611911,1.674494604257913,-2.106506688190139,-1.5749709386312312,0.0,-0.030085468664765358,1.1638083457946777,0.22363130748271942,0.9972072243690491,-0.07305976748466492,0.0009595465962775052,0.01545940712094307
231.0,1.423012878656506,-1.1184287501092258,1.694995394464191,-2.136487569710024,-1.5722753057662473,0.0,-0.03005542792379856,1.1598100662231445,0.2243364453315735,0.9972564578056335,-0.07381938397884369,0.0003360117261763662,0.005477472208440304
232.0,1.4202261004705206,-1.1325303870157173,1.7197749116104628,-2.1580408208943327,-1.570796314870016,0.0,-0.029043152928352356,1.1490858793258667,0.2247810959815979,0.9971673488616943,-0.07521400600671768,1.6122912782634558e-08,8.57868727166533e-08
233.0,1.420758759336188,-1.151387376762619,1.7497557931303485,-2.169164771172342,-1.5707963498189936,0.0,-0.03254173323512077,1.1299759149551392,0.22481727600097656,0.9971873760223389,-0.07494845241308212,2.032619050851281e-08,4.223579352924389e-08
234.0,1.4304993652730609,-1.1566336174879606,1.7576183794272073,-2.1608942961923687,-1.5863359340267589,0.0,-0.03889325261116028,1.1194069385528564,0.22340843081474304,0.9974986910820007,-0.07004565000534058,0.007368965074419975,0.005974384490400553
235.0,1.4477459890916533,-1.149191826948418,1.7449258623262276,-2.1346392997649715,-1.6163168155466436,0.0,-0.046668753027915955,1.1169476509094238,0.22114868462085724,0.9977448582649231,-0.06110040843486786,0.021732183173298836,0.01730971969664097
236.0,1.464992612910246,-1.1417500364088757,1.7322333452252474,-2.108384303337574,-1.6462976970665282,0.0,-0.05439718812704086,1.1144882440567017,0.21937745809555054,0.997593343257904,-0.05182434991002083,0.03627842292189598,0.028383726254105568
237.0,1.4822392367288386,-1.1343082458693334,1.7195408281242675,-2.082129306910177,-1.6762785785864125,0.0,-0.0620880052447319,1.112054705619812,0.2180938720703125,0.9970359206199646,-0.04222682863473892,0.05099616199731827,0.03918575495481491
238.0,1.499485860547431,-1.126866455329791,1.7068483110232875,-2.0558743104827792,-1.7062594601062973,0.0,-0.06975231319665909,1.1096729040145874,0.21729549765586853,0.9960650205612183,-0.032317619770765305,0.06587360799312592,0.049705181270837784
239.0,1.5167324843660237,-1.1194246647902484,1.6941557939223078,-2.0296193140553824,-1.7362403416261816,0.0,-0.07740297168493271,1.1073673963546753,0.21697857975959778,0.9946731925010681,-0.022106807678937912,0.08089867979288101,0.05993208661675453
240.0,1.5339791081846168,-1.1119828742507059,1.6814632768213271,-2.0033643176279843,-1.7662212231460672,0.0,-0.08505451679229736,1.105162501335144,0.21713797748088837,0.9928535223007202,-0.01160483993589878,0.09605889767408371,0.06985654681921005
241.0,1.5512257320032095,-1.1045410837111636,1.6687707597203472,-1.9771093212005868,-1.7962021046659518,0.0,-0.09272311627864838,1.1030802726745605,0.2177678644657135,0.9905992746353149,-0.0008223821059800684,0.11134175956249237,0.0794692412018776
242.0,1.567269148141227,-1.0968343810660481,1.657852860009901,-1.957749076363008,-1.8261829861858363,0.0,-0.09909649938344955,1.1026079654693604,0.21793821454048157,0.9881221055984497,0.009326751343905926,0.12671232223510742,0.08643890917301178
243.0,1.5802681122321915,-1.0884573766807413,1.6514252387730477,-1.9558344819567142,-1.856163867705721,0.0,-0.10224629938602448,1.1059997081756592,0.21611955761909485,0.9858524203300476,0.017303215339779854,0.14205263555049896,0.08727291971445084
244.0,1.593267076323156,-1.0800803722954344,1.6449976175361944,-1.9539198875504202,-1.8861447492256058,0.0,-0.10560223460197449,1.1095448732376099,0.21457991003990173,0.9832957983016968,0.025302192196249962,0.15737076103687286,0.08788316696882248
245.0,1.6033304059747744,-1.0673836458087707,1.6314122921137013,-1.949983335638266,-1.9101330907982914,0.0,-0.10824975371360779,1.118030071258545,0.21257802844047546,0.9810509085655212,0.03154579922556877,0.16959229111671448,0.0882171168923378
246.0,1.6034398861928194,-1.046097702189457,1.6014314105938157,-1.941247713604139,-1.9129606088940745,0.0,-0.10797082632780075,1.1374337673187256,0.20928213000297546,0.9808066487312317,0.0317276306450367,0.1709839403629303,0.08818300068378448
247.0,1.5960308148122049,-1.0385638985476315,1.588617266252328,-1.9367105129249356,-1.8953300094358696,0.0,-0.10619748383760452,1.1455440521240234,0.20714810490608215,0.9824181795120239,0.027250630781054497,0.16200335323810577,0.0886949822306633
248.0,1.584187840176911,-1.0401383617022077,1.5877028174724679,-1.9352343871583584,-1.8653491279159853,0.0,-0.10370495915412903,1.14609956741333,0.20598915219306946,0.9849188923835754,0.02001282386481762,0.14673219621181488,0.08946499973535538
249.0,1.572344865541617,-1.041712824856784,1.5867883686926076,-1.933758261391781,-1.8353682463961012,0.0,-0.1013139858841896,1.1468193531036377,0.20515833795070648,0.9871466755867004,0.012758185155689716,0.13142377138137817,0.0900348424911499
250.0,1.5605018909063229,-1.0432872880113602,1.5858739199127476,-1.9322821356252036,-1.8053873648762169,0.0,-0.09900948405265808,1.1477062702178955,0.20465843379497528,0.9891012907028198,0.005491345189511776,0.11608350276947021,0.09040411561727524
251.0,1.548658916271029,-1.0448617511659364,1.5849594711328874,-1.9308060098586264,-1.7754064833563326,0.0,-0.09677629172801971,1.1487627029418945,0.20449256896972656,0.9907822608947754,-0.001783063169568777,0.10071663558483124,0.09057250618934631
252.0,1.5368159416357352,-1.0464362143205126,1.5840450223530274,-1.9293298840920492,-1.7454256018364485,0.0,-0.09459907561540604,1.1499905586242676,0.20466269552707672,0.9921891689300537,-0.00906036701053381,0.08532849699258804,0.09054017066955566
253.0,1.5249729670004408,-1.0480106774750888,1.5831305735731673,-1.927853758325472,-1.7154447203165633,0.0,-0.09246239066123962,1.151390790939331,0.2051713615655899,0.9933218955993652,-0.0163359884172678,0.06992439925670624,0.09030690044164658
254.0,1.513129992365147,-1.0495851406296648,1.582216124793307,-1.9263776325588948,-1.685463838796679,0.0,-0.09035103023052216,1.1529639959335327,0.2060200572013855,0.9941802024841309,-0.023605169728398323,0.054509639739990234,0.0898728221654892
255.0,1.501287017729853,-1.0511596037842412,1.581301676013447,-1.9249015067923174,-1.6554829572767946,0.0,-0.08824943006038666,1.1547095775604248,0.20721065998077393,0.9947642683982849,-0.030863309279084206,0.03908960521221161,0.08923819661140442
256.0,1.489444043094559,-1.0527340669388172,1.5803872272335868,-1.9234253810257402,-1.6255020757569103,0.0,-0.08614219725131989,1.1566274166107178,0.2087439000606537,0.9950740933418274,-0.0381057932972908,0.02366948127746582,0.08840331435203552
257.0,1.477601068459265,-1.0543085300933934,1.5794727784537268,-1.9219492552591628,-1.595521194237026,0.0,-0.08401396125555038,1.1587153673171997,0.21062102913856506,0.9951099753379822,-0.04532797634601593,0.008254628628492355,0.08736860752105713
258.0,1.4711249724823987,-1.070203321353446,1.6011891375086886,-1.928096760216665,-1.5880730749473755,0.0,-0.08077671378850937,1.1456104516983032,0.21359783411026,0.9949948787689209,-0.048877157270908356,0.004274584818631411,0.08705136924982071
259.0,1.4675299064887846,-1.0916704004476685,1.6311700190285734,-1.9366732135313234,-1.588694191772478,0.0,-0.07842439413070679,1.1265062093734741,0.2169775366783142,0.9949067234992981,-0.05063901096582413,0.004428687505424023,0.08704352378845215
260.0,1.4637486651728333,-1.1135158631094684,1.661150900548459,-1.9448766281858676,-1.5893472959951498,0.0,-0.0760321319103241,1.1070399284362793,0.2204122543334961,0.9948106408119202,-0.0524919331073761,0.004590775351971388,0.08703500777482986
261.0,1.4717788588655625,-1.1113846133708132,1.6580667977198642,-1.9437822585798659,-1.5879600599226946,0.0,-0.08526255935430527,1.1083862781524658,0.22017031908035278,0.995010495185852,-0.04855670779943466,0.004246487747877836,0.08705263584852219
262.0,1.4754121797213169,-1.0895846704006322,1.6280859161999794,-1.9355411008761465,-1.5873320162633986,0.0,-0.08764567971229553,1.1278064250946045,0.21675065159797668,0.9950957894325256,-0.04677601903676987,0.004090714268386364,0.08706001192331314
263.0,1.4788667302645144,-1.068160761511228,1.5981050346800947,-1.926928793688326,-1.586734835991733,0.0,-0.08998847752809525,1.146864891052246,0.21338620781898499,0.9951739311218262,-0.04508279636502266,0.003942680079489946,0.08706696331501007
264.0,1.4886206528973773,-1.0552582925992715,1.5795935055132118,-1.9211747224841886,-1.5850471426641433,0.0,-0.10086265206336975,1.1576534509658813,0.21147531270980835,0.9953790903091431,-0.04030152037739754,0.003524255473166704,0.08708485960960388
265.0,1.4849946967840257,-1.0764594368151297,1.6095743870330965,-1.9300065217504068,-1.5856746276816236,0.0,-0.09806696325540543,1.1388617753982544,0.2147999405860901,0.995305597782135,-0.04207903519272804,0.003679779125377536,0.08707843720912933
266.0,1.4815978837203665,-1.0980173779019846,1.6395552685529813,-1.9384801480033478,-1.586262297880314,0.0,-0.09571417421102524,1.1196736097335815,0.21817466616630554,0.9952337741851807,-0.043744076043367386,0.003825476160272956,0.08707213401794434
267.0,1.4780146060655017,-1.1199815075464425,1.669536150072867,-1.9465526054026765,-1.5868822110423677,0.0,-0.09331082552671432,1.1001156568527222,0.2216252088546753,0.9951549768447876,-0.04550045728683472,0.003979216329753399,0.0870652049779892
268.0,1.48770689764015,-1.1074001377430462,1.6522062817388523,-1.9416585571941842,-1.585205284699979,0.0,-0.10366576910018921,1.1106444597244263,0.21977117657661438,0.9953609108924866,-0.04074946418404579,0.0035634711384773254,0.08708323538303375
269.0,1.4910627407943458,-1.0856600225302162,1.6222254002189676,-1.933371199358845,-1.584624551735397,0.0,-0.10604467242956161,1.1299880743026733,0.216354101896286,0.9954268336296082,-0.039104294031858444,0.0034195766784250736,0.08708900958299637
270.0,1.494243154033043,-1.0643166406576088,1.5922445186990828,-1.9246911734416154,-1.5840736091029266,0.0,-0.10837066173553467,1.148963212966919,0.21301841735839844,0.9954869151115417,-0.0375451035797596,0.003283049212768674,0.08709423989057541
271.0,1.5029682017083306,-1.0559799672489125,1.5801712538910326,-1.920846987109361,-1.5825625503885963,0.0,-0.11846204847097397,1.1555876731872559,0.2118440717458725,0.9956389665603638,-0.033267222344875336,0.0029088661540299654,0.08710754662752151
272.0,1.4997878421700457,-1.0771938983988014,1.6101521354109174,-1.9296517271863483,-1.5831134690957434,0.0,-0.1159362643957138,1.1367758512496948,0.2151675522327423,0.9955856204032898,-0.034826621413230896,0.0030452394858002663,0.08710286021232605
273.0,1.4966281500641252,-1.0987654243074458,1.6401330169308022,-1.9381001532944286,-1.5836608137854953,0.0,-0.11358338594436646,1.117586374282837,0.2185417115688324,0.9955302476882935,-0.03637577220797539,0.0031808395870029926,0.0870981365442276
274.0,1.4932934501459725,-1.1207470759970248,1.670113898450687,-1.9461425865772997,-1.5842381500674405,0.0,-0.11117897182703018,1.0980266332626343,0.2219945192337036,0.9954692721366882,-0.038010723888874054,0.0033238157629966736,0.08709277212619781
275.0,1.502788759938518,-1.1085295471582954,1.6532654517521248,-1.941393759548827,-1.5825935568693275,0.0,-0.12147863954305649,1.1080994606018066,0.220219224691391,0.9956360459327698,-0.03335520252585411,0.00291651813313365,0.08710725605487823
276.0,1.505904158254799,-1.0867694475105678,1.62328457023224,-1.9331374476499088,-1.582053826365959,0.0,-0.12385773658752441,1.127451777458191,0.2168024778366089,0.9956860542297363,-0.03182761371135712,0.002782893367111683,0.08711174130439758
277.0,1.493850863004322,-1.0837063255565078,1.6199269051619551,-1.9299828157799832,-1.5534219824745596,0.0,-0.1212456226348877,1.130991816520691,0.2155357301235199,0.9952806830406189,-0.03907860815525055,-0.012046735733747482,0.08799993991851807
278.0,1.4810714456430645,-1.0815356949896577,1.6178473807410703,-1.9270781746957661,-1.5234411009546738,0.0,-0.1183299571275711,1.1339467763900757,0.21471098065376282,0.9945749044418335,-0.04677940532565117,-0.027586184442043304,0.08872029930353165
279.0,1.4682920282818068,-1.0793650644228077,1.6157678563201856,-1.924173533611549,-1.4934602194347881,0.0,-0.11533362418413162,1.1370728015899658,0.21422870457172394,0.9935835599899292,-0.054505396634340286,-0.04312426224350929,0.08922478556632996
280.0,1.4549227305751213,-1.0814908518772237,1.6202808510020938,-1.9219939383913218,-1.4634793379149027,0.0,-0.11211859434843063,1.13570237159729,0.21426494419574738,0.9922124743461609,-0.06258166581392288,-0.05872288718819618,0.09027507156133652
281.0,1.4405670535654163,-1.09080097399569,1.6358176481350604,-1.9210267419898097,-1.433498456395018,0.0,-0.10883252322673798,1.1266876459121704,0.21491512656211853,0.9903785586357117,-0.07126375287771225,-0.07443757355213165,0.09236238151788712
282.0,1.426211376555711,-1.100111096114156,1.651354445268027,-1.9200595455882974,-1.4035175748751332,0.0,-0.10577456653118134,1.1178338527679443,0.21586935222148895,0.9882289171218872,-0.08001086115837097,-0.09015572816133499,0.09420016407966614
283.0,1.4118556995460059,-1.1094212182326224,1.6668912424009934,-1.919092349186785,-1.3735366933552484,0.0,-0.10292765498161316,1.1091513633728027,0.2171243131160736,0.9857625961303711,-0.08881666511297226,-0.10587023198604584,0.09578670561313629
284.0,1.3981237507791047,-1.1124146850160876,1.6750043392882972,-1.9150825832189238,-1.3435558118353632,0.0,-0.10018090158700943,1.1050584316253662,0.21682129800319672,0.9828957915306091,-0.09746784716844559,-0.12161427736282349,0.09811145067214966
285.0,1.3851246033078262,-1.1079868857804327,1.6743955332938658,-1.9074981852763777,-1.3135749303154776,0.0,-0.09729165583848953,1.1063454151153564,0.21468213200569153,0.9796019792556763,-0.10596626996994019,-0.1373988687992096,0.10135374218225479
286.0,1.3721254558365477,-1.103559086544778,1.6737867272994347,-1.8999137873338319,-1.283594048795592,0.0,-0.09427385032176971,1.1078412532806396,0.21289898455142975,0.97597336769104,-0.11456478387117386,-0.15317311882972717,0.10434933006763458
287.0,1.3591263083652692,-1.099131287309123,1.6731779213050033,-1.8923293893912858,-1.2536131672757063,0.0,-0.09110794961452484,1.109549880027771,0.21146544814109802,0.9720088243484497,-0.12325676530599594,-0.1689290553331375,0.1070953905582428
288.0,1.3461271608939906,-1.0947034880734683,1.6725691153105722,-1.88474499144874,-1.2236322857558204,0.0,-0.0877746045589447,1.111473798751831,0.21037429571151733,0.9677075147628784,-0.13203543424606323,-0.18465876579284668,0.10958938300609589
289.0,1.3331280134227121,-1.0902756888378136,1.6719603093161408,-1.877160593506194,-1.193651404235935,0.0,-0.08425435423851013,1.1136149168014526,0.2096187174320221,0.9630686044692993,-0.14089389145374298,-0.20035429298877716,0.11182897537946701
290.0,1.3207801202721001,-1.0842040010737,1.670931795582102,-1.8666873775026633,-1.1636705227160482,0.0,-0.08146041631698608,1.1151145696640015,0.2075749635696411,0.9578016996383667,-0.14988523721694946,-0.21615959703922272,0.11586721986532211
291.0,1.3087908622753845,-1.0772270506546118,1.6696721556274623,-1.8546233364143705,-1.1336896411961639,0.0,-0.0789770558476448,1.1163909435272217,0.20499303936958313,0.9519942402839661,-0.159044548869133,-0.2320052683353424,0.12076962739229202
292.0,1.296801604278669,-1.0702501002355236,1.668412515672823,-1.8425592953260777,-1.1037087596762793,0.0,-0.07627443969249725,1.117929458618164,0.20275652408599854,0.9457963109016418,-0.16834531724452972,-0.24779880046844482,0.12539860606193542
293.0,1.2848123462819534,-1.0632731498164354,1.6671528757181837,-1.8304952542377846,-1.0737278781563948,0.0,-0.07333067059516907,1.1197340488433838,0.20085200667381287,0.9392077922821045,-0.1777791976928711,-0.2635297179222107,0.12975047528743744
294.0,1.272823088285238,-1.0562961993973474,1.665893235763544,-1.8184312131494917,-1.0437469966365105,0.0,-0.07012399286031723,1.1218078136444092,0.19926472008228302,0.9322288036346436,-0.18733762204647064,-0.2791876196861267,0.13382181525230408
295.0,1.2611341648506653,-1.051376569090133,1.6684953308674428,-1.8115148386046194,-1.0137661151166257,0.0,-0.06729861348867416,1.1231049299240112,0.19787701964378357,0.9252572059631348,-0.19647380709648132,-0.2945830821990967,0.13608069717884064
296.0,1.2513077368764842,-1.0592152085657809,1.6950455988504225,-1.8365212154751078,-0.9837852335967397,0.0,-0.06847041845321655,1.117960810661316,0.19621644914150238,0.9204453229904175,-0.20221850275993347,-0.3087657392024994,0.12865373492240906
297.0,1.241481308902303,-1.0670538480414287,1.7215958668334022,-1.8615275923455963,-0.9538043520768538,0.0,-0.06963135302066803,1.1126937866210938,0.1949755996465683,0.9153933525085449,-0.20778372883796692,-0.3228303790092468,0.1210848018527031
298.0,1.2316548809281218,-1.0748924875170767,1.7481461348163816,-1.8865339692160845,-0.9238234705569677,0.0,-0.0707797035574913,1.1072956323623657,0.19415386021137238,0.9101042747497559,-0.21316629648208618,-0.3367726504802704,0.11337781697511673
299.0,1.2218284529539405,-1.0827311269927242,1.7746964027993613,-1.911540346086573,-0.8938425890370817,0.0,-0.07191430032253265,1.101757287979126,0.1937500387430191,0.9045812487602234,-0.2183632105588913,-0.35058829188346863,0.10553696006536484
300.0,1.2120020249797592,-1.0905697664683722,1.801246670782341,-1.9365467229570614,-0.8638617075171957,0.0,-0.07303444296121597,1.0960698127746582,0.1937626749277115,0.8988274931907654,-0.22337152063846588,-0.36427319049835205,0.09756655991077423
301.0,1.2116935839152154,-1.0870288971341342,1.799588187695461,-1.945421472143572,-0.8473046824043434,0.0,-0.07529793679714203,1.1029698848724365,0.19564588367938995,0.8965108394622803,-0.2232092171907425,-0.3713476359844208,0.0924486517906189
302.0,1.2206320489032036,-1.0721017328578781,1.7696073061755762,-1.937849106012166,-0.8443737509442021,0.0,-0.07869933545589447,1.1224085092544556,0.19905638694763184,0.8977558612823486,-0.21814876794815063,-0.37186264991760254,0.09035225957632065
303.0,1.229181288284417,-1.0572234679999872,1.7396264246556914,-1.9299581073323075,-0.8416266943284183,0.0,-0.08207470178604126,1.141558051109314,0.2024160623550415,0.8989248275756836,-0.2132783830165863,-0.37234821915626526,0.08833546191453934
304.0,1.2352936352438502,-1.0446423040138577,1.713548729457632,-1.9127650595084857,-0.8427162456379086,0.0,-0.08405430614948273,1.1544058322906494,0.20421981811523438,0.8993910551071167,-0.21107500791549683,-0.37176594138145447,0.09128590673208237
305.0,1.2384054768486563,-1.0352543930257179,1.6929923399062041,-1.8827841779886014,-0.8490253011411639,0.0,-0.08418241888284683,1.1585538387298584,0.2039772868156433,0.898891806602478,-0.21237021684646606,-0.36967048048973083,0.1011737734079361
306.0,1.2415173184534622,-1.025866482037578,1.6724359503547763,-1.8528032964687173,-0.8553343566444193,0.0,-0.08438648283481598,1.16253662109375,0.20387285947799683,0.8983156085014343,-0.21359214186668396,-0.36752158403396606,0.11106398701667786
307.0,1.2446291600582684,-1.016478571049438,1.6518795608033483,-1.822822414948833,-0.8616434121476746,0.0,-0.08466414362192154,1.1663557291030884,0.20390760898590088,0.8976621627807617,-0.21474100649356842,-0.3653198778629303,0.12095539271831512
308.0,1.2477410016630746,-1.0070906600612979,1.6313231712519203,-1.7928415334289487,-0.8679524676509299,0.0,-0.08501334488391876,1.1700127124786377,0.20408271253108978,0.896930992603302,-0.21581681072711945,-0.36306604743003845,0.13084642589092255
309.0,1.2508528432678807,-0.997702749073158,1.6107667817004925,-1.7628606519090646,-0.8742615231541854,0.0,-0.08543184399604797,1.1735087633132935,0.20439960062503815,0.8961216807365417,-0.21681977808475494,-0.3607608675956726,0.14073577523231506
310.0,1.2539646848726869,-0.9883148380850182,1.5902103921490647,-1.73287977038918,-0.8805705786574407,0.0,-0.08591745048761368,1.1768461465835571,0.20485904812812805,0.8952339291572571,-0.21775007247924805,-0.35840490460395813,0.15062212944030762
311.0,1.2596624322605516,-0.9756581085934911,1.5649202158880335,-1.7136844980901271,-0.8820140216103592,0.0,-0.08857879042625427,1.1874961853027344,0.20599707961082458,0.895270824432373,-0.21605172753334045,-0.35755404829978943,0.15481191873550415
312.0,1.2619634216208082,-0.9605642631223834,1.5438402478091486,-1.709330334435418,-0.8810501469027631,0.0,-0.08739536255598068,1.200512409210205,0.20249415934085846,0.8955554962158203,-0.2148566097021103,-0.3577522337436676,0.15437011420726776
313.0,1.253725032445034,-0.9763859939184831,1.5738211293290334,-1.717387005350727,-0.8846182381637688,0.0,-0.08254453539848328,1.182393193244934,0.20077259838581085,0.8945128321647644,-0.2191581428050995,-0.35700568556785583,0.15608739852905273
314.0,1.2495786424224111,-0.9869464225627704,1.596114532060509,-1.7430944894103189,-0.8801723908649968,0.0,-0.08118171989917755,1.1763064861297607,0.1999921202659607,0.8950575590133667,-0.21931099891662598,-0.35880330204963684,0.14844095706939697
315.0,1.246449375856219,-0.9962334823990232,1.6165580269275404,-1.7730753709302027,-0.8737801353461309,0.0,-0.08070290088653564,1.1730167865753174,0.1995769739151001,0.8959200978279114,-0.2183857560157776,-0.36116981506347656,0.13853150606155396
316.0,1.243320109290027,-1.0055205422352762,1.637001521794572,-1.8030562524500868,-0.8673878798272651,0.0,-0.08029130101203918,1.1695685386657715,0.19930711388587952,0.8967041969299316,-0.21738679707050323,-0.3634853959083557,0.12861928343772888
317.0,1.2401908427238346,-1.0148076020715293,1.6574450166616046,-1.8330371339699727,-0.8609956243083987,0.0,-0.0799492746591568,1.1659601926803589,0.19918106496334076,0.8974100351333618,-0.21631388366222382,-0.3657492399215698,0.11870579421520233
318.0,1.2370615761576427,-1.0240946619077822,1.677888511528636,-1.8630180154898568,-0.8546033687895329,0.0,-0.0796789675951004,1.1621900796890259,0.19919823110103607,0.8980380296707153,-0.21516691148281097,-0.36796072125434875,0.10879220813512802
319.0,1.2339323095914503,-1.033381721744035,1.6983320063956673,-1.8929988970097404,-0.848211113270667,0.0,-0.07948247343301773,1.1582564115524292,0.1993565857410431,0.8985885977745056,-0.21394583582878113,-0.37011924386024475,0.09888014942407608
320.0,1.2308030430252583,-1.042668781580288,1.7187755012626988,-1.9229797785296245,-0.8418188577518012,0.0,-0.07936236262321472,1.1541578769683838,0.19965526461601257,0.89906245470047,-0.21265047788619995,-0.37222397327423096,0.08897101134061813
321.0,1.222955021790317,-1.0569097503018496,1.7478432516202282,-1.9332312773590237,-0.8436221542731136,0.0,-0.07632454484701157,1.1366022825241089,0.1966814547777176,0.8980756998062134,-0.2168283313512802,-0.3719951808452606,0.08980537205934525
322.0,1.2143275684447292,-1.0717845268957964,1.777824133140113,-1.9410981236701965,-0.8464327757190626,0.0,-0.07304119318723679,1.117356300354004,0.19338132441043854,0.8968794941902161,-0.22172176837921143,-0.3715011775493622,0.09183291345834732
323.0,1.213014320802091,-1.0740916990025393,1.7821045388678343,-1.941990390467198,-0.8468815140755497,0.0,-0.07252772152423859,1.1145272254943848,0.19306999444961548,0.8967003226280212,-0.22246070206165314,-0.37141740322113037,0.09213488548994064
324.0,1.219702620299579,-1.057118496494748,1.7521236573479495,-1.9345928003530364,-0.8447005832938427,0.0,-0.07337434589862823,1.1338953971862793,0.19407016038894653,0.897634744644165,-0.21867141127586365,-0.37179702520370483,0.0905621349811554
325.0,1.226390919797067,-1.0401452939869567,1.7221427758280647,-1.927195210238875,-0.8425196525121356,0.0,-0.07455828785896301,1.153090000152588,0.19494643807411194,0.8985463380813599,-0.21487078070640564,-0.37218931317329407,0.08899419009685516
326.0,1.2298691444307592,-1.0302314455825143,1.7009084986430474,-1.8993240361081059,-0.848185756295432,0.0,-0.07480122148990631,1.158519983291626,0.19472360610961914,0.8982120752334595,-0.21567757427692413,-0.3703016936779022,0.0978504940867424
327.0,1.2330165858144706,-1.0210450307091108,1.680575518259801,-1.86934315458822,-0.8546604604093307,0.0,-0.07500101625919342,1.1623847484588623,0.19453033804893494,0.8976773023605347,-0.21688798069953918,-0.36812710762023926,0.10778363049030304
328.0,1.236164027198182,-1.0118586158357075,1.6602425378765542,-1.839362273068334,-0.8611351645232295,0.0,-0.07527464628219604,1.1660866737365723,0.19448092579841614,0.8970651030540466,-0.21802328526973724,-0.3658992350101471,0.11771847307682037
329.0,1.2393114685818933,-1.0026722009623041,1.6399095574933076,-1.8093813915484485,-0.8676098686371281,0.0,-0.07562009990215302,1.169627070426941,0.19457702338695526,0.8963750004768372,-0.21908344328403473,-0.363618940114975,0.12765346467494965
330.0,1.2424589099656047,-0.9934857860889008,1.6195765771100608,-1.7794005100285626,-0.8740845727510268,0.0,-0.07603511214256287,1.1730082035064697,0.1948196142911911,0.8956066966056824,-0.22006873786449432,-0.3612867593765259,0.13758741319179535
331.0,1.2456063513493163,-0.9842993712154969,1.599243596726813,-1.7494196285086752,-0.880559276864926,0.0,-0.07651721686124802,1.1762313842773438,0.1952098309993744,0.8947595953941345,-0.22097931802272797,-0.3589033782482147,0.14751870930194855
332.0,1.2489170518415644,-0.9749084299433648,1.5786116872430007,-1.7201195472996567,-0.88671932901878,0.0,-0.07719416171312332,1.1797739267349243,0.19578412175178528,0.8938969373703003,-0.22165513038635254,-0.3565692603588104,0.1570843756198883
333.0,1.2572387145962847,-0.95914202541145,1.548630805723116,-1.7120404175437554,-0.883093087131998,0.0,-0.08203649520874023,1.19795823097229,0.1975151002407074,0.894960343837738,-0.217326357960701,-0.35732343792915344,0.15535472333431244
334.0,1.2455073649092745,-0.9490360348925642,1.550185024096655,-1.69278716285941,-0.8652959607593814,0.0,-0.0749518945813179,1.194742202758789,0.18912078440189362,0.88631671667099,-0.2285158336162567,-0.3672417402267456,0.16539858281612396
335.0,1.2288123644866626,-0.9454369650256652,1.5648010836387796,-1.6628062813395248,-0.8356440368642893,0.0,-0.06899718940258026,1.1822935342788696,0.18314026296138763,0.8718718886375427,-0.24559877812862396,-0.3832617402076721,0.18064092099666595
336.0,1.2121173640640506,-0.9418378951587664,1.579417143180904,-1.6328253998196396,-0.8059921129691973,0.0,-0.06305575370788574,1.170449137687683,0.1778993010520935,0.8564592003822327,-0.26289868354797363,-0.399037629365921,0.19527103006839752
337.0,1.1954223636414385,-0.9382388252918675,1.5940332027230284,-1.6028445182997542,-0.7763401890741053,0.0,-0.05707760900259018,1.159231185913086,0.17332835495471954,0.8400914669036865,-0.2803800404071808,-0.41453027725219727,0.20927958190441132
338.0,1.1787273632188267,-0.9346397554249686,1.6086492622651527,-1.572863636779869,-0.7466882651790132,0.0,-0.05101315677165985,1.1486525535583496,0.16935639083385468,0.8227830529212952,-0.2980073392391205,-0.4297008514404297,0.22265839576721191
339.0,1.1620323627962146,-0.9310406855580697,1.6232653218072772,-1.5428827552599838,-0.7170363412839211,0.0,-0.04481484740972519,1.1387202739715576,0.16591008007526398,0.8045503497123718,-0.3157447576522827,-0.44451120495796204,0.2354012429714203
340.0,1.1453373623736025,-0.9274416156911708,1.6378813813494015,-1.5129018737400983,-0.6873844173888292,0.0,-0.03843709081411362,1.1294318437576294,0.1629154086112976,0.7854112982749939,-0.3335566520690918,-0.4589235186576843,0.24750366806983948
341.0,1.141020608215316,-0.9142803832978299,1.6293321663662907,-1.4829209922202142,-0.6676294594042921,0.0,-0.037425704300403595,1.1326931715011597,0.1597903072834015,0.7728061079978943,-0.34321194887161255,-0.4674278199672699,0.2578517198562622
342.0,1.136982908966809,-0.9009035817241594,1.6202607139470666,-1.4529401107003301,-0.6480976184001649,0.0,-0.03627309203147888,1.136479139328003,0.15664523839950562,0.7600226402282715,-0.35278162360191345,-0.47552424669265747,0.2679312825202942
343.0,1.132431376915343,-0.8880878539987128,1.6118561169437917,-1.4229592291804458,-0.6311978108353786,0.0,-0.034179382026195526,1.1392890214920044,0.15318706631660461,0.7474262714385986,-0.362286776304245,-0.4824170172214508,0.2781656086444855
344.0,1.1250167455612248,-0.8783984547877787,1.6071672680698237,-1.3929783476605584,-0.628963811022306,0.0,-0.028257034718990326,1.1354105472564697,0.14830508828163147,0.7374166250228882,-0.3708689510822296,-0.4840603172779083,0.2904452383518219
345.0,1.1176021142071073,-0.8687090555768451,1.602478419195856,-1.3629974661406732,-0.6267298112092335,0.0,-0.02236386388540268,1.1315650939941406,0.14366063475608826,0.7271282076835632,-0.3792993724346161,-0.48563385009765625,0.3026157021522522
346.0,1.1101874828529896,-0.8590196563659115,1.5977895703218883,-1.3330165846207878,-0.6244958113961611,0.0,-0.016494497656822205,1.1277610063552856,0.13924908638000488,0.7165654301643372,-0.38757312297821045,-0.48713576793670654,0.31467393040657043
347.0,1.102772851498872,-0.8493302571549779,1.5931007214479205,-1.3030357031009023,-0.6222618115830886,0.0,-0.01064368337392807,1.1240060329437256,0.13506539165973663,0.7057327628135681,-0.39568573236465454,-0.48856428265571594,0.32661744952201843
348.0,1.0953582201447543,-0.8396408579440444,1.5884118725739529,-1.2730548215810171,-0.6200278117700162,0.0,-0.004806146025657654,1.1203069686889648,0.1311042159795761,0.6946348547935486,-0.4036324620246887,-0.489917516708374,0.3384436070919037
349.0,1.0879435887906368,-0.8299514587331108,1.583723023699985,-1.2430739400611317,-0.6177938119569437,0.0,0.0010238438844680786,1.1166707277297974,0.12735986709594727,0.683276355266571,-0.4114088714122772,-0.4911937117576599,0.35014966130256653
350.0,1.080528957436519,-0.8202620595221772,1.5790341748260175,-1.2130930585412463,-0.6155598121438712,0.0,0.006851702928543091,1.1131045818328857,0.12382636219263077,0.6716622710227966,-0.4190104901790619,-0.49239110946655273,0.36173319816589355
351.0,1.0731143260824016,-0.8105726603112436,1.5743453259520495,-1.1831121770213608,-0.6133258123307987,0.0,0.012683495879173279,1.109613299369812,0.12049797177314758,0.6597974300384521,-0.4264330565929413,-0.4935079514980316,0.37319162487983704
352.0,1.065699694728284,-0.80088326110031,1.5696564770780819,-1.1531312955014756,-0.6110918125177263,0.0,0.018524475395679474,1.1062040328979492,0.11736778914928436,0.6476870179176331,-0.43367213010787964,-0.4945424497127533,0.3845226466655731
353.0,1.0582850633741663,-0.7911938618893765,1.564967628204114,-1.1231504139815902,-0.6088578127046538,0.0,0.024380885064601898,1.102881669998169,0.11442935466766357,0.6353362202644348,-0.4407236874103546,-0.4954928457736969,0.3957238793373108
354.0,1.0508704320200488,-0.7815044626784429,1.5602787793301465,-1.093169532461705,-0.6066238128915812,0.0,0.030258573591709137,1.0996512174606323,0.11167597770690918,0.6227501630783081,-0.4475835859775543,-0.4963574707508087,0.40679290890693665
355.0,1.0434558006659311,-0.7718150634675093,1.5555899304561789,-1.0631886509418196,-0.6043898130785088,0.0,0.036163121461868286,1.0965172052383423,0.10910029709339142,0.6099343299865723,-0.4542476236820221,-0.49713456630706787,0.4177275598049164
356.0,1.0360411693118137,-0.7621256642565758,1.5509010815822108,-1.0332077694219342,-0.6021558132654362,0.0,0.042100757360458374,1.0934842824935913,0.10669530183076859,0.5968941450119019,-0.46071216464042664,-0.49782252311706543,0.4285256266593933
357.0,1.028626537957696,-0.7524362650456421,1.5462122327082433,-1.0032268879020485,-0.5999218134523638,0.0,0.04807714372873306,1.090556263923645,0.1044532060623169,0.5836353898048401,-0.4669732451438904,-0.4984195828437805,0.4391850531101227
358.0,1.021211906603578,-0.742746865834708,1.5415233838342752,-0.9732460063821615,-0.5976878136392911,0.0,0.054098278284072876,1.0877366065979004,0.10236649215221405,0.5701634287834167,-0.47302713990211487,-0.49892425537109375,0.4497036337852478
359.0,1.0137972752494604,-0.7330574666237745,1.5368345349603076,-0.9432651248622762,-0.5954538138262188,0.0,0.06016983836889267,1.0850285291671753,0.10042718052864075,0.5564844012260437,-0.4788702726364136,-0.4993347227573395,0.4600794315338135
360.0,1.0063826438953427,-0.7233680674128409,1.5321456860863398,-0.9132842433423907,-0.5932198140131463,0.0,0.06629770249128342,1.0824345350265503,0.09862720966339111,0.5426037311553955,-0.4844990372657776,-0.4996495544910431,0.47031062841415405
361.0,0.9989680125412251,-0.7136786682019073,1.527456837212372,-0.8833033618225054,-0.5909858142000738,0.0,0.0724874958395958,1.0799577236175537,0.09695861488580704,0.5285276770591736,-0.4899100363254547,-0.49986711144447327,0.48039504885673523
362.0,0.9915533811871076,-0.7039892689909737,1.5227679883384042,-0.85332248030262,-0.5887518143870013,0.0,0.07874491810798645,1.0775994062423706,0.09541288763284683,0.5142621397972107,-0.49509987235069275,-0.499985933303833,0.4903310239315033
363.0,0.9843341867935611,-0.6943042688752996,1.5177626517154739,-0.8234584452554654,-0.5864431119515843,0.0,0.08499770611524582,1.0756062269210815,0.09404940903186798,0.4999952018260956,-0.5000047087669373,-0.500004768371582,0.4999951720237732
364.0,0.992456314193189,-0.6849179547033744,1.487781770195589,-0.8028637616279424,-0.5783207261745372,0.0,0.0850200280547142,1.092854619026184,0.09812016785144806,0.4999951124191284,-0.500004768371582,-0.500004768371582,0.4999951422214508
365.0,1.0002558163210193,-0.6753399225049859,1.4578008886757043,-0.7824610104114582,-0.5705213332375583,0.0,0.08500581234693527,1.1097944974899292,0.10213716328144073,0.4999951720237732,-0.500004768371582,-0.500004768371582,0.4999951422214508
366.0,1.0076956585170704,-0.6655490612592552,1.4278200071558196,-0.762270853870499,-0.5630814596889538,0.0,0.0850164070725441,1.1264009475708008,0.1060621440410614,0.49999523162841797,-0.500004768371582,-0.500004768371582,0.49999523162841797
367.0,1.0148226815879673,-0.6555734820367259,1.3978391256359348,-0.7422656885362994,-0.5559544027068922,0.0,0.08501868695020676,1.142687439918518,0.10991576313972473,0.49999529123306274,-0.500004768371582,-0.500004768371582,0.4999951720237732
368.0,1.0216654757226662,-0.6454305917152722,1.36785824411605,-0.7224277716078535,-0.549111702085865,0.0,0.08499752730131149,1.1586600542068481,0.11370736360549927,0.49999523162841797,-0.500004768371582,-0.500004768371582,0.4999951720237732
369.0,1.0147531521286994,-0.6558957183530408,1.3978382650741228,-0.7419425147248918,-0.5560239898001114,0.0,0.08509289473295212,1.1426458358764648,0.11030937731266022,0.4999952018260956,-0.500004768371582,-0.5000047087669373,0.4999951124191284
370.0,1.0076854569697937,-0.666109495940988,1.4278191465940075,-0.7617095354121041,-0.5630916652046044,0.0,0.08501937240362167,1.1263824701309204,0.10673796385526657,0.4999951124191284,-0.500004768371582,-0.500004768371582,0.49999523162841797
371.0,1.0002621145354742,-0.6759569700815006,1.457800028113894,-0.7818482555054682,-0.5705129963913674,0.0,0.08499099314212799,1.109786033630371,0.10287053883075714,0.4999964237213135,-0.5000048875808716,-0.5000056028366089,0.49999287724494934
372.0,0.9924506780762133,-0.6854958924567693,1.4877809096337788,-0.8022851123992945,-0.5783263231438563,0.0,0.08501964062452316,1.0928417444229126,0.09879899024963379,0.49999526143074036,-0.500004768371582,-0.500004768371582,0.49999508261680603
373.0,0.984322098887568,-0.6948865048138354,1.5177617911536636,-0.8228752964686195,-0.5864550626526044,0.0,0.0850052610039711,1.0755923986434937,0.09472396969795227,0.49999523162841797,-0.500004768371582,-0.500004768371582,0.4999951720237732
374.0,0.9902164372772537,-0.6887166855483323,1.4961389820658315,-0.8074224783004947,-0.58056072552382,0.0,0.08501406013965607,1.0880531072616577,0.09835025668144226,0.4999953508377075,-0.5000047087669373,-0.500004768371582,0.4999951124191284
375.0,0.9980959167241604,-0.679170765899124,1.4661581005459468,-0.7869873941652105,-0.5726811635217388,0.0,0.08501719683408737,1.1050715446472168,0.10237665474414825,0.4999952018260956,-0.500004768371582,-0.5000047087669373,0.4999952018260956
376.0,0.9937046116276198,-0.6847364458598412,1.4827287544083871,-0.7979924411771135,-0.5770724804741413,0.0,0.08509945124387741,1.0956624746322632,0.1004711166024208,0.49999532103538513,-0.5000047087669373,-0.500004768371582,0.4999951124191284
377.0,0.9856952367568105,-0.6944829028828677,1.5127096359282728,-0.8182267846463883,-0.5850818814492137,0.0,0.08501958101987839,1.0784927606582642,0.09676624834537506,0.4999952018260956,-0.5000047087669373,-0.500004768371582,0.4999951720237732
378.0,0.9770089706139953,-0.7035586228930082,1.5426905174481576,-0.8391317298483496,-0.5937681767455267,0.0,0.0852704867720604,1.0608627796173096,0.09245932102203369,0.4999951124191284,-0.500004768371582,-0.500004768371582,0.49999529123306274
379.0,0.9680779840915267,-0.7124891846390196,1.5726713989680423,-0.8601820720574945,-0.6026992096322399,0.0,0.0853564590215683,1.0429762601852417,0.08817970752716064,0.4999951720237732,-0.5000047087669373,-0.500004768371582,0.49999523162841797
380.0,0.959146997569058,-0.7214197463850308,1.602652280487927,-0.8812324142666396,-0.6116302425189531,0.0,0.08501062542200089,1.024958848953247,0.08409985899925232,0.4999951720237732,-0.500004768371582,-0.5000046491622925,0.49999523162841797
381.0,0.9678938491588965,-0.7131755702943193,1.5743470664162604,-0.861171413258681,-0.6028833055904554,0.0,0.08501908928155899,1.042120099067688,0.08815738558769226,0.49999526143074036,-0.5000047087669373,-0.5000047087669373,0.49999526143074036
382.0,0.9767819558949931,-0.7042192428949383,1.5443661848963757,-0.840146766413898,-0.593995165537426,0.0,0.0849967747926712,1.0599936246871948,0.09239950776100159,0.49999505281448364,-0.500004768371582,-0.500004768371582,0.49999523162841797
383.0,0.9691812657984517,-0.7113165347983758,1.570094267012303,-0.8587776473488068,-0.6015958885250138,0.0,0.08501815050840378,1.0446816682815552,0.08808253705501556,0.4999951720237732,-0.5000047087669373,-0.5000047087669373,0.4999952018260956
384.0,0.9599707633346749,-0.7200722920720526,1.6000751485321878,-0.880002751829091,-0.6108063001261196,0.0,0.08500214666128159,1.0265424251556396,0.08379773795604706,0.4999951720237732,-0.500004768371582,-0.5000047087669373,0.4999952018260956
385.0,0.9565559908972352,-0.7232655154126246,1.6107762431080417,-0.8875107101418241,-0.6142211045080737,0.0,0.08501874655485153,1.0199775695800781,0.0823940634727478,0.4999952018260956,-0.500004768371582,-0.500004768371582,0.4999951124191284
386.0,0.9659596234067319,-0.7138735137551991,1.580795361588157,-0.8669220185589048,-0.6048174933781653,0.0,0.08499782532453537,1.0382574796676636,0.0858910083770752,0.4999952018260956,-0.500004768371582,-0.500004768371582,0.4999951422214508
387.0,0.9748965907515421,-0.7049634350065078,1.5508144800682722,-0.8458508725429358,-0.595880442670751,0.0,0.08501921594142914,1.0561867952346802,0.09012322127819061,0.4999951720237732,-0.5000048279762268,-0.500004768371582,0.49999523162841797
388.0,0.9733567966850469,-0.7059665363010442,1.556123388832594,-0.8501571274100773,-0.5974202833904925,0.0,0.08500581234693527,1.053047776222229,0.08870591223239899,0.49999529123306274,-0.500004768371582,-0.5000048279762268,0.4999951124191284
389.0,0.9643133263605725,-0.7148039306906699,1.5861042703524788,-0.8713001842876636,-0.60646383859106,0.0,0.0850178450345993,1.0350428819656372,0.08443760871887207,0.4999951720237732,-0.5000047087669373,-0.500004768371582,0.49999529123306274
390.0,0.954869455754585,-0.7234025383529987,1.6160851518723636,-0.892682617591235,-0.6159077816607287,0.0,0.08500098437070847,1.016723394393921,0.0801108181476593,0.4999952018260956,-0.5000047087669373,-0.5000047087669373,0.4999952018260956
391.0,0.9467122241327585,-0.7201385403161578,1.6405923814688752,-0.9204539294531919,-0.624064865377436,0.0,0.08505331724882126,1.0014071464538574,0.06552408635616302,0.49999526143074036,-0.500004768371582,-0.500004768371582,0.4999951422214508
392.0,0.9471569643319268,-0.7254128730937923,1.6546637270148756,-0.9504348109730767,-0.6280074414308853,0.0,0.08186603337526321,0.9960980415344238,0.060279637575149536,0.5084570050239563,-0.49768877029418945,-0.5000689029693604,0.4936683177947998
393.0,0.9509814857137413,-0.7351595813420553,1.6647629258509098,-0.9804156924929615,-0.630319103024238,0.0,0.07757045328617096,0.9948146343231201,0.05976525694131851,0.5201894044876099,-0.49433887004852295,-0.5000742077827454,0.48472437262535095
394.0,0.9548060070955559,-0.7449062895903182,1.674862124686944,-1.0103965740128462,-0.6326307646175906,0.0,0.07336600869894028,0.9936230182647705,0.05930289998650551,0.53179931640625,-0.4908612370491028,-0.49998190999031067,0.475670725107193
395.0,0.9586305284773704,-0.7546529978385813,1.6849613235229781,-1.040377455532731,-0.6349424262109433,0.0,0.06925009936094284,0.9925227165222168,0.05889805778861046,0.5432833433151245,-0.48725759983062744,-0.49979284405708313,0.4665085971355438
396.0,0.962455049859185,-0.7643997060868443,1.6950605223590123,-1.0703583370526157,-0.637254087804296,0.0,0.06522034108638763,0.9915124773979187,0.05855592340230942,0.5546383857727051,-0.483529269695282,-0.49950742721557617,0.4572394788265228
397.0,0.9662795712409995,-0.7741464143351072,1.7051597211950464,-1.1003392185725005,-0.6395657493976488,0.0,0.061274223029613495,0.990591287612915,0.058281831443309784,0.5658612251281738,-0.47967779636383057,-0.49912670254707336,0.447864830493927
398.0,0.9701040926228143,-0.7838931225833707,1.715258920031081,-1.130320100092387,-0.6418774109910015,0.0,0.05740896612405777,0.9897581338882446,0.05808063596487045,0.5769486427307129,-0.47570472955703735,-0.4986511468887329,0.43838584423065186
399.0,0.9739286140046288,-0.7936398308316337,1.7253581188671152,-1.1603009816122718,-0.6441890725843542,0.0,0.053622134029865265,0.9890115261077881,0.0579577311873436,0.587897777557373,-0.47161179780960083,-0.4980818033218384,0.42880406975746155
400.0,0.9777531353864434,-0.8033865390798968,1.7354573177031494,-1.1902818631321566,-0.6465007341777069,0.0,0.04991085082292557,0.988349974155426,0.05791780725121498,0.5987052917480469,-0.46740055084228516,-0.49741944670677185,0.4191209673881531
401.0,0.9815776567682579,-0.8131332473281597,1.7455565165391835,-1.2202627446520413,-0.6488123957710596,0.0,0.04627236723899841,0.9877713918685913,0.05796589329838753,0.6093684434890747,-0.463072806596756,-0.4966649115085602,0.4093380868434906
402.0,0.9854021781500725,-0.8228799555764227,1.7556557153752177,-1.250243626171926,-0.6511240573644123,0.0,0.042703643441200256,0.9872740507125854,0.058106932789087296,0.6198839545249939,-0.4586300849914551,-0.49581900238990784,0.3994569182395935
403.0,0.989226699531887,-0.8326266638246856,1.7657549142112519,-1.2802245076918108,-0.653435718957765,0.0,0.03920185565948486,0.9868561625480652,0.05834537744522095,0.6302490830421448,-0.4540742337703705,-0.49488258361816406,0.38947901129722595
