Sungjin-Park-dev/lg_sgu_vision_v2/data/sample/ik/74/graphtest/glns_trajectory_comp000.csv
time,ur20-shoulder_pan_joint,ur20-shoulder_lift_joint,ur20-elbow_joint,ur20-wrist_1_joint,ur20-wrist_2_joint,ur20-wrist_3_joint,target-POS_X,target-POS_Y,target-POS_Z,target-ROT_X,target-ROT_Y,target-ROT_Z,target-ROT_W
0.0,1.4216597715960901,-1.48887300491333,2.190894365310669,0.5232928434955042,1.5199557542800903,0.0,-0.12788863480091095,0.6727195978164673,0.10076484084129333,-0.06900998950004578,-0.9823877811431885,-0.17321562767028809,0.012168658897280693
0.1662758770834631,1.4040339411679341,-1.4882562603128806,2.14101160218563,0.5164214360453703,1.518800961904856,-0.01173390423475131,-0.10788463056087494,0.7266290187835693,0.1306287944316864,-0.07068554311990738,-0.977034330368042,-0.20087215304374695,0.007598952390253544
0.33255572780991266,1.3861850576176578,-1.487631345058407,2.091127646967695,0.5094599506410294,1.517631106058008,-0.02362156723230704,-0.08613405376672745,0.7785583734512329,0.16321337223052979,-0.07227054983377457,-0.9709004759788513,-0.22830751538276672,0.0021702132653445005
0.49883557853636074,1.3679881003751593,-1.486993842797794,2.0412436917497607,0.5023578195154643,1.516437477515426,-0.035749214769008573,-0.06261870265007019,0.8283505439758301,0.19844380021095276,0.07377441972494125,0.9639815092086792,0.2554990351200104,0.004150013905018568
0.6651154292628096,1.3493861813479398,-1.4863416813137935,1.991359736531826,0.49509210558469974,1.5152162993379061,-0.04815596295599461,-0.03736817091703415,0.8758265972137451,0.2362428605556488,0.07519616186618805,0.9562745094299316,0.2824088931083679,0.011389210820198059
0.8313952799892586,1.3303761526086226,-1.4856747029954338,1.9414757813138914,0.4876614681436823,1.5139673207754296,-0.06084430030007581,-0.01046590507030487,0.9207958579063416,0.2765246629714966,0.07652714103460312,0.9477803707122803,0.3089870810508728,0.019564639776945114
0.9976751307157067,1.3109812863118406,-1.4849937112467213,1.891591826095957,0.4800750338371597,1.5126922335232065,-0.07379863401265548,0.01796395517885685,0.9630690813064575,0.3191959857940674,0.0777551531791687,0.9385024309158325,0.3351781368255615,0.02868414856493473
1.1639549814421555,1.2911816426233915,-1.4842982031867693,1.8417078708780223,0.47232469796993465,1.5113895779974529,-0.08703293613581901,0.047821685671806335,1.0024739503860474,0.3641575276851654,0.07887344062328339,0.9284417629241943,0.36093229055404663,0.03876355662941933
1.3302348321686044,1.270964276959673,-1.4835876257884062,1.7918239156600877,0.4644049022782888,1.5100583052332877,-0.10055668834400645,0.07898849248886108,1.0388450622558594,0.4113025665283203,0.0798739418387413,0.9176006317138672,0.38619619607925415,0.04981553554534912
1.4965146828950533,1.250358125670015,-1.4828630486738104,1.741939960442153,0.456327302983982,1.5087005131677702,-0.11435009516925808,0.1112862154841423,1.072021484375,0.4605153799057007,0.08074376732110977,0.905985414981842,0.41091009974479675,0.061836253851652145
1.6627945336215022,1.22936614657347,-1.4821247242223021,1.6920560052242184,0.4480928285954417,1.5073164557896255,-0.12841158761789756,0.1445474922657013,1.1018602848052979,0.5116744637489319,0.08147303014993668,0.8936014175415039,0.4350167512893677,0.07482577860355377
1.8290743843479502,1.2080035610196325,-1.4813729114338856,1.642172050006284,0.4397070908213738,1.5059069175551238,-0.14273147747413922,0.17857682704925537,1.1282321214675903,0.5646507143974304,0.08205051720142365,0.8804561495780945,0.4584575891494751,0.08877579122781754
1.9953542350743991,1.186284186033245,-1.480607972474716,1.5922880947883493,0.4311751586267967,1.5044728533751563,-0.1573011063847764,0.21316540241241455,1.151025652885437,0.6193076372146606,0.08246514946222305,0.8665581345558167,0.48117372393608093,0.10367374122142792
2.161634085800848,1.1642180128340887,-1.479830399465426,1.5424041395704147,0.4225005957329338,1.5030148172389515,-0.17211433901741915,0.24809648096561432,1.1701467037200928,0.6755038499832153,0.08270668983459473,0.8519161939620972,0.5031073093414307,0.11950433999300003
2.3279139365272963,1.1418116321068879,-1.4790402646890173,1.4925201843524802,0.4136856502915561,1.5015331297055725,-0.18716726964359218,0.2831462323665619,1.1855205297470093,0.7330918312072754,0.08276551216840744,0.836540162563324,0.5242006778717041,0.136249378323555
2.494193787253745,1.1190699181427246,-1.4782376292587731,1.4426362291345456,0.4047318538440614,1.5000282182730909,-0.2024572819491081,0.3180832862854004,1.1970913410186768,0.791918933391571,0.08263220638036728,0.8204405307769775,0.5443968176841736,0.1538875252008438
2.6604736379801937,1.0960014360629802,-1.4774227752777116,1.392752273916611,0.39564218378503035,1.4985005421844442,-0.21797929983121053,0.35266417264938354,1.2048243284225464,0.8518273830413818,0.08229730278253555,0.8036289215087891,0.5636389851570129,0.17239157855510712
2.8267534887066423,1.0726201641256783,-1.4765962336346807,1.3428683186986763,0.3864217426907759,1.4969508377699268,-0.23372449343376586,0.3866318464279175,1.2087087631225586,0.9126539826393127,0.08175105601549149,0.7861186265945435,0.5818718075752258,0.19172702729701996
2.993033339433091,1.0489400601586636,-1.4757583561388,1.2929843634807416,0.3770756210488809,1.4953799494884972,-0.24968425417890902,0.4197254776954651,1.2087562084197998,0.9742307066917419,0.08098422735929489,0.7679243683815002,0.5990418195724487,0.2118552327156067
3.1593131901595393,1.024973454506717,-1.4749095432342818,1.2431004082628072,0.3676083375643695,1.4937888135501383,-0.26585088218164105,0.4516836106777191,1.205003023147583,1.0363866090774536,0.07998831570148468,0.7490609288215637,0.6150972247123718,0.23273365199565887
3.325593040885988,1.00073107313399,-1.4740500380346562,1.1932164530448726,0.3580236771489441,1.4921779372939594,-0.2822178106565358,0.482246994972229,1.1975080966949463,1.0989469289779663,0.07875518500804901,0.7295445203781128,0.6299885511398315,0.2543163597583771
3.4918728916124366,0.9762225029608377,-1.473180352803946,1.143332497826938,0.3483250595688892,1.4905477001024856,-0.2987792275556098,0.5111594200134277,1.1863545179367065,1.1617348194122314,0.07727735489606857,0.7093916535377502,0.6436688303947449,0.2765538990497589
3.658152742338885,0.9514392730460889,-1.4722998264450802,1.0934485426090035,0.33850799748960875,1.4888975309046855,-0.3155428096170662,0.5381911993026733,1.1716408729553223,1.2245745658874512,0.07554857432842255,0.6886173486709595,0.6560911536216736,0.2994043529033661
3.8244325930653336,0.9264042798368364,-1.4714094428595261,1.0435645873910688,0.3285813519071457,1.487228963504511,-0.3324934698218495,0.5630799531936646,1.1535017490386963,1.287282943725586,0.07356134802103043,0.667241632938385,0.6672146320343018,0.3228032886981964
3.9907124437917822,0.9011382073145275,-1.4705099147348664,0.9936806321731342,0.31855316272406253,1.4855433194526142,-0.3496174658169312,0.5855765342712402,1.1320958137512207,1.349676251411438,0.07130954414606094,0.6452853083610535,0.6770025491714478,0.3466833829879761
4.156992164259904,0.8756528838550078,-1.4696018486191502,0.9437967160326975,0.30842771419461906,1.4838413632243497,-0.3669075542287313,0.6054526567459106,1.1076005697250366,1.4115724563598633,0.06878767162561417,0.622768759727478,0.6854208111763,0.3709792494773865
4.323271946562531,0.8499594335306287,-1.468685506052069,0.8939127813419097,0.29820900431071556,1.4821237446238733,-0.3843569761409492,0.6224951148033142,1.0802147388458252,1.4727879762649536,0.06599108129739761,0.5997130870819092,0.6924391984939575,0.3956226706504822
4.4895517972889785,0.8240683266998117,-1.467761148563239,0.8440288261239752,0.2879007199496397,1.480391107563881,-0.40195939879821524,0.6365070343017578,1.0501580238342285,1.5331411361694336,0.06291595101356506,0.5761399865150452,0.6980313658714294,0.4205430746078491
4.655831648015427,0.7979897781513662,-1.466829214605874,0.7941448709060406,0.27750645401553087,1.4786440769456068,-0.4197087348184023,0.6473088264465332,1.0176676511764526,1.5924513339996338,0.05955891311168671,0.552071750164032,0.7021751403808594,0.44566741585731506
4.822111498741876,0.7717345917536206,-1.4658901839678957,0.7442609156881059,0.2670299764603104,1.4768833262705092,-0.4375986224484181,0.6547398567199707,0.9829994440078735,1.6505403518676758,0.05591731518507004,0.5275315642356873,0.7048530578613281,0.4709201157093048
4.988391372511449,0.7453146918172052,-1.4649443409405822,0.694376953557234,0.25647534989475773,1.4751096183329142,-0.4556220172364691,0.6586595177650452,0.9464255571365356,1.7072314023971558,0.05198923870921135,0.5025431513786316,0.7060526609420776,0.49622291326522827
5.154671398876922,0.7187420208826174,-1.4639917946481529,0.6444929456475921,0.2458467258678229,1.4733234222592573,-0.47377183149078034,0.6589510440826416,0.9082324504852295,1.7623505592346191,0.04777344688773155,0.4771311581134796,0.7057661414146423,0.5214955806732178
5.320951249603371,0.692009275931907,-1.4630322914978093,0.5946089904296574,0.23513820711325947,1.4715238671021085,-0.49205803874126985,0.6555367708206177,0.8687052130699158,1.8157325983047485,0.0432683490216732,0.45131659507751465,0.7039830088615417,0.5466708540916443
5.4872309483373956,0.6651505029521988,-1.4620667312301348,0.54472508080945,0.22436461197845003,1.4697132521410623,-0.5104553062534306,0.6483297944068909,0.8281655311584473,1.8672075271606445,0.038475099951028824,0.42512932419776917,0.7007140517234802,0.5716506838798523
5.653510624275088,0.638176873303718,-1.4610955107845334,0.49484117802814215,0.21352976635247506,1.4678923866499372,-0.5289570350458985,0.6372909545898438,0.7869272232055664,1.9166145324707031,0.033395156264305115,0.3985951244831085,0.6959670186042786,0.596352756023407
5.819790352444481,0.611099102315272,-1.4601190222364704,0.44495725957732424,0.2026374245877109,1.4660618209671796,-0.5475568206079078,0.6224074363708496,0.7453078031539917,1.963799238204956,0.02803047001361847,0.3717401623725891,0.6897547841072083,0.6206945776939392
5.986070195586555,0.5839268886106468,-1.4591376312308766,0.395073306634702,0.19169147307316764,1.4642221885500495,-0.5662480679450232,0.6036961674690247,0.7036264538764954,2.008612632751465,0.02238425798714161,0.3445912003517151,0.6820952296257019,0.6445943713188171
6.152350133358573,0.5566690993384529,-1.4581516560466012,0.34518932530309654,0.18069587898769782,1.4623741379189772,-0.5850240243275507,0.5812021493911743,0.6622014045715332,2.050912618637085,0.016460556536912918,0.3171752095222473,0.6730112433433533,0.667970597743988
6.318630078585466,0.5293342430921871,-1.4571614304459597,0.2953053417350288,0.16965460493376128,1.4605183115213856,-0.6038779266012793,0.554998517036438,0.6213471293449402,2.0905637741088867,0.0102642010897398,0.2895195484161377,0.6625306010246277,0.6907432079315186
6.484910063548002,0.5019308204310495,-1.4561674573738588,0.24542134624626818,0.1585715761108787,1.4586555707253868,-0.6228031398487798,0.5251851677894592,0.5813723206520081,2.1274383068084717,0.0038006524555385113,0.2616516351699829,0.6506860852241516,0.7128334045410156
6.651190174629123,0.47446066877644677,-1.4551697782695,0.19553731292193183,0.14744623043031932,1.4567857034687313,-0.6418006995791674,0.49189209938049316,0.542574405670166,2.161418914794922,-0.0029250707011669874,0.23359744250774384,0.6375106573104858,0.7341687679290771
6.817470170337849,0.44693981420073964,-1.4541691320039585,0.1456533142093141,0.13628694941640182,1.454910180074297,-0.660856310096912,0.4552691876888275,0.5052476525306702,2.192392110824585,-0.00990529078990221,0.2053866982460022,0.6230517625808716,0.7546685338020325
6.983749926651555,0.41937811234131467,-1.4531659864429296,0.09576938731520229,0.12509885361642248,1.4530297850574352,-0.6799612946705197,0.41549527645111084,0.46966955065727234,2.2202560901641846,-0.017132362350821495,0.17704811692237854,0.6073583364486694,0.7742584347724915
7.150029777618796,0.3917818059901778,-1.4521607594212418,0.04588543202503009,0.11388578267011397,1.451145341371571,-0.6991090518984382,0.3727743625640869,0.4361005425453186,2.2449183464050293,-0.024598125368356705,0.1486097276210785,0.5904816389083862,0.7928690314292908
7.316309752240093,0.36415653459199343,-1.4511537458537398,-0.003998560361359059,0.10265159377992328,1.4492574026955276,-0.7182929441567977,0.32733312249183655,0.40478360652923584,2.2662956714630127,-0.032293953001499176,0.12009979784488678,0.5724771022796631,0.8104338049888611
7.482589664882849,0.3365077834865763,-1.4501452284283098,-0.053882534154186076,0.09140013812888274,1.447366501463238,-0.7375063623599902,0.279419481754303,0.3759428858757019,2.2843151092529297,-0.0402107909321785,0.09154678881168365,0.5534041523933411,0.8268894553184509
7.6488694623760205,0.30884102821964327,-1.4491355450677157,-0.10376647340213746,0.08013524102946001,1.4454733537520406,-0.7567427417524643,0.2293001115322113,0.349781334400177,2.2989139556884766,-0.04833913967013359,0.06297899782657623,0.5333258509635925,0.8421760201454163
7.815149508091473,0.28116159498129806,-1.4481249070622266,-0.15365048711677318,0.06886069295330384,1.4435785370456373,-0.7759955318539651,0.17725862562656403,0.326479434967041,2.3100404739379883,-0.05666915327310562,0.034424714744091034,0.5123092532157898,0.856237530708313
7.9814296616079945,0.25347504163452894,-1.4471137612395812,-0.20353453317172965,0.057580246601665455,1.4416826905350466,-0.7952583788440594,0.1235933005809784,0.3061935007572174,2.3176534175872803,-0.06519059091806412,0.005912053864449263,0.49042436480522156,0.8690218925476074
8.147709519385264,0.22578900421100376,-1.4461025410833384,-0.2534184905049104,0.046299378523427206,1.439786693558162,-0.8145217946011843,0.06861564517021179,0.2890550196170807,2.3217225074768066,-0.07389263063669205,-0.022530050948262215,0.46774694323539734,0.8804800510406494
8.313989479625596,0.19810880070234524,-1.4450915302512526,-0.3033024785770095,0.03502194286155268,1.4378912705065774,-0.8337792233120275,0.01264766976237297,0.275168240070343,2.32222843170166,-0.08276426792144775,-0.05087367817759514,0.444352924823761,0.8905684947967529
8.480269358519836,0.170439805785623,-1.444081069129863,-0.35318644224528184,0.023751790182808617,1.4359970268745954,-0.853024133166255,-0.043980859220027924,0.2646103501319885,2.3191633224487305,-0.09179436415433884,-0.07909110933542252,0.42032134532928467,0.8992486596107483
8.646549193706367,0.14278739433346083,-1.4430715207315679,-0.40307039280124085,0.012492776663015844,1.4341046372538857,-0.8722500188020869,-0.1009342297911644,0.25743067264556885,2.312530755996704,-0.10097137093544006,-0.10715474933385849,0.3957328796386719,0.9064866304397583
8.812829153745334,0.11515694153435763,-1.4420632223333127,-0.45295438081293116,0.0012487690610974217,1.4322147584195333,-0.8914503040257707,-0.15787425637245178,0.2536505162715912,2.3023452758789062,-0.11028367280960083,-0.13503743708133698,0.37067022919654846,0.912253201007843
8.979109137669,0.08755386411683348,-1.441056495628543,-0.5028383759900316,-0.009976341050656189,1.430327958803548,-0.9106182902114992,-0.21446150541305542,0.25326254963874817,2.288632392883301,-0.11971919238567352,-0.16271214187145233,0.34521767497062683,0.9165242910385132
9.145388815096291,0.05998510449169697,-1.4400519497182724,-0.5527222792182185,-0.021177609423010106,1.4284453060500693,-0.9297457344075355,-0.27035948634147644,0.2562309503555298,2.2714293003082275,-0.12926551699638367,-0.1901518553495407,0.31946226954460144,0.9192803502082825
9.311668828484873,0.03246188006862939,-1.4390500893424392,-0.602606283234793,-0.03234751240070216,1.426567903475721,-0.9488197095518289,-0.32523608207702637,0.2624899446964264,2.250784397125244,-0.13890966773033142,-0.2173289805650711,0.29349610209465027,0.9205064177513123
9.477948709857483,0.004987831527595937,-1.4380509903730572,-0.6524902476465759,-0.043485379929673086,1.4246959326138668,-0.9678391508224014,-0.3787665367126465,0.2719484269618988,2.2267565727233887,-0.14863918721675873,-0.24421919882297516,0.2674022614955902,0.9201952219009399
9.644228678453137,-0.022428810524388595,-1.4370551299427752,-0.7023742382252726,-0.05458745227968334,1.4228300084350785,-0.9867974700767608,-0.43063634634017944,0.28448712825775146,2.1994144916534424,-0.1584409475326538,-0.27079761028289795,0.24126867949962616,0.9183433651924133
9.81050870300659,-0.049779728936921376,-1.436062837606497,-0.7522582455913087,-0.06564992446142887,1.42097076583727,-1.005688163517079,-0.48054301738739014,0.29996058344841003,2.1688389778137207,-0.16830141842365265,-0.29703977704048157,0.21518315374851227,0.9149525165557861
9.97678879607573,-0.07705650084989317,-1.4350744290561128,-0.8021422735120509,-0.07666894719268588,1.4191188001947437,-1.0245046797072277,-0.5281981229782104,0.31819871068000793,2.1351189613342285,-0.1782069206237793,-0.32292187213897705,0.189232736825943,0.9100300669670105
10.14306886363223,-0.10425053574950004,-1.4340903078535416,-0.8520262937790009,-0.08764059453744358,1.4172747811596191,-1.0432402767654418,-0.5733296275138855,0.339007705450058,2.098355293273926,-0.1881432831287384,-0.34842050075531006,0.16350360214710236,0.9035882353782654
10.309348539934508,-0.13135301985223985,-1.4331109370502344,-0.9019101966696839,-0.098560856752558,1.4154395424328212,-1.0618880319343462,-0.6156843900680542,0.36217230558395386,2.058656692504883,-0.1980963945388794,-0.37351304292678833,0.13808083534240723,0.8956447243690491
10.475628215986973,-0.15835165261362794,-1.4321366754388247,-0.9517940994854236,-0.10942404140680108,1.4136139547597202,-1.080438304197461,-0.655030369758606,0.3874547779560089,2.016141653060913,-0.20805121958255768,-0.39817705750465393,0.11305053532123566,0.8862218260765076
10.641907721135444,-0.1852224981833536,-1.43116882684763,-1.0016779510299654,-0.12021969370652641,1.411799574788462,-1.0988730441216898,-0.6911617517471313,0.4145907759666443,1.9709395170211792,-0.21799138188362122,-0.42238950729370117,0.0885058119893074,0.8753475546836853
10.808187810106869,-0.21196761765124325,-1.4302065581360155,-1.0515619777213927,-0.13095124451077347,1.4099960892198649,-1.117198302211744,-0.7238889932632446,0.4433187246322632,1.9231830835342407,-0.2279028445482254,-0.4461328387260437,0.0645136833190918,0.8630548119544983
10.974468012179656,-0.23857572034655022,-1.4292504753589177,-1.101446038343229,-0.14161481160204878,1.4082040202629293,-1.1354074908403813,-0.7530511617660522,0.4733547270298004,1.8730157613754272,-0.23777011036872864,-0.46938788890838623,0.0411507748067379,0.8493803143501282
11.140747808660105,-0.2650350953995479,-1.428300914786526,-1.1513299772873635,-0.15220632384702873,1.4064240695718333,-1.1534936610392146,-0.7785125970840454,0.504403829574585,1.8205877542495728,-0.24757732450962067,-0.4921358823776245,0.01849062740802765,0.8343654274940491
11.307027465212714,-0.2913338486714671,-1.427358177599861,-1.2012138742531464,-0.16272165102338929,1.404656949635136,-1.1714497275480307,-0.8001649379730225,0.5361621975898743,1.7660558223724365,-0.2573085129261017,-0.5143594741821289,-0.0033963227178901434,0.8180556893348694
11.473307200524497,-0.3174599821969875,-1.4264225665242216,-1.251097794846681,-0.17315661380711128,1.4029033185745157,-1.1892685582644769,-0.8179264664649963,0.5683203935623169,1.7095826864242554,-0.2669477164745331,-0.5360416769981384,-0.02444339171051979,0.8005003333091736
11.639586769301312,-0.3434019359624071,-1.425494401139533,-1.3009816654797257,-0.18350715009325377,1.401163831502084,-1.2069432749165812,-0.8317420482635498,0.6005661487579346,1.651337742805481,-0.2764788568019867,-0.5571666359901428,-0.044588204473257065,0.7817522883415222
11.805866651909495,-0.3691495120636416,-1.424574139046868,-1.3508656302621809,-0.19376965724282483,1.3994392118881618,-1.2244677348356827,-0.8415840864181519,0.6325879096984863,1.5914936065673828,-0.2858860492706299,-0.5777195692062378,-0.06377341598272324,0.7618675827980042
11.972146860219329,-0.3946871073805265,-1.4236623014103604,-1.4007496927551313,-0.20393813533073343,1.3977304281573464,-1.2418316980351747,-0.8474540710449219,0.6640716791152954,1.5302293300628662,-0.29515302181243896,-0.5976858735084534,-0.08194230496883392,0.7409060597419739
12.138426367484831,-0.4199868740287956,-1.422759893238054,-1.450633544934782,-0.2140012974047232,1.3960391444814244,-1.259015735752311,-0.8493888974189758,0.6946969032287598,1.4677293300628662,-0.30426162481307983,-0.6170507669448853,-0.09903519600629807,0.7189333438873291
12.304706487177054,-0.445058119054584,-1.4218665269691886,-1.500517580842449,-0.22396432468103727,1.3943648373226485,-1.2760288000418265,-0.8474273085594177,0.7241836190223694,1.4041749238967896,-0.3131989538669586,-0.6358044743537903,-0.11502224206924438,0.6960092782974243
12.470986700768943,-0.4698884708508974,-1.4209825108275134,-1.5504016449200158,-0.2338227014216127,1.3927082373570878,-1.2928631676592992,-0.8416444659233093,0.7522417306900024,1.33975350856781,-0.32194945216178894,-0.6539353132247925,-0.1298632174730301,0.6721997857093811
12.637266916451463,-0.49446557861890816,-1.420108516340297,-1.6002857096247713,-0.24357193102187044,1.391069990050007,-1.3095111128126777,-0.8321401476860046,0.7785933017730713,1.274654507637024,-0.330497682094574,-0.6714330911636353,-0.1435229480266571,0.6475724577903748
12.803546916479347,-0.5187792066565771,-1.4192447363994438,-1.6501697096331367,-0.25320832938254845,1.389450721604006,-1.3259663799361925,-0.8190327882766724,0.8029752373695374,1.209068775177002,-0.33882883191108704,-0.6882879734039307,-0.15597261488437653,0.6221954822540283
12.969826767205795,-0.54281968195163,-1.4183914233469828,-1.7000536648510711,-0.2627284835946085,1.3878510059907816,-1.3422230793036936,-0.8024617433547974,0.8251407146453857,1.1431866884231567,-0.3469284772872925,-0.7044915556907654,-0.16718840599060059,0.5961377620697021
13.136106784264806,-0.5665763444061969,-1.4175489498032776,-1.7499376699687743,-0.27212858497504183,1.3862714518496422,-1.358274729696841,-0.7825842499732971,0.8448587656021118,1.0771995782852173,-0.3547824025154114,-0.7200363278388977,-0.17715105414390564,0.5694687366485596
13.302387011453133,-0.5900372511753439,-1.4167177310817702,-1.7998217381252724,-0.2814042465260388,1.3847127563479673,-1.374113951360285,-0.7595769166946411,0.8619167804718018,1.011297583580017,-0.36237645149230957,-0.7349152565002441,-0.18584567308425903,0.5422584414482117
13.468667114113739,-0.6131888946879916,-1.4158982697028848,-1.849705768923454,-0.2905505062763451,1.3831757808357208,-1.3897322490353117,-0.7336313724517822,0.8761199712753296,0.9456710815429688,-0.3696966767311096,-0.7491225004196167,-0.19326156377792358,0.5145772099494934
13.63494684921252,-0.6360165847501295,-1.4150910026100567,-1.8995896894530884,-0.29956199826787355,1.381661469701161,-1.405120448452253,-0.7049537301063538,0.8872948288917542,0.8805080056190491,-0.37672919034957886,-0.7626529335975647,-0.19939272105693817,0.4864955544471741
13.801226310328204,-0.658508861381837,-1.4142963303720988,-1.9494735277877937,-0.30843451121201826,1.3801703882203442,-1.4202714586506862,-0.673757791519165,0.8952922821044922,0.8159931898117065,-0.3834613859653473,-0.775502622127533,-0.20423968136310577,0.4580819010734558
13.967505871564487,-0.6806605502670502,-1.4135144373288755,-1.999357396158679,-0.3171664008252975,1.3787029095466241,-1.4351823897343587,-0.6402593851089478,0.8999900221824646,0.7523081302642822,-0.38988205790519714,-0.7876684069633484,-0.20780980587005615,0.42940130829811096
14.133785722290936,-0.7024657637855789,-1.4127452941929157,-2.0492413513766135,-0.3257556442848817,1.377259402095646,-1.4498496791575302,-0.6046813726425171,0.9012874364852905,0.6896305084228516,-0.3959802985191345,-0.7991477251052856,-0.21011413633823395,0.40051770210266113
14.300065573017385,-0.7239151861296701,-1.4119890263009478,-2.099125306594548,-0.33419891055070194,1.3758403923795952,-1.4642677711901944,-0.5672542452812195,0.899104118347168,0.6281346082687378,-0.40174537897109985,-0.8099390268325806,-0.21116651594638824,0.3714944124221802
14.466345423743833,-0.7449957593919213,-1.4112462084877504,-2.1490092618124823,-0.34249140599645184,1.3744465767849714,-1.4784283904061708,-0.528214693069458,0.8933818340301514,0.5679911971092224,-0.40716633200645447,-0.8200411200523376,-0.21098394691944122,0.34239405393600464
14.632625274470282,-0.7656917586819398,-1.410517263960457,-2.1988932170304167,-0.3506272456551465,1.3730790509843234,-1.4923213852407327,-0.4878018796443939,0.8840841054916382,0.5093657374382019,-0.41223257780075073,-0.829454243183136,-0.2095869481563568,0.3132779896259308
14.798904650829334,-0.7859955377044355,-1.4098024041330697,-2.2487770299381324,-0.3586037237130676,1.3717383198620337,-1.505942289205467,-0.4462462067604065,0.8712018728256226,0.4524174928665161,-0.41693517565727234,-0.8381788730621338,-0.2070021778345108,0.2842026352882385
14.965184181194584,-0.8059114545759516,-1.4091013959497176,-2.2986608890477074,-0.3664227578955296,1.3704239754656855,-1.5192941782284215,-0.4037621021270752,0.8547513484954834,0.39729729294776917,-0.42126816511154175,-0.8462162017822266,-0.2032615691423416,0.25521722435951233
15.131464031921032,-0.8254444718182474,-1.408414158128597,-2.348544844265642,-0.37408645458179696,1.369135619458485,-1.5323807325904266,-0.3605596423149109,0.834768533706665,0.34415116906166077,-0.42522579431533813,-0.8535676598548889,-0.19839929044246674,0.22636863589286804
15.297742843910196,-0.84452751535218,-1.407743049666824,-2.398428487862391,-0.3815678896256911,1.3678779640468093,-1.5451560433684464,-0.316910982131958,0.8112906217575073,0.2931268811225891,-0.428792804479599,-0.8602369427680969,-0.19244134426116943,0.19772571325302124
15.464021579594323,-0.8632236979359478,-1.4070859515861966,-2.448312108567629,-0.3888928734108266,1.366646521010753,-1.557664232019614,-0.27295616269111633,0.78440922498703,0.24434834718704224,-0.43197309970855713,-0.8662257194519043,-0.18543641269207,0.1693090945482254
15.63030062123447,-0.8815206180821094,-1.4064433548010047,-2.498195821059673,-0.3960566230584676,1.3654422409117217,-1.569897149208162,-0.22889983654022217,0.7542105913162231,0.19794222712516785,-0.4347604215145111,-0.8715375661849976,-0.1774219274520874,0.14116281270980835
15.796581050641038,-0.8994506836530233,-1.4058141670014899,-2.548079949881643,-0.4030721735384669,1.3642627794925106,-1.581876753885698,-0.18489857017993927,0.7208031415939331,0.15402346849441528,-0.43715572357177734,-0.8761748671531677,-0.16844068467617035,0.11331386119127274
15.96286030074558,-0.9170893653925463,-1.4051953814640936,-2.597963724913006,-0.40996998370175164,1.3631031001805067,-1.5936555033490307,-0.14106886088848114,0.6843052506446838,0.11269694566726685,-0.4391654133796692,-0.8801382780075073,-0.15853416919708252,0.08577445894479752
16.02892967735626,-0.9082531315768888,-1.4070907739668927,-2.5781429119298025,-0.4121864602974151,1.362233491448314,-1.5867358446168331,-0.15784259140491486,0.6974806785583496,0.1263556182384491,-0.43857404589653015,-0.8790639638900757,-0.16156309843063354,0.09379002451896667
16.195210322811306,-0.8880201907288574,-1.4100697712896852,-2.528258718293289,-0.41239272006499145,1.3614876134796428,-1.571766579442886,-0.2010340392589569,0.7305203676223755,0.16475647687911987,-0.43678903579711914,-0.8755927681922913,-0.16968734562397003,0.11729803681373596
16.361490173537756,-0.8677872979860172,-1.4130487204470061,-2.4783747630753536,-0.41259891364716483,1.3607417176941528,-1.5567972725668822,-0.2444329559803009,0.7606881260871887,0.20516878366470337,-0.4348040819168091,-0.8716330528259277,-0.17693616449832916,0.14104880392551422
16.527770024264203,-0.8475543914603672,-1.4160275302129735,-2.428490807857419,-0.41280513263399166,1.3599957440516817,-1.5418280537371103,-0.2878515124320984,0.7879443764686584,0.24750447273254395,-0.43262264132499695,-0.8671863079071045,-0.18329963088035583,0.16500569880008698
16.694049422956088,-0.8273216216452307,-1.41900645810186,-2.3786069882498535,-0.4130113574246381,1.3592498778413251,-1.5268589182929877,-0.331101655960083,0.8122628927230835,0.29167115688323975,-0.4302482604980469,-0.8622537851333618,-0.1887691169977188,0.18913187086582184
16.8603289309885,-0.8070888549323522,-1.4219853076522115,-2.3287231358401295,-0.4132175856462902,1.3585039936433019,-1.5118897617555966,-0.37399476766586304,0.8336299061775208,0.3375728726387024,-0.42768505215644836,-0.8568374514579773,-0.19333787262439728,0.21339024603366852
17.02660878171495,-0.7868560268293264,-1.4249641999700147,-2.278839180622195,-0.41342379296821236,1.357758065955787,-1.4969205490285393,-0.416343629360199,0.8520438075065613,0.3851095736026764,-0.4249366223812103,-0.8509393334388733,-0.19700029492378235,0.23774339258670807
17.1928886324414,-0.7666231942750777,-1.4279431717490354,-2.2289552254042597,-0.41363001297997215,1.3570121703766214,-1.4819513957071067,-0.4579620063304901,0.8675161600112915,0.43417686223983765,-0.42200708389282227,-0.8445616364479065,-0.1997525840997696,0.26215341687202454
17.359168483167846,-0.7463903098497403,-1.4309220357154473,-2.1790712701863253,-0.4138362291610827,1.356266306540572,-1.4669822007110898,-0.49866655468940735,0.880070686340332,0.4846688210964203,-0.4189002215862274,-0.8377072215080261,-0.20159238576889038,0.286582887172699
17.525447901359673,-0.7261574722120191,-1.4339009283768982,-2.1291874447287773,-0.4140424489290731,1.3555204427045227,-1.4520130849427855,-0.5382770299911499,0.8897435665130615,0.5364742279052734,-0.4156202971935272,-0.8303787708282471,-0.20251883566379547,0.31099358201026917
17.691727809775976,-0.7059246110385714,-1.4368798779624572,-2.0793034722038866,-0.4142486828463283,1.3547745121190422,-1.4370439354552733,-0.5766173601150513,0.896583080291748,0.5894802808761597,-0.41217151284217834,-0.8225795030593872,-0.20253276824951172,0.3353477120399475
17.85800803534719,-0.6856917302832902,-1.4398587716051827,-2.029419404532522,-0.4144549166518618,1.354028588693475,-1.4220746786629395,-0.613516628742218,0.9006491899490356,0.6435720920562744,-0.4085579216480255,-0.8143129348754883,-0.201636403799057,0.35960763692855835
18.024287886073637,-0.6654589126363573,-1.4428376518173254,-1.9795354493145876,-0.4146611347309032,1.3532827248574257,-1.4071055515076107,-0.6488091945648193,0.9020133018493652,0.6986305117607117,-0.4047839045524597,-0.8055826425552368,-0.19983364641666412,0.3837354779243469
18.190568118726812,-0.6452260593332714,-1.4458166030028043,-1.929651379518635,-0.4148673535483517,1.3525368003060314,-1.3921363572586805,-0.6823363304138184,0.9007582068443298,0.7545357346534729,-0.4008539021015167,-0.7963929772377014,-0.19712981581687927,0.4076938331127167
18.356848566893067,-0.6249931477563447,-1.4487955045344232,-1.8797672450687588,-0.41507357360019476,1.3517908708463782,-1.3771670927968793,-0.7139460444450378,0.8969766497612,0.8111658096313477,-0.39677202701568604,-0.7867478728294373,-0.19353175163269043,0.43144533038139343
18.523128273724755,-0.6047602662915023,-1.4517743209286562,-1.8298833330192523,-0.41527976377484466,1.35104495351716,-1.3621979110860982,-0.7434942126274109,0.8907722234725952,0.8683968782424927,-0.3925429880619049,-0.7766520380973816,-0.18904799222946167,0.45495301485061646
18.68940751436054,-0.5845274744420481,-1.4547532527357565,-1.7799995608285168,-0.4154859766912353,1.35029902396499,-1.3472287687473226,-0.7708448767662048,0.8822583556175232,0.9261034727096558,-0.3881712555885315,-0.7661104202270508,-0.18368859589099884,0.47818005084991455
18.85568697405006,-0.5642947154506543,-1.457732200562231,-1.7301157229216608,-0.41569221404634343,1.3495531601289403,-1.3322596584472959,-0.7958722710609436,0.8715564608573914,0.9841602444648743,-0.38366127014160156,-0.7551280856132507,-0.1774647831916809,0.5010906457901001
19.021966433739582,-0.5440619325599928,-1.460711080774374,-1.680231885014804,-0.4158984295439193,1.348807296292891,-1.31729046071714,-0.8184590935707092,0.8587974309921265,1.0424402952194214,-0.3790176212787628,-0.7437101602554321,-0.17038945853710175,0.5236489772796631
19.1882458934291,-0.5238291378632218,-1.4636899609865166,-1.6303480471079477,-0.416104662419631,1.3480613865565176,-1.3023213324995278,-0.8384988903999329,0.8441197872161865,1.100816249847412,-0.3742448389530182,-0.7318623661994934,-0.16247709095478058,0.545819878578186
19.35452549979233,-0.5035963348697154,-1.4666688411986593,-1.580464165198979,-0.41631088429481455,1.3473154934136151,-1.2873521602798028,-0.8558956980705261,0.8276686668395996,1.1591607332229614,-0.36934763193130493,-0.7195906639099121,-0.1537434309720993,0.5675688982009888
19.52080521017244,-0.4833634796191941,-1.4696477635147034,-1.530580252084946,-0.416517098368732,1.3465697047847427,-1.272382914751112,-0.870564341545105,0.8095964789390564,1.2173460721969604,-0.36433082818984985,-0.7069010734558105,-0.14420561492443085,0.5888621211051941
19.68708480388093,-0.4631306619722612,-1.472626680626544,-1.4806963739723997,-0.41672332119302113,1.345823800743003,-1.2574137094281115,-0.8824317455291748,0.7900605201721191,1.2752453088760376,-0.35919880867004395,-0.6938000321388245,-0.1338822990655899,0.6096664071083069
19.853364399224184,-0.44289786347906784,-1.4756054818350872,-1.4308124953694232,-0.416929534317833,1.3450778579033542,-1.2424445812104992,-0.8914360404014587,0.7692234516143799,1.33273184299469,-0.3539564609527588,-0.6802941560745239,-0.12279335409402847,0.6299495100975037
20.019643953335965,-0.4226650454172278,-1.4785844071538146,-1.3809286291358884,-0.41713574959084565,1.3443319918897219,-1.2274754092898463,-0.8975279331207275,0.7472522854804993,1.389680027961731,-0.3486085534095764,-0.6663902997970581,-0.11095999926328659,0.6496798396110535
20.18592424101968,-0.40243213483669577,-1.4815633899435652,-1.3310445428307736,-0.4173419424359769,1.3435861231015964,-1.2125061816864489,-0.9006704688072205,0.7243167161941528,1.445966124534607,-0.34315961599349976,-0.6520955562591553,-0.09840461611747742,0.6688268184661865
20.35220402684887,-0.3821993008827795,-1.4845423027696745,-1.2811606070820172,-0.41754816715819687,1.3428402592655468,-1.1975370208548697,-0.9008383750915527,0.7005895972251892,1.5014665126800537,-0.337614506483078,-0.6374173760414124,-0.08515109866857529,0.6873607635498047
20.5184846596511,-0.36196639778376805,-1.4875212461980774,-1.2312764172413482,-0.4177543712140183,1.3420943628763904,-1.1825677691729728,-0.8980202674865723,0.6762452721595764,1.5560604333877563,-0.33197808265686035,-0.6223630905151367,-0.07122430205345154,0.7052529454231262
20.684765004270297,-0.3417334730988515,-1.4905000590548958,-1.1813923138555893,-0.4179605834298325,1.3413484052544995,-1.167598505916831,-0.8922163844108582,0.6514589190483093,1.609628677368164,-0.3262549638748169,-0.6069406867027283,-0.05665035918354988,0.7224757671356201
20.851044553694667,-0.3215007006472302,-1.4934789392670387,-1.1315084490282779,-0.41816680284531693,1.3406025144979956,-1.1526292873085946,-0.8834401369094849,0.6264060139656067,1.6620535850524902,-0.3204500675201416,-0.5911583304405212,-0.041456542909145355,0.7390026450157166
21.01732457123764,-0.3012678486596776,-1.4964578254561707,-1.0816244437653861,-0.4183729962460277,1.3398565568765688,-1.1376601040336205,-0.8717178702354431,0.6012610197067261,1.7132214307785034,-0.314567893743515,-0.5750240087509155,-0.02567114494740963,0.7548081874847412
21.18360501133424,-0.28103490753291915,-1.4994367281662269,-1.0317403117364066,-0.41857925422601044,1.3391106874074026,-1.122690791700408,-0.8570880889892578,0.5761963129043579,1.7630201578140259,-0.30861327052116394,-0.5585463643074036,-0.009323162958025932,0.7698680758476257
21.349884631163988,-0.2608021139070203,-1.5024156083783695,-0.9818564257874824,-0.41878547648825104,1.338364802344411,-1.1077217383399898,-0.8396016955375671,0.5513831377029419,1.8113409280776978,-0.3025910258293152,-0.5417341589927673,0.007556622847914696,0.784159243106842
21.516164187497164,-0.24056928659572194,-1.5053944885905122,-0.93197255888753,-0.41899166037278907,1.3376188598547452,-1.092752492811299,-0.8193212747573853,0.5269882082939148,1.8580787181854248,-0.29650577902793884,-0.5245958566665649,0.024937331676483154,0.7976600527763367
21.682444291844632,-0.22033640380214112,-1.5083733729662316,-0.8820885275832897,-0.41919789353675213,1.336873059995394,-1.077783261221482,-0.7963225841522217,0.5031747817993164,1.9031312465667725,-0.2903621196746826,-0.5071409940719604,0.0427868589758873,0.8103498816490173
21.84872465146411,-0.20010349153945145,-1.5113522930231302,-0.8322044196974465,-0.4194041280955777,1.3361269865149668,-1.0628140970825497,-0.7706915140151978,0.4801012873649597,1.9464004039764404,-0.2841648459434509,-0.4893784821033478,0.061072155833244324,0.8222098350524902
22.015004524915923,-0.1798706299008642,-1.5143312769111326,-0.7823204576619027,-0.4196103609712894,1.3353811226789174,-1.0478448651890777,-0.742526113986969,0.4579206705093384,1.9877917766571045,-0.27791860699653625,-0.47131815552711487,0.07975973933935165,0.8332219123840332
22.181284610284745,-0.15963776095716123,-1.5173101481897417,-0.7324364320512561,-0.41981658817253903,1.3346352464037774,-1.0328757228832142,-0.7119348049163818,0.4367794394493103,2.027215003967285,-0.27162787318229675,-0.45296937227249146,0.09881507605314255,0.843369722366333
22.347565014771913,-0.13940483242850268,-1.5202889564409487,-0.6825523107051054,-0.4200227715494127,1.3338892785077874,-1.01790645582511,-0.6790359020233154,0.41681718826293945,2.064584255218506,-0.26529741287231445,-0.43434199690818787,0.1182033121585846,0.8526383638381958
22.513845087489557,-0.11917196683971812,-1.5232679479194753,-0.6326682888898124,-0.4202290299133554,1.3331435235661286,-1.002937208705478,-0.6439586877822876,0.3981660306453705,2.0998177528381348,-0.2589315176010132,-0.41544628143310547,0.13788866996765137,0.8610142469406128
22.680125494553547,-0.09893904947951349,-1.526246854709509,-0.5827841667706153,-0.42043523530106786,1.332397647030785,-0.9879679439093794,-0.6068402528762817,0.38094955682754517,2.1328394412994385,-0.2525348365306854,-0.3962920308113098,0.15783514082431793,0.8684853315353394
22.846405366012217,-0.07870617883529261,-1.529225735912091,-0.5329002053330144,-0.4206414399541811,1.3316516697820724,-0.9729987562056089,-0.5678268671035767,0.3652831017971039,2.163576364517212,-0.24611185491085052,-0.37688976526260376,0.1780058741569519,0.8750410676002502
23.012685792052892,-0.05847326363110253,-1.5322046436086971,-0.4830160775208121,-0.42084767473268825,1.330905799064354,-0.9580295451583221,-0.527073085308075,0.3512718677520752,2.191962718963623,-0.2396668791770935,-0.3572499752044678,0.1983640342950821,0.8806724548339844
23.178965643071926,-0.03824040563654244,-1.535183524171944,-0.4331321222151016,-0.42105390760839995,1.3301599352283047,-0.9430602999807356,-0.4847404658794403,0.33901190757751465,2.2179360389709473,-0.23320436477661133,-0.33738330006599426,0.21887218952178955,0.8853718042373657
23.345245591557607,-0.018007540331983984,-1.538162521695165,-0.3832481376693976,-0.42126014048411164,1.329414071392255,-0.9280911717631232,-0.44099685549736023,0.3285883069038391,2.2414402961730957,-0.22672846913337708,-0.31730055809020996,0.23949259519577026,0.8891332149505615
23.511526022398616,0.0022253789358364015,-1.541141315341552,-0.333364008417095,-0.4214663173917012,1.3286680848674786,-0.9131218467083186,-0.3960157036781311,0.3200760781764984,2.2624239921569824,-0.22024360299110413,-0.2970123589038849,0.2601875364780426,0.8919521570205688
23.67780589034621,0.022458235170883682,-1.5441204206659336,-0.2834800480328168,-0.42167254860225556,1.3279222173812077,-0.898152712634428,-0.34997737407684326,0.31353867053985596,2.280841827392578,-0.21375395357608795,-0.27653035521507263,0.280918687582016,0.8938260078430176
23.844086347575328,0.04269114866962323,-1.5470992263387942,-0.23359591086408155,-0.42187878332961176,1.3271763468484825,-0.8831834500177576,-0.3030632436275482,0.30902838706970215,2.2966537475585938,-0.20726355910301208,-0.2558651268482208,0.30164819955825806,0.8947531580924988
24.01036628337925,0.06292400680341942,-1.5500781010406484,-0.18371193012290485,-0.4220849888071491,1.3264304825794497,-0.8682142580745876,-0.2554612159729004,0.3065858483314514,2.3098256587982178,-0.20077647268772125,-0.23502817749977112,0.32233765721321106,0.8947339653968811
24.176646588639688,0.08315691491532831,-1.553057007091844,-0.1338278385447733,-0.4222912211873145,1.325684504099329,-0.8532449954446664,-0.20735996961593628,0.30623990297317505,2.320329427719116,-0.19429679214954376,-0.214030921459198,0.34294915199279785,0.8937702775001526
24.342926573908468,0.1033897747106652,-1.5560358899398365,-0.08394384296413969,-0.42249742767644066,1.3249386285684024,-0.8382758539816827,-0.1589512825012207,0.30800724029541016,2.3281421661376953,-0.1878284513950348,-0.19288496673107147,0.36344432830810547,0.8918654918670654
24.50920647346693,0.12362263554093933,-1.5590148745300474,-0.034059873096601516,-0.4227036573188998,1.324192764732353,-0.8233066213860021,-0.11042715609073639,0.3118927478790283,2.333247184753418,-0.18137532472610474,-0.17160187661647797,0.38378557562828064,0.8890244364738464
24.67548678862927,0.14385553534280418,-1.561993691571651,0.015824221452100926,-0.4229098662691327,1.3234467922863182,-0.8083374065682031,-0.06197896599769592,0.3178892731666565,2.3356335163116455,-0.17494118213653564,-0.15019311010837555,0.4039350748062134,0.8852536678314209
24.841766730001375,0.16408839063813255,-1.5649726596339344,0.06570820386373222,-0.4231160952393661,1.3227009107213055,-0.7933682666353754,-0.01379925012588501,0.32597723603248596,2.335296869277954,-0.1685296893119812,-0.1286708116531372,0.42385542392730713,0.8805612921714783
25.008046994827733,0.18432128669832018,-1.5679514833596035,0.11559228331164015,-0.42332230507566965,1.3219550409830831,-0.7783989706212487,0.03392291069030762,0.3361254334449768,2.3322384357452393,-0.1621444821357727,-0.10704651474952698,0.4435097575187683,0.8749566674232483
25.17432701172626,0.20455415597985638,-1.5709304447378216,0.16547628838119777,-0.42352853315983235,1.3212090791320816,-0.7634297591129474,0.08099886775016785,0.3482907712459564,2.326464891433716,-0.155789315700531,-0.08533245325088501,0.46286138892173767,0.8684511184692383
25.340606881137564,0.22478700575728713,-1.5739093473717878,0.21536024920458896,-0.42373476603554405,1.3204631928742085,-0.748460619684423,0.12724512815475464,0.3624183237552643,2.3179893493652344,-0.14946749806404114,-0.06354045867919922,0.4818740785121918,0.8610570430755615
25.506887196823605,0.24501991060952383,-1.5768882497964263,0.2652443439104009,-0.4239409772010845,1.3197173234765065,-0.7334913798471171,0.172481507062912,0.3784421384334564,2.306830883026123,-0.1431823968887329,-0.041682519018650055,0.500512421131134,0.8527886867523193
25.673167254548538,0.26525279667522733,-1.5798672273649297,0.31512836122788057,-0.42414720395601035,1.3189714580724508,-0.7185222201603729,0.2165316790342331,0.3962845802307129,2.2930150032043457,-0.13693739473819733,-0.019770974293351173,0.518741250038147,0.8436614274978638
25.839447500356854,0.28548568389496093,-1.5828459786051683,0.36501243497037594,-0.42435343830676686,1.3182254997051581,-0.7035529402803798,0.2592270076274872,0.41585829854011536,2.276571035385132,-0.13073578476905823,0.0021824361756443977,0.5365263819694519,0.8336922526359558
26.00572754888513,0.3057185638708538,-1.5858248932595271,0.4148964495288585,-0.424559671678799,1.3174796040614032,-0.688583761031678,0.3004024028778076,0.4370642304420471,2.2575364112854004,-0.12458062916994095,0.02416507713496685,0.5538340210914612,0.8228994011878967
26.172007782042296,0.32595145062605557,-1.588803825781658,0.46478051947600907,-0.4247658846164808,1.3167337351176835,-0.6736145303055792,0.33990222215652466,0.4597945213317871,2.235952854156494,-0.11847497522830963,0.04616500064730644,0.5706313848495483,0.8113027215003967
26.33828791280785,0.3461843101906427,-1.591782797572704,0.5146645587056752,-0.4249720887234274,1.3159878692596454,-0.6586453197559518,0.37757712602615356,0.48393136262893677,2.2118680477142334,-0.11242181807756424,0.06816980987787247,0.586886465549469,0.7989233136177063
26.504567823044194,0.36641717756663034,-1.5947616318856441,0.5645485317765786,-0.4251782922713695,1.3152419238184556,-0.64367609208023,0.41328728199005127,0.509348452091217,2.1853349208831787,-0.10642392933368683,0.09016741067171097,0.6025680899620056,0.7857832908630371
26.670848072309038,0.3866500835518845,-1.5977405732406753,0.6144326065560315,-0.42538451706417063,1.314496017611107,-0.6287068704379003,0.446900874376297,0.535910964012146,2.156412363052368,-0.10048418492078781,0.11214550584554672,0.6176460385322571,0.7719065546989441
26.837129158017824,0.40688310080410106,-1.600719520976179,0.664316932268667,-0.42559073242723233,1.3137501467588604,-0.613737582254111,0.4782954752445221,0.5634765625,2.1251637935638428,-0.09460513293743134,0.1340918391942978,0.6320911645889282,0.7573175430297852
27.0034099402945,0.4271160535631354,-1.6036984292100722,0.7142011669516698,-0.4257969379148913,1.313004275906614,-0.598768292525443,0.5073601603507996,0.5918958187103271,2.091658115386963,-0.0887894555926323,0.1559942066669464,0.645875096321106,0.7420427799224854
27.16968914399217,0.4473488150832777,-1.6066773020844944,0.7640849280609712,-0.4260031594586438,1.3122583398928487,-0.5837991641730231,0.5339926481246948,0.6210125684738159,2.055968761444092,-0.08303963392972946,0.17784003913402557,0.6589708924293518,0.7261093258857727
27.335968828036506,0.4675816449187271,-1.6096561887275174,0.8139688332742724,-0.4262093747503248,1.311512429252284,-0.5688299810425231,0.5581028461456299,0.6506661176681519,2.018174171447754,-0.07735799998044968,0.1996174156665802,0.6713523268699646,0.709545373916626
27.50224797797669,0.4878144072812072,-1.6126351336341795,0.8638525782563279,-0.4264155779158815,1.3107665667993698,-0.5538608103651941,0.5796120166778564,0.6806899309158325,1.978358507156372,-0.07174684852361679,0.22131405770778656,0.6829949021339417,0.6923803091049194
27.668526378435576,0.508047081012824,-1.615614034815812,0.913736098393994,-0.4266217966039587,1.3100207099793852,-0.5388917398062854,0.5984525680541992,0.710913896560669,1.936608076095581,-0.06620834767818451,0.2429177463054657,0.693874716758728,0.6746445298194885
27.83480596755102,0.5282799160917986,-1.618592918737804,0.9636199751286272,-0.4268280297365095,1.3092747787932522,-0.5239225675013472,0.6145694851875305,0.7411646842956543,1.8930145502090454,-0.06074454262852669,0.2644166946411133,0.7039697766304016,0.656369149684906
28.00108543698918,0.5485127205677194,-1.6215717961469203,1.0135038159600749,-0.42703424628744413,1.3085288628709428,-0.5089534211077452,0.6279197335243225,0.7712664604187012,1.8476738929748535,-0.05535734444856644,0.2857986390590668,0.7132588624954224,0.6375863552093506
28.167364949600614,0.5687455158121852,-1.6245506156305105,1.0633876697435052,-0.4272404656228284,1.3077829985601188,-0.4939842560184274,0.6384724378585815,0.8010414242744446,1.8006855249404907,-0.05004872754216194,0.3070516288280487,0.7217223048210144,0.6183294057846069
28.333644381677345,0.5889783308812142,-1.6275295597217163,1.113271499366525,-0.42744669843004485,1.3070371349717902,-0.4790151327724494,0.6462088823318481,0.8303109407424927,1.7521528005599976,-0.04482044652104378,0.3281635642051697,0.7293418049812317,0.5986319780349731
28.499922863213467,0.6092110166883228,-1.630508470051064,1.163155043827361,-0.4276529293658002,1.3062912781518057,-0.4640460865367107,0.6511238217353821,0.8588964343070984,1.702182412147522,-0.03967413306236267,0.3491225838661194,0.7361003160476685,0.5785288214683533
28.666202288371238,0.629443771803909,-1.6334872890562464,1.2130388713746927,-0.427859147952174,1.305545357593354,-0.44907691631412927,0.6532241106033325,0.8866207003593445,1.6508827209472656,-0.034611303359270096,0.3699171543121338,0.7419824600219727,0.5580549240112305
28.832483288057716,0.6496767725285107,-1.636466252321962,1.2629231712806357,-0.42806535343983304,1.3047994794925706,-0.434107635338999,0.6525288224220276,0.9133079648017883,1.5983669757843018,-0.02963343635201454,0.39053550362586975,0.7469741106033325,0.5372461676597595
28.998764348715156,0.669909791544402,-1.6394452247333224,1.312807489477868,-0.42827158549484945,1.3040536196830765,-0.4191383475046352,0.6490700244903564,0.938784122467041,1.5447499752044678,-0.02474175952374935,0.41096606850624084,0.7510627508163452,0.5161390900611877
29.165045323106863,0.6901427590617695,-1.6424241329672156,1.3626917817953803,-0.42847782401979584,1.3033076827562553,-0.40416908218456815,0.6428912878036499,0.9628794193267822,1.4901496171951294,-0.019937757402658463,0.4311971664428711,0.7542371153831482,0.49477052688598633
29.33132624459075,0.7103757516802509,-1.6454029918606097,1.4125760582405458,-0.4286840295074549,1.3025618119040088,-0.3891997838272132,0.6340487599372864,0.9854276180267334,1.434685230255127,-0.015222407877445221,0.451217383146286,0.7564877867698669,0.4731779992580414
29.497605853788173,0.7306085595638518,-1.6483819024458117,1.4624599409997732,-0.4288902571474576,1.3018159467266897,-0.374230599363141,0.6226101517677307,1.0062673091888428,1.37847900390625,-0.010596749372780323,0.4710152745246887,0.757806658744812,0.4513993263244629
29.66388544228713,0.7508413933226531,-1.6513608743838024,1.51234381754946,-0.4290964961452107,1.301070038914927,-0.35926143913537706,0.6086543798446655,1.0252432823181152,1.3216533660888672,-0.0060618286952376366,0.4905798137187958,0.7581872344017029,0.42947250604629517
29.830166320645617,0.7710743944814825,-1.6543397089524472,1.5622280810570064,-0.4293026907211364,1.3003240943974324,-0.3442921073525531,0.5922716856002808,1.0422065258026123,1.2643321752548218,-0.0016183140687644482,0.5099002718925476,0.7576248645782471,0.40743550658226013
29.9964462576307,0.791307191424472,-1.6573185972414008,1.6121120621525318,-0.4295088968121013,1.299578228539079,-0.3293229365643435,0.5735628604888916,1.0570147037506104,1.206641674041748,0.002732958411797881,0.5289652347564697,0.7561159133911133,0.38532719016075134
30.162725466589574,0.8115399281284158,-1.6602975083203677,1.661995824840194,-0.4297151384683032,1.2988323271019162,-0.31435381476022234,0.552638590335846,1.0695334672927856,1.1487083435058594,0.00699146231636405,0.5477638840675354,0.7536587119102478,0.3631862699985504
30.329005202318868,0.8317727922492428,-1.6632765157344525,1.7118797455589818,-0.4299213521890455,1.2980863814306365,-0.29938461786580345,0.5296193361282349,1.0796376466751099,1.09065842628479,0.011156585067510605,0.5662859082221985,0.7502532005310059,0.34105101227760315
30.495284360659014,0.8520055591611718,-1.6662554303518995,1.7617634930610255,-0.4301275753037367,1.2973404842440444,-0.2844155032773026,0.5046347975730896,1.0872100591659546,1.032618522644043,0.015228026546537876,0.584520697593689,0.7459007501602173,0.31896036863327026
30.661564147007034,0.8722384318041382,-1.6692342391129074,1.8116474289654316,-0.43033377966186065,1.296594568478461,-0.26944630770633005,0.4778226613998413,1.0921437740325928,0.9747157096862793,0.01920538768172264,0.6024580597877502,0.7406042218208313,0.29695266485214233
30.827843577304044,0.8924712224514869,-1.6722131389716315,1.8615312580545345,-0.4305399904012375,1.2958487605954618,-0.25447719337134095,0.4493288993835449,1.09434175491333,0.9170767664909363,0.023088516667485237,0.6200876235961914,0.7343682050704956,0.2750664949417114
30.99412468858841,0.9127042435400403,-1.675192134157255,1.911415591439844,-0.4307462176268292,1.2951027724310336,-0.23950785584938017,0.4193057715892792,1.0937178134918213,0.8598271012306213,0.026877205818891525,0.6373995542526245,0.7271989583969116,0.2533397078514099
31.160405025233278,0.9329371342009973,-1.6781710139278048,1.961299692433304,-0.4309524231144882,1.294356812729949,-0.22453861614811668,0.3879133462905884,1.0901964902877808,0.8030921220779419,0.03057156689465046,0.6543838977813721,0.7191041111946106,0.23181074857711792
31.32668530382779,0.9531700183588392,-1.6811498452901306,2.0111837760116575,-0.43115863436506224,1.293610945055415,-0.2095693937318497,0.3553164601325989,1.0837140083312988,0.7469956278800964,0.03417162969708443,0.67103111743927,0.7100929617881775,0.21051710844039917
31.49296420804493,0.9734028186370428,-1.6841287901246031,2.0610674472767996,-0.43136486530081763,1.2928650882354304,-0.19460027352456014,0.3216850161552429,1.074218511581421,0.6916608810424805,0.03767740726470947,0.6873314380645752,0.700176477432251,0.1894962042570114
31.659242798199806,0.9936354497973657,-1.6871076304246104,2.1109510243232616,-0.4315710856058123,1.292119205924579,-0.179631257941692,0.2871933877468109,1.0616700649261475,0.6372076272964478,0.04108943045139313,0.7032758593559265,0.6893667578697205,0.16878467798233032
31.825522648926253,1.01386832491446,-1.690086453116457,2.160834979541196,-0.4317772715103771,1.2913732411269883,-0.16466201976429753,0.25201815366744995,1.0460408926010132,0.5837541222572327,0.04440786689519882,0.7188553214073181,0.6776775121688843,0.14841830730438232
31.9918024996527,1.0341011518185341,-1.6930654127095908,2.2107189347591305,-0.4319834983308071,1.290627382037784,-0.1496928440474712,0.21634003520011902,1.0273160934448242,0.5314181447029114,0.047633249312639236,0.7340610027313232,0.6651243567466736,0.12843336164951324
32.15808246420561,1.0543340840616127,-1.696044320943484,2.2606029241250036,-0.4321897123554508,1.2898815111855375,-0.13472360327908464,0.18034043908119202,1.0054930448532104,0.4803127944469452,0.050766151398420334,0.7488841414451599,0.6517237424850464,0.10886451601982117
32.324363097013276,1.0745669312433404,-1.6990232140005155,2.3104871139673016,-0.43239596891077,1.2891356251564297,-0.1197543562458098,0.14420202374458313,0.9805821180343628,0.430549681186676,0.05380713567137718,0.7633161544799805,0.6374940276145935,0.08974620699882507
32.49064373012176,1.0947998814197504,-1.7020020314220707,2.3603713038998477,-0.43260217709715987,1.288389643195554,-0.10478511348031323,0.10810742527246475,0.952606201171875,0.3822368383407593,0.05675697326660156,0.7773492932319641,0.6224545836448669,0.07111196964979172
32.65692444772988,1.1150328486768495,-1.7049810424300171,2.4102555191822836,-0.43280840543232557,1.2876437229341746,-0.0898158878409163,0.07223865389823914,0.9216007590293884,0.3354801833629608,0.05961636081337929,0.7909749746322632,0.6066267490386963,0.05299463868141174
32.82320572692793,1.1352658815831114,-1.70795993067926,2.4601399029417,-0.43301462124337015,1.2868979141817303,-0.07484653117382936,0.03677568584680557,0.8876137733459473,0.29038020968437195,0.062386393547058105,0.8041859269142151,0.590032160282135,0.03542593494057655
32.98948586037029,1.1554987459637147,-1.7109388314061722,2.5100239429744073,-0.433220814574877,1.2861520318521908,-0.059877283117241914,0.0018968842923641205,0.8507065773010254,0.24703624844551086,0.06506779044866562,0.8169739842414856,0.5726950764656067,0.01843705028295517
33.155767550159226,1.175731877976224,-1.7139177339426015,2.559908449911088,-0.4334270489136679,1.2854060811759107,-0.0449079217457066,-0.032223887741565704,0.8109506964683533,0.20554116368293762,0.06766170263290405,0.8293325304985046,0.5546397566795349,0.002057617763057351
33.32204845802166,1.1959647822120023,-1.7168967696011,2.6097927222698196,-0.4336332770911733,1.284660195341143,-0.029938590455322506,-0.0654153972864151,0.7684316635131836,0.16598574817180634,-0.07016932964324951,-0.841253936290741,-0.5358925461769104,0.013683078810572624
33.48832717814771,1.2161975166545695,-1.7198755968887172,2.659676338307636,-0.4338394979630175,1.2839142144230915,-0.01496955909638569,-0.09751183539628983,0.7232459187507629,0.1284557282924652,-0.07259169965982437,-0.8527315258979797,-0.5164808034896851,0.028757207095623016
33.654611338388946,1.2364308834075928,-1.722854495048523,2.709561586380005,-0.4340457320213318,1.2831683158874512,0.0,-0.12835441529750824,0.6754990816116333,0.09303100407123566,-0.07493026554584503,-0.8637591600418091,-0.4964318871498108,0.04313858598470688
33.793644302498436,1.2445685079468296,-1.7435886800116958,2.674655497579251,-0.4757556212541777,1.2414627374724325,0.0,-0.1379430890083313,0.7243549823760986,0.14960813522338867,-0.05030909553170204,-0.8399544954299927,-0.5377681255340576,0.052448514848947525
33.95856747201703,1.2534991898090972,-1.720147539870713,2.625178546723673,-0.5036929655933311,1.212793795845747,0.0,-0.14194869995117188,0.7738603353500366,0.18592916429042816,-0.032588858157396317,-0.8257598280906677,-0.5597883462905884,0.06079237163066864
34.123490641535625,1.2486653058073647,-1.6984312885321609,2.5757015958680944,-0.5248292861269637,1.1999258595774929,0.0,-0.12878109514713287,0.8217766284942627,0.22045478224754333,-0.025135410949587822,-0.812544584274292,-0.579353928565979,0.059062279760837555
34.28380625800352,1.2350043735264868,-1.664513425546949,2.5276069109277244,-0.5402291744481899,1.1870010217367593,0.0,-0.10881610959768295,0.8667076230049133,0.24255108833312988,-0.023266123607754707,-0.8040892481803894,-0.5913347601890564,0.0567651204764843
34.44872942752212,1.2588700453793116,-1.6565641800276123,2.549203633467642,-0.5510729038049055,1.137524070881181,0.0,-0.15865030884742737,0.8473742008209229,0.22547605633735657,-0.0014963422436267138,-0.8074674010276794,-0.5836077332496643,0.08600068092346191
34.61365259704071,1.2725259450364201,-1.6502501705548318,2.5888584478806362,-0.573299619126966,1.0880471200256023,0.0,-0.20278045535087585,0.8147221803665161,0.20062194764614105,0.015155589208006859,-0.8111577033996582,-0.5736185908317566,0.112938791513443
34.77857576655931,1.2795242400538311,-1.6520371510978067,2.619761799915711,-0.6062324264424878,1.038570169170024,0.0,-0.23750059306621552,0.7917990684509277,0.19383053481578827,0.03272789344191551,-0.8070341944694519,-0.5740575790405273,0.13447163999080658
34.9434989360779,1.2829463828808063,-1.6586068584838045,2.6416091433416105,-0.645455541997253,0.9890932183144456,0.0,-0.26605677604675293,0.7776862382888794,0.19983351230621338,0.05201953649520874,-0.7972741723060608,-0.581824779510498,0.15207748115062714
35.108422105596496,1.2848250226821694,-1.666175049121435,2.6567043438565756,-0.6873729646322634,0.9396162674588673,0.0,-0.2912062406539917,0.7687140703201294,0.21234232187271118,0.07278718054294586,-0.7843532562255859,-0.5928717851638794,0.1673169732093811
35.27334528603471,1.2860567249970378,-1.6732686886174784,2.6666944706829367,-0.7303923531509264,0.8901393133274027,0.0,-0.31428250670433044,0.7625740170478821,0.22828349471092224,0.09482268244028091,-0.7694436311721802,-0.6051759719848633,0.18090638518333435
35.43826854397476,1.2870644918054759,-1.6793414581956916,2.67245692450016,-0.7738111588306288,0.840662335945388,0.0,-0.3359001576900482,0.758071780204773,0.24619191884994507,0.11801162362098694,-0.7530738115310669,-0.6177757978439331,0.19314785301685333
35.60319171349335,1.2881090272478153,-1.6847221429604267,2.6757365499542036,-0.8172947435905326,0.7911853850898096,0.0,-0.35667964816093445,0.7535368204116821,0.2646920680999756,0.14216019213199615,-0.7356995344161987,-0.6299182772636414,0.20430266857147217
35.76811488301195,1.2893603830006428,-1.6895273915825537,2.67702570387609,-0.8606847401151027,0.7417084342342313,0.0,-0.37682822346687317,0.7484678030014038,0.2832552194595337,0.1672094613313675,-0.7174682021141052,-0.6413204073905945,0.21444913744926453
35.93303805253054,1.2909020574031143,-1.693960850267567,2.677095511009419,-0.9038828033213133,0.6922314833786528,0.0,-0.3965279459953308,0.7422365546226501,0.3012372851371765,0.19301819801330566,-0.6985763311386108,-0.6516901254653931,0.22368493676185608
36.097961222049136,1.2927964269757772,-1.698123974564107,2.676337943817625,-0.9468231551815434,0.6427545325230744,0.0,-0.4158369302749634,0.7345787286758423,0.3182309567928314,0.21947763860225677,-0.679143488407135,-0.6608625054359436,0.23206555843353271
36.26288439156773,1.2950877242316432,-1.7020773771695972,2.675011015650148,-0.9894583876026785,0.593277581667496,0.0,-0.4347551465034485,0.7253803610801697,0.33392614126205444,0.24648410081863403,-0.6592620611190796,-0.6687268018722534,0.23963212966918945
36.427807561086325,1.2977529746941756,-1.7058333675894057,2.6732697728620747,-1.0317951479190883,0.5438006308119177,0.0,-0.4531990885734558,0.7146719694137573,0.3480941355228424,0.27392733097076416,-0.6390038132667542,-0.6752256751060486,0.24639025330543518
36.59273073060492,1.3007276235830467,-1.7093705674421367,2.671196868778498,-1.073873261466786,0.4943236799563392,0.0,-0.47103455662727356,0.7025856971740723,0.3605685234069824,0.30169764161109924,-0.6184290647506714,-0.6803369522094727,0.25232046842575073
36.757653969586535,1.303953383511339,-1.7126643139810698,2.6688533746821177,-1.1157291999280299,0.4448467082618541,0.0,-0.4881288707256317,0.689285933971405,0.37121695280075073,0.3296922445297241,-0.5975967049598694,-0.684049665927887,0.2574049234390259
36.92257723660035,1.3073824066901403,-1.7156899206716059,2.666288133360376,-1.1573918801880525,0.39536972815771043,0.0,-0.504357635974884,0.6749539971351624,0.3799358010292053,0.3578144609928131,-0.5765663981437683,-0.6863592863082886,0.26163119077682495
37.087500502261676,1.3109747877808942,-1.7184218365649553,2.6635422876776387,-1.1988845710814937,0.34589274845931217,0.0,-0.5196050405502319,0.6597840189933777,0.38664835691452026,0.38597244024276733,-0.55539870262146,-0.6872676014900208,0.2649918496608734
37.25242364644806,1.314696123333525,-1.7208332961976278,2.6606512722418203,-1.2402264065975428,0.2964158052033966,0.0,-0.5337642431259155,0.6439782381057739,0.39130353927612305,0.41407865285873413,-0.5341553688049316,-0.6867812871932983,0.2674851715564728
37.41734669371245,1.3185174172040748,-1.7229021947590655,2.657645328376668,-1.2814335277120499,0.24693889102407873,0.0,-0.54673832654953,0.6277422904968262,0.3938785791397095,0.4420511722564697,-0.5128962397575378,-0.6849135160446167,0.26911282539367676
37.58226977230056,1.322417999932058,-1.7246338131855912,2.6545502315554375,-1.3225202768330486,0.19746196744764624,0.0,-0.5584437847137451,0.611276388168335,0.39438775181770325,0.4698193073272705,-0.49167144298553467,-0.6816869378089905,0.2698739767074585
37.747192950626946,1.3263827148276959,-1.7260551666231256,2.6513882701079625,-1.363500336027796,0.14798501394973118,0.0,-0.5688091516494751,0.5947748422622681,0.39287737011909485,0.49732211232185364,-0.47052261233329773,-0.6771307587623596,0.26976481080055237
37.912116113064755,1.3303979944810336,-1.7271966889540697,2.6481807492964817,-1.4043869931395425,0.09850806521838829,0.0,-0.5777723789215088,0.5784253478050232,0.3894123435020447,0.5245019793510437,-0.44949042797088623,-0.6712764501571655,0.26878228783607483
38.077039178311104,1.3344508128918604,-1.7280873797678618,2.6449486213592808,-1.445192840723462,0.0490311456444827,0.0,-0.5852803587913513,0.5624102354049683,0.3840736448764801,0.551303505897522,-0.4286154508590698,-0.6641566157341003,0.26692524552345276
38.24196223737659,1.3385283750088997,-1.728755130871297,2.641711748166077,-1.4859299922762985,-0.0004457720751636085,0.0,-0.5912884473800659,0.5469050407409668,0.37695786356925964,0.5776736736297607,-0.407938688993454,-0.6558052897453308,0.26419419050216675
38.40688526245167,1.342618119643652,-1.7292266784574253,2.6384904323557428,-1.5266106453122046,-0.049922679597685406,0.0,-0.5957615375518799,0.5320751070976257,0.36817437410354614,0.6035612225532532,-0.3875012993812561,-0.6462573409080505,0.2605915367603302
38.571808464184734,1.3467081072468345,-1.7295281907996223,2.635303741643436,-1.5672461675613378,-0.09939964011760574,0.0,-0.5986732244491577,0.5180768966674805,0.3578469753265381,0.6289174556732178,-0.3673446476459503,-0.6355489492416382,0.25612157583236694
38.73673179731263,1.3507886945011336,-1.7296850741048975,2.632166747636068,-1.6078470610244373,-0.1488766400559733,0.0,-0.6000065207481384,0.5050561428070068,0.34611234068870544,0.653696596622467,-0.34750813245773315,-0.6237172484397888,0.250789999961853
38.90165515194347,1.3548582022533142,-1.7297201713879131,2.629080852347133,-1.6484209640659588,-0.1983536464452273,0.0,-0.5997544527053833,0.49315187335014343,0.3331238329410553,0.6778579354286194,-0.3280261754989624,-0.6108001470565796,0.2446030229330063
39.06657836886988,1.358916981359162,-1.729653619311353,2.6260463187502663,-1.6889746156822234,-0.24783061152314814,0.0,-0.5979189872741699,0.4824889600276947,0.3190433382987976,0.7013618350028992,-0.3089328110218048,-0.5968355536460876,0.23756979405879974
39.23150154224351,1.3629663020978777,-1.7295178154348283,2.623057134196484,-1.7295170893404903,-0.2973075635352376,0.0,-0.5945090055465698,0.47318363189697266,0.30404824018478394,0.7241739630699158,-0.29025569558143616,-0.581863522529602,0.22969210147857666
39.39642463448739,1.3670066761648432,-1.7293362953506304,2.6201103429078523,-1.770055303721783,-0.34678449120840193,0.0,-0.5895410776138306,0.4653369188308716,0.28831785917282104,0.7462583184242249,-0.27202633023262024,-0.5659232139587402,0.22097767889499664
39.561347781939624,1.3710388819396655,-1.7291325002152027,2.61720327961974,-1.810596401937192,-0.3962614354440721,0.0,-0.5830387473106384,0.45903533697128296,0.272037148475647,0.7675796747207642,-0.2542758882045746,-0.5490540862083435,0.21143493056297302
39.726271075390635,1.3750636727000352,-1.7289293699592412,2.614332881251026,-1.8511472534466153,-0.44573842347937553,0.0,-0.5750322341918945,0.45435142517089844,0.2553957998752594,0.7881039381027222,-0.2370356023311615,-0.5312962532043457,0.2010730654001236
39.891194319658965,1.3790817705659608,-1.728746653838409,2.6114964458698005,-1.8917133226535923,-0.4952153967598738,0.0,-0.565558910369873,0.45134237408638,0.2385866492986679,0.8077973127365112,-0.2203376144170761,-0.5126901865005493,0.18990421295166016
40.05611748917756,1.3830936550414852,-1.7285931004466306,2.6086900457726436,-1.9322956168389331,-0.5446923476154522,0.0,-0.5546621084213257,0.45004913210868835,0.2218012809753418,0.8266244530677795,-0.2042171210050583,-0.4932767152786255,0.17794747650623322
40.22104080654379,1.3870998615007006,-1.7284694686019701,2.6059094593337204,-1.97289185960085,-0.5941693428253215,0.0,-0.5423914194107056,0.4504949450492859,0.2052299678325653,0.8445508480072021,-0.18871097266674042,-0.4730977714061737,0.16522811353206635
40.38596428211938,1.3911010400085777,-1.7283747768153621,2.6031505223114255,-2.0134990761212883,-0.6436463854979997,0.0,-0.5288028120994568,0.45268476009368896,0.18906204402446747,0.8615431785583496,-0.17385560274124146,-0.45219671726226807,0.15177442133426666
40.550887554747135,1.395097717748507,-1.7283080823741541,2.6004086199618333,-2.054114381850017,-0.6931233672863264,0.0,-0.5139573812484741,0.45660653710365295,0.17348504066467285,0.877570629119873,-0.1596856564283371,-0.43061843514442444,0.1376156359910965
40.715810564616234,1.3990904828140893,-1.7282683994304102,2.5976801209668685,-2.0947347220307084,-0.7426002702470553,0.0,-0.4979214668273926,0.4622289836406708,0.15868160128593445,0.8926037549972534,-0.14623507857322693,-0.4084090292453766,0.12278386950492859
40.88073373834462,1.4030799604921436,-1.7282551234381205,2.594960981250073,-2.1353570966363007,-0.7920772223655711,0.0,-0.48076575994491577,0.46950411796569824,0.14482949674129486,0.9066160321235657,-0.1335359364748001,-0.3856159746646881,0.10731194913387299
41.04565708954948,1.4070660846185086,-1.7282692949673124,2.5922468063745536,-2.175978803958736,-0.8415542277270307,0.0,-0.4625648260116577,0.478367418050766,0.1321001648902893,0.9195829033851624,-0.1216188445687294,-0.36228787899017334,0.09123353660106659
41.210580102418646,1.4110497211539677,-1.7283086185961953,2.5895337837838976,-2.216595971775332,-0.8910311315877801,0.0,-0.4433969557285309,0.4887363910675049,0.12065476179122925,0.9314819574356079,-0.11051328480243683,-0.3384745419025421,0.07458612322807312
41.375503242690606,1.4150309655586846,-1.7283697159652258,2.586820930393569,-2.257204911047849,-0.9405080736693687,0.0,-0.4233436584472656,0.5005109906196594,0.11064204573631287,0.9422929883003235,-0.10024772584438324,-0.3142266869544983,0.05740993469953537
41.540426551965474,1.4190097554696257,-1.7284498835026392,2.5841083864719416,-2.297801669721516,-0.9899850664518297,0.0,-0.4024888873100281,0.513573408126831,0.10219836235046387,0.951998233795166,-0.09084901213645935,-0.28959593176841736,0.03974759951233864
41.70534978040995,1.4229858154520756,-1.728546382152256,2.5813959661899264,-2.3383818625930557,-1.0394620349851706,0.0,-0.38091787695884705,0.5277939438819885,0.09544679522514343,0.960582971572876,-0.08234207332134247,-0.264634907245636,0.02164287492632866
41.87027294992854,1.4269589741256956,-1.7286563597258213,2.5786838427644536,-2.3789403183594615,-1.0889389858407488,0.0,-0.3587176203727722,0.5430281162261963,0.09049573540687561,0.9680349826812744,-0.07474947720766068,-0.2393968403339386,0.0031411945819854736
42.0351963412755,1.4309290661518725,-1.7287768792888,2.5759719406198593,-2.419471271811679,-1.1384160032448374,0.0,-0.3359752893447876,0.5591210126876831,0.08743715286254883,-0.9743451476097107,0.06809166073799133,0.21393512189388275,0.01571027748286724
42.200119470404054,1.4348958049799574,-1.728904951648856,2.5732602840778043,-2.459968402721452,-1.1878929419834026,0.0,-0.31277817487716675,0.5759068131446838,0.08634617924690247,-0.9795070290565491,0.06238696351647377,0.18830394744873047,0.03486299142241478
42.36504223868894,1.4388589908196872,-1.729037444620663,2.5705490237813655,-2.500425295424195,-1.2373697724688693,0.0,-0.2892131805419922,0.5932124257087708,0.08728057146072388,-0.9835174083709717,0.0576508566737175,0.16255725920200348,0.0542677566409111
42.52996523063862,1.44281861277468,-1.729172338041889,2.567837886464363,-2.5408409391645383,-1.286846670053773,0.0,-0.2653656303882599,0.6108601689338684,0.09028097987174988,-0.9863756895065308,0.05389600247144699,0.13674895465373993,0.07387740164995193
42.69488840015722,1.4467751075118647,-1.729309288555034,2.5651269390300224,-2.5812197192551602,-1.3363236209093512,0.0,-0.2413194477558136,0.6286711692810059,0.09537294507026672,-0.9880837202072144,0.05113202705979347,0.11093225330114365,0.09364805370569229
42.85981156967581,1.4507286939990787,-1.7294480177202816,2.5624160601802526,-2.621565712363945,-1.3858005717649298,0.0,-0.21715685725212097,0.6464626789093018,0.10256314277648926,-0.9886457920074463,0.049366630613803864,0.08516042679548264,0.11353493481874466
43.02473501038725,1.454679656617619,-1.7295884174733904,2.5597052790554313,-2.661879992211442,-1.435277603978361,0.0,-0.19295798242092133,0.6640494465827942,0.11184030771255493,-0.9880682229995728,0.04860563203692436,0.05948624014854431,0.13349154591560364
43.189657511348706,1.4586287405849947,-1.729729851411506,2.5569947263374,-2.702171877832718,-1.484754354266797,0.0,-0.168800488114357,0.6812499761581421,0.12317675352096558,-0.986359715461731,0.04885220527648926,0.033961955457925797,0.15347497165203094
43.354576309860015,1.4625771045684814,-1.7298717498779297,2.5542843341827393,-2.7424564361572266,-1.5342299938201904,0.0,-0.14475949108600616,0.6978867650032043,0.1365295946598053,-0.9835300445556641,0.05010750889778137,0.008639463223516941,0.1734449714422226
43.40457630986001,1.4627708031501532,-1.7219205412965657,2.5415103083974055,-2.737626813490067,-1.5342177461286026,0.0,-0.14389345049858093,0.707148015499115,0.13997876644134521,-0.9835354089736938,0.05001126974821091,0.008662493899464607,0.1734410673379898
43.602967576027176,1.4629648273865672,-1.7139560841964616,2.528714806347053,-2.7327887685453685,-1.5342054778456464,0.0,-0.1430298388004303,0.7164216637611389,0.1433921754360199,-0.9835407733917236,0.049914922565221786,0.00868554599583149,0.17343711853027344
43.80134315872218,1.4631591854776098,-1.7059779227730423,2.515897287265926,-2.7279423988484237,-1.5341931884528377,0.0,-0.14216889441013336,0.7257078289985657,0.14676976203918457,-0.9835461974143982,0.049818336963653564,0.00870863813906908,0.17343319952487946
43.99969841995861,1.4633538866590523,-1.6979856779092057,2.503057142073757,-2.72308747410286,-1.534180877366192,0.0,-0.1413104236125946,0.7350062727928162,0.15011101961135864,-0.9835516810417175,0.04972163960337639,0.008731757290661335,0.17342913150787354
44.22598971734474,1.465364519294923,-1.6896755651990252,2.4868480058761024,-2.7104380482071964,-1.5349830515773821,0.0,-0.1414138674736023,0.7438951134681702,0.15346693992614746,-0.9840092658996582,0.0488656610250473,0.00864217709749937,0.17106467485427856
44.50071310259336,1.4805680778538224,-1.6791840838764687,2.4463634797285088,-2.6412254141289138,-1.5417041462341612,0.0,-0.14865604043006897,0.7491343021392822,0.15774619579315186,-0.9875157475471497,0.042381905019283295,0.007552840281277895,0.15152332186698914
44.726348480211556,1.4954373024784666,-1.6689233155289798,2.4067692287655666,-2.5735348008434555,-1.548277440623628,0.0,-0.15599343180656433,0.7533036470413208,0.16293799877166748,-0.9905313849449158,0.035852495580911636,0.006178205832839012,0.13237762451171875
44.94406723380853,1.5097848267293354,-1.6590225556430775,2.3685641783862574,-2.508219174764363,-1.5546201049549384,0.0,-0.16327360272407532,0.7564381957054138,0.16889548301696777,-0.9930490851402283,0.02938312478363514,0.00456414045765996,0.11388278007507324
45.20608894433787,1.5234828742418576,-1.649569978532504,2.3320885756158076,-2.4458602246279053,-1.5606756526471481,0.0,-0.1703743189573288,0.7586232423782349,0.17545372247695923,-0.9950895309448242,0.023058373481035233,0.002761753275990486,0.09621497243642807
45.45001791146714,1.526328781131284,-1.6359025922962054,2.30232072280172,-2.3967244103351137,-1.5643888996248065,0.0,-0.1705108880996704,0.7617797255516052,0.17737364768981934,-0.9965753555297852,0.021905966103076935,0.0014215285191312432,0.07972142100334167
45.74542041422435,1.5171896231951367,-1.6167699430038978,2.2784242978333498,-2.3596867853022783,-1.5656853316844417,0.0,-0.16271407902240753,0.766627848148346,0.1736239492893219,-0.99761962890625,0.02658342756330967,0.0008456215145997703,0.06362046301364899
45.9437878012807,1.5078880533399788,-1.5972972875196594,2.25410320964505,-2.3219909648646575,-1.5670048026301695,0.0,-0.15471723675727844,0.7712455987930298,0.17000442743301392,-0.9983934760093689,0.031324468553066254,0.0004090559377800673,0.04721298813819885
46.14218052031108,1.4984228882045887,-1.577482148499801,2.229354364067441,-2.2836321532971406,-1.568347480327283,0.0,-0.1465228945016861,0.775627076625824,0.1665324568748474,-0.9988816976547241,0.03612470626831055,0.00012044380855513737,0.030501307919621468
46.340566813215695,1.4887958136892308,-1.5573280553437199,2.204182169273515,-2.244617182929608,-1.5697131256229881,0.0,-0.13813643157482147,0.7797665596008301,0.16322720050811768,-0.9990689158439636,0.04097777232527733,-1.1550918316061143e-05,0.013493862934410572
46.569905178936004,1.4822118773442496,-1.5388533454849582,2.1815657507473847,-2.213508778231554,-1.5707963705062866,0.0,-0.13207903504371643,0.7848973274230957,0.16080018877983093,-0.9990192651748657,0.04427776858210564,-2.3987173136674755e-08,4.5589853669980585e-08
46.843959551151215,1.4870400818658915,-1.5274373133042016,2.1694097033461457,-2.2127687378970284,-1.5707963705062866,0.0,-0.13501743972301483,0.794371485710144,0.16086158156394958,-0.999123215675354,0.04186590015888214,-2.3968723894540744e-08,3.682785276737377e-08
47.09654915247931,1.4918602777697336,-1.5160402170732614,2.1572738193694585,-2.212029925078895,-1.5707963705062866,0.0,-0.1380457580089569,0.8038145303726196,0.1608111560344696,-0.9992212057113647,0.0394577793776989,-2.3311971020234523e-08,2.747414917791957e-08
47.29893011356972,1.5007133966354778,-1.514751907225134,2.1502914704329967,-2.2063358780778786,-1.5707963612424138,0.0,-0.1449057012796402,0.8061334490776062,0.16408178210258484,0.9993861317634583,-0.03503431752324104,2.0443431836270065e-08,2.5747034726464335e-08
47.49732938911102,1.511417466676248,-1.5181222180078753,2.1456892642237793,-2.19836336108592,-1.5707963477177898,0.0,-0.15349483489990234,0.8050643801689148,0.1689283847808838,-0.999559223651886,0.029685048386454582,-2.2260007170871177e-08,3.4411462568328943e-09
47.69574988018058,1.5221016379574337,-1.5214862634164423,2.141095613470063,-2.1904056649236368,-1.570796334218308,0.0,-0.16206346452236176,0.8038678765296936,0.17378365993499756,0.999703586101532,-0.02434493787586689,2.1494589219628324e-08,1.8599632056748305e-08
47.9986948899526,1.5327592964232273,-1.5248419609323614,2.136513361879764,-2.1824677158174186,-1.570796320752325,0.0,-0.17060431838035583,0.8025458455085754,0.17864346504211426,0.9998190999031067,-0.019017361104488373,2.0252521437669202e-08,9.100052267285719e-08
48.1222079548959,1.5342585026109907,-1.520371066573392,2.1313119697353495,-2.181737229953862,-1.570796314870016,0.0,-0.17165547609329224,0.8064412474632263,0.17889413237571716,-0.9998330473899841,0.018267905339598656,-2.2488237050311e-08,1.4630065159337846e-08
48.36263635661702,1.5286532318123556,-1.5098281559156914,2.125629645107527,-2.186597837155476,-1.570796314870016,0.0,-0.16683614253997803,0.8144198060035706,0.17549189925193787,-0.9997779130935669,0.021069969981908798,-2.2317674819305466e-08,4.7096570199300913e-08
48.56090679299335,1.5230705326979577,-1.4993277001649632,2.1199702024495215,-2.1914388713346797,-1.570796314870016,0.0,-0.16195356845855713,0.822317361831665,0.1720181405544281,0.999715268611908,-0.023860612884163857,2.1292757779178828e-08,4.246308193955883e-08
48.75943181570868,1.5174981536340424,-1.4888466553176738,2.1143212217083667,-2.1962709564883145,-1.570796314870016,0.0,-0.15699835121631622,0.8301507234573364,0.16846641898155212,-0.9996448755264282,0.02664593793451786,-2.282060940217434e-08,4.3738442201401995e-08
48.95764264744024,1.511951725723134,-1.4784144217941269,2.1086985488622534,-2.201080538115228,-1.570796314870016,0.0,-0.15198580920696259,0.8378963470458984,0.1648472249507904,-0.9995671510696411,0.02941807545721531,-2.209422511612047e-08,2.094438222854933e-08
49.23991689906291,1.5064118546284104,-1.4679945209356224,2.103082522966738,-2.2058844340029315,-1.570796314870016,0.0,-0.1468997597694397,0.8455805778503418,0.16114923357963562,-0.9994818568229675,0.03218664601445198,-2.685027489235381e-08,1.3388601871611172e-07
49.519309651089976,1.505691257536173,-1.443308353843007,2.0683637185732064,-2.1640347898459886,-1.5728832777903914,0.0,-0.14463374018669128,0.8550477623939514,0.15979814529418945,0.9993436336517334,-0.032526034861803055,0.0005250320537015796,0.015933232381939888
49.717699967308114,1.5055042597167523,-1.4161306696904299,2.0290941013752435,-2.115359379312661,-1.5752828861603443,0.0,-0.142640620470047,0.864711582660675,0.15878087282180786,0.9988827109336853,-0.03254440426826477,0.0011247082147747278,0.034248486161231995
49.91607715187795,1.505310140979536,-1.387918053390926,1.9883290885796459,-2.0648303985176817,-1.5777738721409929,0.0,-0.14059215784072876,0.8743718266487122,0.15784960985183716,0.9980505704879761,-0.032505352050065994,0.0017415792681276798,0.05324869975447655
50.11434954403169,1.5051083034422474,-1.3585836105853366,1.9459431246680814,-2.012292219093992,-1.580363907925095,0.0,-0.1384841501712799,0.8840235471725464,0.15702471137046814,0.9968037009239197,-0.03240201249718666,0.002375670475885272,0.0729837641119957
50.367609283959304,1.5021170273632032,-1.3366674499881508,1.9147027443073006,-1.9747031505259682,-1.5827132078009636,0.0,-0.13415274024009705,0.8918231725692749,0.15633699297904968,0.9956250190734863,-0.033684439957141876,0.002947015454992652,0.08710527420043945
50.648358757378574,1.492881277829068,-1.3337775958460065,1.911911708033703,-1.9749226998489733,-1.5843123827426828,0.0,-0.12492240965366364,0.8954017162322998,0.15571379661560059,0.9954617619514465,-0.038212671875953674,0.0033430857583880424,0.08708851784467697
51.009928434428694,1.4836609363555908,-1.330892562866211,1.9091253280639648,-1.9751418828964233,-1.5859088897705078,0.0,-0.11565317958593369,0.8988786935806274,0.15508592128753662,0.9952775835990906,-0.04273264855146408,0.003738667815923691,0.08707711100578308
51.173450262224264,1.4587658947573905,-1.3227309881096103,1.9155829584986264,-1.9584452868752475,-1.5368523414318378,0.0,-0.11934228241443634,0.88898104429245,0.14278683066368103,0.9929404258728027,-0.05741897225379944,-0.022588780149817467,0.10130105167627335
51.33697328211273,1.4316470055652433,-1.3134559043466323,1.920941127714262,-1.942635262358539,-1.4877954354652991,0.0,-0.12137755751609802,0.8815624713897705,0.13197872042655945,0.9894722104072571,-0.07384229451417923,-0.04926609992980957,0.11430109292268753
51.500496302001196,1.395820771306616,-1.310973834168861,1.9209262916038328,-1.9267921395192424,-1.4387385294987605,0.0,-0.11511832475662231,0.8818501234054565,0.13188859820365906,0.9852718710899353,-0.09480758756399155,-0.07624036073684692,0.12015938758850098
51.66401932188966,1.3560910373050807,-1.315273041542399,1.9142411064499658,-1.9121726006646729,-1.3896816235322218,0.0,-0.10367436707019806,0.8909399509429932,0.14301568269729614,0.9807233810424805,-0.11737213283777237,-0.10287383943796158,0.11756804585456848
51.82754234177813,1.3251548618989184,-1.312873055984134,1.9112230111900157,-1.8987692360790402,-1.3406247175656831,0.0,-0.10010185837745667,0.8966407775878906,0.1473669707775116,0.9750101566314697,-0.1359514445066452,-0.12932966649532318,0.11893708258867264
51.99106536166659,1.302927769538619,-1.3037511652206812,1.9181305320102229,-1.8822046081938553,-1.2915678115991445,0.0,-0.10673375427722931,0.8915119767189026,0.14113914966583252,0.9673578143119812,-0.1515328288078308,-0.15629059076309204,0.12973015010356903
52.15458838155505,1.2803378341857383,-1.3010201635459735,1.9232268938525345,-1.8640657814998718,-1.242510905632606,0.0,-0.11239046603441238,0.8890771865844727,0.14276227355003357,0.9591281414031982,-0.16732005774974823,-0.18288065493106842,0.1364980936050415
52.31811140144352,1.2524392667642423,-1.3053107214871034,1.9207561594279967,-1.8472691948983924,-1.1934539996660671,0.0,-0.1103266030550003,0.8963175415992737,0.15579843521118164,0.9509257078170776,-0.18469937145709991,-0.20879122614860535,0.13428547978401184
52.481634421331975,1.2167785687921315,-1.2969124892505042,1.924113742167966,-1.8313841199434333,-1.1443970936995287,0.0,-0.10231133550405502,0.8998631238937378,0.1561751663684845,0.9391774535179138,-0.20718197524547577,-0.23616309463977814,0.13873769342899323
52.64515744122044,1.1866481544777974,-1.2782870617805289,1.941733961368335,-1.8114998630688144,-1.0953401877329898,0.0,-0.1042976975440979,0.8893816471099854,0.14191928505897522,0.9233391880989075,-0.2298959642648697,-0.2649434506893158,0.15619663894176483
52.8086804611089,1.1631900835044944,-1.2709016740681638,1.9551512916831097,-1.7903829783624063,-1.0462832817664514,0.0,-0.11023766547441483,0.8837754726409912,0.14070671796798706,0.9083251357078552,-0.24868133664131165,-0.292080819606781,0.16670873761177063
52.972203480997365,1.1395533410572778,-1.2674901538086645,1.9673216437659968,-1.7680313324324932,-0.9972263757999127,0.0,-0.11486552655696869,0.8806944489479065,0.14460283517837524,0.8924691081047058,-0.26748064160346985,-0.31867000460624695,0.17436255514621735
53.135725308792935,1.120465874671936,-1.2683416604995728,1.981933355331421,-1.7434452772140503,-0.9481698274612427,0.0,-0.1237412840127945,0.8761498928070068,0.15177702903747559,0.8758963942527771,-0.2845841944217682,-0.3445085883140564,0.18201978504657745
53.301266900984416,1.1265100205330025,-1.2639082219569053,1.9750711416631255,-1.693782799556607,-0.905624983107639,0.0,-0.1479928344488144,0.875162661075592,0.16651394963264465,0.861541211605072,-0.29161933064460754,-0.3651568293571472,0.19840674102306366
53.46680988395094,1.132482510795452,-1.2599538251516764,1.9680161169960184,-1.6441199046666506,-0.8632089240821753,0.0,-0.1708681285381317,0.8752797842025757,0.18246807157993317,0.8463950157165527,-0.2992895841598511,-0.3849274516105652,0.21417754888534546
53.63235286691746,1.1383855107059053,-1.2564734648581228,1.9607648980062216,-1.594457009776694,-0.8209347211232677,0.0,-0.19235818088054657,0.8765315413475037,0.19946061074733734,0.8305222392082214,-0.30756276845932007,-0.4037998616695404,0.22931094467639923
53.79789584988398,1.1442476829676294,-1.2533033784032253,1.9533726754313343,-1.5447941148867372,-0.7787883321486734,0.0,-0.2125144600868225,0.8788873553276062,0.21718555688858032,0.813942551612854,-0.316429078578949,-0.4217706024646759,0.2438846230506897
53.9634388328505,1.150084853677473,-1.250334871579014,1.9458777041405924,-1.4951312199967806,-0.7367542353205935,0.0,-0.23137173056602478,0.8823315501213074,0.2353912591934204,0.7966792583465576,-0.32587894797325134,-0.4388303756713867,0.2579399049282074
54.12898181581702,1.1558882885415027,-1.2474168933938397,1.9383391357514466,-1.445468325106824,-0.6947683720802916,0.0,-0.24895881116390228,0.8868541121482849,0.25380468368530273,0.7787211537361145,-0.33593279123306274,-0.45498788356781006,0.2715297043323517
54.29452479878354,1.161649909071855,-1.2443948635132513,1.9308266770578109,-1.3958054302168674,-0.6527456992381275,0.0,-0.2653055191040039,0.8924511671066284,0.27215346693992615,0.7600407004356384,-0.3466207981109619,-0.4702511429786682,0.28470340371131897
54.46006778175006,1.1673459048784585,-1.241101355533886,1.9234061772797237,-1.3461425353269107,-0.6106035780633942,0.0,-0.28041690587997437,0.899132490158081,0.29015475511550903,0.740596354007721,-0.35798588395118713,-0.4846179783344269,0.2975039482116699
54.62561076471658,1.172985930761528,-1.2374860186616505,1.9160995819389797,-1.2964796404369543,-0.5683208665862131,0.0,-0.29430294036865234,0.9069023728370667,0.30760833621025085,0.7203989624977112,-0.37002596259117126,-0.4980517327785492,0.30992016196250916
54.791153747683104,1.1785789600133116,-1.2334417974283765,1.908944079849193,-1.2468167455469976,-0.525865761564154,0.0,-0.30697840452194214,0.9157553315162659,0.32426559925079346,0.6994388103485107,-0.38275355100631714,-0.5105130672454834,0.32196488976478577
54.956696730649625,1.1841369189364908,-1.2288652263647368,1.9019744863942531,-1.197153850657041,-0.483210828801976,0.0,-0.31845957040786743,0.9256793260574341,0.33987370133399963,0.6777073740959167,-0.39618000388145447,-0.5219530463218689,0.3336452841758728
55.122239713616146,1.18967665578244,-1.2237501665383486,1.8951897966634894,-1.1474909557670845,-0.440358617906871,0.0,-0.32876306772232056,0.9366514682769775,0.3542556166648865,0.6552390456199646,-0.41028571128845215,-0.5323132872581482,0.34492015838623047
55.28778269658267,1.1952225685540692,-1.2180961949802747,1.888570006066857,-1.0978280608771276,-0.39728322787080356,0.0,-0.33791616559028625,0.9486528635025024,0.3672524094581604,0.6320728659629822,-0.4250470697879791,-0.5415453910827637,0.3557349741458893
55.45332567954919,1.2008208629413986,-1.2119134656839556,1.8820659372843405,-1.0481651659871711,-0.3539206747487627,0.0,-0.34596771001815796,0.9616727232933044,0.37873393297195435,0.6082569360733032,-0.44043147563934326,-0.5496125817298889,0.3660183250904083
55.61886866251571,1.2065033721155858,-1.205346951012964,1.8755993469635732,-0.9985022710972145,-0.3102812587616998,0.0,-0.3529599905014038,0.9756476283073425,0.3886789381504059,0.5839076638221741,-0.45636436343193054,-0.5564773082733154,0.37565454840660095
55.78441164548223,1.212300570893548,-1.1984585109648864,1.869121271123965,-0.9488393762072579,-0.26634577942743143,0.0,-0.3589469790458679,0.9904974102973938,0.3970077335834503,0.5591099262237549,-0.472794771194458,-0.5621109008789062,0.3845679759979248
55.94995462844875,1.2182263418528891,-1.1913278616122358,1.8626012926697175,-0.8991764813173013,-0.22213752044937624,0.0,-0.3639811873435974,1.0060930252075195,0.4036549925804138,0.533961832523346,-0.4896663427352905,-0.5664834380149841,0.39269325137138367
56.11549761141527,1.2242828942025121,-1.1840668301442936,1.8560222307103844,-0.8495135864273446,-0.17772345903738743,0.0,-0.368119478225708,1.0222591161727905,0.4085928499698639,0.5085812211036682,-0.5069101452827454,-0.5695692896842957,0.39997243881225586
56.28104059438179,1.230447079046731,-1.1768048607720571,1.8493794007002764,-0.7998506915373881,-0.13320669959458273,0.0,-0.3714086711406708,1.03878653049469,0.41183000802993774,0.483094722032547,-0.5244508385658264,-0.5713540315628052,0.4063563048839569
56.446583577348314,1.2367136837577613,-1.1696589454601751,1.8426586653705443,-0.7501877966474314,-0.08866409686313755,0.0,-0.3739162087440491,1.0554709434509277,0.41340669989585876,0.45762601494789124,-0.5422106981277466,-0.571841299533844,0.4118051826953888
56.612126763860175,1.2430928681645697,-1.1628536283108841,1.835816495737743,-0.700524840693873,-0.044214008355227374,0.0,-0.3757373094558716,1.0720771551132202,0.41351157426834106,0.4323553442955017,-0.5600695013999939,-0.5710645914077759,0.41626453399658203
56.77766994064566,1.249622539075207,-1.1568024441005518,1.8287587966942158,-0.6508618876582286,-5.255934345450679e-05,0.0,-0.37701666355133057,1.088321566581726,0.4125864803791046,0.4075610339641571,-0.5778351426124573,-0.5691105127334595,0.41965916752815247
56.9432130191708,1.256304704841938,-1.1517339740998211,1.8214439877837814,-0.6011989641006866,0.04369638498550017,0.0,-0.37785714864730835,1.1039808988571167,0.4109427332878113,0.3834180533885956,-0.5953870415687561,-0.5660746693611145,0.4219764769077301
57.10875624414754,1.2631569446920146,-1.1479075974763495,1.8138190071942415,-0.5515359966076636,0.08689748054197531,0.0,-0.37838128209114075,1.1188398599624634,0.4089760184288025,0.3601135015487671,-0.6125933527946472,-0.5620802044868469,0.42321789264678955
57.274299196609846,1.270196431792732,-1.145462027230268,1.80586916801652,-0.5018731108689725,0.12943083089622345,0.0,-0.378709614276886,1.1327085494995117,0.4069873094558716,0.33777499198913574,-0.6293617486953735,-0.5572361350059509,0.4234378933906555
57.43984217053497,1.2774572231023673,-1.144546064409009,1.7975894394592933,-0.45221021869143496,0.17112185560792098,0.0,-0.37899476289749146,1.1453810930252075,0.40531420707702637,0.3165404200553894,-0.6455905437469482,-0.5516518950462341,0.4227234125137329
57.60538509393635,1.284954110281987,-1.1451561007281315,1.7890111354535445,-0.402547341671022,0.21186910436074072,0.0,-0.3793509602546692,1.1567169427871704,0.4041353762149811,0.2964573800563812,-0.6612408757209778,-0.5454126596450806,0.4211871027946472
57.770927985488775,1.2926807659038906,-1.147196250822963,1.7801846686927718,-0.3528844742052946,0.2516404276912478,0.0,-0.3798461854457855,1.1666347980499268,0.40351489186286926,0.27750808000564575,-0.6763187050819397,-0.5385842323303223,0.4189382493495941
57.936471020093464,1.3005883627094115,-1.1505210589906407,1.7712127617837736,-0.30322156382388754,0.29041867761484547,0.0,-0.3804933428764343,1.1750648021697998,0.40341445803642273,0.2596224248409271,-0.6908622980117798,-0.5312036871910095,0.41608643531799316
58.10201412365291,1.3085652419271532,-1.1548281183110036,1.7622780262733206,-0.25355863275605417,0.32825978896523794,0.0,-0.38120725750923157,1.1819771528244019,0.4035441279411316,0.24262166023254395,-0.7049808502197266,-0.523242712020874,0.41273921728134155
58.26755694484038,1.3164944265495047,-1.1598006781991395,1.7535683398022461,-0.20389578639981348,0.36523035433278395,0.0,-0.3818802237510681,1.1873537302017212,0.40355661511421204,0.22631816565990448,-0.718786358833313,-0.5146423578262329,0.40898585319519043
58.43310002097422,1.3242465805396053,-1.1651411024309815,1.7453037581957784,-0.15423286355965987,0.4013421374189339,0.0,-0.38239920139312744,1.1911413669586182,0.4030807316303253,0.21053387224674225,-0.7323785424232483,-0.5053104758262634,0.40491783618927
58.598642988737936,1.3317633255044754,-1.1705572689027026,1.7375934246358267,-0.10456997323054604,0.4367206756607611,0.0,-0.3826780915260315,1.1933696269989014,0.40178611874580383,0.19512222707271576,-0.7458436489105225,-0.4951683580875397,0.40056559443473816
58.7641858847819,1.339112674439573,-1.175910477087417,1.7303965961745778,-0.05490710441735519,0.4715067057358139,0.0,-0.38275399804115295,1.194088339805603,0.3995988368988037,0.18006320297718048,-0.7591954469680786,-0.4841993749141693,0.3959169387817383
58.929728975630134,1.3463765130424417,-1.1810987597065816,1.7236613407874073,-0.005244177162885038,0.505816534401325,0.0,-0.3826836347579956,1.1933311223983765,0.39649564027786255,0.1653652936220169,-0.7724323272705078,-0.47239264845848083,0.3909575343132019
59.09527201164588,1.35363311348878,-1.1860245952591109,1.7173387724295128,0.04441873364183867,0.5397608257578037,0.0,-0.3825172781944275,1.191125512123108,0.3924575448036194,0.15104177594184875,-0.7855514883995056,-0.4597339928150177,0.3856681287288666
59.26081501766706,1.360939215515191,-1.190580807216098,1.711385522705431,0.09408163544819226,0.5734494800858734,0.0,-0.3822755813598633,1.187502145767212,0.38745415210723877,0.13709962368011475,-0.7985537052154541,-0.4462049901485443,0.3800221085548401
59.42635800804959,1.3682480744403152,-1.194587718443418,1.705777996040424,0.1437445325629506,0.607011976580576,0.0,-0.381845623254776,1.1825294494628906,0.38135847449302673,0.12348378449678421,-0.8114641308784485,-0.43176838755607605,0.3739703297615051
59.591901149629436,1.3754267377441496,-1.1978028195934374,1.7005100252403302,0.19340747503690497,0.6405937608411499,0.0,-0.3810049295425415,1.1763015985488892,0.3739641308784485,0.11008890718221664,-0.8243216872215271,-0.4163643717765808,0.36744368076324463
59.75744430372041,1.3823313690811658,-1.1999748252695912,1.6955805173432308,0.24307042126419828,0.6743397313931181,0.0,-0.379519522190094,1.1688991785049438,0.3650584816932678,0.09680952876806259,-0.8371552228927612,-0.39991772174835205,0.3603673577308655
59.922987134723684,1.3888189049845288,-1.2008496474489017,1.6909903518385685,0.29273327056518017,0.7083933745808624,0.0,-0.37715983390808105,1.1603821516036987,0.35443785786628723,0.08354831486940384,-0.8499795198440552,-0.3823389410972595,0.35266318917274475
60.088530287738415,1.3947636829274928,-1.2002273297756267,1.6867311394850222,0.34239621646960017,0.7428933397357624,0.0,-0.3737233877182007,1.1507806777954102,0.34198203682899475,0.07023924589157104,-0.862781286239624,-0.3635496497154236,0.3442477285861969
60.25407368503979,1.400106183540113,-1.1981399083713666,1.6827466463605085,0.39205923566001327,0.7779736924372058,0.0,-0.36908769607543945,1.1400885581970215,0.3278743624687195,0.05691053718328476,-0.8754889965057373,-0.3435707092285156,0.3350214958190918
60.41961697760692,1.4048288095578514,-1.194763797298401,1.6789487955102071,0.44172222343015116,0.8137594506558574,0.0,-0.3631812334060669,1.128287434577942,0.31249290704727173,0.04364868625998497,-0.8879985809326172,-0.32249385118484497,0.32488614320755005
60.58516013833285,1.4089374356248976,-1.1903226491459264,1.675243515537511,0.4913851716479316,0.8503482731846659,0.0,-0.35596799850463867,1.1153579950332642,0.2962855100631714,0.03056517243385315,-0.9001966118812561,-0.30043765902519226,0.31376561522483826
60.750703229624605,1.4124089380592253,-1.1849827726437507,1.6715432646020678,0.5410480990354567,0.8878655193347905,0.0,-0.34736669063568115,1.1013104915618896,0.279632568359375,0.017741573974490166,-0.9119876623153687,-0.2775072157382965,0.3015848696231842
60.91624664874537,1.4151673567425092,-1.1788363353908393,1.6677535894827897,0.5907111247716875,0.9264483767542665,0.0,-0.33723217248916626,1.0861979722976685,0.26284390687942505,0.00522289564833045,-0.9232884049415588,-0.25379112362861633,0.2882727086544037
61.08178997758781,1.4170451929851147,-1.1718448817129228,1.6637683743579537,0.6403741234244189,0.9662515607298696,0.0,-0.32531630992889404,1.070125937461853,0.2461058497428894,-0.007007257547229528,-0.934029221534729,-0.22933819890022278,0.27375927567481995
61.24733318474671,1.41783838203098,-1.1639325927194626,1.6594712271315226,0.6900370855720885,1.00745276054439,0.0,-0.3113325536251068,1.0532174110412598,0.22957956790924072,-0.01898396573960781,-0.9441381096839905,-0.204185351729393,0.2579752802848816
61.4128763962078,1.4173154095538698,-1.1550079399457953,1.6547336502338283,0.7397000490104163,1.0502583605909412,0.0,-0.2949676215648651,1.0356050729751587,0.2134241759777069,-0.03075081668794155,-0.953536331653595,-0.17836345732212067,0.24085086584091187
61.57841961298647,1.4152488370464869,-1.1449867451421845,1.6494229694888922,0.7893630140440174,1.0948932114487686,0.0,-0.2759213447570801,1.0174092054367065,0.19781839847564697,-0.04233991727232933,-0.9621358513832092,-0.15189895033836365,0.22232553362846375
61.74396283727893,1.4114315049033839,-1.1338131636289357,1.6433822296770142,0.8390259813317535,1.1417543087194875,0.0,-0.2538495361804962,0.9987450838088989,0.18296325206756592,-0.053766556084156036,-0.9698520302772522,-0.12482743710279465,0.20227275788784027
61.90857516404094,1.4060337968349528,-1.121748307826406,1.636605756446617,0.8884096793603562,1.1906800206352042,0.0,-0.22904404997825623,0.9796682596206665,0.16937461495399475,-0.06477068364620209,-0.9765320420265198,-0.09737250953912735,0.18085435032844543
62.07411865028266,1.3994080757207208,-1.1093541440240087,1.6292686100695772,0.9361493720816204,1.2403430665077184,0.0,-0.20244574546813965,0.9607338309288025,0.15776509046554565,-0.074889175593853,-0.9819520115852356,-0.07040059566497803,0.1587623506784439
62.23966213684811,1.392010209795925,-1.0970267083893257,1.6214571887907074,0.9815364460071002,1.2900061124773552,0.0,-0.17484590411186218,0.9423427581787109,0.1484631896018982,-0.08383221179246902,-0.9860939979553223,-0.0444478914141655,0.1364375501871109
62.40520514387951,1.3856747459260874,-1.084948357106343,1.6129898015787674,1.024635296560123,1.339669014586777,0.0,-0.14795660972595215,0.9245463013648987,0.14159581065177917,-0.09076826274394989,-0.9891337752342224,-0.019617870450019836,0.11397652328014374
62.570748126846034,1.3831495320228377,-1.0732242578766231,1.6037223891852626,1.0661334779842124,1.3893319094767334,0.0,-0.12425032258033752,0.9071144461631775,0.13727611303329468,-0.09445793926715851,-0.991314172744751,0.004319600760936737,0.09140690416097641
62.736291109812555,1.3875476919144956,-1.0619917580656206,1.5934213754725557,1.1065120061352336,1.4389948043666902,0.0,-0.10631868243217468,0.8901702165603638,0.13567277789115906,-0.0934472605586052,-0.9928816556930542,0.027330996468663216,0.06860442459583282
62.901834717913204,1.4050891033227781,-1.0515847090417032,1.5814555945779258,1.1460344407711556,1.4886578867968854,0.0,-0.09922368824481964,0.8741030693054199,0.13724827766418457,-0.08472425490617752,-0.9941759705543518,0.04891279339790344,0.045204050838947296
63.067378480433035,1.4340602093463735,-1.041879441584372,1.568085858193604,1.1849976119999999,1.5383210155528353,0.0,-0.10107406973838806,0.8591704368591309,0.14169496297836304,-0.06927384436130524,-0.9949972629547119,0.06886663287878036,0.020950498059391975
63.232920456076414,1.4716625213623047,-1.0327043533325195,1.5536562204360962,1.2235387563705444,1.5879836082458496,0.0,-0.10926555842161179,0.8454203605651855,0.14864212274551392,0.04861358180642128,0.9950078129768372,-0.08705241978168488,0.004253218416124582
63.49496833077025,1.5109298095920058,-1.0249352035426118,1.553113473095635,1.221443036030964,1.666597970653999,0.0,-0.10311610251665115,0.8392398357391357,0.1440693736076355,0.02550136111676693,0.9945452213287354,-0.0905783474445343,0.04500048607587814
63.94257414877339,1.5652333775747111,-1.0141910810731372,1.5523630611130699,1.2185448967446597,1.775315609161786,0.0,-0.0947498232126236,0.834528386592865,0.14269223809242249,-0.006720821838825941,0.9905033707618713,-0.09262385964393616,0.10138354450464249
