Sungjin-Park-dev/lg_sgu_vision_v2/data/sample/trajectory/124/prev/trajectory_dp_s005.csv
time,ur20-shoulder_pan_joint,ur20-shoulder_lift_joint,ur20-elbow_joint,ur20-wrist_1_joint,ur20-wrist_2_joint,ur20-wrist_3_joint,target-POS_X,target-POS_Y,target-POS_Z,target-ROT_X,target-ROT_Y,target-ROT_Z,target-ROT_W
0.0,1.9927528540240687,-0.6606019178973597,1.445325255393982,-0.784722626209259,-2.7196171283721924,0.0,-0.2849985361099243,1.0089396238327026,0.09099575132131577,0.5000044107437134,0.49999532103538513,0.4999951422214508,0.5000049471855164
1.0,1.9826910772174806,-0.6448102143707467,1.3953634709860756,-0.7505528677415595,-2.7296786667602015,0.0,-0.28504395484924316,1.039083480834961,0.09809732437133789,0.5000046491622925,0.4999952018260956,0.4999951422214508,0.5000048875808716
2.0,1.9733356062663288,-0.6285006509653894,1.345401686578169,-0.7169012819108698,-2.739034372691147,0.0,-0.2849998474121094,1.068135142326355,0.10500425845384598,0.5000048279762268,0.49999523162841797,0.49999523162841797,0.5000046491622925
3.0,1.9768549749181876,-0.6339243788371317,1.364300671442113,-0.730376254875842,-2.735514824695765,0.0,-0.28509724140167236,1.0572514533996582,0.10142000019550323,0.5000047087669373,0.4999951720237732,0.4999951720237732,0.5000048279762268
4.0,1.967948302315966,-0.6179776216865892,1.3143388870342068,-0.6963613201386648,-2.744421497297987,0.0,-0.28504180908203125,1.0855906009674072,0.10902218520641327,0.500004768371582,0.4999951422214508,0.4999952018260956,0.5000047087669373
5.0,1.9597531446180865,-0.6008766306992941,1.2643771026263004,-0.6635003738504957,-2.7526168226996743,0.0,-0.28503096103668213,1.1128098964691162,0.11555476486682892,0.5000046491622925,0.49999526143074036,0.4999952018260956,0.5000047087669373
6.0,1.9521932914517421,-0.5832383786575281,1.2144153182183939,-0.6311769477189271,-2.7601765305816084,0.0,-0.28504371643066406,1.1389271020889282,0.12172666192054749,0.500004768371582,0.4999951422214508,0.4999951422214508,0.500004768371582
7.0,1.945169152382859,-0.5652018089407727,1.1644535338104873,-0.5992519308003531,-2.7672005915948232,0.0,-0.2850245237350464,1.1639845371246338,0.1276705265045166,0.500004768371582,0.4999952018260956,0.49999526143074036,0.5000046491622925
8.0,1.9386387809763752,-0.5447464727078944,1.114491749402581,-0.5689993837468339,-2.7717985860108043,0.0,-0.284973680973053,1.1872347593307495,0.13072076439857483,0.5002464652061462,0.4996185600757599,0.4994051456451416,0.5007286667823792
9.0,1.932631098019885,-0.5194202537972125,1.0645299649946747,-0.5289953832218144,-2.737987146506713,0.0,-0.28458771109580994,1.192770004272461,0.12951646745204926,0.5050748586654663,0.4916657507419586,0.48720046877861023,0.5155578851699829
10.0,1.926623415063395,-0.49409403488653053,1.0145681805867681,-0.48899138269679493,-2.7041757070026216,0.0,-0.2843046188354492,1.1975997686386108,0.12867237627506256,0.5096115469932556,0.4833518862724304,0.4749137759208679,0.5302110910415649
11.0,1.9206157321069048,-0.4687678159758486,0.9646063961788617,-0.4489873821717755,-2.67036426749853,0.0,-0.28413474559783936,1.201738715171814,0.1281816065311432,0.5138546824455261,0.47468146681785583,0.46255216002464294,0.5446799993515015
12.0,1.9266410806752063,-0.49270792293722737,1.0139822831799115,-0.48665906328031255,-2.6960417323357078,0.0,-0.28452539443969727,1.1942565441131592,0.12774473428726196,0.510494589805603,0.4815993010997772,0.4724141061306,0.5331812500953674
13.0,1.932737400526275,-0.5169386045835609,1.0639440675878178,-0.5247888785468124,-2.7220700650188494,0.0,-0.28480619192123413,1.1859956979751587,0.12755292654037476,0.5069036483764648,0.4883895516395569,0.48234930634498596,0.5214052796363831
14.0,1.9388337203773438,-0.5411692862298944,1.1139058519957243,-0.5629186938133123,-2.7480983977019906,0.0,-0.28496411442756653,1.1770225763320923,0.12761227786540985,0.5031266212463379,0.49495601654052734,0.49222296476364136,0.5095082521438599
15.0,1.9450844017479674,-0.5641365555779415,1.163867636403631,-0.5997310985374268,-2.7672854040828203,0.0,-0.2850334644317627,1.1643155813217163,0.12660646438598633,0.500004768371582,0.4999952018260956,0.4999952018260956,0.500004768371582
16.0,1.9520961458539607,-0.5821679919480951,1.2138294208115372,-0.6316614490412831,-2.7602738365423005,0.0,-0.28504443168640137,1.1392704248428345,0.12067124247550964,0.5000047087669373,0.49999526143074036,0.4999952018260956,0.5000047087669373
17.0,1.9596416405408952,-0.5998013780910905,1.2637912052194435,-0.6639898481887085,-2.75272799540218,0.0,-0.28502213954925537,1.1131662130355835,0.11450895667076111,0.500004768371582,0.4999951422214508,0.4999952018260956,0.500004768371582
18.0,1.9651885414226686,-0.6165764120842544,1.3080529375563894,-0.6993055151476748,-2.743182119223412,0.0,-0.2836708128452301,1.089794635772705,0.10959850996732712,0.5035609602928162,0.4979407787322998,0.5000403523445129,0.4984385073184967
19.0,1.95617548381117,-0.6308265923988897,1.3198567847845324,-0.7492672995555812,-2.7254236325648913,0.0,-0.27496084570884705,1.087807536125183,0.1129535436630249,0.5271457433700562,0.48403066396713257,0.5000099539756775,0.48766955733299255
20.0,1.9471624261996716,-0.645076772713525,1.3316606320126754,-0.7992290839634877,-2.70766514590637,0.0,-0.2665419280529022,1.0860357284545898,0.11601418256759644,0.5503277778625488,0.46986109018325806,0.49940863251686096,0.4764041602611542
21.0,1.938149368588173,-0.6593269530281602,1.3434644792408184,-0.849190868371394,-2.6899066592478493,0.0,-0.2584167420864105,1.084513545036316,0.11881206929683685,0.5730800628662109,0.4554527997970581,0.4982473850250244,0.46464115381240845
22.0,1.9291363109766746,-0.6735771333427957,1.3552683264689613,-0.8991526527793006,-2.672148172589328,0.0,-0.25058552622795105,1.083274245262146,0.12138104438781738,0.5953766703605652,0.44082722067832947,0.49653810262680054,0.4523802101612091
23.0,1.920123253365176,-0.687827313657431,1.3670721736971043,-0.9491144371872071,-2.654389685930807,0.0,-0.24304728209972382,1.0823482275009155,0.12375783920288086,0.6171917915344238,0.4260055720806122,0.4942934513092041,0.43962186574935913
24.0,1.9111101957536776,-0.7020774939720663,1.3788760209252473,-0.9990762215951134,-2.636631199272286,0.0,-0.2357986867427826,1.0817643404006958,0.12598122656345367,0.6385006904602051,0.4110099971294403,0.49152687191963196,0.42636725306510925
25.0,1.9020971381421792,-0.7163276742867015,1.3906798681533903,-1.0490380060030198,-2.618872712613765,0.0,-0.22883418202400208,1.081547498703003,0.12809152901172638,0.659278929233551,0.3958621919155121,0.48825231194496155,0.41261839866638184
26.0,1.8930840805306806,-0.730577854601337,1.4024837153815333,-1.0989997904109263,-2.601114225955244,0.0,-0.222147136926651,1.0817207098007202,0.1301315724849701,0.6795032620429993,0.38058483600616455,0.48448455333709717,0.3983779847621918
27.0,1.8840710229191822,-0.7448280349159723,1.4142875626096763,-1.1489615748188329,-2.583355739296723,0.0,-0.21572880446910858,1.0823029279708862,0.13214533030986786,0.6991510391235352,0.36520010232925415,0.48023927211761475,0.3836495578289032
28.0,1.8750579653076835,-0.7590782152306075,1.4260914098378192,-1.1989233592267392,-2.5655972526382023,0.0,-0.20956885814666748,1.0833104848861694,0.1341782957315445,0.7182000875473022,0.3497307002544403,0.4755323529243469,0.3684372305870056
29.0,1.8660449076961851,-0.7733283955452428,1.4378952570659622,-1.2488851436346455,-2.547838765979681,0.0,-0.20365557074546814,1.0847560167312622,0.13627679646015167,0.7366294860839844,0.33419933915138245,0.4703804850578308,0.35274624824523926
30.0,1.8570318500846865,-0.7875785758598781,1.4496991042941052,-1.298846928042552,-2.53008027932116,0.0,-0.1979755461215973,1.08664870262146,0.1384882926940918,0.7544187903404236,0.3186289370059967,0.4648011028766632,0.3365824222564697
31.0,1.8480187924731881,-0.8018287561745135,1.4615029515222482,-1.3488087124504586,-2.512321792662639,0.0,-0.1925147920846939,1.0889931917190552,0.14086033403873444,0.771548867225647,0.30304232239723206,0.4588117003440857,0.3199523985385895
32.0,1.8390057348616895,-0.8160789364891488,1.4733067987503912,-1.398770496858365,-2.494563306004118,0.0,-0.18725740909576416,1.0917913913726807,0.1434411108493805,0.788000762462616,0.2874624729156494,0.4524308741092682,0.3028636872768402
33.0,1.829992677250191,-0.8303291168037841,1.4851106459785341,-1.4487322812662713,-2.476804819345597,0.0,-0.18218715488910675,1.095040202140808,0.14627863466739655,0.8037570714950562,0.27191227674484253,0.4456772804260254,0.2853245139122009
34.0,1.8209796196386925,-0.8445792971184194,1.4969144932066771,-1.4986940656741778,-2.459046332687076,0.0,-0.1772870123386383,1.0987333059310913,0.14942076802253723,0.8188009262084961,0.2564145624637604,0.4385702311992645,0.26734375953674316
35.0,1.811966562027194,-0.8588294774330548,1.5087183404348201,-1.5486558500820844,-2.4412878460285548,0.0,-0.1725389063358307,1.1028598546981812,0.1529148370027542,0.8331167101860046,0.24099211394786835,0.4311292767524719,0.24893134832382202
36.0,1.8029535044156955,-0.87307965774769,1.520522187662963,-1.5986176344899907,-2.423529359370034,0.0,-0.16792482137680054,1.107405424118042,0.15680693089962006,0.8466893434524536,0.22566767036914825,0.42337465286254883,0.2300979048013687
37.0,1.793940446804197,-0.8873298380623253,1.5323260348911059,-1.648579418897897,-2.4057708727115132,0.0,-0.16342642903327942,1.1123512983322144,0.1611425280570984,0.8595052361488342,0.21046364307403564,0.4153265655040741,0.21085458993911743
38.0,1.7849273891926987,-0.9015800183769607,1.544129882119249,-1.6985412033058036,-2.388012386052992,0.0,-0.15902505815029144,1.1176743507385254,0.16596537828445435,0.8715510964393616,0.19540244340896606,0.40700584650039673,0.19121378660202026
39.0,1.7759143315812,-0.9158301986915961,1.555933729347392,-1.7485029877137102,-2.370253899394471,0.0,-0.15470272302627563,1.1233487129211426,0.17131748795509338,0.8828153610229492,0.18050621449947357,0.3984334170818329,0.17118820548057556
40.0,1.7669012739697016,-0.9300803790062313,1.567737576575535,-1.7984647721216165,-2.35249541273595,0.0,-0.15044105052947998,1.1293433904647827,0.17723923921585083,0.8932867646217346,0.16579677164554596,0.389630526304245,0.15079143643379211
41.0,1.757888216358203,-0.9443305593208666,1.5795414238036778,-1.8484265565295228,-2.334736926077429,0.0,-0.14622288942337036,1.135624885559082,0.18376865983009338,0.9029558300971985,0.1512957215309143,0.3806186318397522,0.13003790378570557
42.0,1.7417846284462033,-0.9620606175443257,1.5887479325595484,-1.8679296904755307,-2.2873282324546205,0.0,-0.14064645767211914,1.1316680908203125,0.1874459981918335,0.915535569190979,0.13619309663772583,0.35775530338287354,0.12351969629526138
43.0,1.7250704961426087,-0.9800903176634717,1.5977307922553188,-1.8848101209809034,-2.2373664480467137,0.0,-0.1358366310596466,1.1274306774139404,0.19133369624614716,0.927513837814331,0.12131053954362869,0.33343741297721863,0.11756373196840286
44.0,1.7083563638390142,-0.9981200177826175,1.6067136519510892,-1.9016905514862759,-2.1874046636388074,0.0,-0.13187602162361145,1.1238377094268799,0.19579192996025085,0.9385616183280945,0.10675355046987534,0.30887570977211,0.11091265082359314
45.0,1.6916422315354198,-1.0161497179017633,1.6156965116468593,-1.9185709819916483,-2.137442879230901,0.0,-0.12868937849998474,1.1208877563476562,0.20088380575180054,0.9486762285232544,0.09255418926477432,0.2841092050075531,0.10358094424009323
46.0,1.6756335523583084,-1.0313065085391748,1.6299279366233521,-1.9406444832729648,-2.0874810948229943,0.0,-0.12675374746322632,1.1162370443344116,0.20026491582393646,0.9576494693756104,0.07944440096616745,0.2592417895793915,0.09689991921186447
47.0,1.6598361928603327,-1.045602714274379,1.6457315782212032,-1.9642735777027207,-2.037519310415088,0.0,-0.12568914890289307,1.1115370988845825,0.1984798014163971,0.9656853675842285,0.06689584255218506,0.23425383865833282,0.09001003205776215
48.0,1.6440388333623572,-1.0598989200095827,1.6615352198190545,-1.9879026721324766,-1.9875575260071816,0.0,-0.1252661794424057,1.1074751615524292,0.19749322533607483,0.9728547930717468,0.054716192185878754,0.20915812253952026,0.08253844082355499
49.0,1.6282414738643816,-1.0741951257447866,1.6773388614169056,-2.0115317665622325,-1.9375957415992753,0.0,-0.12541140615940094,1.1040270328521729,0.19734621047973633,0.9791603088378906,0.04293100908398628,0.1839878112077713,0.0745014026761055
50.0,1.6124441143664061,-1.0884913314799904,1.6931425030147567,-2.0351608609919882,-1.887633957191369,0.0,-0.12605281174182892,1.1011625528335571,0.19807547330856323,0.9846058487892151,0.03156525269150734,0.15877600014209747,0.06591646373271942
51.0,1.5966467548684302,-1.1027875372151945,1.708946144612608,-2.0587899554217444,-1.8376721727834622,0.0,-0.12711966037750244,1.098845362663269,0.19971367716789246,0.98919677734375,0.020642857998609543,0.13355539739131927,0.05680176615715027
52.0,1.5808493953704548,-1.1170837429503984,1.724749786210459,-2.0824190498515005,-1.7877103883755558,0.0,-0.12854385375976562,1.0970332622528076,0.20228855311870575,0.9929395318031311,0.010187238454818726,0.10835827142000198,0.047177013009786606
53.0,1.565052035872479,-1.1313799486856022,1.7405534278083103,-2.106048144281256,-1.7377486039676495,0.0,-0.13025996088981628,1.095678448677063,0.2058219313621521,0.9958419799804688,0.0002208623627666384,0.08321617543697357,0.037062887102365494
54.0,1.5492546763745034,-1.145676154420806,1.7563570694061614,-2.1296772387110123,-1.6877868195597427,0.0,-0.13220545649528503,1.0947279930114746,0.21033179759979248,0.9979132413864136,-0.009234695695340633,0.0581604465842247,0.02648075297474861
55.0,1.5334573168765278,-1.1599723601560101,1.7721607110040127,-2.1533063331407685,-1.6378250351518364,0.0,-0.13432127237319946,1.0941250324249268,0.2158302664756775,0.9991634488105774,-0.018158769235014915,0.03322168067097664,0.0154532790184021
56.0,1.5176599573785523,-1.174268565891214,1.7879643526018638,-2.176935427570524,-1.58786325074393,0.0,-0.1365519016981125,1.0938082933425903,0.22232475876808167,0.9996044039726257,-0.026531700044870377,0.008429895155131817,0.004003517329692841
57.0,1.5155561824284136,-1.158130352507643,1.760467951740992,-2.17313395832105,-1.5707963705062866,0.0,-0.13973788917064667,1.1148818731307983,0.22477960586547852,0.9996185302734375,-0.02761654183268547,2.0192826966081157e-08,3.667798509354725e-08
58.0,1.5202253347805015,-1.1267784106485101,1.7105061673330857,-2.154523988557549,-1.5707963342940399,0.0,-0.14331606030464172,1.146337866783142,0.22480005025863647,0.9996803402900696,-0.025282826274633408,2.1116600024129184e-08,4.6973564593599804e-08
59.0,1.5207632600222065,-1.103298907525328,1.6684167829539562,-2.111474739904549,-1.5720835164307532,0.0,-0.14263316988945007,1.1622207164764404,0.22349971532821655,0.9996124505996704,-0.025004182010889053,0.0003376686363480985,0.012231690809130669
60.0,1.520160683583952,-1.081999528134121,1.6285761652394535,-2.0615129554966427,-1.5737384096674547,0.0,-0.14073224365711212,1.1732984781265259,0.2220185250043869,0.9992895126342773,-0.02526414953172207,0.0007630604086443782,0.02795463614165783
61.0,1.5195581071456974,-1.0607001487429144,1.5887355475249507,-2.0115511710887364,-1.575393302904156,0.0,-0.13884539902210236,1.1838418245315552,0.22071488201618195,0.9987199902534485,-0.0254916250705719,0.0011780057102441788,0.04367082938551903
62.0,1.5189555307074427,-1.0394007693517076,1.5488949298104477,-1.9615893866808296,-1.5770481961408573,0.0,-0.13697350025177002,1.1938539743423462,0.21959267556667328,0.9979038238525391,-0.02568635158240795,0.00158206676132977,0.05937633663415909
63.0,1.5183529542691883,-1.0181013899605007,1.5090543120959452,-1.9116276022729233,-1.5787030893775589,0.0,-0.13511709868907928,1.2033376693725586,0.2186555564403534,0.9968413710594177,-0.025848273187875748,0.00197472982108593,0.07506734132766724
64.0,1.5169296621481028,-1.0095530873284073,1.4899210644030703,-1.8768762264900645,-1.5801427312678202,0.0,-0.1328473687171936,1.2034730911254883,0.21930265426635742,0.9958440661430359,-0.02642103284597397,0.002309963572770357,0.08712665736675262
65.0,1.5153377613218566,-1.0338010312539467,1.5309444984546212,-1.9135603409527004,-1.5793256873129848,0.0,-0.1321030855178833,1.1883007287979126,0.2212802767753601,0.9966391324996948,-0.027314215898513794,0.0021123308688402176,0.07720056921243668
66.0,1.5153956872392707,-1.0517891979007985,1.5662296890347311,-1.9635221253606068,-1.577520989723619,0.0,-0.13321618735790253,1.18211829662323,0.22146928310394287,0.997765839099884,-0.027440952137112617,0.001670296536758542,0.0608891099691391
67.0,1.5154536131566845,-1.0697773645476507,1.6015148796148413,-2.0134839097685133,-1.5757162921342533,0.0,-0.13435329496860504,1.1754900217056274,0.22195659577846527,0.9986264109611511,-0.027530886232852936,0.0012250852305442095,0.04456106945872307
68.0,1.5155115390740985,-1.0877655311945027,1.6368000701949514,-2.0634456941764197,-1.5739115945448876,0.0,-0.13551470637321472,1.1684086322784424,0.22273889183998108,0.9992207288742065,-0.027583975344896317,0.0007772903190925717,0.028221001848578453
69.0,1.5155694649915126,-1.1057536978413545,1.6720852607750614,-2.113407478584326,-1.5721068969555219,0.0,-0.13670073449611664,1.1608659029006958,0.22381220757961273,0.9995484352111816,-0.027600213885307312,0.00032750554964877665,0.01187360379844904
70.0,1.5150692032080455,-1.1163683295664197,1.6924410949581936,-2.136007701576859,-1.5714874260810867,0.0,-0.13675065338611603,1.1539489030838013,0.22386208176612854,0.9995970129966736,-0.027857644483447075,0.00019411258108448237,0.005438180640339851
71.0,1.5130886450530632,-1.1074285766772547,1.6732047416591949,-2.0860459171689527,-1.574011139484565,0.0,-0.13375332951545715,1.149544358253479,0.2209208607673645,0.9992645978927612,-0.028799977153539658,0.0008774349116720259,0.02529640682041645
72.0,1.511108086898081,-1.0984888237880897,1.6539683883601959,-2.0360841327610464,-1.5765348528880432,0.0,-0.13079261779785156,1.1448185443878174,0.21858462691307068,0.9985382556915283,-0.02967996336519718,0.0015198870096355677,0.04514583572745323
73.0,1.5091275287430987,-1.0895490708989248,1.6347320350611971,-1.9861223483531403,-1.5790585662915215,0.0,-0.12786927819252014,1.139794945716858,0.2168610692024231,0.9974183440208435,-0.030496394261717796,0.002120134187862277,0.06497855484485626
74.0,1.5071469705881166,-1.0806093180097598,1.6154956817621984,-1.9361605639452337,-1.5815822796949999,0.0,-0.12498322874307632,1.1344982385635376,0.21575692296028137,0.9959053993225098,-0.031248286366462708,0.0026771100237965584,0.08478652685880661
75.0,1.5023400028747442,-1.1115404471300028,1.6573226247290305,-1.9424453581240773,-1.5826712314141758,0.0,-0.1211371123790741,1.1054401397705078,0.22072206437587738,0.9956286549568176,-0.03357527032494545,0.0029357564635574818,0.08710658550262451
76.0,1.4910128313553443,-1.1024268729734903,1.6453016218231462,-1.9396812585527827,-1.5846330675082867,0.0,-0.10719660669565201,1.1148380041122437,0.21904250979423523,0.9954258799552917,-0.03912878781557083,0.0034216907806694508,0.08708886057138443
77.0,1.4963667738203632,-1.0665857544077721,1.5953398374152399,-1.9254899564192165,-1.5837059308881576,0.0,-0.11110344529151917,1.1467201709747314,0.21344096958637238,0.9955255389213562,-0.036503951996564865,0.003191948402673006,0.08709767460823059
78.0,1.4997567631457787,-1.0402071150013201,1.545378053007333,-1.901863733996521,-1.5831188554934656,0.0,-0.11321341246366501,1.1745188236236572,0.21712686121463776,0.9955850839614868,-0.034841809421777725,0.0030465489253401756,0.08710333704948425
79.0,1.504764147374428,-1.013019733895254,1.4954162685994268,-1.8790294547118278,-1.5822514825801217,0.0,-0.11758896708488464,1.2017886638641357,0.2195979207754135,0.9956679344177246,-0.03238658234477043,0.002831815043464303,0.0871112048625946
80.0,1.4922035694583533,-1.0186090593151873,1.503998750481026,-1.882177665014814,-1.5844270678441594,0.0,-0.10203880071640015,1.1980758905410767,0.22023001313209534,0.9954485297203064,-0.03854498267173767,0.0033706447575241327,0.0870920866727829
81.0,1.4872762508233524,-1.0440909660729314,1.5539605348889323,-1.9067274460822883,-1.5852799657556926,0.0,-0.09808424860239029,1.1713004112243652,0.21584883332252502,0.9953521490097046,-0.040960587561130524,0.0035819702316075563,0.08708284795284271
82.0,1.4831387375045308,-1.072405499931319,1.6039223192968386,-1.9284358614236599,-1.5859957974727075,0.0,-0.09550711512565613,1.1426920890808105,0.21414336562156677,0.9952666759490967,-0.042988814413547516,0.0037593909073621035,0.08707509189844131
83.0,1.4773548429845955,-1.1084511319887425,1.653884103704745,-1.9424416651337495,-1.5869960742371683,0.0,-0.09156236797571182,1.1106160879135132,0.21980926394462585,0.9951401352882385,-0.04582381993532181,0.004007395822554827,0.08706378936767578
84.0,1.4657733175871566,-1.1018839601436101,1.6452355089439283,-1.9405564434001639,-1.5889976130894956,0.0,-0.0772998034954071,1.1174143552780151,0.21859577298164368,0.9948626160621643,-0.05149981006979942,0.0045039840042591095,0.08703961223363876
85.0,1.4717921914511942,-1.0660540043028812,1.5952737245360211,-1.9263198899673541,-1.58795774594669,0.0,-0.08121201395988464,1.1493226289749146,0.21298331022262573,0.9950109124183655,-0.04855016618967056,0.004245943855494261,0.08705252408981323
86.0,1.4758846615346422,-1.040006384066353,1.5453119401281148,-1.9023369073065701,-1.5872504324685313,0.0,-0.0835254117846489,1.1769781112670898,0.21700631082057953,0.9951066374778748,-0.046544406563043594,0.004070512019097805,0.08706134557723999
87.0,1.481449692528353,-1.012503211042531,1.4953501557202085,-1.879789365107697,-1.5862881437789447,0.0,-0.08794766664505005,1.2044179439544678,0.21911963820457458,0.9952304363250732,-0.043816689401865005,0.003831845009699464,0.08707288652658463
88.0,1.4679144303474023,-1.0217861207605072,1.5104399961154782,-1.890345821212743,-1.5880935806274172,0.0,-0.07164259999990463,1.1986278295516968,0.22002699971199036,0.9951097965240479,-0.05050322040915489,0.004264066927134991,0.08477972447872162
89.0,1.4643284715617642,-1.0414055702041598,1.5475305237386423,-1.9403076056206492,-1.5848818058766778,0.0,-0.0693633183836937,1.1917167901992798,0.2206973433494568,0.9962555170059204,-0.0526033453643322,0.0033846863079816103,0.06852919608354568
90.0,1.4607425127761262,-1.0610250196478126,1.5846210513618062,-1.9902693900285553,-1.5816700311259382,0.0,-0.06718611717224121,1.1843361854553223,0.22162190079689026,0.9971343278884888,-0.05464133247733116,0.002559246961027384,0.05225703865289688
91.0,1.4571565539904883,-1.0806444690914652,1.62171157898497,-2.040231174436461,-1.5784582563751985,0.0,-0.06511706113815308,1.1764806509017944,0.2227969765663147,0.9977463483810425,-0.05661553144454956,0.0017888238653540611,0.03596781939268112
92.0,1.4535705952048503,-1.100263918535118,1.6588021066081347,-2.0901929588443684,-1.575246481624459,0.0,-0.0631619393825531,1.168144702911377,0.22421890497207642,0.9980916380882263,-0.058524470776319504,0.0010744505561888218,0.0196661576628685
93.0,1.449677348718777,-1.1270803173450903,1.7047649225228836,-2.1261218365370764,-1.5734537409094425,0.0,-0.061920732259750366,1.1469717025756836,0.22513015568256378,0.998104453086853,-0.06050381809473038,0.0006496080895885825,0.011239275336265564
94.0,1.4456455997638944,-1.1571405663115164,1.7547267069307901,-2.155725722302425,-1.5723005953262656,0.0,-0.061211857944726944,1.119673252105713,0.22531002759933472,0.9980228543281555,-0.06252852827310562,0.0003548906825017184,0.006362917833030224
95.0,1.4416138508090115,-1.1872008152779423,1.8046884913386965,-2.1853296080677724,-1.5711474497430888,0.0,-0.06079694256186485,1.0918265581130981,0.22497618198394775,0.9979135990142822,-0.06454602628946304,7.984572584973648e-05,0.0014854116598144174
96.0,1.430075524363079,-1.1815311963411814,1.7970071228004345,-2.1862720921844265,-1.570796287488404,0.0,-0.04741562157869339,1.0989322662353516,0.2247995138168335,0.997525691986084,-0.07030235975980759,-4.048656521149496e-08,3.942297510661774e-08
97.0,1.4373769404676537,-1.1496570359137446,1.7470453383925282,-2.168184579240997,-1.5707963705062866,0.0,-0.05107998475432396,1.1310269832611084,0.22479873895645142,0.997775673866272,-0.06666020303964615,1.6049764184344895e-08,8.913906412999495e-08
98.0,1.4417342980567165,-1.1257586494248801,1.7051632260208613,-2.131727601398583,-1.5729660126432647,0.0,-0.052756328135728836,1.1493006944656372,0.22417879104614258,0.9978760480880737,-0.06447344273328781,0.00048689593677408993,0.00928721483796835
99.0,1.4441468693256876,-1.1075418256353147,1.6693626279602103,-2.0817658169906768,-1.576768729693016,0.0,-0.05301711708307266,1.1572065353393555,0.22336004674434662,0.9976734519004822,-0.0631859228014946,0.0013704467564821243,0.025560755282640457
100.0,1.4465594405946585,-1.089325001845749,1.633562029899559,-2.0318040325827704,-1.580571446742767,0.0,-0.05337391793727875,1.1646573543548584,0.2228260189294815,0.9972078204154968,-0.06182107329368591,0.0022912705317139626,0.04182511195540428
101.0,1.4489720118636298,-1.071108178056183,1.5977614318389073,-1.9818422481748632,-1.5843741637925182,0.0,-0.05382245033979416,1.171660304069519,0.22258040308952332,0.9964792132377625,-0.060379963368177414,0.0032482438255101442,0.05807556211948395
102.0,1.4513845831326007,-1.0528913542666178,1.561960833778256,-1.9318804637669569,-1.5881768808422694,0.0,-0.05435870215296745,1.178222417831421,0.2226257026195526,0.9954875111579895,-0.058863624930381775,0.004239950329065323,0.07430776953697205
103.0,1.4545311788377988,-1.0311258881698278,1.5230510340953787,-1.8894163311983343,-1.590929688415397,0.0,-0.055629853159189224,1.189690113067627,0.22173184156417847,0.9945653080940247,-0.05700917914509773,0.004983884748071432,0.08697624504566193
104.0,1.4473430115463277,-1.0085248008979868,1.4902482353027828,-1.87931555824761,-1.5921743438795999,0.0,-0.04411974176764488,1.2099665403366089,0.21812200546264648,0.9943552613258362,-0.060530029237270355,0.005293156020343304,0.08698109537363052
105.0,1.4411084114120931,-1.0401560014355202,1.5379526425568286,-1.9011001697808796,-1.5925106724676539,0.0,-0.03986835852265358,1.183958888053894,0.22247853875160217,0.994401216506958,-0.06366132944822311,0.005376205779612064,0.08416888117790222
106.0,1.4384833952285114,-1.0584742976546202,1.5738447448613968,-1.951061954188786,-1.5883117924829484,0.0,-0.039260271936655045,1.17763090133667,0.2223208248615265,0.995537519454956,-0.06536506861448288,0.004256326239556074,0.06792844831943512
107.0,1.4358583790449295,-1.0767925938737202,1.6097368471659652,-2.0010237385966922,-1.5841129124982427,0.0,-0.038745880126953125,1.1708664894104004,0.2224547564983368,0.9964101314544678,-0.06698637455701828,0.0031734497752040625,0.051666174083948135
108.0,1.4332333628613478,-1.0951108900928206,1.645628949470534,-2.0509855230045995,-1.579914032513537,0.0,-0.03832951933145523,1.1636584997177124,0.22287708520889282,0.9970194101333618,-0.06852415949106216,0.002128985710442066,0.035386789590120316
109.0,1.4306083466777662,-1.1134291863119203,1.6815210517751025,-2.100947307412506,-1.5757151525288313,0.0,-0.03801564872264862,1.155999779701233,0.2235848307609558,0.9973651170730591,-0.06997722387313843,0.0011244065826758742,0.019094832241535187
110.0,1.4279833304941845,-1.1317474825310203,1.7174131540796709,-2.150909091820412,-1.5715162725441258,0.0,-0.037808820605278015,1.1478843688964844,0.2245742678642273,0.9974477887153625,-0.07134457677602768,0.00016096836770884693,0.0027950310613960028
111.0,1.4232109264866857,-1.15027899513033,1.7467512045547138,-2.1610296917801044,-1.571676758584479,0.0,-0.035088613629341125,1.1290748119354248,0.22458383440971375,0.9972736239433289,-0.07372397184371948,0.00020901861716993153,0.00314340484328568
112.0,1.4244408020841401,-1.1289013106395456,1.706363862751349,-2.111067907372198,-1.5760447368855977,0.0,-0.033006973564624786,1.140942096710205,0.22375193238258362,0.9971513152122498,-0.07305087894201279,0.001257222844287753,0.018736369907855988
113.0,1.4256706776815944,-1.1075236261487613,1.6659765209479844,-2.0611061229642917,-1.5804127151867164,0.0,-0.03103063441812992,1.1522948741912842,0.22309261560440063,0.9967898726463318,-0.07229291647672653,0.0023231066297739744,0.03432324901223183
114.0,1.4269005532790486,-1.0861459416579768,1.62558917914462,-2.0111443385563854,-1.584780693487835,0.0,-0.029157817363739014,1.1631346940994263,0.22260907292366028,0.996189296245575,-0.07145045697689056,0.003405254799872637,0.04989993944764137
115.0,1.428130428876503,-1.0647682571671926,1.5852018373412553,-1.961182554148479,-1.5891486717889538,0.0,-0.027386074885725975,1.1734638214111328,0.2223048210144043,0.9953495860099792,-0.07052414864301682,0.0045024133287370205,0.06546244025230408
116.0,1.4293603044739573,-1.0433905726764081,1.5448144955378906,-1.9112207697405728,-1.5935166500900724,0.0,-0.025713123381137848,1.183284878730774,0.22218242287635803,0.9942705631256104,-0.06951452046632767,0.005613330285996199,0.08100666105747223
117.0,1.433763445267017,-1.0140188756499875,1.4985084550897456,-1.8823754392848193,-1.5945080729024022,0.0,-0.027447257190942764,1.2055490016937256,0.21889710426330566,0.9939276576042175,-0.06718100607395172,0.005872409790754318,0.08694754540920258
118.0,1.4255030606210963,-1.005288547458183,1.4934955431689887,-1.8700693714803929,-1.553784869915848,0.0,-0.033347614109516144,1.2065575122833252,0.2110571563243866,0.9928213357925415,-0.07305672764778137,-0.015291610732674599,0.09345971047878265
119.0,1.4123840540328718,-1.0025761592539835,1.4992214241531574,-1.8587131962189343,-1.5038230855079417,0.0,-0.038061968982219696,1.201138973236084,0.2036105990409851,0.9906091094017029,-0.08212561905384064,-0.04143187403678894,0.10115543007850647
120.0,1.3992650474446473,-0.999863771049784,1.504947305137326,-1.8473570209574757,-1.4538613011000354,0.0,-0.04282715916633606,1.1962109804153442,0.19727995991706848,0.9875655770301819,-0.09159431606531143,-0.06758949905633926,0.10842692852020264
121.0,1.3861460408564228,-0.9971513828455844,1.5106731861214946,-1.836000845696017,-1.403899516692129,0.0,-0.04757115989923477,1.1918208599090576,0.19204729795455933,0.9836860299110413,-0.10144426673650742,-0.09373524785041809,0.11525800824165344
122.0,1.3730270342681983,-0.9944389946413847,1.5163990671056633,-1.8246446704345585,-1.3539377322842228,0.0,-0.052219923585653305,1.1880111694335938,0.18789032101631165,0.9789672493934631,-0.11165627837181091,-0.11983949691057205,0.12163296341896057
123.0,1.3599080276799738,-0.9917266064371852,1.522124948089832,-1.8132884951731,-1.3039759478763164,0.0,-0.05669781193137169,1.1848188638687134,0.184782013297081,0.9734064340591431,-0.1222105324268341,-0.1458723098039627,0.12753717601299286
124.0,1.346789021091749,-0.9890142182329856,1.5278508290740007,-1.8019323199116413,-1.2540141634684092,0.0,-0.06092841550707817,1.182275652885437,0.1826917827129364,0.9670025706291199,-0.13308657705783844,-0.17180359363555908,0.13295650482177734
125.0,1.3336700145035245,-0.986301830028786,1.5335767100581692,-1.7905761446501827,-1.2040523790605029,0.0,-0.06483440846204758,1.1804077625274658,0.1815844476222992,0.959755539894104,-0.14426347613334656,-0.19760312139987946,0.13787803053855896
126.0,1.3205510079153,-0.9835894418245864,1.539302591042338,-1.779219969388724,-1.1540905946525966,0.0,-0.06833818554878235,1.1792353391647339,0.181421160697937,0.9516662955284119,-0.15571986138820648,-0.2232404202222824,0.14228960871696472
127.0,1.3074320013270755,-0.9808770536203869,1.5450284720265066,-1.7678637941272655,-1.1041288102446902,0.0,-0.07136258482933044,1.1787725687026978,0.18215912580490112,0.9427369832992554,-0.16743384301662445,-0.24868516623973846,0.14618000388145447
128.0,1.294312994738851,-0.9781646654161873,1.5507543530106753,-1.7565076188658069,-1.054167025836784,0.0,-0.07383064180612564,1.1790275573730469,0.18375222384929657,0.9329710006713867,-0.17938317358493805,-0.2739068865776062,0.1495388150215149
129.0,1.2811939881506265,-0.9754522772119877,1.5564802339948438,-1.7451514436043483,-1.0042052414288776,0.0,-0.07566709816455841,1.180001974105835,0.18615129590034485,0.9223727583885193,-0.19154506921768188,-0.29887503385543823,0.15235689282417297
130.0,1.268074981562402,-0.9727398890077882,1.5622061149790125,-1.7337952683428899,-0.9542434570209712,0.0,-0.07679775357246399,1.1816911697387695,0.1893037110567093,0.9109480977058411,-0.20389652252197266,-0.3235591948032379,0.15462566912174225
131.0,1.2549559749741774,-0.9700275008035886,1.5679319959631812,-1.7224390930814313,-0.9042816726130649,0.0,-0.07715058326721191,1.1840842962265015,0.19315457344055176,0.8987038135528564,-0.21641428768634796,-0.3479291498661041,0.15633778274059296
132.0,1.258936873684525,-0.9523473059988087,1.5381714282938121,-1.7096337408369455,-0.882357018859823,0.0,-0.08220364153385162,1.2043280601501465,0.19653908908367157,0.8951749801635742,-0.21643958985805511,-0.35747772455215454,0.155000701546669
133.0,1.25459625959069,-0.9795149139927118,1.578278931762538,-1.7270420403029378,-0.8814205406242649,0.0,-0.08436687290668488,1.1829843521118164,0.20230768620967865,0.8951094746589661,-0.21779999136924744,-0.3580736815929413,0.1520705670118332
134.0,1.248638227250179,-0.9963620413459393,1.6148645742837489,-1.7770038247108442,-0.8713231577635783,0.0,-0.08305804431438446,1.1757807731628418,0.20142805576324463,0.8964186310768127,-0.2167133092880249,-0.3618951439857483,0.13601802289485931
135.0,1.2426801949096682,-1.0132091686991667,1.6514502168049594,-1.8269656091187505,-0.8612257749028918,0.0,-0.08197997510433197,1.168107032775879,0.20090357959270477,0.8975271582603455,-0.21544060111045837,-0.36556950211524963,0.11995550990104675
136.0,1.2367221625691571,-1.0300562960523942,1.6880358593261702,-1.8769273935266568,-0.8511283920422053,0.0,-0.08114366978406906,1.1599587202072144,0.20072977244853973,0.898436963558197,-0.21398085355758667,-0.3690938651561737,0.10388912260532379
137.0,1.2307017706980046,-1.0469642676104258,1.724725656491061,-1.9266052549942083,-0.8411444169836926,0.0,-0.08051759004592896,1.1511561870574951,0.2008565366268158,0.8991307020187378,-0.21240900456905365,-0.3724335730075836,0.08797544240951538
138.0,1.2164708070449788,-1.0716563152362362,1.7746874408989672,-1.9398891024721554,-0.8457356322100442,0.0,-0.07487498968839645,1.1192973852157593,0.19526726007461548,0.8971805572509766,-0.2205076366662979,-0.37162142992019653,0.09132807701826096
139.0,1.2040138444916009,-1.0915346496873588,1.814216125820407,-1.9416850699659536,-0.8474379897331318,0.0,-0.07139584422111511,1.0915104150772095,0.19114121794700623,0.8941380381584167,-0.2288161665201187,-0.37239089608192444,0.09739164263010025
140.0,1.1946146133346696,-1.0737298063830552,1.8001432200353364,-1.8917232855580464,-0.8356648473938708,0.0,-0.06603893637657166,1.088991403579712,0.18253514170646667,0.8844394087791443,-0.24200063943862915,-0.38091233372688293,0.11877793073654175
141.0,1.1852153821777387,-1.0559249630787517,1.7860703142502659,-1.84176150115014,-0.8238917050546098,0.0,-0.060669444501399994,1.0865345001220703,0.17454642057418823,0.8739368319511414,-0.2552008032798767,-0.3892751634120941,0.13989955186843872
142.0,1.1758161510208076,-1.0381201197744485,1.7719974084651955,-1.7917997167422335,-0.812118562715349,0.0,-0.05526924878358841,1.0841758251190186,0.16715362668037415,0.8626399636268616,-0.26839756965637207,-0.3974624276161194,0.16074347496032715
143.0,1.1664169198638765,-1.020315276470145,1.7579245026801251,-1.7418379323343272,-0.8003454203760881,0.0,-0.04981904476881027,1.0819493532180786,0.16033346951007843,0.850560188293457,-0.28157198429107666,-0.40545764565467834,0.18129703402519226
144.0,1.1570176887069454,-1.0025104331658417,1.7438515968950545,-1.6918761479264208,-0.7885722780368273,0.0,-0.044299595057964325,1.0798866748809814,0.15406034886837006,0.8377091288566589,-0.2947048544883728,-0.41324421763420105,0.2015482634305954
145.0,1.1476184575500143,-0.9847055898615384,1.7297786911099842,-1.6419143635185145,-0.7767991356975664,0.0,-0.03869090974330902,1.0780160427093506,0.14830639958381653,0.8240993618965149,-0.3077772259712219,-0.42080575227737427,0.22148561477661133
146.0,1.1382192263930835,-0.966900746557235,1.7157057853249138,-1.591952579110608,-0.7650259933583056,0.0,-0.032973408699035645,1.076364278793335,0.14304219186306,0.8097445964813232,-0.3207698464393616,-0.4281262755393982,0.24109810590744019
147.0,1.1288199952361524,-0.9490959032529317,1.7016328795398434,-1.5419907947027016,-0.7532528510190447,0.0,-0.02712681144475937,1.0749540328979492,0.13823629915714264,0.7946591377258301,-0.3336637020111084,-0.43518954515457153,0.2603752613067627
148.0,1.1194207640792213,-0.9312910599486284,1.6875599737547728,-1.4920290102947953,-0.7414797086797839,0.0,-0.02113163471221924,1.0738060474395752,0.13385595381259918,0.7788582444190979,-0.34643983840942383,-0.4419802129268646,0.2793073356151581
149.0,1.11002153292229,-0.9134862166443247,1.6734870679697023,-1.442067225886888,-0.7297065663405228,0.0,-0.014968238770961761,1.0729368925094604,0.12986698746681213,0.7623580694198608,-0.35907939076423645,-0.4484826326370239,0.29788485169410706
150.0,1.1006223017653591,-0.8956813733400213,1.659414162184632,-1.3921054414789817,-0.7179334240012619,0.0,-0.008617550134658813,1.0723623037338257,0.12623398005962372,0.7451751828193665,-0.37156370282173157,-0.4546818733215332,0.3160991966724396
151.0,1.091223070608428,-0.877876530035718,1.6453412563995613,-1.3421436570710754,-0.7061602816620011,0.0,-0.0020612627267837524,1.0720933675765991,0.12292048335075378,0.7273274064064026,-0.38387393951416016,-0.46056288480758667,0.3339422345161438
152.0,1.081823839451497,-0.8600716867314147,1.631268350614491,-1.292181872663169,-0.6943871393227402,0.0,0.0047184377908706665,1.072138786315918,0.1198895201086998,0.7088330388069153,-0.3959919214248657,-0.4661113917827606,0.3514060974121094
153.0,1.0724246082945659,-0.8422668434271112,1.6171954448294206,-1.2422200882552625,-0.6826139969834794,0.0,0.011738277971744537,1.0725045204162598,0.11710315942764282,0.6897112727165222,-0.40789923071861267,-0.4713131785392761,0.3684839904308319
154.0,1.063025377137635,-0.824462000122808,1.60312253904435,-1.1922583038473562,-0.6708408546442185,0.0,0.019014202058315277,1.0731940269470215,0.11452310532331467,0.6699818968772888,-0.4195779263973236,-0.4761545658111572,0.3851691484451294
155.0,1.053626145980704,-0.8066571568185046,1.5890496332592796,-1.1422965194394499,-0.6590677123049576,0.0,0.026560813188552856,1.074206829071045,0.1121111586689949,0.6496656537055969,-0.43101033568382263,-0.48062217235565186,0.40145593881607056
156.0,1.0442269148237726,-0.7888523135142009,1.574976727474209,-1.0923347350315424,-0.6472945699656966,0.0,0.03439179062843323,1.0755406618118286,0.10982845723628998,0.628783643245697,-0.4421788156032562,-0.4847032129764557,0.41733887791633606
157.0,1.0348276836668415,-0.7710474702098975,1.5609038216891387,-1.042372950623636,-0.6355214276264357,0.0,0.042519085109233856,1.077190637588501,0.10763675719499588,0.6073578596115112,-0.4530662000179291,-0.4883851706981659,0.4328131377696991
158.0,1.0254284525099107,-0.7532426269055943,1.546830915904068,-0.9924111662157298,-0.6237482852871749,0.0,0.05095373094081879,1.0791490077972412,0.10549791157245636,0.5854108333587646,-0.46365582942962646,-0.491656094789505,0.4478744864463806
159.0,1.0160292213529796,-0.7354377836012909,1.5327580101189977,-0.9424493818078234,-0.611975142947914,0.0,0.059704676270484924,1.081405758857727,0.10337430238723755,0.5629657506942749,-0.4739309251308441,-0.49450451135635376,0.4625193774700165
160.0,1.0066299901960485,-0.7176329402969875,1.5186851043339273,-0.8924875973999171,-0.6002020006086531,0.0,0.06877986341714859,1.0839486122131348,0.10122890770435333,0.5400465130805969,-0.4838755428791046,-0.4969194531440735,0.47674447298049927
161.0,0.9972307590391173,-0.6998280969926838,1.5046121985488565,-0.8425258129920099,-0.588428858269392,0.0,0.07818509638309479,1.0867630243301392,0.09902551770210266,0.5166773200035095,-0.49347367882728577,-0.49889037013053894,0.49054715037345886
162.0,0.9945041588643515,-0.6825807846717431,1.47987704484507,-0.7972962735885804,-0.5762730225242566,0.0,0.08506076782941818,1.0973292589187622,0.09938473999500275,0.4999952018260956,-0.5000047087669373,-0.5000047087669373,0.4999951720237732
163.0,1.0071680067470223,-0.6664177703717691,1.4299152604371628,-0.7634976728477021,-0.5636094359205277,0.0,0.08503352850675583,1.1252374649047852,0.10600471496582031,0.49999526143074036,-0.5000046491622925,-0.5000047087669373,0.49999523162841797
164.0,1.015523295868936,-0.6546902300098065,1.3945087470237212,-0.7398185537154838,-0.5552539896994847,0.0,0.08509718626737595,1.1444358825683594,0.11062747240066528,0.4999951720237732,-0.5000046491622925,-0.500004768371582,0.49999523162841797
165.0,1.0034151598230012,-0.6718138761935875,1.4444705314316284,-0.7726565347074259,-0.5673620471293273,0.0,0.08521012961864471,1.1171098947525024,0.10485289245843887,0.4999951720237732,-0.500004768371582,-0.500004768371582,0.4999951720237732
166.0,0.9906692021390235,-0.6881757891637038,1.4944323158395338,-0.8062562942259961,-0.5801079756716454,0.0,0.0850200206041336,1.089028239250183,0.09857787191867828,0.49999505281448364,-0.5000048279762268,-0.500004768371582,0.49999529123306274
167.0,0.976225022714774,-0.7033045977082664,1.544394100247442,-0.8410894019111317,-0.594552155095895,0.0,0.08558618277311325,1.0597285032272339,0.09134028851985931,0.4999951720237732,-0.500004768371582,-0.5000047087669373,0.4999952018260956
168.0,0.9616812490821222,-0.7183743344579456,1.5943558846553483,-0.8759815977363307,-0.6090959287285468,0.0,0.08508740365505219,1.029990553855896,0.0845680981874466,0.49999523162841797,-0.500004768371582,-0.500004768371582,0.4999951720237732
169.0,0.9743535900072917,-0.7060545394641875,1.552531200260475,-0.8464766240519405,-0.5964234812336143,0.0,0.08505841344594955,1.0551427602767944,0.09053704142570496,0.4999951422214508,-0.5000047087669373,-0.500004768371582,0.4999952018260956
170.0,0.9735441600017092,-0.7059221823633826,1.5553732130079059,-0.8494511840865517,-0.5972328985996702,0.0,0.08503972738981247,1.0534764528274536,0.08901635557413101,0.49999529123306274,-0.500004768371582,-0.5000048279762268,0.4999951422214508
171.0,0.9582840884761694,-0.7208120556020917,1.6053349974158113,-0.8845229789875394,-0.612492973507713,0.0,0.08502873033285141,1.0233174562454224,0.0821840688586235,0.49999526143074036,-0.500004768371582,-0.500004768371582,0.49999508261680603
172.0,0.9436634460808933,-0.7193295372187652,1.6496329723896768,-0.9303036164843839,-0.6271137273548072,0.0,0.0850091502070427,0.9956888556480408,0.0606822744011879,0.49999526143074036,-0.500004768371582,-0.5000047087669373,0.4999951124191284
173.0,0.9256562526233654,-0.723214973543899,1.6920788157914792,-0.921430671881535,-0.5790719766559285,0.0,0.08424490690231323,0.9867655634880066,0.05709599703550339,0.46655985713005066,-0.5189872980117798,-0.5132046341896057,0.4995947778224945
174.0,0.9119842104741883,-0.7275543050620075,1.7263778272291916,-0.9035223712412463,-0.5319722049645348,0.0,0.08271515369415283,0.9818796515464783,0.05701102316379547,0.4337005019187927,-0.5364422798156738,-0.5237199664115906,0.4998507797718048
175.0,0.9180904119779698,-0.7323153473393992,1.724472362788755,-0.8535605868333409,-0.497580424266217,0.0,0.07574674487113953,0.9919170141220093,0.07037682831287384,0.41076698899269104,-0.5461686253547668,-0.5257309675216675,0.5065345764160156
176.0,0.9241966134817516,-0.737076389616791,1.7225668983483187,-0.8035988024254337,-0.46318864356789796,0.0,0.0692397877573967,1.0020051002502441,0.0829680785536766,0.3877207338809967,-0.5561127662658691,-0.5267683863639832,0.512763261795044
177.0,0.9303028149855334,-0.7418374318941828,1.720661433907882,-0.7536370180175265,-0.42879686286957885,0.0,0.06315428763628006,1.0120902061462402,0.09475399553775787,0.3645995855331421,-0.5662578344345093,-0.5268306136131287,0.5185253024101257
178.0,0.9364090164893148,-0.7465984741715745,1.7187559694674457,-0.703675233609621,-0.394405082171261,0.0,0.057450808584690094,1.0221158266067505,0.10570980608463287,0.3414416015148163,-0.5765863060951233,-0.5259177088737488,0.523809552192688
179.0,0.9425152179930967,-0.7513595164489664,1.7168505050270093,-0.6537134492017138,-0.36001330147294197,0.0,0.052089475095272064,1.0320241451263428,0.11581718921661377,0.31828439235687256,-0.5870800018310547,-0.5240308046340942,0.528605580329895
180.0,0.9486214194968782,-0.7561205587263581,1.7149450405865727,-0.6037516647938084,-0.32562152077462414,0.0,0.047031283378601074,1.0417556762695312,0.12506422400474548,0.2951658368110657,-0.5977203249931335,-0.5211729407310486,0.5329037308692932
181.0,0.95472762100066,-0.7608816010037499,1.7130395761461363,-0.5537898803859012,-0.2912297400763051,0.0,0.042237669229507446,1.0512497425079346,0.13344579935073853,0.272123247385025,-0.6084882020950317,-0.5173484683036804,0.536695122718811
182.0,0.9608338225044415,-0.7656426432811416,1.7111341117057,-0.5038280959779957,-0.2568379593779873,0.0,0.037671782076358795,1.0604445934295654,0.14096267521381378,0.24919401109218597,-0.6193641424179077,-0.512563169002533,0.5399715900421143
183.0,0.9669400240082233,-0.7704036855585334,1.7092286472652634,-0.4538663115700885,-0.22244617867966826,0.0,0.03329761326313019,1.0692791938781738,0.1476229429244995,0.22641496360301971,-0.6303282380104065,-0.5068245530128479,0.5427259206771851
184.0,0.973046225512005,-0.7751647278359253,1.707323182824827,-0.4039045271621813,-0.18805439798134915,0.0,0.029081299901008606,1.077691912651062,0.15344053506851196,0.20382267236709595,-0.6413602828979492,-0.5001413822174072,0.5449512600898743
185.0,0.9791524270157865,-0.779925770113317,1.7054177183843906,-0.35394274275427584,-0.15366261728303132,0.0,0.024990804493427277,1.0856221914291382,0.1584358960390091,0.18145325779914856,-0.6524394750595093,-0.4925236999988556,0.5466422438621521
186.0,0.9852586285195684,-0.7846868123907088,1.703512253943954,-0.3039809583463686,-0.11927083658471227,0.0,0.02099643647670746,1.093010425567627,0.16263580322265625,0.159342423081398,-0.6635449528694153,-0.4839833974838257,0.5477938055992126
187.0,0.9913648300233499,-0.7894478546681005,1.7016067895035176,-0.2540191739384632,-0.08487905588639444,0.0,0.017070680856704712,1.0997991561889648,0.16607283055782318,0.13752532005310059,-0.6746554374694824,-0.4745333790779114,0.5484020709991455
188.0,0.9974710315271316,-0.7942088969454923,1.699701325063081,-0.20405738953055597,-0.05048727518807539,0.0,0.013188965618610382,1.1059322357177734,0.16878525912761688,0.11603634059429169,-0.6857495307922363,-0.4641880691051483,0.5484638214111328
189.0,1.0035772330309132,-0.798969939222884,1.6977958606226446,-0.15409560512265053,-0.016095494489757556,0.0,0.009329371154308319,1.1113566160202026,0.17081716656684875,0.09490929543972015,-0.696805477142334,-0.4529631733894348,0.5479768514633179
190.0,1.009683434534695,-0.8037309815002759,1.6958903961822083,-0.10413382071474331,0.018296286208561496,0.0,0.005472898483276367,1.116021990776062,0.1722172200679779,0.07417750358581543,-0.7078015804290771,-0.4408757984638214,0.5469398498535156
191.0,1.0157896360384764,-0.8084920237776675,1.6939849317417717,-0.05417203630683787,0.05268806690687933,0.0,0.001603923738002777,1.1198807954788208,0.17303985357284546,0.05387329310178757,-0.7187156677246094,-0.42794424295425415,0.5453522801399231
192.0,1.0218958375422582,-0.8132530660550594,1.6920794673013353,-0.00421025189893065,0.08707984760519838,0.0,-0.002290673553943634,1.122890591621399,0.17334303259849548,0.034028440713882446,-0.7295258045196533,-0.4141881763935089,0.5432147979736328
193.0,1.02800203904604,-0.8180141083324513,1.6901740028608987,0.04575153250897657,0.12147162830351743,0.0,-0.006219998002052307,1.1250118017196655,0.17318940162658691,0.01467348076403141,-0.7402098774909973,-0.39962825179100037,0.5405286550521851
194.0,1.0341082405498216,-0.8227751506098429,1.6882685384204623,0.09571331691688201,0.15586340900183526,0.0,-0.01019076257944107,1.1262097358703613,0.1726451963186264,-0.00416152086108923,-0.7507456541061401,-0.384286493062973,0.5372962951660156
195.0,1.0402144420536032,-0.8275361928872348,1.686363073980026,0.14567510132478922,0.19025518970015431,0.0,-0.014205627143383026,1.1264545917510986,0.1717798262834549,-0.022447792813181877,-0.7611111998558044,-0.3681861460208893,0.5335209965705872
196.0,1.0463206435573849,-0.8322972351646264,1.6844576095395893,0.19563688573269467,0.22464697039847215,0.0,-0.018264874815940857,1.12572181224823,0.1706654131412506,-0.04015717655420303,-0.7712843418121338,-0.35135123133659363,0.5292069911956787
197.0,1.0524268450611667,-0.8370582774420183,1.682552145099153,0.24559867014060188,0.2590387510967912,0.0,-0.02236466109752655,1.1239917278289795,0.16937661170959473,-0.0572628527879715,-0.7812432646751404,-0.333807110786438,0.5243593454360962
198.0,1.058533046564948,-0.8418193197194099,1.6806466806587166,0.2955604545485073,0.29343053179510903,0.0,-0.026499107480049133,1.1212506294250488,0.16798947751522064,-0.07373890280723572,-0.7909659147262573,-0.31558001041412354,0.5189842581748962
199.0,1.06463924806873,-0.8465803619968018,1.67874121621828,0.34552223895641454,0.3278223124934281,0.0,-0.03065849095582962,1.1174900531768799,0.1665816754102707,-0.08956065028905869,-0.8004308342933655,-0.29669713973999023,0.5130886435508728
200.0,1.0707454495725115,-0.8513414042741935,1.6768357517778436,0.39548402336432,0.3622140931917459,0.0,-0.0348309651017189,1.112708568572998,0.16523145139217377,-0.1047043427824974,-0.80961674451828,-0.2771867513656616,0.5066805481910706
201.0,1.076851651076293,-0.8561024465515853,1.674930287337407,0.4454458077722272,0.39660587389006496,0.0,-0.0390012226998806,1.1069097518920898,0.16401758790016174,-0.11914762109518051,-0.8185023069381714,-0.2570778727531433,0.4997687041759491
202.0,1.082957852580075,-0.8608634888289771,1.6730248228969706,0.4954075921801344,0.430997654588384,0.0,-0.04315220192074776,1.1001038551330566,0.16301828622817993,-0.13286904990673065,-0.8270666599273682,-0.23640039563179016,0.49236294627189636
203.0,1.0890640540838565,-0.8656245311063688,1.6711193584565343,0.5453693765880399,0.46538943528670185,0.0,-0.04726395383477211,1.0923070907592773,0.16231100261211395,-0.14584879577159882,-0.8352895379066467,-0.21518486738204956,0.48447394371032715
204.0,1.0951702555876381,-0.8703855733837607,1.6692138940160977,0.5953311609959471,0.4997812159850208,0.0,-0.051314905285835266,1.0835421085357666,0.1619717925786972,-0.15806791186332703,-0.8431504964828491,-0.19346262514591217,0.4761132299900055
205.0,1.1012764570914197,-0.8751466156611524,1.6673084295756613,0.6452929454038525,0.5341729966833386,0.0,-0.05528108775615692,1.0738372802734375,0.16207513213157654,-0.16950908303260803,-0.8506301045417786,-0.17126581072807312,0.46729329228401184
206.0,1.1073826585952016,-0.8799076579385442,1.6654029651352247,0.6952547298117597,0.5685647773816578,0.0,-0.05913742631673813,1.063227653503418,0.16269290447235107,-0.18015600740909576,-0.8577088713645935,-0.14862699806690216,0.4580274224281311
207.0,1.1134888600989832,-0.8846687002159359,1.6634975006947883,0.7452165142196652,0.6029565580799756,0.0,-0.06285706907510757,1.0517538785934448,0.163894385099411,-0.18999384343624115,-0.8643683195114136,-0.12557949125766754,0.44832971692085266
208.0,1.1195950616027648,-0.8894297424933277,1.661592036254352,0.7951782986275724,0.6373483387782946,0.0,-0.06641215831041336,1.0394623279571533,0.16574516892433167,-0.1990092545747757,-0.8705897927284241,-0.1021568551659584,0.43821510672569275
209.0,1.1257012631065466,-0.8941907847707196,1.6596865718139153,0.8451400830354796,0.6717401194766137,0.0,-0.06977428495883942,1.0264049768447876,0.16830763220787048,-0.20718999207019806,-0.8763560652732849,-0.07839344441890717,0.4276995360851288
210.0,1.1318074646103282,-0.8989518270481113,1.657781107373479,0.895101867443385,0.7061319001749315,0.0,-0.07291408628225327,1.0126395225524902,0.17163926362991333,-0.21452531218528748,-0.8816495537757874,-0.054323710501194,0.4167993664741516
211.0,1.1416341149517044,-0.9050670058035774,1.6555427732908041,0.9309827687930594,0.7439479244266707,0.0,-0.07719229906797409,1.0008562803268433,0.17345711588859558,-0.21640801429748535,-0.8886480331420898,-0.03593430668115616,0.40271681547164917
212.0,1.1646571628476832,-0.9159852940998293,1.6521237536713607,0.9169189084035947,0.7939097088345761,0.0,-0.08564923703670502,0.9985278844833374,0.16780802607536316,-0.20174770057201385,-0.9025750756263733,-0.03904645889997482,0.3783268630504608
213.0,1.1876802107436628,-0.9269035823960817,1.6487047340519172,0.9028550480141295,0.8438714932424833,0.0,-0.09311902523040771,0.9968277215957642,0.16301533579826355,-0.18728400766849518,-0.9154199361801147,-0.04295377433300018,0.35367488861083984
214.0,1.2107032586396416,-0.9378218706923337,1.645285714432474,0.8887911876246649,0.8938332776503888,0.0,-0.09970200061798096,0.995775043964386,0.15914961695671082,-0.173059344291687,-0.9271803498268127,-0.04764537885785103,0.3288111984729767
215.0,1.2337263065356212,-0.9487401589885861,1.6418666948130305,0.8747273272351997,0.943795062058296,0.0,-0.10550054907798767,0.9953774809837341,0.15627658367156982,-0.1591152548789978,-0.9378570914268494,-0.0531085766851902,0.3037860095500946
216.0,1.2567493544316006,-0.9596584472848385,1.638447675193587,0.8606634668457345,0.9937568464662032,0.0,-0.11061806976795197,0.9956311583518982,0.15445636212825775,-0.14549270272254944,-0.9474527835845947,-0.05932819843292236,0.2786490023136139
217.0,1.2797724023275794,-0.9705767355810905,1.6350286555741436,0.8465996064562699,1.0437186308741087,0.0,-0.11515708267688751,0.9965212345123291,0.1537427306175232,-0.1322319656610489,-0.9559727311134338,-0.06628724187612534,0.25344952940940857
218.0,1.302795450223559,-0.9814950238773429,1.6316096359547,0.8325357460668047,1.0936804152820159,0.0,-0.1192193403840065,0.9980223178863525,0.15418347716331482,-0.11937233805656433,-0.963424801826477,-0.07396635413169861,0.2282363772392273
219.0,1.3258184981195378,-0.9924133121735949,1.6281906163352569,0.8184718856773401,1.1436421996899213,0.0,-0.1229042187333107,1.0000989437103271,0.15581947565078735,-0.10695202648639679,-0.969818651676178,-0.08234438300132751,0.20305760204792023
220.0,1.3488415460155174,-1.0033316004698472,1.6247715967158134,0.8044080252878749,1.1936039840978285,0.0,-0.12630745768547058,1.0027050971984863,0.15868540108203888,-0.09500832110643387,-0.9751665592193604,-0.09139807522296906,0.17796042561531067
221.0,1.3718645939114962,-1.0142498887660993,1.62135257709637,0.7903441648984102,1.243565768505734,0.0,-0.12952111661434174,1.0057870149612427,0.16280850768089294,-0.08357720077037811,-0.979482889175415,-0.10110219568014145,0.15299130976200104
222.0,1.3948876418074756,-1.0251681770623515,1.6179335574769265,0.776280304508945,1.2935275529136412,0.0,-0.1326323002576828,1.0092817544937134,0.16820856928825378,-0.07269329577684402,-0.9827842712402344,-0.11142974346876144,0.1281956434249878
223.0,1.4179106897034544,-1.0360864653586037,1.6145145378574832,0.7622164441194803,1.3434893373215466,0.0,-0.13572216033935547,1.0131186246871948,0.17489849030971527,-0.062390025705099106,-0.9850892424583435,-0.12235168367624283,0.10361772030591965
224.0,1.440933737599434,-1.0470047536548561,1.6110955182380398,0.7481525837300151,1.3934511217294538,0.0,-0.13886567950248718,1.0172209739685059,0.18288379907608032,-0.052699100226163864,-0.9864185452461243,-0.13383767008781433,0.07930044829845428
225.0,1.4639567854954136,-1.0579230419511083,1.6076764986185963,0.73408872334055,1.443412906137361,0.0,-0.14213113486766815,1.0215054750442505,0.19216275215148926,-0.04365071281790733,-0.9867949485778809,-0.14585541188716888,0.05528567358851433
226.0,1.4869798333913922,-1.0688413302473605,1.6042574789991528,0.7200248629510854,1.4933746905452665,0.0,-0.1455790251493454,1.0258848667144775,0.20272573828697205,-0.03527352958917618,-0.9862427711486816,-0.15837101638317108,0.03161368519067764
227.0,1.5100028812873718,-1.0797596185436127,1.6008384593797094,0.7059610025616202,1.5433364749531737,0.0,-0.14926251769065857,1.0302671194076538,0.21455615758895874,-0.027594299986958504,-0.9847885966300964,-0.1713491976261139,0.00832336489111185
228.0,1.5102930204089309,-1.0992687006428417,1.6417356163099317,0.6798818045740449,1.549964980877574,0.0,-0.14825206995010376,1.009284496307373,0.20876461267471313,-0.02798290364444256,-0.9844119548797607,-0.17356528341770172,0.005010243505239487
229.0,1.5163873777114316,-1.1198750277100045,1.691697400717839,0.650386544973035,1.5521539268375553,0.0,-0.15502825379371643,0.9812039136886597,0.19849616289138794,-0.02517206408083439,-0.9844859838485718,-0.17359061539173126,0.004459623247385025
230.0,1.5099857930598952,-1.117827023891542,1.6860000880218386,0.6541758043382829,1.5499033752552112,0.0,-0.14943622052669525,0.9851822257041931,0.19998252391815186,-0.028128761798143387,-0.9844075441360474,-0.17356683313846588,0.005013920832425356
231.0,1.5012149747296128,-1.0972126650294867,1.6360383036139314,0.6837032886733132,1.5469416377189307,0.0,-0.1400558054447174,1.0135228633880615,0.2102605700492859,-0.03219001740217209,-0.984282910823822,-0.1735464185476303,0.005713567137718201
232.0,1.4952503753969766,-1.0894644205072526,1.6170303609819623,0.6950854266257779,1.544986554632219,0.0,-0.13400667905807495,1.0244135856628418,0.21427693963050842,-0.034956805408000946,-0.9841874837875366,-0.1735367327928543,0.006160437595099211
233.0,1.4892791773927552,-1.1107539229615775,1.6669921453898695,0.666563284070008,1.5429499042322656,0.0,-0.13089023530483246,0.9981486797332764,0.20472216606140137,-0.037719838321208954,-0.9840855002403259,-0.17351894080638885,0.0066476245410740376
234.0,1.4745048104396046,-1.1038155061308923,1.649265590771071,0.6777739033054111,1.5379145059374948,0.0,-0.11718381941318512,1.0093857049942017,0.2088094800710678,-0.0445563942193985,-0.9837996959686279,-0.17346832156181335,0.007853095419704914
235.0,1.4557310979725322,-1.1097438117821201,1.6620163634088474,0.6715886596340443,1.5315254296330303,0.0,-0.1015339195728302,1.0042808055877686,0.20695021748542786,-0.0532437302172184,-0.9833677411079407,-0.17339211702346802,0.0093848817050457
236.0,1.4396173676028103,-1.1074904244116948,1.6557522312878596,0.6762367977321249,1.5260512552720296,0.0,-0.0870557352900505,1.009008526802063,0.20867030322551727,-0.06070040166378021,-0.9829357266426086,-0.17331582307815552,0.010699612088501453
237.0,1.4226254889891348,-1.1077452263653755,1.6556048883174945,0.6774010191812371,1.5202898299032654,0.0,-0.07216817140579224,1.0102771520614624,0.20913225412368774,-0.0685635507106781,-0.9824185371398926,-0.1732245683670044,0.01208615954965353
238.0,1.4047906355447362,-1.1099551745348568,1.660276798171184,0.6758381499664194,1.5142565866488427,0.0,-0.0569523386657238,1.0087717771530151,0.20858536660671234,-0.07681705057621002,-0.9818075895309448,-0.17311692237854004,0.0135413883253932
239.0,1.3899999817768325,-1.1048060330501346,1.6478568386716983,0.6839321036112932,1.5092652924231642,0.0,-0.04278918355703354,1.0160900354385376,0.21125037968158722,-0.08366192132234573,-0.9812480807304382,-0.17301814258098602,0.014748246408998966
240.0,1.3807464054708207,-1.1199389446566217,1.6978186230796055,0.6496491415836969,1.5061458910573762,0.0,-0.03937841206789017,0.9916864633560181,0.19560948014259338,-0.08794405311346054,-0.9808731079101562,-0.17295444011688232,0.015504424460232258
241.0,1.3714364027523236,-1.1290489529597811,1.7477804074875127,0.6093516861812999,1.5030069786099542,0.0,-0.036110781133174896,0.9686200618743896,0.17448972165584564,-0.09225130826234818,-0.9804749488830566,-0.1728982925415039,0.01626666449010372
242.0,1.3860710938168257,-1.1348962796955666,1.7789059953981632,0.5832675463762799,1.507952444115732,0.0,-0.05116363242268562,0.9528360366821289,0.16162902116775513,-0.08548260480165482,-0.9810967445373535,-0.17295868694782257,0.015066486783325672
243.0,1.436032878224733,-1.1345070780592938,1.7799752151797703,0.5792483500509007,1.5248430799108519,0.0,-0.09208060801029205,0.949062168598175,0.16025522351264954,-0.0623609721660614,-0.982837438583374,-0.17326539754867554,0.010990341193974018
244.0,1.475310542595594,-1.1322024472099743,1.7788279553263064,0.5696981889107882,1.5377185604264796,0.0,-0.1238391324877739,0.949092447757721,0.15841737389564514,-0.0440581850707531,-0.9832177758216858,-0.17686180770397186,0.007847323082387447
245.0,1.4753126720370309,-1.138684531936288,1.8028428533847118,0.5197364045028809,1.5354945338833148,0.0,-0.12463000416755676,0.9499083757400513,0.15041601657867432,-0.04343689605593681,-0.9802376627922058,-0.1928240954875946,0.008127720095217228
246.0,1.475314801478468,-1.1451666166626013,1.8268577514431164,0.4697746200949755,1.53327050734015,0.0,-0.12543927133083344,0.9505325555801392,0.14296215772628784,-0.04276879504323006,-0.9770005345344543,-0.20873451232910156,0.008399165235459805
247.0,1.475316930919905,-1.151648701388915,1.8508726495015217,0.4198128356870683,1.531046480796985,0.0,-0.12626780569553375,0.9509527087211609,0.1360582560300827,-0.042054250836372375,-0.9735072255134583,-0.22458887100219727,0.008660887368023396
248.0,1.4753190603613422,-1.1581307861152288,1.8748875475599271,0.36985105127916107,1.5288224542538202,0.0,-0.1271170824766159,0.9511572122573853,0.12970620393753052,-0.04129345715045929,-0.9697585105895996,-0.24038267135620117,0.008912403136491776
249.0,1.4753211898027794,-1.1646128708415422,1.8989024456183317,0.31988926687125563,1.5265984277106555,0.0,-0.12798795104026794,0.9511349201202393,0.12390797585248947,-0.04048682004213333,-0.9657555222511292,-0.2561119496822357,0.00915293674916029
250.0,1.4753233192442163,-1.1710949555678558,1.922917343676737,0.2699274824633484,1.5243744011674907,0.0,-0.12888160347938538,0.950874388217926,0.11866433918476105,-0.03963467851281166,-0.9614992141723633,-0.2717723250389099,0.009381980635225773
251.0,1.4753254486856535,-1.1775770402941692,1.9469322417351416,0.21996569805544297,1.522150374624326,0.0,-0.1297990381717682,0.9503639936447144,0.11397591978311539,-0.03873744234442711,-0.9569909572601318,-0.28735968470573425,0.009598802775144577
252.0,1.4753275781270907,-1.184059125020483,1.970947139793547,0.17000391364753575,1.519926348081161,0.0,-0.1307414174079895,0.9495924711227417,0.10984287410974503,-0.03779548034071922,-0.9522317051887512,-0.3028697371482849,0.009802899323403835
253.0,1.4753297075685277,-1.1905412097467964,1.9949620378519517,0.12004212923963031,1.5177023215379961,0.0,-0.13170969486236572,0.9485489130020142,0.1062646433711052,-0.03680926188826561,-0.947222888469696,-0.3182983696460724,0.009993542917072773
254.0,1.4753318370099648,-1.19702329447311,2.018976935910357,0.0700803448317231,1.5154782949948313,0.0,-0.13270488381385803,0.9472227096557617,0.10324037075042725,-0.035779230296611786,-0.9419658184051514,-0.33364152908325195,0.010170224122703075
255.0,1.475333966451402,-1.2035053791994237,2.0429918339687614,0.020118560423817655,1.5132542684516666,0.0,-0.13372814655303955,0.9456028342247009,0.10076834261417389,-0.034705791622400284,-0.9364619255065918,-0.3488950729370117,0.01033227238804102
256.0,1.475336095892839,-1.2099874639257373,2.067006732027167,-0.029843223984089562,1.5110302419085018,0.0,-0.13478045165538788,0.9436789751052856,0.0988469049334526,-0.0335894376039505,-0.9307125806808472,-0.3640548586845398,0.010479195043444633
257.0,1.4753382253342762,-1.216469548652051,2.091021630085572,-0.07980500839199678,1.5088062153653368,0.0,-0.13586269319057465,0.9414406418800354,0.0974733829498291,-0.032430730760097504,-0.9247194528579712,-0.37911689281463623,0.010610292665660381
258.0,1.4753403547757133,-1.2229516333783643,2.115036528143977,-0.12976679279990222,1.506582188822172,0.0,-0.13697591423988342,0.9388778209686279,0.09664486348628998,-0.03123013861477375,-0.9184839725494385,-0.39407703280448914,0.01072510052472353
259.0,1.4753424842171503,-1.2294337181046782,2.139051426202382,-0.17972857720780944,1.5043581622790072,0.0,-0.13812097907066345,0.9359805583953857,0.0963580533862114,-0.029988255351781845,-0.9120079278945923,-0.4089313745498657,0.010822943411767483
260.0,1.4753446136585875,-1.2359158028309916,2.163066324260787,-0.22969036161571488,1.5021341357358424,0.0,-0.13929885625839233,0.9327393770217896,0.09660866111516953,-0.02870561182498932,-0.9052932262420654,-0.42367586493492126,0.010903383605182171
261.0,1.4753467431000244,-1.2423978875573052,2.187081222319192,-0.2796521460236221,1.4999101091926774,0.0,-0.14051026105880737,0.9291448593139648,0.09739267826080322,-0.02738286927342415,-0.8983412384986877,-0.43830662965774536,0.010965715162456036
262.0,1.4753488725414616,-1.2488799722836186,2.2110961203775967,-0.32961393043152754,1.4976860826495129,0.0,-0.14175637066364288,0.9251883625984192,0.09870539605617523,-0.026020489633083344,-0.8911541700363159,-0.45281982421875,0.011009562760591507
263.0,1.4753510019828988,-1.2553620570099324,2.235111018436002,-0.37957571483943475,1.4954620561063479,0.0,-0.143037810921669,0.9208604097366333,0.10054090619087219,-0.02461920864880085,-0.883733868598938,-0.46721136569976807,0.011034268885850906
264.0,1.4753531314243358,-1.2618441417362458,2.2591259164944066,-0.4295374992473402,1.493238029563183,0.0,-0.14435549080371857,0.9161527156829834,0.1028939038515091,-0.023179607465863228,-0.8760823607444763,-0.4814774990081787,0.011039412580430508
265.0,1.475355260865773,-1.2683262264625594,2.2831408145528123,-0.4794992836552474,1.4910140030200183,0.0,-0.1457100510597229,0.9110568761825562,0.1057581976056099,-0.021702399477362633,-0.8682014346122742,-0.4956144094467163,0.01102436799556017
266.0,1.4753573903072101,-1.274808311188873,2.3071557126112174,-0.5294610680631546,1.4887899764768533,0.0,-0.14710234105587006,0.9055659174919128,0.1091269925236702,-0.020188231021165848,-0.8600934147834778,-0.50961834192276,0.010988675989210606
267.0,1.475359519748647,-1.2812903959151867,2.3311706106696217,-0.5794228524710601,1.4865659499336885,0.0,-0.1485331505537033,0.899671196937561,0.11299318820238113,-0.018637780100107193,-0.8517605662345886,-0.5234854221343994,0.01093192957341671
268.0,1.4753616491900843,-1.2877724806415003,2.3551855087280273,-0.6293846368789673,1.4843419233905237,0.0,-0.15000300109386444,0.8933659791946411,0.11734943091869354,-0.0170518197119236,-0.843204915523529,-0.537212073802948,0.010853512212634087
