Sungjin-Park-dev/lg_sgu_vision_v2/data/sample/trajectory/124/prev/trajectory_dp_ee_s0020_eev80mms_av30dps_jv0p50_scanw20p0mm_v0p10.csv
time,ur20-shoulder_pan_joint,ur20-shoulder_lift_joint,ur20-elbow_joint,ur20-wrist_1_joint,ur20-wrist_2_joint,ur20-wrist_3_joint,target-POS_X,target-POS_Y,target-POS_Z,target-ROT_X,target-ROT_Y,target-ROT_Z,target-ROT_W,speed_scale
0.0,1.9927528540240687,-0.6606019178973597,1.445325255393982,-0.784722626209259,-2.7196171283721924,0.0,-0.2849985361099243,1.0089396238327026,0.09099575132131577,0.5000044107437134,0.49999532103538513,0.4999951422214508,0.5000049471855164,0.1
2.496300032362342,1.9861957032643216,-0.650587436846072,1.4133628256883968,-0.7627743270551348,-2.726174045465388,0.0,-0.28500160574913025,1.0283737182617188,0.09559280425310135,0.5000044107437134,0.49999532103538513,0.49999508261680603,0.5000050663948059,0.10108750812267094
4.965777129823055,1.9798206685578554,-0.6400647110284536,1.3805916991129508,-0.7405271782192963,-2.7325490754198265,0.0,-0.28500425815582275,1.047808051109314,0.10018998384475708,0.500004768371582,0.4999952018260956,0.4999952018260956,0.500004768371582,0.10428193904347892
7.35958418516052,1.973622171275921,-0.6290131983052647,1.346960019010408,-0.7179470668232157,-2.738747796866148,0.0,-0.2850077152252197,1.06724214553833,0.10478732734918594,0.5000047087669373,0.49999526143074036,0.49999526143074036,0.5000046491622925,0.10950147057620625
8.951078164635284,1.9778488384077058,-0.6356943329056935,1.3700370134977806,-0.7343426735857438,-2.7345209822455674,0.0,-0.28502464294433594,1.05397629737854,0.10049928724765778,0.5000047087669373,0.4999951720237732,0.4999951124191284,0.5000048279762268,0.17756281569588672
10.104570217772796,1.9740331651801317,-0.6288721313113173,1.3484717916719378,-0.719599651943703,-2.738336634433821,0.0,-0.2851630449295044,1.0663018226623535,0.10378260910511017,0.500004768371582,0.4999951422214508,0.4999951422214508,0.5000048279762268,0.13823343397219773
11.91028406857109,1.967954195498509,-0.6179881730063751,1.3143719447122904,-0.6963838264357457,-2.744415604115444,0.0,-0.28504204750061035,1.0855720043182373,0.10901696979999542,0.500004768371582,0.4999952018260956,0.4999952018260956,0.500004768371582,0.1472256314139553
13.605772238072188,1.9620687564824693,-0.605946413994279,1.2789653723399463,-0.6730188745308195,-2.7503011972097138,0.0,-0.28502142429351807,1.1049824953079224,0.11370900273323059,0.5000047087669373,0.4999952018260956,0.4999952018260956,0.5000047087669373,0.16099164898888135
15.156372286243506,1.9563505651260775,-0.593195107134546,1.242442408135832,-0.649247235513912,-2.7560193649535694,0.0,-0.28502392768859863,1.124416708946228,0.11830681562423706,0.5000047087669373,0.4999952018260956,0.4999952018260956,0.5000047087669373,0.17629865159269598
16.572356344322234,1.950784190981873,-0.579799890533864,1.2047788373722252,-0.6249789837277153,-2.7615855874598507,0.0,-0.2850261926651001,1.1438511610031128,0.1229044646024704,0.5000048279762268,0.4999951124191284,0.4999951720237732,0.500004768371582,0.19301297253072341
17.86573652601335,1.9453643952419573,-0.5657171184881652,1.165872273197413,-0.6001553542925888,-2.767005348735725,0.0,-0.28502869606018066,1.1632858514785767,0.1275021731853485,0.5000048279762268,0.4999951422214508,0.4999952018260956,0.5000046491622925,0.2110256685566499
19.16636198616418,1.9400012053616817,-0.5493660329962112,1.1251480879805404,-0.5757820594482482,-2.772368589195693,0.0,-0.285025954246521,1.183022379875183,0.1303199678659439,0.500004768371582,0.49999523162841797,0.49999523162841797,0.500004768371582,0.19160648836021105
22.094666537446248,1.9213515338384712,-0.47168387423482383,0.9706323269557228,-0.45357526048527874,-2.6734579296198016,0.0,-0.284189909696579,1.2008455991744995,0.1281111091375351,0.5134585499763489,0.47552821040153503,0.46374645829200745,0.5432977080345154,0.1055325758088705
24.45955612690672,1.936257996897214,-0.5309317105808622,1.092796765800703,-0.5468086695898096,-2.737101306132255,0.0,-0.28491276502609253,1.1809005737304688,0.12755624949932098,0.5047449469566345,0.4922090768814087,0.48805904388427734,0.5145493149757385,0.3448652918107914
25.17748669764303,1.9459589440990175,-0.5664593164239966,1.1702575873381675,-0.6037983361305991,-2.7664108997355226,0.0,-0.28504371643066406,1.1611671447753906,0.1258539855480194,0.500004768371582,0.4999951720237732,0.49999523162841797,0.500004768371582,0.3489877996054125
25.94601984101494,1.9513940523062419,-0.5804441079038279,1.2090019783252324,-0.6285579425643828,-2.760975930090019,0.0,-0.28504252433776855,1.1417375802993774,0.12125658988952637,0.5000047087669373,0.4999952018260956,0.4999952018260956,0.5000047087669373,0.32474317542070363
26.7740213836582,1.9569769257017329,-0.5937487469985983,1.2465222630054924,-0.6527734274082027,-2.755392900319447,0.0,-0.2850409746170044,1.1223050355911255,0.11665834486484528,0.500004768371582,0.4999951720237732,0.4999951124191284,0.5000048279762268,0.30146633429059866
27.66846717570471,1.962712492150824,-0.6064142570628103,1.2829132006809008,-0.6764990672905,-2.7496571624049837,0.0,-0.28503990173339844,1.102872371673584,0.11206024885177612,0.5000048279762268,0.4999952018260956,0.4999951422214508,0.500004768371582,0.27907293714393966
28.43049240216623,1.957806214252396,-0.6282483105511858,1.3177211174196686,-0.7402277253906494,-2.7286366714727097,0.0,-0.2765153646469116,1.088152527809143,0.11236928403377533,0.5229074954986572,0.48656728863716125,0.500058114528656,0.4896547496318817,0.47421219689574456
29.097690584651414,1.9324235179816147,-0.6683798634959716,1.3509632736260622,-0.8809307868194676,-2.678624978159344,0.0,-0.25340768694877625,1.0836914777755737,0.12046835571527481,0.5872992277145386,0.4461852014064789,0.49722421169281006,0.4569095969200134,1.0
29.4136600445424,1.9070408217108334,-0.7085114164407572,1.3842054298324558,-1.0216338482482854,-2.628613284845978,0.0,-0.23261934518814087,1.0816195011138916,0.12694545090198517,0.6479491591453552,0.4041883051395416,0.4901103973388672,0.4202207624912262,1.0
29.72889570355798,1.881658125440052,-0.7486429693855429,1.4174475860388493,-1.1623369096771032,-2.578601591532612,0.0,-0.21405482292175293,1.0825303792953491,0.1326858401298523,0.7043101787567139,0.3610661029815674,0.4790237545967102,0.3796241879463196,1.0
30.043099506309876,1.8562754291692707,-0.7887745223303286,1.450689742245243,-1.3030399711059213,-2.528589898219246,0.0,-0.19750922918319702,1.0868279933929443,0.13868044316768646,0.7558819651603699,0.31732115149497986,0.46431392431259155,0.335204541683197,1.0
30.35600106306291,1.8308927328984894,-0.8289060752751143,1.4839318984516363,-1.443743032534739,-2.47857820490588,0.0,-0.18268555402755737,1.0946954488754272,0.14598233997821808,0.8022152781486511,0.2734631597995758,0.4463678300380707,0.2870960235595703,1.0
30.66734617319655,1.805510036627708,-0.8690376282198999,1.51717405465803,-1.5844460939635567,-2.428566511592514,0.0,-0.16922108829021454,1.1060744524002075,0.15565983951091766,0.8429157733917236,0.23000311851501465,0.4256048798561096,0.23548205196857452,1.0
30.97691899655587,1.7801273403569267,-0.9091691811646856,1.5504162108644235,-1.7251491553923746,-2.3785548182791483,0.0,-0.15671440958976746,1.1206544637680054,0.16874724626541138,0.8776479959487915,0.18744726479053497,0.4024704694747925,0.18059585988521576,1.0
33.49768830950101,1.7533938177997943,-0.9495376699650121,1.5825086784211502,-1.856204994837884,-2.322030351900566,0.0,-0.14452627301216125,1.1349878311157227,0.1850462555885315,0.9066703915596008,0.1467045247554779,0.37448158860206604,0.1272406280040741,0.12343873552088612
36.09917554292159,1.7087376534203134,-0.9977087169334615,1.6065087313036959,-1.9013054682427888,-2.1885444121768596,0.0,-0.13195733726024628,1.1239123344421387,0.19568350911140442,0.9383199214935303,0.10708175599575043,0.30943846702575684,0.11107204109430313,0.4412743199729362
37.35663133301981,1.6314880459517103,-1.0712570611587036,1.674090998272669,-2.0066756665010588,-1.9478635673528535,0.0,-0.12533880770206451,1.104686975479126,0.19730597734451294,0.977934718132019,0.045319635421037674,0.18916510045528412,0.07619842141866684,0.9297046398844899
38.62970298345674,1.5343531550762426,-1.1591616495299577,1.771264516558367,-2.1519663721544053,-1.6406582728840189,0.0,-0.1341976821422577,1.0941510200500488,0.21549206972122192,0.9991143345832825,-0.01766725443303585,0.03463226184248924,0.016090087592601776,0.5366804604257805
39.68072349124949,1.5146567173041519,-1.1639073922103014,1.7695279906825963,-2.1764169689785815,-1.5707963705062866,0.0,-0.13906745612621307,1.1090904474258423,0.22479456663131714,0.9996060132980347,-0.02806614339351654,2.118346031920737e-08,3.322363895108538e-08,0.21717314204423466
40.833915068412885,1.5176713936182642,-1.144143941210041,1.7382996742241883,-2.164951968312716,-1.5707963705062866,0.0,-0.14133277535438538,1.1289315223693848,0.2247939109802246,0.9996472597122192,-0.026559367775917053,2.085128869566688e-08,3.690468375339151e-08,0.21646420216802337
41.990886197174305,1.5205803111144067,-1.1243407645460877,1.7065915776903118,-2.153047051866931,-1.570796327444306,0.0,-0.1435980647802353,1.1487725973129272,0.22479355335235596,0.999684751033783,-0.02510537952184677,2.0718116999773883e-08,3.6593412744423404e-08,0.21575702446323147
43.13831282134319,1.5204328920846926,-1.0916213317140628,1.6465738069130293,-2.0840827434349114,-1.5729908264925248,0.0,-0.14158937335014343,1.1683604717254639,0.22266578674316406,0.9994659423828125,-0.02515069767832756,0.0005721223424188793,0.020852485671639442,0.806585042087706
43.752115454010315,1.5193198323079227,-1.0522778045439876,1.572981501863511,-1.991794945456656,-1.5760476919450748,0.0,-0.13810332119464874,1.1878641843795776,0.22024907171726227,0.9984267354011536,-0.025572573766112328,0.0013390911044552922,0.04988270252943039,0.4064754584659461
45.37636941947927,1.518085689974234,-1.0086543501252907,1.4913835670617654,-1.8894677562571975,-1.5794370939719178,0.0,-0.1342989206314087,1.2073756456375122,0.21830037236213684,0.9962913990020752,-0.02590952254831791,0.002145165577530861,0.08202118426561356,0.1537181354935919
46.83455444332601,1.5155563962766956,-1.0207715936673964,1.5064068996948163,-1.8821563050906671,-1.5803807724595467,0.0,-0.13165409862995148,1.193671464920044,0.2210063934326172,0.9958259463310242,-0.027094431221485138,0.002368854358792305,0.08712509274482727,0.121872126626563
49.16072126887296,1.5154656939709796,-1.0735289098053116,1.608873827971573,-2.023903754049451,-1.575339911104668,0.0,-0.13459356129169464,1.1740506887435913,0.22209548950195312,0.998772382736206,-0.027544962242245674,0.001131908968091011,0.041154105216264725,0.9770628158582416
51.56426258440358,1.5154181038467547,-1.1179431813247924,1.6958298245118173,-2.144809108618164,-1.5710428417015885,0.0,-0.13728231191635132,1.1546894311904907,0.2244422435760498,0.9996147155761719,-0.02768530696630478,6.960981409065425e-05,0.0019396852003410459,0.10238762490739423
54.77344136791637,1.5089054042944114,-1.0885464557134468,1.6325746309170432,-1.9805190118446265,-1.5793416069318493,0.0,-0.12754376232624054,1.1392139196395874,0.21670615673065186,0.9972681999206543,-0.030583936721086502,0.002184817800298333,0.06720142066478729,0.3044987232945171
55.76992242046468,1.5047685346059894,-1.0947335156011788,1.634281158848359,-1.9361828638135021,-1.5822505033402903,0.0,-0.1229771077632904,1.1203862428665161,0.218077152967453,0.9956680536270142,-0.032384492456912994,0.002831563353538513,0.08711007982492447,0.24363275337758059
57.07791535099834,1.501589835358896,-1.1166776560212,1.6643250358906032,-1.9443193131866279,-1.582801222206074,0.0,-0.12058104574680328,1.1008609533309937,0.22151526808738708,0.9956161975860596,-0.03394303843379021,0.0029679257422685623,0.08710548281669617,0.19084529668185513
58.85605735835642,1.4884126758175136,-1.1191398211947041,1.6680978329598224,-1.9458004208617754,-1.5850831092352227,0.0,-0.10537376254796982,1.0999548435211182,0.22165529429912567,0.9953749179840088,-0.040403496474027634,0.0035331749822944403,0.08708451688289642,0.10709843323431306
61.186984466383734,1.4918132928435166,-1.0972065004840523,1.6381245034532737,-1.9377136243522466,-1.584494504910683,0.0,-0.10776860266923904,1.1194820404052734,0.21822050213813782,0.995441198348999,-0.038736339658498764,0.0033873235806822777,0.08709026873111725,0.12944852017186015
63.11540073215142,1.4951025896884969,-1.0752560630913355,1.607576442330805,-1.9290723943520547,-1.5839249631424297,0.0,-0.11016392707824707,1.1390082836151123,0.21478435397148132,0.9955026507377625,-0.037123702466487885,0.0032462691888213158,0.08709569275379181,0.16512192996579625
64.60443315292686,1.4980522954024231,-1.0543706703684306,1.5754344292301015,-1.917778154195936,-1.583413955042993,0.0,-0.11227792501449585,1.1584951877593994,0.21314401924610138,0.9955555200576782,-0.03567756712436676,0.003119631903246045,0.08710043132305145,0.21249046223338658
65.77919043547467,1.5001137655889185,-1.037240544416857,1.539082715483178,-1.898530443053062,-1.5830570466029417,0.0,-0.11341836303472519,1.1778438091278076,0.2179534137248993,0.9955911636352539,-0.03466681391000748,0.0030312719754874706,0.0871039628982544,0.8146106280220253
67.4506979399135,1.50392103532838,-1.0192630695528446,1.504593270350842,-1.8819726248428073,-1.5823976071513786,0.0,-0.11689091473817825,1.1963306665420532,0.22054129838943481,0.9956544637680054,-0.032800011336803436,0.002868008567020297,0.08711005002260208,0.14199274983328614
68.80839224977733,1.5025491448854327,-1.0025509625045468,1.4801434449231978,-1.8742531984802915,-1.5826350887028688,0.0,-0.1141466572880745,1.2112739086151123,0.2178906798362732,0.9956320524215698,-0.033472687005996704,0.002926783636212349,0.08710689842700958,0.22505854430752625
69.64760090032199,1.4928468770298693,-1.0144340442973663,1.4978615349017055,-1.8802069743908796,-1.5843156950465593,0.0,-0.10256272554397583,1.2017244100570679,0.2196001261472702,0.9954606890678406,-0.038229625672101974,0.0033430124167352915,0.0870930477976799,0.30415934697053243
70.4377700627354,1.4886625081075449,-1.0339158170339455,1.5318800588797892,-1.8948016728147326,-1.5850401618490966,0.0,-0.09883750230073929,1.1828714609146118,0.2189950793981552,0.9953798651695251,-0.040280986577272415,0.003522593295201659,0.08708568662405014,0.4843792960574065
71.05683635014219,1.486367378858978,-1.0507620997797245,1.5684371589857635,-1.9145463416797817,-1.5854371884084697,0.0,-0.09761412441730499,1.1636412143707275,0.21377143263816833,0.9953337907791138,-0.04140612855553627,0.0036209356039762497,0.08708100020885468,0.4031193395321624
71.78855518228141,1.4834064851492108,-1.0706748949099139,1.601478067444517,-1.9277182495827294,-1.5859494695959038,0.0,-0.09569399058818817,1.1442334651947021,0.21387702226638794,0.9952722787857056,-0.04285751283168793,0.0037478930316865444,0.08707547932863235,0.33316739855359323
72.71661179892989,1.4799364073482604,-1.092619464226402,1.632128201210394,-1.9364766281030257,-1.5865496382937085,0.0,-0.09329721331596375,1.124709129333496,0.21731653809547424,0.9951976537704468,-0.044558510184288025,0.0038966811262071133,0.08706903457641602,0.26896713779272907
73.89210405230577,1.4763494005188156,-1.1145421253304724,1.6621987489429948,-1.9446814423703718,-1.587169955083916,0.0,-0.0909009575843811,1.1051843166351318,0.22075507044792175,0.9951173663139343,-0.046316660940647125,0.004050543066114187,0.08706188201904297,0.21235330546737113
75.78182753287778,1.4630191109738788,-1.117667997699871,1.666802361053129,-1.9463890415436618,-1.5894732420552278,0.0,-0.07558229565620422,1.1033331155776978,0.2210555076599121,0.9947918057441711,-0.05284943804144859,0.004622057545930147,0.08703350275754929,0.10208528444047302
78.22719979061804,1.466831194420653,-1.0957629724582483,1.636828136174292,-1.938251107374952,-1.5888149071523652,0.0,-0.077976293861866,1.122860312461853,0.2176211178302765,0.9948891997337341,-0.05098140612244606,0.004458616487681866,0.0870419591665268,0.11809794762780927
80.34102609442142,1.4705189935678316,-1.0738386095238739,1.6062779998584547,-1.9295610300509076,-1.5881777893609919,0.0,-0.08037077635526657,1.1423873901367188,0.2141854465007782,0.9949802756309509,-0.04917418211698532,0.004300545435398817,0.08704990893602371,0.14830090686874492
81.99607133060692,1.4738953257808782,-1.0529921935820494,1.574210638363572,-1.918283187452524,-1.5875942623225132,0.0,-0.08253797888755798,1.161831259727478,0.21251359581947327,0.9950606822967529,-0.04751944541931152,0.0041557797230780125,0.08705692738294601,0.1909113454453205
83.30349490529066,1.4764094963741492,-1.0365804137442778,1.537687765263883,-1.8981298932993573,-1.5871597218452034,0.0,-0.08379975706338882,1.180935263633728,0.2181856632232666,0.9951186180114746,-0.046287138015031815,0.004048013594001532,0.08706255257129669,0.6250489822102872
85.12317860791731,1.4805277904896135,-1.0177355808959119,1.5030429324564756,-1.8822638645253482,-1.5864476217080612,0.0,-0.08719563484191895,1.199851632118225,0.2199142426252365,0.9952105283737183,-0.04426860809326172,0.003871393855661154,0.08707118034362793,0.132552886831661
86.3695410619871,1.4763604059892979,-1.0051834567942264,1.484750103728513,-1.8766084034996169,-1.5871662378366056,0.0,-0.08086581528186798,1.2112761735916138,0.2178906798362732,0.9951183795928955,-0.04631141945719719,0.0040495325811207294,0.0870533436536789,0.33149098220919465
88.1956847434072,1.4677887406025025,-1.022473792801113,1.5117400386518918,-1.8920970080814041,-1.5879810062301005,0.0,-0.07156097143888474,1.19839346408844,0.22004613280296326,0.9951544404029846,-0.05057791247963905,0.00423230417072773,0.08421055227518082,0.10977472120125438
90.56233017106184,1.458465371100581,-1.0734836865344277,1.608174134725993,-2.02199592908291,-1.5796305023486792,0.0,-0.0658593475818634,1.179403305053711,0.22233937680721283,0.9975539445877075,-0.05590246990323067,0.0020635491237044334,0.04191475361585617,0.6584298899968816
91.50351255805404,1.4516345828921975,-1.1124874081146283,1.680510706076746,-2.1117504712724315,-1.5740135416231225,0.0,-0.0623696967959404,1.1600184440612793,0.224859356880188,0.9981340765953064,-0.05951838195323944,0.0007997246575541794,0.013605981133878231,0.2637242298170195
92.45004125899605,1.448649069587025,-1.1347470463635254,1.7175074471360603,-2.133672172208253,-1.5731596364023608,0.0,-0.06171217933297157,1.1400628089904785,0.22522461414337158,0.9980862736701965,-0.06102089211344719,0.0005726004601456225,0.009995684958994389,0.5591466168701315
92.89647205797432,1.4457079204018075,-1.1566759109194322,1.7539544241546494,-2.155268121130762,-1.5723184200393503,0.0,-0.06122060865163803,1.120099425315857,0.22531118988990784,0.9980242848396301,-0.062497273087501526,0.0003593238943722099,0.006438313517719507,0.6703994958290784
93.26882594607214,1.4428084260083167,-1.178294202216943,1.7898852113640265,-2.1765582117992825,-1.5714891176222812,0.0,-0.06088901311159134,1.100132942199707,0.22512897849082947,0.9979487657546997,-0.06394901126623154,0.00015929050277918577,0.002930708695203066,0.7848751640359388
94.60218757378291,1.4375939110412452,-1.1961241548521018,1.8195491088817595,-2.1942212803495145,-1.570796326319857,0.0,-0.05767323821783066,1.0836423635482788,0.22477203607559204,-0.9977828860282898,0.06655195355415344,-2.435788815091655e-08,2.97305060570352e-08,0.1575434676100465
95.75011196657906,1.4287057956588483,-1.1872942961075341,1.8059136047955016,-2.1894155605249894,-1.5707963223979873,0.0,-0.04674964398145676,1.0931288003921509,0.2248031497001648,0.9974773526191711,-0.07098551094532013,1.538324845284933e-08,1.2102570678962365e-07,0.4215209974638352
96.34230899941994,1.4333186639172553,-1.1675984735812994,1.7752999449742666,-2.1784976217274465,-1.570796299482979,0.0,-0.049015145748853683,1.1129697561264038,0.22480261325836182,0.9976384043693542,-0.06868472695350647,-4.156621713491404e-08,6.700415156046802e-08,0.42249151078638525
96.93314590557658,1.437767838213093,-1.1478860782845033,1.7442316819688883,-2.167141885443893,-1.5707963705062866,0.0,-0.05128071457147598,1.1328107118606567,0.22480201721191406,0.997788667678833,-0.06646519154310226,1.8751228125779562e-08,4.03114164271301e-08,0.4234707199934624
97.52119202342058,1.4427378687291676,-1.1181808960397046,1.690271052375267,-2.1109447204035288,-1.5745478499783288,0.0,-0.052852775901556015,1.1526451110839844,0.22380384802818298,0.9978236556053162,-0.06394733488559723,0.0008498392999172211,0.016057433560490608,0.4247136348941579
98.15975318722329,1.4492859026501625,-1.0687380540225502,1.5931035475193263,-1.9753419039130824,-1.5848689213406415,0.0,-0.05388735234737396,1.1725389957427979,0.22256982326507568,0.9963650703430176,-0.06018691882491112,0.003375313011929393,0.06018858775496483,0.5870406699686507
98.64629756320856,1.455019796576594,-1.028207347482789,1.518809682501865,-1.888073940494251,-1.5908465617191219,0.0,-0.05594256520271301,1.1922520399093628,0.22128331661224365,0.9945785999298096,-0.05676965415477753,0.004963180050253868,0.08698242157697678,0.5102720432802537
101.07068539253636,1.4591771469078079,-1.006440535604902,1.4869792513689943,-1.8778934052118197,-1.5901336350973287,0.0,-0.059019964188337326,1.2112547159194946,0.21789084374904633,0.9946911931037903,-0.0547323003411293,0.004786133766174316,0.08701054006814957,0.10078260991733397
103.1606529374944,1.4460839992310006,-1.0129639946963778,1.4967834410807055,-1.881438165936694,-1.592391277978487,0.0,-0.04300291836261749,1.2061011791229248,0.21880611777305603,0.9943174719810486,-0.061146724969148636,0.005347101017832756,0.08697788417339325,0.14952434729121156
105.24121899236177,1.4418717591473675,-1.035247941235662,1.5293226273138139,-1.8921380790657554,-1.593124617474098,0.0,-0.0401771143078804,1.1866633892059326,0.22224053740501404,0.9942035675048828,-0.0632125586271286,0.005542943254113197,0.08679106831550598,0.11979980003205376
107.53544456336328,1.434358967093327,-1.087256023568252,1.6302384530228033,-2.0295619613829583,-1.5817145079200956,0.0,-0.03849570453166962,1.1668041944503784,0.22266104817390442,0.9967904090881348,-0.06787507236003876,0.0025720822159200907,0.04236913472414017,0.9792286339398542
110.0290713015376,1.427692594616643,-1.1337763408518327,1.7213884140897224,-2.1564426513177697,-1.571051222056178,0.0,-0.037792809307575226,1.146957278251648,0.22470106184482574,0.9974406957626343,-0.07149063050746918,5.68615723750554e-05,0.0009894993854686618,0.10176397934175668
112.48451108605892,1.423076430160982,-1.1540992110790682,1.7541146843870923,-2.170811905809816,-1.5707963162505854,0.0,-0.03557458519935608,1.1271147727966309,0.22477522492408752,-0.9972735643386841,0.07379283010959625,-2.742525317955824e-08,8.714805943554893e-08,0.10164293454030596
114.8210542176617,1.4249559068973068,-1.1199477642822078,1.6894485631901661,-2.0901425750246116,-1.5778741630904691,0.0,-0.03216656669974327,1.1457593441009521,0.22345447540283203,0.9970290660858154,-0.07274370640516281,0.0017015867633745074,0.02526562660932541,0.28378846941897634
115.7009850287736,1.427167861203916,-1.0814995981647593,1.6168111722057805,-2.0002853696164475,-1.585730053909291,0.0,-0.028764333575963974,1.165422797203064,0.22252744436264038,0.9960271716117859,-0.07125621289014816,0.003642497817054391,0.05328382924199104,1.0
117.76286863372482,1.429595363164149,-1.0393047850356625,1.5370955069798038,-1.9016718758305975,-1.5943514753849002,0.0,-0.025404464453458786,1.1851038932800293,0.2221798598766327,0.9940372109413147,-0.06931213289499283,0.005827085115015507,0.08397525548934937,0.12105952751666177
120.1667106999393,1.4335279579856077,-1.0150641487666316,1.5000346861179257,-1.8828616245229037,-1.5945484009117539,0.0,-0.02727453224360943,1.2046359777450562,0.21906355023384094,0.993919849395752,-0.06729637086391449,0.005882370285689831,0.08694703876972198,0.1033102957802292
123.84518364198375,1.3956120556477805,-0.9991085056420546,1.5065416786231796,-1.844194890136448,-1.4399494254277778,0.0,-0.0441533699631691,1.1949328184127808,0.1957133710384369,0.9865694642066956,-0.09429959952831268,-0.07487230002880096,0.11037401854991913,1.0
124.39040080802155,1.3326020898258535,-0.9860810338671857,1.5340428131554793,-1.7896517194870338,-1.1999853468389032,0.0,-0.06513572484254837,1.1802860498428345,0.18153643608093262,0.9591284990310669,-0.14518585801124573,-0.19969649612903595,0.13825637102127075,0.9841512835555284
125.966912130945,1.2695921240039263,-0.9730535620923169,1.561543947687779,-1.7351085488376197,-0.9600212682500286,0.0,-0.07670547068119049,1.1814595460891724,0.18890243768692017,0.9123114347457886,-0.2024591714143753,-0.32072004675865173,0.15439163148403168,0.3461751461854906
126.72706466902198,1.256243608328195,-0.9574923566856205,1.5479824032115528,-1.7123103209238755,-0.8835281823810137,0.0,-0.08057697862386703,1.1984388828277588,0.1959848552942276,0.8948354125022888,-0.21784454584121704,-0.3572315573692322,0.15556015074253082,0.3091515974899657
127.76040776237478,1.2634440720137057,-0.9611734827547254,1.5424988635529078,-1.7084862296221142,-0.8804158963325894,0.0,-0.08911377191543579,1.201195478439331,0.20414051413536072,0.8957421779632568,-0.21407964825630188,-0.35788494348526,0.15405884385108948,0.14665943334339532
129.5043767088537,1.2537220243405813,-0.9819869302144301,1.5836472239288042,-1.7343730433239768,-0.879938929326079,0.0,-0.08416081964969635,1.1819567680358887,0.2021562159061432,0.8953141570091248,-0.2176520973443985,-0.35864347219467163,0.14971600472927094,0.14309958073964757
131.30333445106547,1.2383725240022108,-1.0253896800200408,1.6779017194004857,-1.8630880926634001,-0.8539253441726504,0.0,-0.08135056495666504,1.1622637510299683,0.2007431536912918,0.8982047438621521,-0.21440397202968597,-0.3681327998638153,0.10833952575922012,0.6100390879877177
131.81186068821142,1.2269180764181782,-1.0536452068751911,1.7382608091723868,-1.9302622050238467,-0.8423546004102639,0.0,-0.07896047830581665,1.1425970792770386,0.19935515522956848,0.8986192941665649,-0.2145693451166153,-0.3722173571586609,0.08886841684579849,0.4881738305132669
132.3572620254413,1.218254432645335,-1.0686457212400984,1.7686081421533197,-1.9383150242013478,-0.8451525570304538,0.0,-0.07556028664112091,1.1232157945632935,0.19595478475093842,0.8974283933639526,-0.21949699521064758,-0.37172389030456543,0.09090936183929443,0.457665886189647
132.939665805544,1.209963704359878,-1.0844220347253357,1.7987492229426898,-1.9457526058563244,-0.8478829367202334,0.0,-0.07301174104213715,1.1036239862442017,0.1934068500995636,0.8962685465812683,-0.22418393194675446,-0.37124505639076233,0.0928514301776886,0.4275490052034263
133.47618248263777,1.1959346968489113,-1.0762304236917737,1.8021197020064867,-1.8987402135213876,-0.8373183370094995,0.0,-0.06679161638021469,1.0893423557281494,0.1837061643600464,0.8858503699302673,-0.24014760553836823,-0.37972480058670044,0.115789994597435,0.6013336667390444
133.9741757844567,1.1725899722779205,-1.032008810665254,1.7671670442857843,-1.7746509048742938,-0.8080775660723526,0.0,-0.053405143320560455,1.083395004272461,0.1647493690252304,0.8585814833641052,-0.272923082113266,-0.40022924542427063,0.1678316444158554,1.0
134.24393995955705,1.1492452477069297,-0.9877871976387343,1.7322143865650819,-1.6505615962272,-0.7788367951352057,0.0,-0.039668917655944824,1.0783250331878662,0.14926646649837494,0.8265085816383362,-0.30551987886428833,-0.4195138216018677,0.21805784106254578,1.0
134.51467033050642,1.1259005231359391,-0.9435655846122147,1.6972617288443796,-1.5264722875801062,-0.7495960241980588,0.0,-0.025281518697738647,1.0745683908462524,0.1368318349123001,0.7898271083831787,-0.337645560503006,-0.4373287856578827,0.2662930190563202,1.0
134.78625772963912,1.1025557985649486,-0.8993439715856956,1.6623090711236777,-1.402382978933014,-0.7203552532609122,0.0,-0.009940072894096375,1.072455883026123,0.12695400416851044,0.7487647533416748,-0.36900922656059265,-0.45343217253685,0.31238245964050293,1.0
135.05857484163502,1.0792110739939578,-0.8551223585591758,1.6273564134029752,-1.2782936702859202,-0.6911144823237653,0.0,0.006644979119300842,1.0722081661224365,0.11909209936857224,0.7035797834396362,-0.3993237316608429,-0.467592716217041,0.35619232058525085,1.0
135.3314826137645,1.055866349422967,-0.8109007455326562,1.5924037556822728,-1.1542043616388264,-0.6618737113866183,0.0,0.024736806750297546,1.0739359855651855,0.11267280578613281,0.6545599102973938,-0.4283088445663452,-0.4795919954776764,0.397610604763031,1.0
135.60483015671022,1.0325216248519764,-0.7666791325061371,1.5574510979615708,-1.030115052991734,-0.6326329404494717,0.0,0.044559650123119354,1.077642798423767,0.10710840672254562,0.6020205616950989,-0.4556926190853119,-0.48922619223594666,0.43654686212539673,1.0
135.8935737204711,1.0091769002809854,-0.7224575194796169,1.5224984402408681,-0.9060257443446389,-0.6033921695123245,0.0,0.06628842651844025,1.0832321643829346,0.10181446373462677,0.5463023781776428,-0.48121440410614014,-0.49630850553512573,0.472931444644928,0.9979554286037575
137.24215964384211,0.9924612220777551,-0.6850722549505267,1.4876920048790718,-0.8026196976954393,-0.5783160515729353,0.0,0.08503858745098114,1.0928934812545776,0.0983467549085617,0.49999526143074036,-0.5000047087669373,-0.5000047087669373,0.49999526143074036,0.19813372925032463
138.62137164593616,1.0013817937536313,-0.6740369052478417,1.453237670766189,-0.7792009483006556,-0.5693952581388678,0.0,0.08503591269254684,1.1123260259628296,0.10294756293296814,0.49999523162841797,-0.500004768371582,-0.5000048279762268,0.4999951124191284,0.18098883289880766
140.1321623925782,1.010048232713839,-0.6624806873246061,1.4180004675523283,-0.7555199431789342,-0.560729270999254,0.0,0.08503254503011703,1.1317580938339233,0.1075487807393074,0.4999953508377075,-0.5000046491622925,-0.5000047087669373,0.49999523162841797,0.16522298742370264
141.3114416809563,1.01602873109454,-0.6539754301480254,1.392423170376912,-0.7384477834938679,-0.5547485577555867,0.0,0.08507078140974045,1.1455658674240112,0.11087684333324432,0.49999526143074036,-0.5000047087669373,-0.5000047087669373,0.4999951720237732,0.1505500142642301
143.10141601756789,1.0073486807765824,-0.6662509868429821,1.4282396495600307,-0.7619885932658141,-0.5634285517154366,0.0,0.08528348058462143,1.1260405778884888,0.10668668895959854,0.4999951422214508,-0.500004768371582,-0.5000047087669373,0.49999526143074036,0.13946406910136314
145.57139479435267,0.9987453542276232,-0.6783814653301476,1.463681689281941,-0.785300043958812,-0.5720318235830457,0.0,0.08500157296657562,1.1064693927764893,0.10271582007408142,0.49999508261680603,-0.5000047087669373,-0.5000047087669373,0.49999532103538513,0.10107346153863103
148.06763108444417,0.9897515250099138,-0.6892886987372909,1.497926448489355,-0.8086375113416621,-0.5810256528007551,0.0,0.08499623835086823,1.0870357751846313,0.09811893105506897,0.4999951124191284,-0.500004768371582,-0.5000047087669373,0.4999953508377075,0.10000005382736978
150.56374350869993,0.980142982731174,-0.6992449480235131,1.530934851045522,-0.8316897624791337,-0.590634195079495,0.0,0.0855194702744484,1.0676748752593994,0.09325692057609558,0.49999523162841797,-0.5000047087669373,-0.500004768371582,0.4999951720237732,0.10344103513381707
152.9768088794976,0.970587312158039,-0.7091461912387201,1.5637611563158476,-0.8546149218841431,-0.60018986565263,0.0,0.08553258329629898,1.048244595527649,0.08865073323249817,0.49999523162841797,-0.5000047087669373,-0.500004768371582,0.49999523162841797,0.1067983782422396
155.3139959726075,0.9610838349072333,-0.7189933536047983,1.596408163449142,-0.8774148634695224,-0.6096933429034357,0.0,0.08504175394773483,1.0287615060806274,0.08430168777704239,0.49999529123306274,-0.500004768371582,-0.500004768371582,0.4999951422214508,0.1087282514207832
157.32585768226815,0.969737294893952,-0.7107726145043598,1.5682520206698498,-0.857479250219604,-0.601039722165937,0.0,0.08501511067152023,1.0457874536514282,0.08834591507911682,0.4999951422214508,-0.5000048279762268,-0.500004768371582,0.4999951720237732,0.11714594020656913
159.45677313341204,0.9793146281051526,-0.7009138077951842,1.535488262092082,-0.8345745975602759,-0.5914625321296927,0.0,0.08501958101987839,1.0652213096618652,0.09294330328702927,0.49999529123306274,-0.500004768371582,-0.5000047087669373,0.49999508261680603,0.1262525306115459
160.67347429302404,0.9735896557939562,-0.7058747733701014,1.5552162071987814,-0.8493415867126799,-0.5971874028074232,0.0,0.08504050225019455,1.0535694360733032,0.08903802931308746,0.49999523162841797,-0.500004768371582,-0.5000048279762268,0.4999951124191284,0.21345217677597572
161.84291707737128,0.9638336118434965,-0.7154201939058623,1.5875772759030071,-0.8721570365782867,-0.6069434467578829,0.0,0.08504312485456467,1.0341371297836304,0.08443686366081238,0.4999952018260956,-0.5000047087669373,-0.500004768371582,0.4999952018260956,0.23293314078683905
164.27828879224302,0.9538130305870427,-0.7248823452596533,1.61934141733456,-0.8944593132642739,-0.6169640380472323,0.0,0.0850021094083786,1.014710783958435,0.08025515079498291,0.49999532103538513,-0.5000047087669373,-0.500004768371582,0.49999502301216125,0.10199351131340621
166.7265832016439,0.946393779236997,-0.7208232945143797,1.6414842607781996,-0.9206611636844682,-0.6243833660061399,0.0,0.0850742906332016,1.0008429288864136,0.06587633490562439,0.49999526143074036,-0.5000047087669373,-0.500004768371582,0.49999508261680603,0.4463109538477983
167.89418671863018,0.9197267411597478,-0.7246033904010926,1.7059659898154265,-0.9179339415726079,-0.5627284429460587,0.0,0.08412037789821625,0.984064519405365,0.056077778339385986,0.4551287293434143,-0.5253090858459473,-0.5173470377922058,0.49925950169563293,0.20826257470701048
170.72740301855862,0.9284480415614295,-0.7403912538272336,1.721240223324266,-0.7688130304506576,-0.4392434491486832,0.0,0.06496048718690872,1.0090304613113403,0.09126073122024536,0.3716283142566681,-0.5631560683250427,-0.5269148945808411,0.5168251395225525,1.0
171.42106203728378,0.9509019009616426,-0.7578986639297038,1.714233407284676,-0.5850924503512088,-0.31277723150998316,0.0,0.04521197825670242,1.0453325510025024,0.12829580903053284,0.2865492105484009,-0.6017279028892517,-0.5198572874069214,0.5343794226646423,1.0
171.97828197286486,0.9733557603618553,-0.7754060740321735,1.7072265912450861,-0.40137187025176413,-0.18631101387128596,0.0,0.028871096670627594,1.0781058073043823,0.15371334552764893,0.20268303155899048,-0.6419209837913513,-0.49977752566337585,0.5450499653816223,1.0
172.39459936873078,0.9958096197620679,-0.7929134841346434,1.7002197752054964,-0.21765129015231932,-0.059844796232588704,0.0,0.014242127537727356,1.1043314933776855,0.16811667382717133,0.1218487024307251,-0.6827337741851807,-0.4670906960964203,0.548501193523407,1.0
172.76554779234172,1.018263479162281,-0.8104208942371135,1.6932129591659062,-0.033930710052870516,0.06662142140611127,0.0,2.9802322387695312e-05,1.1212049722671509,0.17322172224521637,0.045776333659887314,-0.7231090068817139,-0.4224694073200226,0.5445525050163269,1.0
173.1398180063427,1.040717338562494,-0.8279283043395833,1.6862061431263164,0.1497898700465743,0.19308763904480852,0.0,-0.014538325369358063,1.1264318227767944,0.1716964840888977,-0.023928431794047356,-0.7619566917419434,-0.3668270707130432,0.5331860184669495,1.0
173.51779592502285,1.063171197962707,-0.8454357144420535,1.6791993270867263,0.3335104501460231,0.31955385668350855,0.0,-0.02965685725212097,1.1184874773025513,0.1669178456068039,-0.0858178362250328,-0.7981800436973572,-0.30129531025886536,0.5145532488822937,1.0
173.89976277528203,1.0856250573629196,-0.8629431245445232,1.6721925110471365,0.5172310302454677,0.4460200743222058,0.0,-0.04495425522327423,1.0968189239501953,0.16266889870166779,-0.1386309713125229,-0.8307016491889954,-0.22719772160053253,0.48897573351860046,1.0
174.37222350900865,1.1080789167631324,-0.880450534646993,1.6651856950075465,0.7009516103449125,0.5724862919609031,0.0,-0.05956894904375076,1.0619621276855469,0.16279923915863037,-0.18131889402866364,-0.8584897518157959,-0.14601904153823853,0.45694318413734436,1.0
175.0841482698954,1.1305327761633455,-0.8979579447494631,1.6581788789679566,0.8846721904443613,0.698952509599603,0.0,-0.07227841019630432,1.0155686140060425,0.17087754607200623,-0.21306438744068146,-0.8805844187736511,-0.05937191843986511,0.41910579800605774,0.8564196326882523
175.55157709782614,1.1973663204743097,-0.9314970549452487,1.6472663059447965,0.8969381904553766,0.8648910962203507,0.0,-0.09599079191684723,0.9963053464889526,0.16127212345600128,-0.18126796185970306,-0.9204999208450317,-0.04483269900083542,0.34323737025260925,1.0
175.97721318419931,1.2805233045058313,-0.9709328381484603,1.6349171434367704,0.846140910307576,1.0453481463453336,0.0,-0.11529654264450073,0.9965606927871704,0.1537385880947113,-0.13180601596832275,-0.9562326073646545,-0.066526398062706,0.25262710452079773,1.0
176.38947096280287,1.3636802885373511,-1.0103686213516712,1.6225679809287445,0.7953436301597766,1.2258051964703123,0.0,-0.12839484214782715,1.004640817642212,0.16119728982448578,-0.0875798687338829,-0.9780656695365906,-0.09757966548204422,0.16184990108013153,1.0
176.78806942834854,1.446837272568871,-1.049804404554882,1.610218818420719,0.7445463500119771,1.4062622465952912,0.0,-0.13968881964683533,1.0183056592941284,0.18514016270637512,-0.050316471606492996,-0.9866050481796265,-0.13686996698379517,0.0731121078133583,1.0
178.9938819966664,1.5131097769444806,-1.0845912550168204,1.6072243812543554,0.6996115763229627,1.5514264484769094,0.0,-0.14945480227470398,1.0274136066436768,0.21537381410598755,-0.026722488924860954,-0.9844450354576111,-0.1735897809267044,0.004533790051937103,0.18729785417539052
180.43904422424905,1.5103909065008578,-1.099599674480681,1.6425380903984432,0.6794080588533059,1.5500001391977751,0.0,-0.14836321771144867,1.00883948802948,0.2085997462272644,-0.027937762439250946,-0.9844131469726562,-0.17356570065021515,0.005001391284167767,0.17126923312243864
181.8971808333914,1.514374854901319,-1.113070257133411,1.675198658395399,0.6601266832338597,1.5514310772480246,0.0,-0.15282350778579712,0.9905587434768677,0.201886385679245,-0.026100272312760353,-0.984462559223175,-0.17358167469501495,0.004641453269869089,0.4136386528424456
183.18422952964417,1.5183042957241268,-1.1263565379940057,1.7074123710952114,0.6411091115027161,1.5528424374927778,0.0,-0.15709763765335083,0.9722190499305725,0.19526803493499756,-0.0242878720164299,-0.9845073819160461,-0.1735994964838028,0.0042865220457315445,0.19385764411941592
183.9655579410201,1.5116894053836774,-1.1199190386340558,1.691209327336294,0.6510207910068736,1.550506147756784,0.0,-0.1510479748249054,0.9820874333381653,0.19885216653347015,-0.027342239394783974,-0.9844292402267456,-0.17357289791107178,0.004864509217441082,0.7427833013547636
184.66341518796617,1.5042821739236312,-1.1077563778899342,1.6613501292880384,0.6688771176224709,1.5479294182080547,0.0,-0.14368991553783417,0.9994205236434937,0.20515796542167664,-0.030765719711780548,-0.9843288660049438,-0.17355084419250488,0.00549255171790719,0.3556959694643004
185.36522686961263,1.5003066003284349,-1.0940900641646718,1.6285420136650173,0.6880941721465271,1.5466490990041146,0.0,-0.13896562159061432,1.017662525177002,0.21177101135253906,-0.032611824572086334,-0.9842687249183655,-0.17354527115821838,0.00577903026714921,0.39723021148092386
186.24548013098266,1.4962602658487638,-1.0857227910447056,1.6082781960531647,0.7000714527231975,1.5453311292403975,0.0,-0.1345580369234085,1.0289523601531982,0.21593421697616577,-0.034489475190639496,-0.9842039942741394,-0.17353974282741547,0.006078052334487438,0.18197623893057283
187.74359255726952,1.4920957673807953,-1.1009814018234418,1.6440034576870088,0.6797069413579881,1.5439103503896907,0.0,-0.1323392540216446,1.0103020668029785,0.20914651453495026,-0.03641652688384056,-0.9841344952583313,-0.17352759838104248,0.006417873781174421,0.16663228148151177
189.1571613877874,1.4849992404349708,-1.1139376444200078,1.6742021460938679,0.662659181428735,1.5414912723193819,0.0,-0.12753012776374817,0.9946914315223694,0.20346540212631226,-0.039700377732515335,-0.9840081334114075,-0.17350167036056519,0.006996678188443184,0.1529316480809763
190.33057111094124,1.4729656508439304,-1.1087356606839365,1.6608346965296403,0.6711730108031022,1.537390337223518,0.0,-0.11645188927650452,1.0032734870910645,0.2065829485654831,-0.04526865854859352,-0.9837670922279358,-0.17346252501010895,0.00797863956540823,0.4155618418116327
190.81115046231085,1.4673121107160594,-1.0997521130680508,1.639110387632026,0.6841071066327546,1.5354663460016236,0.0,-0.11031778156757355,1.0155760049819946,0.21106259524822235,-0.04788496345281601,-0.9836441278457642,-0.17343541979789734,0.008439766243100166,0.3760679498523376
191.29959936765226,1.4557874317659618,-1.1095767865237152,1.6616237100732818,0.6718122191620124,1.5315445842163027,0.0,-0.10155823081731796,1.0044889450073242,0.20702573657035828,-0.053217705339193344,-0.9833691716194153,-0.1733924150466919,0.009380260482430458,0.4014880633280139
192.54373956236748,1.4397619992753536,-1.1157112990336076,1.6752543579915384,0.664955326129107,1.526101006114689,0.0,-0.08857745677232742,0.9984087944030762,0.2048189640045166,-0.06063362956047058,-0.9829402565956116,-0.17331364750862122,0.010687706060707569,0.14571362598862755
194.0383948853774,1.441296666268858,-1.1028457791489474,1.6448337125959538,0.6824398013109301,1.5266212552331855,0.0,-0.08775841444730759,1.014763355255127,0.21077127754688263,-0.05992327630519867,-0.9829832911491394,-0.17332452535629272,0.01056261919438839,0.15867771986771537
195.56305349356202,1.4248168260596894,-1.1020630631106052,1.642245202654397,0.6849742164696064,1.5210320233409194,0.0,-0.07303223013877869,1.0173170566558838,0.21170350909233093,-0.06754947453737259,-0.982488751411438,-0.1732374131679535,0.011907370761036873,0.12277347152514488
197.58387769710907,1.4177488545799763,-1.1159016817192744,1.6747295702962812,0.6666713207957671,1.5186390653783395,0.0,-0.06949132680892944,1.000224232673645,0.20548266172409058,-0.07082044333219528,-0.9822586178779602,-0.17319495975971222,0.012483940459787846,0.11462586074198342
199.21002609932705,1.4044092854797492,-1.110886351990432,1.6624669670738736,0.6745993798673511,1.5141277164264393,0.0,-0.056817132979631424,1.0076096057891846,0.20816326141357422,-0.07699353247880936,-0.9817938804626465,-0.17311450839042664,0.013572526164352894,0.3260802351397652
199.83282457597423,1.401830595076587,-1.100330581814946,1.63750966239509,0.6891490833614827,1.513258405179799,0.0,-0.05228082463145256,1.021115779876709,0.21307985484600067,-0.07818726450204849,-0.9817003607749939,-0.17309319972991943,0.0137825021520257,0.3025072434573708
200.42511554132471,1.3884042861225225,-1.1084895937245838,1.6565258048664024,0.6790399430691827,1.5087274658243461,0.0,-0.042237501591444016,1.0115063190460205,0.20958024263381958,-0.08440040051937103,-0.9811848998069763,-0.17300687730312347,0.014878496527671814,0.49588055079393834
200.9175167318156,1.382218564978605,-1.1184984095950319,1.6899183336633798,0.6560212430646438,1.5066422367560077,0.0,-0.03995265066623688,0.995242178440094,0.19900548458099365,-0.0872628390789032,-0.9809341430664062,-0.17296436429023743,0.015383961610496044,0.6022836145968186
201.33192472458308,1.3762914435011742,-1.1242982065989524,1.72172601131599,0.6303662652280833,1.5046438790814256,0.0,-0.03773578628897667,0.9807727336883545,0.18542559444904327,-0.0900052934885025,-0.980685293674469,-0.17292624711990356,0.015869004651904106,1.0
201.61712998815523,1.3703931556976952,-1.1300697893244183,1.7533789541263842,0.6048360911886107,1.50265524281948,0.0,-0.03578439727425575,0.9659738540649414,0.17216244339942932,-0.09273386001586914,-0.9804289937019348,-0.17289257049560547,0.016352113336324692,0.8751645215880238
202.51315946035362,1.3714832130207733,-1.1346021045930046,1.7779436286164487,0.5847575194513845,1.5030262646486308,0.0,-0.03910283371806145,0.9539926648139954,0.16204458475112915,-0.0922304019331932,-0.9804786443710327,-0.17288924753665924,0.01626206748187542,0.22361288746386465
203.6294493333113,1.395549799068404,-1.13498749988279,1.7793809553911855,0.5823428169815108,1.5111484886490925,0.0,-0.058970872312784195,0.9521051049232483,0.16135692596435547,-0.0810961127281189,-0.9814696311950684,-0.17302124202251434,0.014292897656559944,0.25409860824344915
206.11618312396914,1.4197699103899568,-1.134942924148198,1.7801657909832425,0.5802345369232486,1.5193313268388133,0.0,-0.07883492112159729,0.9501838088035583,0.16066785156726837,-0.0698869377374649,-0.9823305010795593,-0.173178568482399,0.012317300774157047,0.10037585243792477
208.60049503257932,1.4442935228300804,-1.1339032533463178,1.779004744642341,0.5792747625048544,1.527647252970198,0.0,-0.09873828291893005,0.948917031288147,0.16019688546657562,-0.05853838473558426,-0.9830729961395264,-0.1733037829399109,0.01031628530472517,0.23067036367181107
209.68261893729513,1.4691397196904714,-1.1314675656766957,1.7748063327485404,0.5801275805438211,1.5360944231104214,0.0,-0.11870739609003067,0.9489195346832275,0.1601974368095398,-0.04704056680202484,-0.9836903214454651,-0.17341244220733643,0.008289339952170849,0.23885341366594343
211.70990356899736,1.4753204172307317,-1.1622611379492864,1.890189719997999,0.338015653166531,1.5274053157097554,0.0,-0.12766949832439423,0.9511700868606567,0.12594753503799438,-0.04078470915555954,-0.9672370553016663,-0.2504129707813263,0.009067004546523094,1.0
212.35483709569436,1.4753341612171826,-1.2040982521800248,2.045188316241343,0.015548889818029155,1.5130508516033447,0.0,-0.13382326066493988,0.9454395174980164,0.10056978464126587,-0.03460542857646942,-0.9359462261199951,-0.3502855598926544,0.010346394963562489,1.0
212.99977062239137,1.4753479052036333,-1.245935366410762,2.2001869124846833,-0.3069178735304655,1.4986963874969343,0.0,-0.1411859691143036,0.9270310401916504,0.09804373234510422,-0.026644254103302956,-0.8944481015205383,-0.44624167680740356,0.010991946794092655,1.0
219.4491058893614,1.4753616491900843,-1.2877724806415003,2.3551855087280273,-0.6293846368789673,1.4843419233905237,0.0,-0.15000300109386444,0.8933659791946411,0.11734943091869354,-0.0170518197119236,-0.843204915523529,-0.537212073802948,0.010853512212634087,0.1
