Sungjin-Park-dev/lg_sgu_vision_v2/data/cylinder_sample/trajectory/22/ans_glns_trajectory_joined.csv
time,ur20-shoulder_pan_joint,ur20-shoulder_lift_joint,ur20-elbow_joint,ur20-wrist_1_joint,ur20-wrist_2_joint,ur20-wrist_3_joint,target-POS_X,target-POS_Y,target-POS_Z,target-ROT_X,target-ROT_Y,target-ROT_Z,target-ROT_W
0.0,1.987818956375122,-1.331007719039917,2.7694647312164307,-1.4384571313858032,2.271247386932373,3.131037829007255e-08,-0.1657329797744751,0.6740177869796753,0.19200851023197174,0.09987206012010574,0.7000182271003723,0.7000182867050171,0.09987200051546097
0.34635840227128367,2.042550627907155,-1.3411978070369237,2.7230873901926254,-1.3818893902902305,2.375154907613758,2.41421618044352e-07,-0.16703467071056366,0.6781808137893677,0.20064273476600647,0.11705221980810165,0.6973512768745422,0.6973512768745422,0.11705204844474792
0.6457601016729771,2.089862185416163,-1.350006398494067,2.682997545034535,-1.3329906839090175,2.464975417434266,4.2304753453231454e-07,-0.17002840340137482,0.678764820098877,0.20988208055496216,0.13184639811515808,0.6947061419487,0.6947059631347656,0.13184629380702972
1.060321322224218,2.1289806128109805,-1.3572895712220259,2.649850217411943,-1.2925599605089315,2.5392413532219447,5.732205704928985e-07,-0.17369277775287628,0.6770158410072327,0.21875187754631042,0.1440339982509613,0.69228196144104,0.6922817826271057,0.14403386414051056
1.4861596969749031,2.1532503166165013,-1.3355781718777473,2.6061844095717275,-1.2706055396712144,2.615527517550368,5.890585986959012e-07,-0.17376598715782166,0.6849411129951477,0.21915069222450256,0.16198837757110596,0.688302218914032,0.6883019804954529,0.1619883030653
1.881743918899995,2.1834871512994316,-1.2996463081883944,2.5439599549305663,-1.244312976025054,2.7208001938631674,5.826036170555869e-07,-0.17553795874118805,0.694287896156311,0.21729806065559387,0.1876918524503708,0.6817417740821838,0.6817415952682495,0.1876918077468872
2.3993947643995273,2.223054257799984,-1.2526268403020095,2.4625347115298233,-1.2099072362421301,2.85855717930643,5.741568021459031e-07,-0.1826276183128357,0.6994127035140991,0.21397623419761658,0.22092244029045105,0.6717092394828796,0.6717092394828796,0.2209223359823227
2.7915379354867818,2.25313407555244,-1.2168815672727524,2.400633382406614,-1.1837512073120302,2.9632831848889523,5.677353405950445e-07,-0.19166791439056396,0.6979305744171143,0.2107788771390915,0.24583300948143005,0.662997841835022,0.6629977822303772,0.24583296477794647
3.2439220518317593,2.274932889020647,-1.1909770041019445,2.3557735518685536,-1.1647959596303945,3.039178015095408,5.630817139111195e-07,-0.2001955807209015,0.6939735412597656,0.20810413360595703,0.2636736333370209,0.6561068296432495,0.6561068296432495,0.2636736333370209
3.5923669094288155,2.2754454424515824,-1.188668062316687,2.3200269406820553,-1.1313589881739137,3.0823388874821975,-1.4781464070868758e-07,-0.20087282359600067,0.6969403624534607,0.21735957264900208,0.2776034474372864,0.6503355503082275,0.6503354907035828,0.27760350704193115
3.7877135330879494,2.275905896592381,-1.1865010236906373,2.2860200635342127,-1.0995198147279144,3.123371292771097,-8.252518495657447e-07,-0.2019217312335968,0.6989299058914185,0.22686442732810974,0.29073822498321533,0.6445705890655518,0.6445706486701965,0.2907382547855377
3.9831589886987016,2.276342108550226,-1.1844480762241318,2.253803594734259,-1.0693569234550697,3.1622434067564513,-1.4670230597886084e-06,-0.2032979130744934,0.7000629305839539,0.2364727407693863,0.3030710220336914,0.6388645172119141,0.6388645172119141,0.30307096242904663
4.2485176841961945,2.2767550915697337,-1.1825044512767597,2.223302701020496,-1.0408002511976142,3.1990455226077787,-2.0746189944364414e-06,-0.20494934916496277,0.7004690766334534,0.2461020052433014,0.31464406847953796,0.6332449316978455,0.6332448124885559,0.31464406847953796
4.461557027920459,2.2698015951776678,-1.16336458668628,2.1825199807371236,-1.0191575216871858,3.2461476602007373,-2.192162284267988e-06,-0.2049075961112976,0.7046644687652588,0.2478291243314743,0.3316423296928406,0.6245105862617493,0.6245104074478149,0.3316422998905182
4.745445266120361,2.2555839359910665,-1.1270205724689826,2.1289609100430833,-1.0019421759832712,3.3065789216213086,-1.8756907824615613e-06,-0.20383593440055847,0.7120662927627563,0.24156129360198975,0.3547155261039734,0.611700177192688,0.6116999387741089,0.35471540689468384
4.967312591065617,2.240833076872401,-1.089313561315462,2.0733932321317323,-0.984081209151482,3.369276515640031,-1.5473507598917156e-06,-0.20383605360984802,0.7184283137321472,0.23416392505168915,0.3781311511993408,0.5975089073181152,0.5975086688995361,0.3781311810016632
5.187479683875117,2.2261952987327036,-1.0518956143920914,2.0182515394031166,-0.9663571655726643,3.431493466107519,-1.2215278118114146e-06,-0.2050412893295288,0.7235422134399414,0.22594115138053894,0.4008072018623352,0.5825408101081848,0.5825405716896057,0.40080708265304565
5.397482641541073,2.212233276159326,-1.0162050734775019,1.9656554724820536,-0.9494513555393866,3.49083816026694,-9.107465366338313e-07,-0.20737707614898682,0.7274296283721924,0.2172968089580536,0.42188528180122375,0.5674619078636169,0.5674616694450378,0.42188510298728943
5.5933473444523365,2.1992114287151696,-0.9829178633654536,1.9166011212224718,-0.9336839494908545,3.5461866994848577,-6.208926610514205e-07,-0.21064689755439758,0.7302920818328857,0.2085455060005188,0.44103384017944336,0.5527108907699585,0.552710771560669,0.44103366136550903
5.7887699454071075,2.1871681686102504,-0.9521321755998975,1.8712331875225308,-0.91910145856269,3.5973758150913273,-3.5282120413810235e-07,-0.21463972330093384,0.7323739528656006,0.19987381994724274,0.4582851231098175,0.5384931564331055,0.5384930372238159,0.4582849442958832
6.147272312591218,2.174133271411812,-0.9246882967439389,1.8270724215906728,-0.9023843688894053,3.6464896558405977,-1.2790357485701795e-07,-0.21834760904312134,0.7343623042106628,0.19336064159870148,0.4747944474220276,0.5239945650100708,0.5239946246147156,0.47479432821273804
6.638077992689513,2.148181835991783,-0.9061667539142412,1.7695290479798629,-0.863362519290836,3.7056132117858027,-8.098165291744858e-08,-0.2168484926223755,0.7392443418502808,0.20168384909629822,0.4966476261615753,0.5033301115036011,0.5033301115036011,0.49664753675460815
6.8754665770681065,2.122903483224893,-0.8881255902615053,1.7134781331079894,-0.8253527497422954,3.7632033250040613,-3.5276709198865167e-08,-0.21650031208992004,0.7436808347702026,0.21037842333316803,0.517070472240448,0.4823257327079773,0.4823257327079773,0.5170704126358032
7.102677150175622,2.0987084852059197,-0.8708576170330572,1.65982939314488,-0.7889719654637745,3.8183252978666813,8.469457053583888e-09,-0.21720272302627563,0.7477771043777466,0.21922114491462708,0.5357872843742371,0.4614455997943878,0.4614456593990326,0.5357871651649475
7.3897199793137425,2.0688898675908227,-0.8517101048823756,1.607509094098359,-0.7557991648209688,3.876117833446464,2.983973272686033e-08,-0.21480989456176758,0.7514501810073853,0.2257818877696991,0.5554806590080261,0.4375399351119995,0.4375399947166443,0.5554805994033813
7.779340351769582,2.0234098331833583,-0.8256005646700945,1.547718129955897,-0.7221177313429631,3.9495577765994248,1.5240750111121138e-08,-0.20647978782653809,0.7554731369018555,0.2288787066936493,0.5804997682571411,0.4037573039531708,0.40375733375549316,0.5804997682571411
8.168297820920966,1.9714846905301704,-0.7957909654075808,1.4794540140000085,-0.6836632037487128,4.033405108166826,-1.4270968856975253e-09,-0.1995307207107544,0.761221170425415,0.23255370557308197,0.6065512299537659,0.3634495735168457,0.3634495735168457,0.6065512299537659
8.560773625440298,1.9190903700517525,-0.7657120168041057,1.41057308684575,-0.6448612141985575,4.118010055537786,-1.8245548845847093e-08,-0.1949635148048401,0.7689021229743958,0.23639701306819916,0.630005419254303,0.3210812509059906,0.3210812509059906,0.630005419254303
8.906558942625908,1.8729283264126655,-0.7392109433027626,1.3498855097159845,-0.6106747008791323,4.192551288956963,-3.306345479895727e-08,-0.1926203966140747,0.7777155637741089,0.23988232016563416,0.648224413394928,0.28249794244766235,0.28249791264533997,0.648224413394928
9.198834130225555,1.8339086045717763,-0.7168101907582678,1.2985876859602814,-0.5817776214763408,4.2555592921648255,-4.558869248287214e-08,-0.19158214330673218,0.7869433164596558,0.24289162456989288,0.6617862582206726,0.2490762323141098,0.24907620251178741,0.6617861986160278
9.653585376058285,1.8002550601959229,-0.6974900960922241,1.2543445825576782,-0.5568546056747437,4.309902135525839,-5.639139999402687e-08,-0.19117294251918793,0.7963646650314331,0.24552765488624573,0.6721011400222778,0.21972721815109253,0.21972721815109253,0.6721010804176331
9.818612146773548,1.7628297252876268,-0.6952126275858821,1.248632741913318,-0.5627151692873722,4.3594101667404175,3.9887312083362485e-06,-0.18287430703639984,0.79360431432724,0.24179163575172424,0.6842827200889587,0.19004729390144348,0.19057835638523102,0.6777307987213135
9.983641910948963,1.7254166373738518,-0.6929800419833039,1.244594032455819,-0.5679847820447916,4.408919095993042,7.058891798352339e-06,-0.17547382414340973,0.7914459109306335,0.23799516260623932,0.6943891048431396,0.16010865569114685,0.16097426414489746,0.6828442215919495
10.148671675124378,1.6879415140274636,-0.6907551869648871,1.2420793289540282,-0.5727753694641373,4.4584280252456665,9.272414643457667e-06,-0.16880536079406738,0.7900902032852173,0.23414209485054016,0.7024956941604614,0.12992511689662933,0.1309683620929718,0.687362015247345
10.313701439299793,1.6503917940190815,-0.6885330969977831,1.2412878970761003,-0.5770367866015466,4.507936954498291,1.0524298886883164e-05,-0.16271290183067322,0.7894953489303589,0.23027987778186798,0.7085042595863342,0.09954199939966202,0.10062052309513092,0.6913671493530273
10.478731203475208,1.6127528724524023,-0.6863100254212877,1.2423812851439293,-0.5807259899269559,4.5574458837509155,1.0726575025489402e-05,-0.1570502072572708,0.7896232604980469,0.2264540046453476,0.7123322486877441,0.06900083273649216,0.06999270617961884,0.6949262619018555
10.643760967650623,1.575023412612272,-0.6840822436273069,1.2452244484119803,-0.5838885731996123,4.60695481300354,9.951285593168953e-06,-0.15169212222099304,0.7905974984169006,0.22269633412361145,0.7140302062034607,0.03833893686532974,0.03915950655937195,0.6979666948318481
10.808790731826038,1.5372215866157655,-0.681848023108037,1.249362969721724,-0.5866648475862811,4.6564637422561646,8.432691401940847e-06,-0.14650723338127136,0.7927224040031433,0.21901732683181763,0.7137938737869263,0.007595715578645468,0.008207425475120544,0.7002665996551514
10.973820496001453,1.499351441676058,-0.6796041067564282,1.2546088752952038,-0.5891168325977308,4.705972671508789,6.256133181878605e-06,-0.14131960272789001,0.7961267828941345,0.2154148370027542,0.7117009162902832,-0.023182883858680725,-0.022790085524320602,0.701729953289032
11.138850260176868,1.4614203070475162,-0.6773449793652225,1.2608478621553796,-0.5912883467499731,4.755481600761414,3.4744100729995804e-06,-0.13594277203083038,0.8008768558502197,0.2118738442659378,0.7077987194061279,-0.05394568294286728,-0.05376081168651581,0.7022966742515564
11.303879229623686,1.4233505725860596,-0.675032913684845,1.2682335376739502,-0.5932006239891052,4.804990291595459,9.686679902642936e-09,-0.1301347017288208,0.80687415599823,0.20832744240760803,0.7020196914672852,-0.08466583490371704,-0.08466582000255585,0.7020197510719299
11.393038675645055,1.403631391012378,-0.6887940521642106,1.2810950956814282,-0.5923010435172176,4.83173812540187,8.383535121058445e-09,-0.1282680332660675,0.8058820366859436,0.21808046102523804,0.6998633742332458,-0.10095183551311493,-0.10095183551311493,0.6998633742332458
11.592369050243558,1.3836630043302418,-0.7027290997885578,1.2941191942054169,-0.591390094416859,4.858824167372929,7.063921586173334e-09,-0.12637770175933838,0.8053443431854248,0.2278512865304947,0.6972947716712952,-0.1173882856965065,-0.1173882856965065,0.6972947716712952
11.923589251135304,1.375628109615801,-0.7125474965355195,1.3022784120997066,-0.5897309142022775,4.87016473538305,5.152042290388755e-09,-0.12617415189743042,0.8035281300544739,0.23528684675693512,0.6961247324943542,-0.12413790076971054,-0.12413790076971054,0.696124792098999
12.495597172079144,1.4157677051786293,-0.7061969297873463,1.2911101201575594,-0.5849131820030774,4.817989320671991,7.018068090706308e-10,-0.13243120908737183,0.7958813905715942,0.2340555489063263,0.7011112570762634,-0.09188569337129593,-0.09188569337129593,0.7011113166809082
12.835943725149123,1.4674255365967406,-0.6980240396053037,1.2767370370637687,-0.5787129800759222,4.750841938155513,-5.0254435790154894e-09,-0.13955199718475342,0.7891156673431396,0.23245154321193695,0.7053295969963074,-0.050100285559892654,-0.05010028928518295,0.7053297162055969
13.31932464487824,1.5363590211585643,-0.687117933334033,1.2575572404220487,-0.5704392776750913,4.661238814505152,-1.2668027779141548e-08,-0.1484585851430893,0.7856446504592896,0.2302774339914322,0.7070820927619934,0.005908893886953592,0.005908884108066559,0.7070820927619934
13.784035364713562,1.6026296146031358,-0.6766331284621936,1.239118356711578,-0.5624851872708104,4.575097047314041,-2.0015379992828364e-08,-0.15769855678081512,0.7883075475692749,0.22815123200416565,0.7045801281929016,0.05972357466816902,0.05972355604171753,0.7045800685882568
14.10667575265838,1.6515994201280941,-0.6688855163034079,1.2254931799557023,-0.5566076141274319,4.511443692671107,-2.5444611727844426e-08,-0.16576546430587769,0.7939323782920837,0.2265578955411911,0.7001018524169922,0.09928397089242935,0.09928394854068756,0.7001019716262817
14.386658577467323,1.6900123207040105,-0.6628081334678866,1.214805317211669,-0.5519971275150396,4.461512720779124,-2.9703410320264596e-08,-0.1732231229543686,0.8003999590873718,0.22529475390911102,0.6950348615646362,0.13010196387767792,0.13010193407535553,0.6950348615646362
14.657984952506382,1.7197357618964924,-0.6753422371262557,1.2209854694440827,-0.565862038383625,4.421628851040988,-0.00982745992033818,-0.17856985330581665,0.802073061466217,0.22806210815906525,0.6964183449745178,0.15711750090122223,0.15134897828102112,0.6836732029914856
14.94658278350123,1.74473544902203,-0.7129019298854327,1.2488334537051777,-0.6048478538238921,4.386127481073883,-0.03349700803465938,-0.18139538168907166,0.7974326610565186,0.23641441762447357,0.7059927582740784,0.18490201234817505,0.16567426919937134,0.663277804851532
15.169031563395595,1.7699874096830819,-0.7508406400474119,1.2769624538610407,-0.6442270777674993,4.35026786437864,-0.057405407161669086,-0.18447455763816833,0.793739914894104,0.2451435923576355,0.7140398621559143,0.21270105242729187,0.18055999279022217,0.6421085596084595
15.387449358157925,1.794854934160138,-0.7882017707827417,1.3046632177454835,-0.6830067918835416,4.314954174963535,-0.08094982450329574,-0.18780285120010376,0.7910023927688599,0.25412657856941223,0.7203913331031799,0.2397165596485138,0.19559748470783234,0.6207365989685059
15.597517542887783,1.8188512403047683,-0.8242539774212306,1.3313935025080257,-0.7204278827117965,4.280877678805543,-0.10366937775226824,-0.19135384261608124,0.7891222238540649,0.26324576139450073,0.7250667214393616,0.2653564214706421,0.21043574810028076,0.5996507406234741
15.796933878559923,1.8417044432152438,-0.8585887783157494,1.3568504464997941,-0.7560663587620292,4.248424472196035,-0.1253066479764739,-0.19509127736091614,0.7879430055618286,0.27241408824920654,0.7282205820083618,0.28930526971817017,0.22484035789966583,0.5791752934455872
16.086305556610295,1.8633390665054321,-0.8910927772521973,1.3809499740600586,-0.7898045182228088,4.217701737080709,-0.14579017460346222,-0.1989802122116089,0.7872968912124634,0.2815853953361511,0.7300670146942139,0.31149035692214966,0.23870016634464264,0.5594623684883118
16.252773496625338,1.857010923630733,-0.8993968132953203,1.3868207335726588,-0.752058248582643,4.1677613550761965,-0.18337907291464095,-0.17248216271400452,0.7922515869140625,0.3042380213737488,0.7059391736984253,0.3369080126285553,0.2434091866016388,0.573493480682373
16.419245595737603,1.8506840430553428,-0.9076991553440706,1.392690400075485,-0.714320350155343,4.117819725342517,-0.22095974222533474,-0.1470198631286621,0.7983514666557312,0.32657039165496826,0.6805208325386047,0.36200544238090515,0.24687565863132477,0.5872783064842224
16.585717694849865,1.844358274393057,-0.9160001680749235,1.398559190135889,-0.6765890928756092,4.067878095608838,-0.25853395695818987,-0.12260758876800537,0.8055601716041565,0.34843841195106506,0.6538486480712891,0.38671618700027466,0.24910524487495422,0.6007320880889893
16.75218979396213,1.8380333093680128,-0.9243006505733158,1.4044275811908726,-0.6388613294521561,4.017936465875158,-0.29610465285755044,-0.09925508499145508,0.8138315081596375,0.3697035312652588,0.625962495803833,0.4109759032726288,0.25010937452316284,0.6137711405754089
16.918661893074397,1.8317085839741325,-0.9326009818010506,1.4102959020228027,-0.6011349689125277,3.9679948361414783,-0.3336739528172003,-0.07696917653083801,0.8231079578399658,0.3902319073677063,0.5969062447547913,0.43472132086753845,0.2499045729637146,0.6263129115104675
17.085133992186663,1.8253841020931192,-0.9409010708938502,1.4161641647508256,-0.5634099410050013,3.918053206407799,-0.37124191088424824,-0.055753618478775024,0.8333239555358887,0.409895122051239,0.5667279958724976,0.4578910768032074,0.24851500988006592,0.6382753849029541
17.251606091298928,1.8190598072056798,-0.9492010213855173,1.4220322352620782,-0.5256857716071819,3.8681115766741194,-0.40880900568983297,-0.03560960292816162,0.8444034457206726,0.42857226729393005,0.5354790687561035,0.4804256558418274,0.24596910178661346,0.6495786905288696
17.418078190411194,1.8127356023405112,-0.9575009072963819,1.4279003042325116,-0.48796215117614244,3.81816994694044,-0.44637559453636577,-0.01653575897216797,0.8562623262405396,0.44615107774734497,0.5032141804695129,0.5022682547569275,0.24230167269706726,0.6601454019546509
17.58455028952346,1.8064113968770226,-0.9658007388373767,1.4337683905780274,-0.45023896676954744,3.7682283172067605,-0.48394171993879415,0.0014708340167999268,0.868807315826416,0.46252796053886414,0.4699913263320923,0.5233643054962158,0.23755206167697906,0.6699007749557495
17.751022388635725,1.8000872002864496,-0.9741005389709552,1.4396363500153222,-0.41251617394522117,3.718286687473081,-0.5215073916531536,0.01841515302658081,0.8819385766983032,0.47760945558547974,0.43587133288383484,0.5436619520187378,0.23176544904708862,0.6787728667259216
17.91749448774799,1.7937631705737875,-0.9824004460712581,1.445504430405419,-0.37479339926765043,3.6683450577394017,-0.559073018513263,0.03430327773094177,0.8955491185188293,0.4913124442100525,0.40091729164123535,0.5631127953529358,0.22499121725559235,0.6866936683654785
18.083966586860257,1.7874388515210076,-0.9907003484158889,1.451372413419346,-0.3370707737193966,3.6184034280057222,-0.5966384847995402,0.0491425096988678,0.9095257520675659,0.5035651326179504,0.36519598960876465,0.5816707015037537,0.21728366613388062,0.6935985088348389
18.250438685972522,1.7811146299359213,-0.9990002452953856,1.4572404890773965,-0.29934834901288615,3.568461798272043,-0.6342036791003502,0.06294059753417969,0.923751175403595,0.5143071413040161,0.32877564430236816,0.5992932319641113,0.20870161056518555,0.6994267702102661
18.416910785084788,1.7747904355775226,-1.0073000964139205,1.4631085772245107,-0.2616259410510007,3.5185201685383634,-0.6717688544756031,0.0757056176662445,0.9381030797958374,0.5234903693199158,0.2917267680168152,0.6159413456916809,0.1993078887462616,0.7041222453117371
18.583382884197054,1.768466210105005,-1.0155998852782757,1.4689766258864674,-0.2239034181553865,3.468578538804684,-0.7093341887582599,0.0874459445476532,0.9524570107460022,0.531079113483429,0.2541220188140869,0.6315791606903076,0.1891687959432602,0.7076332569122314
18.74985498330932,1.7621419779758014,-1.0238998500250618,1.4748448531084044,-0.1861807672378782,3.4186369090710045,-0.7468996063088162,0.09816989302635193,0.9666856527328491,0.5370506644248962,0.21603591740131378,0.6461746692657471,0.17835469543933868,0.709912896156311
18.916327082421585,1.7558176156288487,-1.0321997926319348,1.4807129695316517,-0.14845810884653454,3.368695279337325,-0.7844650037640024,0.10788525640964508,0.9806612730026245,0.5413949489593506,0.1775444746017456,0.6596992015838623,0.1669389009475708,0.7109192609786987
19.08279918153385,1.749493176067793,-1.040499741787282,1.4865810306718488,-0.11073534582279382,3.3187536496036456,-0.822030494862174,0.1165996640920639,0.9942563772201538,0.5441147685050964,0.13872480392456055,0.6721281409263611,0.1549975723028183,0.710615873336792
19.249271280646116,1.743168705540201,-1.048799741940981,1.4924490952479017,-0.07301229450726826,3.268812019869966,-0.8595962830168927,0.1243194192647934,1.007344365119934,0.5452261567115784,0.099654920399189,0.6834405660629272,0.142609640955925,0.708971381187439
19.415743379758382,1.7368441402627766,-1.0570997684042547,1.498317106679207,-0.03528914309600451,3.2188703901362867,-0.8971621228612389,0.13105076551437378,1.0198005437850952,0.5447574257850647,0.06041416525840759,0.693619430065155,0.12985573709011078,0.7059601545333862
19.582215478870644,1.730519485029357,-1.065399788116716,1.504185154063946,0.0024341977201335976,3.1689287604026077,-0.9347281558444209,0.13679882884025574,1.0315040349960327,0.5427494049072266,0.021082015708088875,0.7026517391204834,0.1168186292052269,0.701562225818634
19.74868757798291,1.724194718119477,-1.0736997889291833,1.510053274730468,0.040157804961681184,3.118987130668928,-0.972294476362539,0.14156779646873474,1.042338252067566,0.5392557978630066,-0.01826167106628418,0.7105283141136169,0.10358253121376038,0.695763349533081
19.915159677095172,1.71787000218989,-1.081999905829368,1.5159215491743832,0.07788175183148698,3.069045500935249,-1.009861150863682,0.14536099135875702,1.0521914958953857,0.5343418717384338,-0.057536832988262177,0.7172439694404602,0.0902324691414833,0.6885555386543274
20.081631776207438,1.7115452661319457,-1.0903000609257478,1.5217898736532696,0.11560589113375597,3.019103871201569,-1.0474280050239828,0.14818067848682404,1.0609586238861084,0.5280840396881104,-0.09666348993778229,0.7227976322174072,0.07685455679893494,0.6799359917640686
20.2481038753197,1.7052205016956261,-1.0986002506850367,1.527658243384654,0.1533302271770599,2.96916224146789,-1.084995039539224,0.15002869069576263,1.0685417652130127,0.5205697417259216,-0.1355619579553604,0.7271920442581177,0.0635349452495575,0.6699088215827942
20.414575974431965,1.6988956229217727,-1.1069004452541085,1.5335266630278506,0.19105492641732513,2.91922061173421,-1.122562433375093,0.1509062647819519,1.0748510360717773,0.5118961334228516,-0.17415358126163483,0.7304341197013855,0.05035945400595665,0.6584833860397339
20.581048073544228,1.6925706915909915,-1.1152006933486889,1.5393951331988291,0.22877983890686168,2.869278982000531,-1.160130095266798,0.15081340074539185,1.079805850982666,0.5021703243255615,-0.21236038208007812,0.7325344681739807,0.03741386905312538,0.6456751823425293
20.747520172656493,1.6862457082474178,-1.1235009964602485,1.5452636542494498,0.2665049685726118,2.8193373522668512,-1.1976980310047654,0.14975057542324066,1.0833344459533691,0.491507887840271,-0.25010523200035095,0.7335076332092285,0.02478277124464512,0.6315059661865234
20.913992271768755,1.6799206395138877,-1.1318013738762347,1.5511322373083636,0.3042306867883714,2.7693957225331722,-1.235266640723325,0.1477174162864685,1.0853759050369263,0.48003193736076355,-0.28731289505958557,0.7333717942237854,0.012549336068332195,0.6160029172897339
21.08046437088102,1.673595565000956,-1.1401018045196787,1.5570008503802646,0.3419565269318829,2.7194540927994924,-1.2728353815430795,0.1447138786315918,1.0858803987503052,0.4678720533847809,-0.3239091634750366,0.7321493029594421,0.0007957876077853143,0.599199116230011
21.246936469993283,1.6672704745961862,-1.1484022927765318,1.5628695012667568,0.37968252997777735,2.6695124630658134,-1.3104042960243683,0.1407400369644165,1.0848093032836914,0.4551648497581482,-0.35982176661491394,0.7298657298088074,-0.01039830967783928,0.5811335444450378
21.41340856910555,1.6609452340042417,-1.1567029458648113,1.5687383182478052,0.4174093351908851,2.6195708333321335,-1.3479740524726496,0.13579662144184113,1.082135558128357,0.4420502483844757,-0.39498093724250793,0.726550281047821,-0.020955897867679596,0.5618500709533691
21.57988066821781,1.6546199375679354,-1.165003705321075,1.574607226098749,0.45513642764177076,2.5696292035984545,-1.385544047609239,0.12988513708114624,1.0778448581695557,0.42867299914360046,-0.42931845784187317,0.7222356200218201,-0.030802056193351746,0.5413985848426819
21.746352767330077,1.6482945741587005,-1.1733045525947616,1.5804762114139188,0.4928637658396733,2.5196875738647746,-1.4231142572682214,0.12300816178321838,1.0719349384307861,0.4151804447174072,-0.46276870369911194,0.7169578671455383,-0.03986512869596481,0.5198339223861694
21.91282486644234,1.6419690524539592,-1.1816054986157392,1.5863452935460567,0.5305914145848064,2.4697459441310956,-1.460684777589318,0.11516959965229034,1.0644164085388184,0.4017205834388733,-0.49526894092559814,0.7107560038566589,-0.048076990991830826,0.49721527099609375
22.079296965554605,1.635643548269044,-1.1899066138942402,1.5922145060342696,0.56831964485934,2.4198043143974157,-1.4982558432929673,0.10637524724006653,1.055312156677246,0.38844364881515503,-0.5267590880393982,0.7036721706390381,-0.055373381823301315,0.47360745072364807
22.245769064666867,1.629318007506786,-1.1982078277556492,1.5980837841825335,0.60604823351615,2.3698626846637367,-1.5358272669574222,0.09663286805152893,1.0446579456329346,0.3754977583885193,-0.5571821331977844,0.6957513093948364,-0.06169372797012329,0.44907915592193604
22.412241163779132,1.6229923818192118,-1.2065091181130108,1.6039531008732588,0.6437771240412299,2.319921054930057,-1.573399017100118,0.08595232665538788,1.0325016975402832,0.3630293905735016,-0.5864840149879456,0.6870411038398743,-0.06698192656040192,0.4237031638622284
22.578713262891394,1.6166665614822149,-1.2148107992997532,1.609822597702475,0.6815068649000999,2.269979425196378,-1.6109714180211065,0.07434670627117157,1.018903374671936,0.35118335485458374,-0.6146142482757568,0.6775917410850525,-0.07118657231330872,0.39755651354789734
22.745185176345117,1.6103407163297117,-1.2231125417832978,1.6156921922098837,0.7192370206558925,2.220037851160261,-1.6485442112513455,0.061831265687942505,1.00393545627594,0.3400992155075073,-0.6415256857872009,0.6674556136131287,-0.07426081597805023,0.3707197606563568
22.911657063751626,1.6040148376769665,-1.2314144260329758,1.621561889337807,0.7569677237665872,2.1700962849383085,-1.6861175157022668,0.048424988985061646,0.9876806735992432,0.3299119472503662,-0.667174756526947,0.6566873788833618,-0.07616305351257324,0.3432764410972595
23.078129162863892,1.5976888976090144,-1.2397165800299752,1.627431692405302,0.7946991641616757,2.120154655204629,-1.723691493448002,0.03415009379386902,0.9702332615852356,0.32075074315071106,-0.6915218830108643,0.6453433632850647,-0.0768568217754364,0.31531307101249695
23.244601261976158,1.591362697872568,-1.2480189411536717,1.6333014892688342,0.8324313622692555,2.0702130254709497,-1.761266205888382,0.019032880663871765,0.9516980051994324,0.3127383291721344,-0.7145308256149292,0.6334820985794067,-0.07631102204322815,0.2869192957878113
23.411073361088423,1.5850364025042134,-1.2563215844152154,1.639171562977723,0.8701642475356341,2.02027139573727,-1.7988414793685346,0.003103017807006836,0.9321878552436829,0.3059881329536438,-0.7361696362495422,0.6211632490158081,-0.07450035214424133,0.25818607211112976
23.57754567810659,1.578710039261949,-1.2646244617913631,1.6450417448710049,0.9078981160813845,1.970329700631821,-1.836417760794809,-0.013605400919914246,0.9118257761001587,0.3006060719490051,-0.7564104795455933,0.6084476113319397,-0.07140514999628067,0.22920700907707214
23.744018138360524,1.5723834635451404,-1.272927594241574,1.6509120540601359,0.945632981163669,1.9203879625556408,-1.8739949849819628,-0.031053990125656128,0.8907415866851807,0.296688050031662,-0.7752293944358826,0.5953975319862366,-0.06701157242059708,0.2000766098499298
23.910490617586532,1.566056572553994,-1.2812310760247636,1.6567826401773753,0.9833690485884039,1.8704462187878386,-1.9115733647132116,-0.04920002073049545,0.8690723776817322,0.29431918263435364,-0.7926064729690552,0.5820755958557129,-0.06131170690059662,0.17089061439037323
24.07696294963038,1.559729472947512,-1.2895349971858996,1.6626535414662291,1.021106529406344,1.8205045191746838,-1.9491532099279425,-0.06799640506505966,0.8469610214233398,0.29357483983039856,-0.8085263967514038,0.5685456991195679,-0.054303690791130066,0.1417456567287445
24.243435261174355,1.5534020890570799,-1.2978393672376989,1.668524637078194,1.0588456268770285,1.7705628257114916,-1.9867346410989417,-0.087391696870327,0.8245552182197571,0.2945176362991333,-0.8229777812957764,0.5548714399337769,-0.045991506427526474,0.11273837089538574
24.409907245884618,1.5470742335055194,-1.3061443233516172,1.6743961543127404,1.0965871889103505,1.7206212302984123,-2.0243187395958633,-0.10732939839363098,0.8020063042640686,0.29719895124435425,-0.8359537124633789,0.5411165952682495,-0.036385659128427505,0.08396527916193008
24.57637964433147,1.5407457815737384,-1.3144501160244653,1.6802681419316845,1.134332654645634,1.670679510764356,-2.0619068068236843,-0.12774920463562012,0.7794674634933472,0.3016573488712311,-0.8474518060684204,0.5273447036743164,-0.025502396747469902,0.05552196130156517
24.742851743443737,1.5344158688058316,-1.3227576016539258,1.6861413743298825,1.172085376551753,1.6207378810306765,-2.0995023140219295,-0.14858561754226685,0.7570924758911133,0.30791985988616943,-0.8574736714363098,0.5136182904243469,-0.01336447149515152,0.02750241383910179
24.909323047827403,1.5280839204788208,-1.331067442893982,1.6920160055160522,1.2098479270935059,1.5707964897155762,-2.1371076107025146,-0.16976913809776306,0.735036313533783,0.31599995493888855,0.8660253882408142,-0.4999999403953552,1.0680402340312867e-07,2.5423537053370637e-08
24.959323047827404,1.5161026444723236,-1.3298407247367892,1.6897349464020786,1.210902174802841,1.5707963705062866,-2.1490888946547773,-0.16087962687015533,0.7383135557174683,0.31646713614463806,0.8660253882408142,-0.49999991059303284,3.4552943617427445e-08,8.150509600568512e-09
25.263912628168086,1.5041386425922445,-1.3286157752129635,1.6874572950656774,1.2119549025398293,1.5707963705062866,-2.1610528409878036,-0.15194882452487946,0.7414774894714355,0.3169325292110443,0.866025447845459,-0.49999991059303284,5.059776597704513e-08,6.264603769068344e-08
25.520467249943067,1.4998396235220113,-1.3375015197873044,1.6993481756865518,1.2089497262185562,1.5707963705062866,-2.1653518285451305,-0.1493423581123352,0.7339284420013428,0.31668728590011597,0.8660253882408142,-0.4999999701976776,2.4226926242931768e-08,2.8725934964057842e-09
25.833078135606346,1.4968438665127923,-1.3480724237625838,1.713601847864508,1.2052669066659134,1.5707963705062866,-2.168347558169971,-0.14786933362483978,0.7245686054229736,0.3162388503551483,0.8660253882408142,-0.5,3.463789610691492e-08,1.3085770689258425e-08
26.083899894118712,1.4761697154802376,-1.3355649370779414,1.713271910918722,1.2264376338704075,1.5471401664937816,-2.194656096999761,-0.14551980793476105,0.7193202376365662,0.31125307083129883,0.867151141166687,-0.49762529134750366,-0.0038766420911997557,0.020069675520062447
26.378129694435316,1.4316490947719591,-1.2953606409465732,1.6972357100026838,1.279261583702705,1.4925245044510378,-2.252184997218696,-0.14184340834617615,0.7184423208236694,0.30258774757385254,0.8675968050956726,-0.49265968799591064,-0.016161441802978516,0.06558194756507874
26.832922820293835,1.3674833691959536,-1.2374158551035013,1.67412339820446,1.3553945534335077,1.4138092141645542,-2.335099016956323,-0.13646620512008667,0.7209120392799377,0.2955005168914795,0.8630016446113586,-0.4868625998497009,-0.04171571508049965,0.12826773524284363
27.248155857066866,1.3089701796776199,-1.184575585548398,1.6530471138125014,1.4248207595032143,1.3420281712919402,-2.4107089116015232,-0.13047505915164948,0.7279598712921143,0.29412177205085754,0.8535193204879761,-0.4830872714519501,-0.07250460982322693,0.18131360411643982
27.489323560445882,1.2695270845674267,-1.1489565431604047,1.6388398231711145,1.4716201985987247,1.293641362703318,-2.461676706902238,-0.12523584067821503,0.7356692552566528,0.29558923840522766,0.8443480730056763,-0.48140749335289,-0.09690483659505844,0.21431899070739746
27.6789346899086,1.2389864195956837,-1.1213768302310088,1.6278391625378004,1.507856857671458,1.2561756084051707,-2.5011409111255323,-0.1202174499630928,0.7433832287788391,0.29786768555641174,0.8357469439506531,-0.48060524463653564,-0.11761915683746338,0.23814158141613007
27.868885398208477,1.213427399768966,-1.0982957863103924,1.618632876312729,1.5381827686675327,1.2248210862356212,-2.5341679057611133,-0.11521708965301514,0.7510382533073425,0.30043676495552063,0.8275640606880188,-0.48027679324150085,-0.13606934249401093,0.2568210959434509
28.058486525266744,1.1911499611528358,-1.0781781705871074,1.6106086063034715,1.564615066356314,1.1974922431224728,-2.5629544887622457,-0.11016716808080673,0.7586066722869873,0.30309924483299255,0.8197141289710999,-0.4802503287792206,-0.15290963649749756,0.2721157670021057
28.42601054315338,1.1710284391986292,-1.0600074529647827,1.603360891342163,1.5884893576251429,1.1728081703186035,-2.5889552275287073,-0.10498520731925964,0.7661557793617249,0.3057924211025238,0.8120599389076233,-0.4804372787475586,-0.16867762804031372,0.28510764241218567
28.59212640329768,1.129606319477351,-1.0101726949214935,1.6321731694275379,1.6361856898870815,1.135873457699343,-2.592820376143064,-0.09927034378051758,0.7541455626487732,0.2921566963195801,0.7744659781455994,-0.5006767511367798,-0.18514926731586456,0.3394775986671448
28.758243058170574,1.0916013984974016,-0.9603376984596252,1.6620618381057506,1.682832115463058,1.0990732303108166,-2.596563871375121,-0.09547439217567444,0.7452887296676636,0.2819330096244812,0.7330645322799683,-0.5181691646575928,-0.20182302594184875,0.3916434049606323
28.92435971304347,1.05710188234942,-0.910502701997757,1.6931605982997844,1.7283969939126804,1.0623430087741437,-2.6002471882426454,-0.09308706223964691,0.7396988272666931,0.27427881956100464,0.6882060170173645,-0.5327950716018677,-0.21812908351421356,0.44149908423423767
29.090476367916363,1.0264769115994057,-0.8606677055358887,1.7255933907977765,1.7727394674399866,1.0257029813623513,-2.6038727353369144,-0.09190045297145844,0.7372710704803467,0.26828932762145996,0.6403536200523376,-0.5444194078445435,-0.23340068757534027,0.4889567494392395
29.256593022789257,0.9991191163180654,-0.8108327090740204,1.7590477954951427,1.8159605391199614,0.989227818986519,-2.6074460091726803,-0.09100796282291412,0.7380096912384033,0.2631797194480896,0.5897894501686096,-0.5532781481742859,-0.24722066521644592,0.5337730646133423
29.42270967766215,0.974214225000078,-0.7609977126121521,1.7931133326303514,1.8582056820014812,0.9530097228995738,-2.6109724370140532,-0.08947418630123138,0.7418259978294373,0.25816482305526733,0.5367741584777832,-0.5596541166305542,-0.25932949781417847,0.5756813287734985
29.588826332535046,0.9512446066923869,-0.7111627161502838,1.8276099945734123,1.8996213489274303,0.9170445828006168,-2.6144669290001548,-0.08681885898113251,0.7484183311462402,0.25249582529067993,0.48157063126564026,-0.5637196898460388,-0.2695130407810211,0.6145505905151367
29.754941397950745,0.9299533367156982,-0.6613281965255737,1.8625946044921875,1.9403265714645386,0.8812311887741089,-2.6179943084716797,-0.082966148853302,0.757331371307373,0.2455001175403595,0.42442911863327026,-0.5655614733695984,-0.2775762677192688,0.6503471732139587
29.804941397950746,0.9301294207735852,-0.650421702560117,1.8597619611675487,1.9322526445858546,0.8810550744925733,-2.617993995507163,-0.08297783136367798,0.7575936317443848,0.23594653606414795,0.4244289994239807,-0.5655615329742432,-0.2775762379169464,0.6503471732139587
30.09657573491203,0.9303052185666729,-0.6395329951340868,1.8569339229507322,1.924191899262717,0.8808793020707935,-2.617993921082417,-0.0830482542514801,0.7577767968177795,0.2263910472393036,0.4244289696216583,-0.5655615925788879,-0.27757611870765686,0.6503472328186035
30.58708829580654,0.9085721458992633,-0.6526883942907529,1.8859457945836535,1.873584995548311,0.8553023759216755,-2.6940212273984057,-0.08332252502441406,0.7537850141525269,0.2183166891336441,0.44448792934417725,-0.561731219291687,-0.3201257586479187,0.6200063824653625
31.166873820817667,0.8692997562201291,-0.6832155367477256,1.9399959084233762,1.787442979814793,0.8093237452006918,-2.8310198873281878,-0.08312425017356873,0.7479594945907593,0.21074596047401428,0.4804459512233734,-0.551683783531189,-0.3911426365375519,0.5584120750427246
32.573049068589434,0.8172398409391671,-0.7236826553280912,2.0116453387333766,1.673252168462131,0.7483739624238925,-3.012626830216595,-0.08151203393936157,0.7426882386207581,0.20296692848205566,0.5271303653717041,-0.532137393951416,-0.4725034236907959,0.464439332485199
32.91598094523764,0.7922081874271033,-0.7311277186537319,2.057005404879713,1.659131497446662,0.7215144061779744,-3.0327649625082493,-0.08245384693145752,0.737501859664917,0.21072998642921448,0.510747492313385,-0.5391097664833069,-0.49036160111427307,0.45611751079559326
33.107114395954376,0.7679870322114507,-0.7379562189162805,2.1012377754391607,1.6467429413457788,0.6956010109907608,-3.0501509684790364,-0.08336928486824036,0.7328531742095947,0.2190294861793518,0.49346646666526794,-0.5463759899139404,-0.5066393613815308,0.44864293932914734
33.29832084373451,0.7441581258578914,-0.7446741352106433,2.144753826035123,1.6345550113913485,0.6701072696014222,-3.067255417232685,-0.08417576551437378,0.7287294864654541,0.22761695086956024,0.47625306248664856,-0.5534743666648865,-0.522178590297699,0.44065701961517334
33.48940161884642,0.7207829861075417,-0.7512641242719091,2.187441213738587,1.6225991724734734,0.6450989977616169,-3.0840341511803104,-0.08484464883804321,0.725106418132782,0.2364320307970047,0.4591720700263977,-0.5603840947151184,-0.5369388461112976,0.4322351813316345
33.68052273885227,0.697864309547638,-0.7577254258701677,2.2292950140756846,1.6108768038336456,0.6205790804588738,-3.1004852347048284,-0.08535487949848175,0.7219468355178833,0.2454361915588379,0.4422456920146942,-0.56710284948349,-0.5509232878684998,0.42343419790267944
33.871678820707565,0.6754132131852639,-0.7640549058656512,2.270294925307195,1.599393591561761,0.596559411403269,-3.1166006879906694,-0.08568917214870453,0.719214916229248,0.25458914041519165,0.4255014955997467,-0.5736262798309326,-0.5641337633132935,0.41431185603141785
34.08004819754922,0.6534326908948586,-0.7702517202163552,2.310435480057082,1.5881510669547834,0.5730431936398594,-3.132378362027251,-0.0858352929353714,0.7168736457824707,0.2638554573059082,0.40895992517471313,-0.5799531936645508,-0.576580286026001,0.40492117404937744
34.28881307563682,0.6335615067961587,-0.768001720584326,2.3447226966261434,1.564871760278182,0.5521335473340235,-3.141592801996919,-0.08643072843551636,0.7144474983215332,0.26574355363845825,0.3950780928134918,-0.5864410400390625,-0.5864412188529968,0.39507824182510376
34.62520734004189,0.6147529880671556,-0.7523085877588717,2.373719366199689,1.520181945331803,0.5329464374239802,-3.1415927950751175,-0.08809754252433777,0.7113394141197205,0.25686028599739075,0.3838663697242737,-0.593840479850769,-0.593840479850769,0.38386642932891846
34.81643185547997,0.5927917842919248,-0.7339849710606504,2.407576459279844,1.4680012209028568,0.5105431829910593,-3.141592786993083,-0.09009414911270142,0.7079561352729797,0.24814340472221375,0.37060031294822693,-0.6022087335586548,-0.6022087335586548,0.3706003427505493
35.03447366314021,0.5652617301084113,-0.7110149114180678,2.4500189235697194,1.402588678604784,0.48245898438620083,-3.1415927768616334,-0.0925445556640625,0.7041565179824829,0.2397284358739853,0.3537135422229767,-0.6122798919677734,-0.6122799515724182,0.3537135422229767
35.37303459241783,0.5225148788166758,-0.6753485187128988,2.5159207811309217,1.3010203998214982,0.4388516942077318,-3.1415927611301866,-0.09583009779453278,0.6993881464004517,0.23215264081954956,0.326955646276474,-0.6269768476486206,-0.6269768476486206,0.3269556164741516
35.9732453539015,0.46190725346233436,-0.6310497290582484,2.604859493676353,1.1370017757214976,0.37800413792856846,-3.112350667747094,-0.09919390082359314,0.6945610642433167,0.2280965894460678,0.28967607021331787,-0.6494358777999878,-0.6419193744659424,0.2868104875087738
36.26833915346072,0.44786786994180466,-0.6341493275481693,2.615874996787064,1.0563619703562905,0.3659975765492762,-3.043262862561866,-0.1011648029088974,0.6926712989807129,0.218940868973732,0.2838631570339203,-0.6617475748062134,-0.6372663378715515,0.2745968699455261
36.5472189451284,0.43330198526382446,-0.6373651663409632,2.6273036003112793,0.9726980328559875,0.3535407483577728,-2.971584145222799,-0.1023130863904953,0.6912851929664612,0.20955964922904968,0.27690601348876953,-0.6738970875740051,-0.6330727338790894,0.2615429162979126
