Sungjin-Park-dev/lg_sgu_vision_v2/data/cylinder_sample/trajectory/22/glns_trajectory_joined.csv
time,ur20-shoulder_pan_joint,ur20-shoulder_lift_joint,ur20-elbow_joint,ur20-wrist_1_joint,ur20-wrist_2_joint,ur20-wrist_3_joint,target-POS_X,target-POS_Y,target-POS_Z,target-ROT_X,target-ROT_Y,target-ROT_Z,target-ROT_W
0.0,1.987818956375122,-1.331007957458496,2.7694647312164307,-1.4384568373309534,2.271247386932373,2.180485125791165e-09,-0.1657329797744751,0.6740177273750305,0.19200849533081055,0.09987203776836395,0.7000182867050171,0.7000182867050171,0.09987201541662216
0.3533263768743463,2.0436516349874294,-1.3414022446092624,2.722154490926059,-1.3807523311153924,2.377245299994677,-3.9013659714927665e-08,-0.16708537936210632,0.6782269477844238,0.20083904266357422,0.11739704757928848,0.6972932815551758,0.6972933411598206,0.1173970103263855
0.657533472943741,2.091722478655198,-1.3503515224351024,2.681421299873648,-1.3310698805119465,2.4685074288154953,-7.448101227409909e-08,-0.1701791137456894,0.6787282228469849,0.21027864515781403,0.13242700695991516,0.6945955753326416,0.6945956349372864,0.13242700695991516
0.9905138064986052,2.131284791412004,-1.3577167796529788,2.6478978765042607,-1.290181214964852,2.543616176816978,-1.0367064964138853e-07,-0.1739395558834076,0.6768478155136108,0.21930822730064392,0.1447506695985794,0.6921323537826538,0.6921323537826538,0.14475074410438538
1.2732893954292586,2.1511666438097787,-1.3461749443794317,2.612346517245719,-1.2792400810598805,2.6074004857075925,-0.013132261652651578,-0.1739257276058197,0.6839727759361267,0.22553737461566925,0.1587408185005188,0.6866400241851807,0.6909216642379761,0.16110263764858246
1.529107134092816,2.17353994975987,-1.3302784704995392,2.568771459382685,-1.2687608810191124,2.6841458073066597,-0.03041556955084148,-0.1749240607023239,0.6914040446281433,0.2321118712425232,0.17632870376110077,0.6798713803291321,0.6884343028068542,0.18094532191753387
1.8652681128524033,2.2020418110348925,-1.3100275923192015,2.5132602060599174,-1.2554111907005938,2.781913411012751,-0.05243316700320663,-0.178595170378685,0.6972191333770752,0.23923161625862122,0.19923707842826843,0.6716591715812683,0.6833716034889221,0.20538194477558136
2.2429756877205245,2.2340662564096654,-1.2872738803486181,2.4508882408550345,-1.2404115938584683,2.891764246861562,-0.07717194950212031,-0.18599866330623627,0.6989348530769348,0.24542325735092163,0.22550924122333527,0.6630696058273315,0.6751341223716736,0.2316855490207672
2.5495679983929187,2.2608802045137106,-1.2682222825827987,2.3986644281213865,-1.2278524876319734,2.9837419400632803,-0.09788563938246683,-0.19492432475090027,0.6965171098709106,0.2490629404783249,0.24781398475170135,0.6564633250236511,0.6661539673805237,0.25275081396102905
2.9213551742467074,2.2780847026086004,-1.2505647465112706,2.3592995250984927,-1.2195179703324233,3.0514000415665397,-0.11131165031769484,-0.20197781920433044,0.6937711834907532,0.24885153770446777,0.2651768922805786,0.6516917943954468,0.6579525470733643,0.2684724032878876
3.2503808167751336,2.2773468316205348,-1.2233954548409411,2.33088588584188,-1.2184554326238781,3.0929199101882183,-0.11143272134667914,-0.2019098699092865,0.6966599225997925,0.23929964005947113,0.2795698940753937,0.6474154591560364,0.6507447957992554,0.2814694941043854
3.4500219923432374,2.2766374116961483,-1.1972737653394885,2.3035678287032,-1.2174338645814358,3.132838842541579,-0.11154912408051273,-0.20230069756507874,0.6987254023551941,0.22954143583774567,0.29329270124435425,0.6430349349975586,0.6435379981994629,0.29384392499923706
3.649662664997151,2.275958396719816,-1.1722716223648018,2.2774205930761187,-1.2164560798078248,3.1710468939021186,-0.11166053792278317,-0.20310640335083008,0.7000614404678345,0.21968208253383636,0.3063163757324219,0.6385967135429382,0.6363885998725891,0.30557140707969666
3.8881073122340717,2.275309693309557,-1.1483855874807622,2.2524405830448986,-1.2155219438325526,3.207549318857172,-0.11176697819575222,-0.20428046584129333,0.7007638216018677,0.2097959667444229,0.3186523914337158,0.6341343522071838,0.6293310523033142,0.3166648745536804
4.129750638247216,2.263153868818685,-1.1176325347502978,2.1972947723824348,-1.1774326436917621,3.2660298259196536,-0.09802567670420118,-0.20336702466011047,0.7080274224281311,0.20412802696228027,0.34145233035087585,0.6240738034248352,0.616218090057373,0.3379606008529663
4.403009265909024,2.245327525189001,-1.0780324553171559,2.121871703197052,-1.1213036768186913,3.3435388808053,-0.07766667024864743,-0.20294517278671265,0.7167505025863647,0.19931328296661377,0.3711922764778137,0.6082575917243958,0.5982404351234436,0.3665343225002289
4.788071440037922,2.22131039048351,-1.0246799304331302,2.0202554632009537,-1.0456820582594135,3.4479655344564746,-0.0502373212654506,-0.20513075590133667,0.7253031134605408,0.19483084976673126,0.409245103597641,0.583156406879425,0.5734192132949829,0.40452122688293457
5.265613505531147,2.193158843730308,-0.9621430742639127,1.9011465700622268,-0.9570426116089523,3.5703686378487105,-0.018086167109088464,-0.21225303411483765,0.7315587401390076,0.19243593513965607,0.4505428969860077,0.5484165549278259,0.5435671210289001,0.4480902850627899
5.633355824608533,2.1734305290556044,-0.925601040118102,1.824338150263848,-0.8987374657134444,3.6485633104395507,-2.892009791325088e-07,-0.21855556964874268,0.7346810698509216,0.19548486173152924,0.4755215048789978,0.5233348608016968,0.523334801197052,0.4755213260650635
5.894502384670022,2.1616737531420123,-0.9214828331121854,1.7947174910076533,-0.8732349952539831,3.6767739234114165,-2.431614986708263e-07,-0.2185148298740387,0.7374254465103149,0.20509864389896393,0.4858838617801666,0.5137283205986023,0.5137283205986023,0.48588380217552185
6.0939157773628265,2.150278232856986,-0.9174911680656818,1.7660069987867715,-0.8485161504299435,3.7041176964608185,-1.9853669359083388e-07,-0.21865758299827576,0.7399147152900696,0.21475252509117126,0.49574294686317444,0.5042212605476379,0.5042212009429932,0.49574270844459534
6.319369080394391,2.139160105526946,-0.9135966692507212,1.737995385430311,-0.8243990186684153,3.730795859707688,-1.549981580481029e-07,-0.21897181868553162,0.7421906590461731,0.22448301315307617,0.505182683467865,0.4947631359100342,0.4947631061077118,0.5051825046539307
6.581868246141701,2.110752370578402,-0.9112014335036519,1.7008688756717862,-0.8202467766636424,3.7811267816244416,-0.014863191242332048,-0.21248605847358704,0.7443783283233643,0.23166874051094055,0.5312830209732056,0.47630032896995544,0.4727123975753784,0.5171258449554443
6.847668401156243,2.0782857049557326,-0.9085626639446109,1.6588876586353707,-0.8162519935228212,3.8384160739328697,-0.03204403764589508,-0.20637142658233643,0.7470078468322754,0.2391008734703064,0.5604237914085388,0.4550442695617676,0.44608166813850403,0.5290283560752869
7.1472727612640226,2.041705230330576,-0.9055895393244855,1.6115870561533736,-0.8117510366024474,3.9029644180079197,-0.051401846766442126,-0.20125150680541992,0.750521719455719,0.24689225852489471,0.5922659039497375,0.43085217475891113,0.41433286666870117,0.5402922630310059
7.472084217266837,2.0020529704351766,-0.9023667514479841,1.560314463273038,-0.8068721192178732,3.972933103250766,-0.07238519611111091,-0.19772988557815552,0.7554103136062622,0.2548163831233978,0.6255078911781311,0.4044158160686493,0.3780185282230377,0.5498088598251343
7.792905187839361,1.9628802635785245,-0.8991829398548897,1.50966195933051,-0.80205220728882,4.042055589671304,-0.09311477356565595,-0.19615912437438965,0.7617694735527039,0.26232317090034485,0.6569556593894958,0.37816765904426575,0.34041598439216614,0.5563411116600037
8.08248217809257,1.927502948327375,-0.8963076035437858,1.463917109305406,-0.7976992902330527,4.104480890072199,-0.1118358897580141,-0.1961800456047058,0.7691460251808167,0.26902151107788086,0.6840950846672058,0.35442453622817993,0.3051694929599762,0.559704065322876
8.33639602675328,1.8964593917955381,-0.893784498986865,1.4237760520286367,-0.7938796101431478,4.159259024824781,-0.12826364931892856,-0.19715279340744019,0.7771039605140686,0.27498477697372437,0.7068748474121094,0.3336143493652344,0.27337464690208435,0.5606207251548767
8.720660800679997,1.8692432894582984,-0.8915724756396597,1.3885841073927463,-0.7905308699910406,4.207283397281604,-0.1426659806021656,-0.19860409200191498,0.7853447198867798,0.2803838849067688,0.7260185480117798,0.3154260218143463,0.24493201076984406,0.5598318576812744
9.031267856698367,1.8518724678402048,-0.8559020416465105,1.3579369613348107,-0.7474617739396335,4.234460748842202,-0.11929050979079751,-0.1971723586320877,0.7878556251525879,0.2741282880306244,0.7216885685920715,0.295022577047348,0.23428891599178314,0.5807202458381653
9.259389699548754,1.8359180482565352,-0.8069385269946667,1.3259175660566576,-0.6885470053647641,4.257778937021347,-0.082419035258969,-0.19495351612567902,0.7893454432487488,0.26451340317726135,0.7084473967552185,0.27186480164527893,0.2288500815629959,0.6097700595855713
9.50324501715457,1.8189316618093982,-0.7548079447867385,1.291827086039757,-0.6258215002965195,4.282605396773191,-0.04316263285656026,-0.1929595023393631,0.7919957637786865,0.25510546565055847,0.6923028826713562,0.24703606963157654,0.22397470474243164,0.6399415731430054
9.81365881440082,1.8014900046650228,-0.7012801539033144,1.256822909831215,-0.5614148204524658,4.3080972575905525,-0.0028540767339680206,-0.19127896428108215,0.7960251569747925,0.24614131450653076,0.6735163331031799,0.22152893245220184,0.21997156739234924,0.6700098514556885
10.099671069240554,1.7678038688095177,-0.6840159589890342,1.2383073146850962,-0.5542915342459455,4.355051171534993,-5.448920431490536e-08,-0.1858055591583252,0.7980513572692871,0.23816221952438354,0.6801186203956604,0.1934908926486969,0.19349084794521332,0.6801185607910156
10.336523123713754,1.7332278100766079,-0.6696594871047986,1.2212200716471504,-0.5515606950751861,4.403156456130423,-5.1493771017471776e-08,-0.18069696426391602,0.8012312054634094,0.23020851612091064,0.6875342726707458,0.16521704196929932,0.16521701216697693,0.6875341534614563
10.652471250536337,1.699908794006964,-0.6612422764617888,1.2120514115120407,-0.5508091969745172,4.44864896947762,-4.7829719046681255e-08,-0.17533983290195465,0.8023446798324585,0.22496753931045532,0.6935092210769653,0.1380029320716858,0.1380029022693634,0.6935092806816101
10.987621866492445,1.6635583657293074,-0.6669933640637192,1.2221654576899432,-0.5551721492065546,4.495899020125677,-4.168888979825708e-08,-0.16796667873859406,0.7957577705383301,0.22616587579250336,0.6986704468727112,0.10890185832977295,0.10890182852745056,0.6986703872680664
11.286349396663377,1.6182166092200008,-0.674166991062516,1.234781227045382,-0.560614283650081,4.5548364355303095,-3.40291180227916e-08,-0.16011911630630493,0.7897690534591675,0.2276461124420166,0.7033963799476624,0.07234212011098862,0.07234209030866623,0.7033964991569519
11.702959854735616,1.557170053056397,-0.6838253117186402,1.2517666579548745,-0.5679413832495073,4.634187711630478,-2.3716269031258502e-08,-0.1512218564748764,0.7858532667160034,0.2296134978532791,0.7067382335662842,0.022826747968792915,0.022826729342341423,0.7067382335662842
12.193494114185485,1.4852913586664171,-0.6951974106934203,1.2717659941033965,-0.5765686078788648,4.727619126647128,-1.1573501813304131e-08,-0.14187583327293396,0.7876021862030029,0.23189184069633484,0.7062100768089294,-0.035600196570158005,-0.0356002040207386,0.7062100172042847
12.564993380448293,1.4289053144612898,-0.7041183806823582,1.28745469660021,-0.5833363305461582,4.800912443143578,-2.0479725179418216e-09,-0.1343209147453308,0.7938276529312134,0.23364970088005066,0.7024193406105042,-0.08128368854522705,-0.08128368109464645,0.7024193406105042
12.899413288845711,1.3861283740984787,-0.710886222026343,1.299356838354198,-0.5884706234906618,4.856515986058479,5.1785141834407295e-09,-0.12789133191108704,0.801331102848053,0.23496603965759277,0.6975728869438171,-0.11572359502315521,-0.11572358757257462,0.6975729465484619
13.069724997928317,1.3643200396847923,-0.7118519178794842,1.3087355135461067,-0.5968836105535452,4.884806972620083,7.286480900727229e-09,-0.12442255765199661,0.8050945997238159,0.23051168024539948,0.6944555640220642,-0.1331595480442047,-0.13315951824188232,0.6944555640220642
13.30371984222746,1.3573459056580488,-0.7080105793378378,1.3172648004972016,-0.6092542577754039,4.893759760067135,5.327826363362542e-09,-0.12357266247272491,0.8047595024108887,0.22057612240314484,0.6933731436729431,-0.1386854499578476,-0.1386854350566864,0.6933731436729431
13.634731613265728,1.3503253797542971,-0.7041436882466579,1.3258508241886124,-0.6217071944316539,4.902772101376004,3.3561428735786883e-09,-0.1227341890335083,0.8043873310089111,0.2106305956840515,0.6922391057014465,-0.14423930644989014,-0.14423930644989014,0.6922391057014465
13.926863113791827,1.3221105689776245,-0.7213854354205016,1.3600906916004019,-0.6387053011577359,4.936099710788875,1.5183417838702141e-09,-0.11915278434753418,0.7983732223510742,0.21186767518520355,0.687473714351654,-0.16546869277954102,-0.16546869277954102,0.687473714351654
14.161423318834677,1.2844634321411919,-0.7470757882008996,1.4057552595973946,-0.6586794900399034,4.980332034448298,-4.3543187407252466e-10,-0.11476075649261475,0.7908512353897095,0.21670806407928467,0.6801252961158752,-0.1934671550989151,-0.1934671550989151,0.6801252961158752
14.425383422053818,1.2420980168267846,-0.7759858875225014,1.4571429228013968,-0.681157024287409,5.030107951546441,-2.6340700549445116e-09,-0.11024067550897598,0.7836006879806519,0.22190530598163605,0.6704936027526855,-0.2245846688747406,-0.224584698677063,0.6704936027526855
14.72592068455372,1.1938612685979209,-0.8089025760973282,1.5156522930895269,-0.7067496722587805,5.086782207259623,-5.137412830886134e-09,-0.10541313886642456,0.7768869996070862,0.2274903506040573,0.6577961444854736,-0.2594306170940399,-0.2594306468963623,0.6577960252761841
15.072571231736546,1.1382233147403251,-0.8468698368957084,1.5831390488070294,-0.7362691282587774,5.152152277591123,-8.024856014177751e-09,-0.09994173049926758,0.7711063623428345,0.23347721993923187,0.6409054398536682,-0.2987309396266937,-0.2987309694290161,0.6409054398536682
15.46771729835308,1.0748029764359357,-0.8901477858024422,1.6600655455941749,-0.769917631776233,5.226666016648035,-1.1316181643940412e-08,-0.09337794780731201,0.7669058442115784,0.23968535661697388,0.6187955737113953,-0.34218716621398926,-0.34218719601631165,0.6187955737113953
16.275697163806598,1.0078557173358362,-0.9358325004577637,1.7412700653076172,-0.8054373900042933,5.305323600769043,-1.4790543900744524e-08,-0.08554649353027344,0.7649228572845459,0.2455001175403595,0.5922662615776062,-0.3862907290458679,-0.3862907290458679,0.5922663807868958
16.44167224705177,1.0141004808107883,-0.9411747278390723,1.7410004238222077,-0.7797091730934437,5.255531075795491,-0.027786792234515627,-0.08163169026374817,0.738598644733429,0.25971055030822754,0.6007890105247498,-0.36116814613342285,-0.37801459431648254,0.6047438383102417
16.607651303939925,1.020357267148324,-0.9465273431619177,1.7407303228307298,-0.7539309990244137,5.205737358729045,-0.05562753083300326,-0.07622162997722626,0.7130473852157593,0.27450302243232727,0.6081770062446594,-0.33524712920188904,-0.3701464533805847,0.6170263886451721
16.773630360828083,1.0266274706867589,-0.9518913627970694,1.7404596996530048,-0.7280977265006009,5.155943641662597,-0.08352781196795392,-0.0693531185388565,0.6883613467216492,0.2898120582103729,0.6143993139266968,-0.3085784316062927,-0.36269310116767883,0.6290839314460754
16.939609417716238,1.0329115975463485,-0.9572674148075233,1.740188479925496,-0.7022063561090426,5.106149924596151,-0.11149072939719272,-0.0610678493976593,0.6646279096603394,0.30556821823120117,0.6194270849227905,-0.2812146842479706,-0.3556586802005768,0.6408863067626953
17.105588474604396,1.0392081836478302,-0.9626541075190432,1.7399167744653496,-0.6762636075511879,5.056356207529704,-0.13950916477844805,-0.05141162872314453,0.6419307589530945,0.321694016456604,0.6232350468635559,-0.25321412086486816,-0.349043607711792,0.6524025797843933
17.271567531492554,1.0455171666396503,-0.9680513933445861,1.7396445021660658,-0.6502698978741428,5.006562490463256,-0.16758268181338937,-0.040437012910842896,0.6203476190567017,0.33811312913894653,0.6258004307746887,-0.22463414072990417,-0.3428482711315155,0.6636025905609131
17.43754658838071,1.05183854496987,-0.9734594202506013,1.739371642647602,-0.624224819669373,4.95676877339681,-0.19571172107479842,-0.028202876448631287,0.5999500155448914,0.35474830865859985,0.627102792263031,-0.195532888174057,-0.33707213401794434,0.6744563579559326
17.603525645268867,1.058172549103561,-0.9788781872145049,1.7390982640987713,-0.5981277414273849,4.906975056330363,-0.2238969158596997,-0.014773353934288025,0.5808032751083374,0.3715209662914276,0.627124547958374,-0.16596968472003937,-0.33171316981315613,0.6849344968795776
17.769504702157022,1.064519334639949,-0.9843078170123525,1.7388243452817427,-0.5719782160898382,4.857181339263916,-0.2521387662207464,-0.000217437744140625,0.5629672408103943,0.38835111260414124,0.6258508563041687,-0.13600501418113708,-0.326768159866333,0.695007860660553
17.93548375904518,1.0708788764470234,-0.9897484514871927,1.7385498413800338,-0.545775980464064,4.807387622197469,-0.28043754310554864,0.015390962362289429,0.5464946031570435,0.4051589369773865,0.6232698559761047,-0.10570033639669418,-0.32223236560821533,0.7046477794647217
18.101462815933335,1.077251079003409,-0.9951999881465438,1.738274791663626,-0.5195212938665628,4.7575939051310225,-0.30879297772244657,0.03197351098060608,0.5314314961433411,0.42186349630355835,0.6193726062774658,-0.07511811703443527,-0.31809958815574646,0.7138258814811707
18.267441872821493,1.0836358646870954,-1.0006622598600645,1.7379992252875687,-0.49321461633180835,4.707800188064575,-0.3372045854580346,0.049447789788246155,0.5178167819976807,0.43838435411453247,0.6141534447669983,-0.044321611523628235,-0.31436219811439514,0.7225146889686584
18.43342092970965,1.0900341644146432,-1.006136092799896,1.7377230141143098,-0.46685222934999865,4.658006470998128,-0.3656763371241157,0.06772662699222565,0.5056819915771484,0.45464444160461426,0.607608437538147,-0.013372617773711681,-0.31101271510124207,0.7306874990463257
18.599399986597806,1.0964490976824623,-1.0116240335785907,1.737445983426981,-0.4404218692284559,4.6082127539316815,-0.39422152661193843,0.08671817928552628,0.4950515627861023,0.4705730080604553,0.5997334718704224,0.017670216038823128,-0.3080463409423828,0.7383190393447876
18.765379043485964,1.102877224607197,-1.017123387596158,1.737168457487077,-0.41393658294066715,4.558419036865234,-0.4228260455381182,0.10633169114589691,0.4859430193901062,0.48608535528182983,0.5905352830886841,0.048737093806266785,-0.3054466247558594,0.7453824281692505
18.93135810037412,1.1093186018320933,-1.0226341449946041,1.7368904083404324,-0.38739653872317353,4.508625319798788,-0.451489700604969,0.12647110223770142,0.47836577892303467,0.5011064410209656,0.5800203680992126,0.07976389676332474,-0.303200900554657,0.7518532872200012
19.097337157262277,1.1157732244642655,-1.0281562362919174,1.736611802621855,-0.3608021610587701,4.4588316027323405,-0.4802120249858035,0.1470383256673813,0.4723220467567444,0.5155638456344604,0.5681979656219482,0.11068647354841232,-0.30129489302635193,0.7577077150344849
19.263316214150432,1.1222490565625978,-1.0336964325666416,1.7363322083230035,-0.3341204414412809,4.409037885665894,-0.5090287076990291,0.167929008603096,0.4678066074848175,0.5294077396392822,0.5550668835639954,0.1414540559053421,-0.29972904920578003,0.7629245519638062
19.42929527103859,1.128739695716253,-1.0392492979548886,1.7360519216782448,-0.30737750442695605,4.359244168599447,-0.5379115218684598,0.18904496729373932,0.46480679512023926,0.5425556302070618,0.5406520366668701,0.17199255526065826,-0.29847559332847595,0.7674804925918579
19.59527432792675,1.1352446546638215,-1.0448144198309777,1.7357709903653484,-0.28057551538261216,4.309450451532999,-0.5668581110952842,0.21028387546539307,0.4633021056652069,0.554943323135376,0.5249725580215454,0.2022380232810974,-0.2975162863731384,0.7713543176651001
19.761253384814903,1.1417680589772707,-1.0503953366589827,1.7354892713081485,-0.2536977197459703,4.259656734466553,-0.5958865404162731,0.23154018819332123,0.4632655084133148,0.5665210485458374,0.5080418586730957,0.23213443160057068,-0.2968409061431885,0.7745273113250732
19.92723244170306,1.1483123822008345,-1.0559942301616287,1.7352066791514462,-0.226733352934534,4.209863017400106,-0.6250085172235997,0.2527092695236206,0.4646630883216858,0.5772398710250854,0.4898780584335327,0.2616235315799713,-0.29643598198890686,0.7769802808761597
20.09321149859122,1.1548712043859524,-1.061605508939644,1.7349234337571686,-0.19970920586171645,4.160069300333658,-0.6541950637030459,0.2736908197402954,0.46745234727859497,0.5870333909988403,0.47052067518234253,0.29063501954078674,-0.2962678074836731,0.7786956429481506
20.259190555479375,1.161445570378107,-1.0672300333951819,1.7346394672908585,-0.17262106660099846,4.110275583267212,-0.6834507171112874,0.29438185691833496,0.47158488631248474,0.5958582162857056,0.44999808073043823,0.31911125779151917,-0.2963172495365143,0.7796574831008911
20.425169612367533,1.1680451544125459,-1.0728762449630862,1.7343544483102702,-0.14542897647059064,4.060481866200765,-0.7128185777870806,0.3146759867668152,0.47700828313827515,0.6036955118179321,0.42832115292549133,0.3470059633255005,-0.29658252000808716,0.7798503041267395
20.591148669255688,1.1746590593227948,-1.0785346848111361,1.7340688530346164,-0.11817792233228429,4.010688149134318,-0.7422501276007537,0.3344785273075104,0.483659029006958,0.6104846596717834,0.40554946660995483,0.3742481768131256,-0.2970176935195923,0.7792614698410034
20.757127726143846,1.1812869749832258,-1.0842050793188265,1.7337826946492978,-0.09086918710216983,3.960894432067871,-0.7717439846588754,0.35369187593460083,0.4914698600769043,0.616195023059845,0.381722629070282,0.40078306198120117,-0.2975979149341583,0.7778793573379517
20.923106783032,1.1879391150340814,-1.0898961682795154,1.7334953907859745,-0.0634606097644542,3.911100715001424,-0.8013456346069031,0.3722149133682251,0.5003713369369507,0.6208247542381287,0.3568570613861084,0.42656782269477844,-0.2983206510543823,0.7756916284561157
21.089085839920156,1.194602621514646,-1.0955969577449007,1.7332076219925239,-0.03600543922058489,3.8613069979349772,-0.830997613262031,0.38996177911758423,0.5102821588516235,0.6243277788162231,0.33102819323539734,0.45153769850730896,-0.2991325259208679,0.7726924419403076
21.25506489680831,1.201277044962921,-1.101307066593499,1.7329194084281225,-0.008505483721324543,3.8115132808685304,-0.8606979646395209,0.40684348344802856,0.5211195349693298,0.6266919374465942,0.30428454279899597,0.4756442606449127,-0.3000061511993408,0.7688755393028259
21.421043953696465,1.2079695547717115,-1.107032688808688,1.7326305110987736,0.019069690696475565,3.7617195638020835,-0.8904794782240114,0.42277035117149353,0.5327994227409363,0.6279268264770508,0.27665627002716064,0.49884742498397827,-0.30093109607696533,0.7642335891723633
21.587023010584623,1.2146706785270203,-1.1127656342329277,1.7323411698124151,0.04667989613469551,3.711925846735636,-0.9202988605982376,0.4376661777496338,0.5452285408973694,0.628014087677002,0.24822081625461578,0.521095871925354,-0.30185842514038086,0.7587666511535645
21.753002067472778,1.2213797255539778,-1.1185053184025715,1.732051425301975,0.0743223512898198,3.6621321296691898,-0.9501531031534742,0.4514545798301697,0.55831378698349,0.6269609928131104,0.2190345823764801,0.5423493385314941,-0.302759051322937,0.7524746060371399
21.918981124360936,1.2281004411588967,-1.1242550179307995,1.7317612593152198,0.10201322396186109,3.6123384126027425,-0.9800596153656316,0.4640609323978424,0.5719599723815918,0.6247888803482056,0.18914279341697693,0.5625724196434021,-0.30361390113830566,0.7453561425209045
22.08496018124909,1.2348253293541456,-1.1300083144789386,1.7314709156325307,0.12972134462851384,3.5625446955362956,-1.0099847434030294,0.47542282938957214,0.5860674381256104,0.6215050220489502,0.15862485766410828,0.5817273259162903,-0.3043779134750366,0.7374181747436523
22.250939238137246,1.2415541069040168,-1.1357649619381827,1.7311804063701304,0.1574455375057056,3.5127509784698487,-1.0399272183750943,0.48547911643981934,0.6005373597145081,0.6171373128890991,0.12754173576831818,0.599783718585968,-0.30502232909202576,0.728665828704834
22.416918295025404,1.2482869476479455,-1.1415249331930317,1.7308897290629308,0.18518606672861257,3.4629572614034014,-1.069887337896454,0.4941736161708832,0.6152697801589966,0.6117194294929504,0.09595463424921036,0.6167144179344177,-0.3055192828178406,0.7191063165664673
22.58289735191356,1.2550197990586067,-1.1472849135733119,1.730599051295216,0.21292663990039937,3.413163544336955,-1.099847504883155,0.5014591217041016,0.6301640272140503,0.6052857637405396,0.0639379546046257,0.6324952244758606,-0.30583223700523376,0.7087512016296387
22.748876408801717,1.2617526611401895,-1.1530449030826067,1.730308373066805,0.24066725703832506,3.3633698272705077,-1.1298077193538378,0.5072917938232422,0.6451209783554077,0.5978823900222778,0.0315554104745388,0.6471065282821655,-0.30593347549438477,0.6976116299629211
22.91485546568987,1.2684814967024254,-1.1588015333267703,1.7300179427731803,0.2683913963583714,3.313576110204061,-1.159750065802792,0.5116368532180786,0.6600419282913208,0.5895559191703796,-0.0011164725292474031,0.660532534122467,-0.30578720569610596,0.6857038140296936
23.080834522578026,1.2752065127655714,-1.1645548013248201,1.7297276776417716,0.296099601201514,3.263782393137614,-1.1896752409081826,0.5144627690315247,0.6748307943344116,0.5803641080856323,-0.03401301056146622,0.6727609634399414,-0.3053671419620514,0.6730428338050842
23.24681357946618,1.2819274292407035,-1.1703044582952207,1.7294375888979108,0.32379069922593706,3.213988676071167,-1.2195819826631493,0.515744686126709,0.689393162727356,0.5703694820404053,-0.06706796586513519,0.6837834119796753,-0.3046470284461975,0.6596456170082092
23.412792636354336,1.2886364841214115,-1.176044143199366,1.7291479235200455,0.3514332085047877,3.1641949590047203,-1.2494361646161911,0.5154703855514526,0.7036382555961609,0.5596302151679993,-0.10019251704216003,0.6935977935791016,-0.3035849630832672,0.6455382704734802
23.578771693242494,1.2953377798540526,-1.1817771455550505,1.7288586233676733,0.3790435801270152,3.114401241938273,-1.2792556258327739,0.5136241316795349,0.7174785733222961,0.5482239723205566,-0.13333365321159363,0.7022020816802979,-0.30216556787490845,0.630737841129303
23.74475075013065,1.302030650498057,-1.1875028838664656,1.728569724192842,0.40661903817298506,3.064607524871826,-1.3090373694226187,0.5102004408836365,0.7308300137519836,0.5362259745597839,-0.16642451286315918,0.7095988392829895,-0.3003641963005066,0.6152671575546265
23.910729807018804,1.3087051865251598,-1.1932128621048064,1.7282816643280605,0.4341192171273162,3.014813807805379,-1.338737873740975,0.5052087903022766,0.7436152696609497,0.5237048864364624,-0.1993713080883026,0.7158010005950928,-0.29813823103904724,0.5991607904434204
24.07670886390696,1.315368836462633,-1.1989135894533371,1.7279940163313907,0.4615746026834702,2.9650200907389324,-1.3683900043378179,0.4986487030982971,0.7557583451271057,0.51075279712677,-0.2321329563856125,0.7208137512207031,-0.2954820990562439,0.5824363827705383
24.242687920795113,1.3220211585123574,-1.204604696763854,1.727706791816869,0.4889833712474463,2.9152263736724855,-1.397991789868282,0.490532785654068,0.7671892642974854,0.4974551796913147,-0.26464569568634033,0.7246499061584473,-0.29237493872642517,0.5651211738586426
24.408666977683268,1.3286493627416207,-1.2102750513240366,1.7274207121723217,0.516292440844138,2.8654326566060386,-1.4274858560629367,0.4808919131755829,0.7778500318527222,0.4838862419128418,-0.296810507774353,0.7273382544517517,-0.2887725532054901,0.5472593903541565
24.574646034571426,1.3352635248966311,-1.2159334639526633,1.7271352393929875,0.5435436680555115,2.8156389395395913,-1.4569174468571546,0.46974003314971924,0.7876781225204468,0.47014734148979187,-0.32859787344932556,0.7288893461227417,-0.28467831015586853,0.5288684964179993
24.74062509145958,1.3418633351230653,-1.2215796594151669,1.7268503839052702,0.570735794554674,2.7658452224731445,-1.4862852048509747,0.45710623264312744,0.7966213822364807,0.4563291072845459,-0.359948992729187,0.7293251156806946,-0.28007543087005615,0.5099797248840332
24.906604148347736,1.3484379088433327,-1.2272041388290236,1.726566579898149,0.5978242461336243,2.7160515054066976,-1.5155410102799076,0.44303643703460693,0.8046408295631409,0.4425126910209656,-0.39077621698379517,0.7286844849586487,-0.27492931485176086,0.49063897132873535
25.07258320523589,1.3549970438119403,-1.2328154254443244,1.7262834479910152,0.6248486861182846,2.6662577883402507,-1.5447276521385804,0.427559494972229,0.8116910457611084,0.4288003444671631,-0.42105334997177124,0.7269836068153381,-0.26924529671669006,0.4708670973777771
25.238562262124045,1.3615416983261737,-1.2384143392785127,1.7260009513462897,0.6518132961817187,2.616464071273804,-1.5738496547268381,0.4107179045677185,0.8177371621131897,0.4152851104736328,-0.4507303833961487,0.7242507338523865,-0.26301318407058716,0.4506959915161133
25.4045413190122,1.3680651868353964,-1.2439951719107445,1.725719400680636,0.678691197063077,2.566670354207357,-1.6028779998520537,0.39256712794303894,0.8227580189704895,0.4020518362522125,-0.4797387421131134,0.7205280065536499,-0.256211519241333,0.43016940355300903
25.570520375900358,1.3745703320699865,-1.2495603685091918,1.7254385739923934,0.7054934610252526,2.5168766371409097,-1.6318246685306712,0.37315621972084045,0.8267316818237305,0.3891938030719757,-0.5080378651618958,0.7158461213111877,-0.2488364726305008,0.40931904315948486
25.736499432788513,1.3810611132559185,-1.2551133162348669,1.7251583410557372,0.7322366273984494,2.467082920074463,-1.6607074997406963,0.3525366485118866,0.8296399116516113,0.37680357694625854,-0.5355923175811768,0.7102352380752563,-0.24088755249977112,0.38817498087882996
25.902478489676668,1.3875369453542508,-1.260653512509591,1.7248787467568856,0.758918390525789,2.417289203008016,-1.689523986659595,0.3307681381702423,0.8314754366874695,0.3649672865867615,-0.5623567700386047,0.7037339210510254,-0.23235775530338287,0.36677423119544983
26.068457546564822,1.3939917037908023,-1.2661756450974682,1.7246001389448677,0.7855130333408581,2.367495485941569,-1.7182464136049709,0.30792036652565,0.8322452306747437,0.3537639081478119,-0.588273286819458,0.6963934898376465,-0.22323299944400787,0.34516310691833496
26.234436603452977,1.400433278780783,-1.2716863860728251,1.724322087679828,0.8120533330059513,2.3177017688751222,-1.7469100869361838,0.2840496301651001,0.8319453597068787,0.34328216314315796,-0.6133232712745667,0.6882413625717163,-0.21352289617061615,0.32336705923080444
26.40041566034113,1.406861576631254,-1.2771857526264982,1.724044590565639,0.8385388921911916,2.2679080518086754,-1.7755146125687657,0.2592240571975708,0.8305866122245789,0.3336009979248047,-0.6374694108963013,0.6793200969696045,-0.20322565734386444,0.3014236390590668
26.56639471722929,1.413276557241497,-1.2826738299255915,1.7237676409046778,0.8649695563401724,2.218114334742228,-1.8040598699022223,0.23351356387138367,0.8281869888305664,0.3247954547405243,-0.660676896572113,0.6696737408638,-0.19234077632427216,0.2793707847595215
26.732373774117445,1.4196748569690445,-1.2881478069756003,1.7234913336579674,0.8913319193036191,2.168320617675781,-1.8325314294214001,0.20699402689933777,0.824775218963623,0.3169339597225189,-0.6829063296318054,0.6593542695045471,-0.18086539208889008,0.25725170969963074
26.8983528310056,1.4260598079076745,-1.2936101779338385,1.723215664939521,0.9176389607925426,2.1185269006093344,-1.860943114993577,0.17973534762859344,0.8203759789466858,0.31008613109588623,-0.7041358351707458,0.6484019756317139,-0.168806791305542,0.23509946465492249
27.064331887893754,1.4324319796871827,-1.2990616686532237,1.722940511207988,0.9438939230807986,2.0687331835428875,-1.8892985674533362,0.15181182324886322,0.8150231242179871,0.304315984249115,-0.7243403792381287,0.6368623375892639,-0.1561703085899353,0.2129511684179306
27.23031094478191,1.4387914497161727,-1.3045023268584262,1.7226659005795146,0.9700963779656366,2.0189394664764406,-1.9175973346383475,0.123299241065979,0.8087571263313293,0.2996814250946045,-0.7434954643249512,0.6247836947441101,-0.14296141266822815,0.1908453404903412
27.396290001670067,1.4451382143819747,-1.3099321493727893,1.7223918314695528,0.9962461717481405,1.9691457494099933,-1.9458392323644467,0.09427408128976822,0.8016237020492554,0.2962353527545929,-0.7615795731544495,0.6122146844863892,-0.12918740510940552,0.1688198745250702
27.562269058558222,1.4514720741839835,-1.315351022987081,1.7221181885741164,1.0223434405361607,1.9193520323435465,-1.974024517172235,0.06481358408927917,0.7936729788780212,0.29402559995651245,-0.7785740494728088,0.5992051362991333,-0.11485698074102402,0.14691296219825745
27.728248232829333,1.457793372097368,-1.3207590592202894,1.721845000506181,1.048388694721959,1.869558280062213,-2.002153694689496,0.0349942222237587,0.7849594950675964,0.29309457540512085,-0.794463038444519,0.5858044028282166,-0.09998048096895218,0.12516194581985474
27.894227569698835,1.4641022806160313,-1.326156478692606,1.7215725128648223,1.0743827325321016,1.8197644790013632,-2.0302271817322834,0.004892580211162567,0.7755420207977295,0.2934791147708893,-0.8092336058616638,0.5720620155334473,-0.08456961810588837,0.10360396653413773
28.060206407863316,1.470398762723433,-1.3315433090669648,1.7213004691775782,1.100325591599774,1.7699708275520185,-2.0582458815055986,-0.02541498839855194,0.7654829621315002,0.2952101528644562,-0.8228753209114075,0.5580283403396606,-0.06863750517368317,0.08227618783712387
28.226184951344482,1.476682800162087,-1.336919543572839,1.721028931870082,1.1262171277380026,1.7201772645076687,-2.0862091450982407,-0.05585286393761635,0.7548486590385437,0.2983129024505615,-0.8353800773620605,0.5437537431716919,-0.05219858139753342,0.06121522933244705
28.392163945634707,1.4829528462445294,-1.3422836187150744,1.7207579314267194,1.1520505034482038,1.6703835662206012,-2.114109503781354,-0.08634546399116516,0.7437121272087097,0.3028036653995514,-0.8467401266098022,0.5292922258377075,-0.03526707738637924,0.040459539741277695
28.55814346613256,1.4892092554313312,-1.3476364050228924,1.7204874702072488,1.1778288860536132,1.6205897100712459,-2.14195066469219,-0.11682011187076569,0.732143223285675,0.3086966872215271,-0.8569545149803162,0.5146921277046204,-0.017860952764749527,0.020043525844812393
28.724120867318124,1.4954537153244019,-1.3529787063598633,1.7202174663543701,1.2035574913024902,1.5707964897155762,-2.1697378158569336,-0.147206112742424,0.7202133536338806,0.31599995493888855,-0.8660253882408142,0.4999999701976776,-4.993431090838385e-08,8.807057128024098e-08
28.774120867318125,1.5070267761199088,-1.3452073855830657,1.7102151739332747,1.205788485494507,1.5707963346027738,-2.158164719157914,-0.1550777107477188,0.7255637645721436,0.3160448968410492,-0.8660253882408142,0.49999991059303284,-2.08378452271063e-08,4.6446055890214666e-09
28.964692227608175,1.5185360762543436,-1.3374789173015627,1.7002680359963684,1.208007177573297,1.5707963542267218,-2.1466554386474272,-0.16304904222488403,0.7307840585708618,0.3160404860973358,0.8660253882408142,-0.5,2.778312868656485e-08,1.0912474257551708e-09
29.24157139423832,1.526071080318788,-1.3308614581544809,1.6916328876376479,1.2100248804030367,1.5707963661446764,-2.1391204465009372,-0.16827957332134247,0.7355943322181702,0.31607842445373535,-0.8660253882408142,0.5,-1.0098004654679471e-09,4.7712333639537974e-08
29.612934466031877,1.5140357542275016,-1.3296291058387582,1.6893414074633863,1.211083978461988,1.5707963400654066,-2.151155746512954,-0.159340500831604,0.738867998123169,0.31654760241508484,-0.8660253882408142,0.5,-2.6716714174312983e-08,1.939099325554139e-09
29.88448045656844,1.5014155734570866,-1.3276343477072143,1.6868766394940593,1.2132347566583725,1.5696040122377923,-2.164059882665817,-0.1505327820777893,0.7418081164360046,0.3167247176170349,0.8660957217216492,-0.4998772144317627,-0.0001671228965278715,0.0010167035507038236
30.168034057535426,1.4690279194450937,-1.3013990359608056,1.6786896303291785,1.2500207400869672,1.5307063596476598,-2.205712112265055,-0.14680299162864685,0.7383213043212891,0.30865180492401123,0.8676007986068726,-0.49605393409729004,-0.006875809282064438,0.03394263982772827
30.415467029283064,1.4275712900483088,-1.2678174867761307,1.6682101493303119,1.297107289839253,1.4809168451852388,-2.2590275220630613,-0.14243583381175995,0.7351256012916565,0.30084848403930664,0.8673059940338135,-0.49170124530792236,-0.01895466260612011,0.07517213374376297
30.88883671069956,1.3640131624609242,-1.2163328287439188,1.6521438120504368,1.3692967799244649,1.4045833767204363,-2.340766623085542,-0.13600671291351318,0.7338306903839111,0.2941570281982422,0.862062931060791,-0.4862942099571228,-0.044739991426467896,0.13551248610019684
31.399644462047583,1.2955772840860484,-1.1608969949802468,1.6348444681938454,1.4470264323064277,1.3223917174931035,-2.428778768634595,-0.12812791764736176,0.7385134696960449,0.29344940185546875,0.8500636219978333,-0.48231935501098633,-0.08156193792819977,0.19521120190620422
31.658149754271616,1.2525228119940057,-1.1260211284851458,1.6239610816578485,1.4959278160348786,1.270683190000878,-2.484149088330727,-0.1218394935131073,0.745165228843689,0.29599782824516296,0.8392307758331299,-0.48086339235305786,-0.10902734845876694,0.22929233312606812
31.851773418444335,1.2204464212844899,-1.1000379526227588,1.6158527541878236,1.5323602657779953,1.2321593654070346,-2.525401016922187,-0.1161130890250206,0.7521010637283325,0.29916834831237793,0.8295585513114929,-0.48032525181770325,-0.13140296936035156,0.25269216299057007
32.04212010647649,1.1940765209660333,-1.0786772651422687,1.6091869235752,1.562311268582003,1.2004890498897722,-2.5593140981897182,-0.11056344956159592,0.7590926885604858,0.3024696111679077,0.8206071257591248,-0.48024144768714905,-0.1508994996547699,0.27055782079696655
32.394803456929985,1.1710283756256104,-1.0600073337554932,1.6033607721328735,1.5884894132614136,1.1728081703186035,-2.5889552275287073,-0.1049850583076477,0.7661559581756592,0.30579230189323425,0.8120599985122681,-0.48043736815452576,-0.16867762804031372,0.28510767221450806
32.54616460451021,1.1390103633229753,-1.0249199211915245,1.6247648102523957,1.6147225848737283,1.141636275887862,-2.634363571802775,-0.10021526366472244,0.7602528929710388,0.2934097945690155,0.7961087226867676,-0.47944071888923645,-0.1902001053094864,0.3164985775947571
32.6975267587291,1.108485937641141,-0.9895225480076519,1.6469152416352586,1.6406897174658623,1.110423611738915,-2.679772218068441,-0.09644100069999695,0.7554806470870972,0.2825562357902527,0.7783547639846802,-0.47829824686050415,-0.21332384645938873,0.3462476432323456
32.848888912947984,1.079375119413423,-0.9537460081125024,1.6699144416389686,1.6664880275298253,1.0790880155945937,-2.7251808643341064,-0.09345224499702454,0.751917839050293,0.27303600311279297,0.7587307691574097,-0.4771154820919037,-0.23781003057956696,0.37434589862823486
33.00025106716687,1.051951010311073,-0.9175080474809271,1.693955448260992,1.692100870731245,1.0475936110180406,-2.770589510599772,-0.09131443500518799,0.7495429515838623,0.2645796239376068,0.7372515201568604,-0.4758663475513458,-0.26332926750183105,0.4008355140686035
33.15161322138576,1.0263132789673863,-0.880774858195011,1.719117185256847,1.717526713649234,1.0159222041588252,-2.815998156865438,-0.08994102478027344,0.7483766078948975,0.2569617033004761,0.7139233350753784,-0.4746001362800598,-0.28956571221351624,0.4256991744041443
33.302975375604646,1.0021566991906075,-0.8436255741387548,1.7452199895661729,1.7428044793575845,0.9840979816121016,-2.8614068031311035,-0.08886948227882385,0.7485591769218445,0.2500256896018982,0.6887620687484741,-0.47350481152534485,-0.3162700831890106,0.4487461447715759
33.45433752982353,0.979178825482721,-0.80613727645646,1.772089604412939,1.7679753055940837,0.9521435895291338,-2.906815449396769,-0.08766444027423859,0.7501790523529053,0.2435685694217682,0.6618115305900574,-0.47275614738464355,-0.34319964051246643,0.4698096215724945
33.60569968404242,0.9571597513477245,-0.7683635188187775,1.7996098379851533,1.7930733757130484,0.9200723515574949,-2.952224095662435,-0.08600200712680817,0.7532438635826111,0.2373376339673996,0.6331384181976318,-0.4724903404712677,-0.3701043128967285,0.4887855350971222
33.75706024880411,0.9359980821609497,-0.7302567958831787,1.8278777599334717,1.81819486618042,0.8878029584884644,-2.9976322650909424,-0.08376513421535492,0.7576556205749512,0.23105290532112122,0.6027167439460754,-0.47281765937805176,-0.39674124121665955,0.5057394504547119
33.876760207588205,0.9191616715630759,-0.7048361632494052,1.8567874500300423,1.8201832049,0.8686920470951086,-3.033542252726172,-0.08338779211044312,0.754848062992096,0.22168633341789246,0.5844231247901917,-0.4720485806465149,-0.41574734449386597,0.5126147866249084
34.07266443269921,0.9009468283366219,-0.6773342895305532,1.888064037742919,1.8223345222863365,0.848016549355743,-3.0723925251161353,-0.08283981680870056,0.7521648406982422,0.2122817486524582,0.5640618801116943,-0.4716469943523407,-0.4361971318721771,0.5187633037567139
34.29102615474557,0.8811373436995794,-0.6474247296100896,1.9220787737521483,1.8246741794650567,0.8255309891047313,-3.1146439935743517,-0.08203768730163574,0.7496734261512756,0.20284529030323029,0.5412986278533936,-0.4717217981815338,-0.4581981599330902,0.5239549875259399
34.57121486691067,0.8560055622884932,-0.6363274227236937,1.96516478596302,1.8127552092467545,0.7973778245491039,-3.1415927314251713,-0.0815277099609375,0.7459349632263184,0.20036637783050537,0.5202146768569946,-0.47893279790878296,-0.47893282771110535,0.5202146172523499
34.88319395635453,0.8255145461835053,-0.6557965606106225,2.017355762339657,1.7800333861748103,0.7636795040988464,-3.1415927080330666,-0.08195552229881287,0.7404181361198425,0.20843279361724854,0.5045782923698425,-0.4953794777393341,-0.49537956714630127,0.5045781135559082
35.07883517597047,0.7957908451955771,-0.6747757520895563,2.068233337909643,1.7481350171135295,0.7308292114942987,-3.141592685229631,-0.08248579502105713,0.7354438304901123,0.21683897078037262,0.48883500695228577,-0.5109211206436157,-0.5109211802482605,0.48883476853370667
35.274585229942474,0.7668765927238723,-0.6932380941227234,2.117725393618865,1.7171053180579487,0.6988735120838169,-3.141592663047188,-0.08307746052742004,0.7309823036193848,0.22553034126758575,0.47306105494499207,-0.5255599021911621,-0.5255599617958069,0.4730609059333801
35.4701857507619,0.7388337224231323,-0.7111440408038856,2.1657259186377606,1.6870107539000758,0.6678808542305829,-3.1415926415332525,-0.08369481563568115,0.7270044088363647,0.23444348573684692,0.4573438763618469,-0.5392926931381226,-0.5392927527427673,0.45734378695487976
35.66590175558058,0.7116229537620181,-0.7285186735563144,2.2123021488129835,1.6578091702363904,0.6378078255429607,-3.1415926206576885,-0.08431002497673035,0.7234656810760498,0.2435462772846222,0.4417119324207306,-0.5521689057350159,-0.5521688461303711,0.44171208143234253
35.861649201849374,0.6852383735933265,-0.745365768045532,2.2574642055824334,1.6294942212975052,0.6086478908786441,-3.1415926004159602,-0.08490020036697388,0.7203283309936523,0.2527983784675598,0.42620861530303955,-0.5642217397689819,-0.5642216801643372,0.42620864510536194
36.05726007897583,0.6596719490220296,-0.7616904534394345,2.3012258387218862,1.6020572864796023,0.5803921723744006,-3.141592580801905,-0.08544738590717316,0.7175556421279907,0.2621617019176483,0.4108722507953644,-0.5754858255386353,-0.5754857659339905,0.4108724892139435
36.33648199854846,0.636437392533684,-0.7704014295125419,2.3402891159842034,1.5717049906318465,0.5550672961175933,-3.141592566167013,-0.08618304133415222,0.7149377465248108,0.2672172784805298,0.3967799246311188,-0.5852910876274109,-0.5852910280227661,0.3967800438404083
36.728802533802714,0.6175802805842906,-0.7546677285394082,2.3693607441535223,1.5268996419698677,0.535830526122493,-3.141592566167013,-0.08784285187721252,0.7117952108383179,0.25811219215393066,0.38556066155433655,-0.5927419066429138,-0.592741847038269,0.3855607211589813
36.92470299637052,0.5955899936196315,-0.7363198181942892,2.403262724885717,1.4746497281297894,0.5133974996017482,-3.141592566167013,-0.08983954787254333,0.7083710432052612,0.24915502965450287,0.3723008930683136,-0.6011589765548706,-0.6011589169502258,0.3723008632659912
37.141318675122726,0.5682400484041141,-0.7135000003554086,2.445427582361802,1.4096650245041271,0.4854969066105493,-3.141592566167013,-0.09228731691837311,0.704541802406311,0.24050453305244446,0.3555537760257721,-0.6112131476402283,-0.6112130880355835,0.3555538058280945
37.46909365952895,0.5268551037954544,-0.6789698801010559,2.509229914590598,1.3113325291822588,0.44327874176996995,-3.141592566167013,-0.09554184973239899,0.6998047232627869,0.23262014985084534,0.32970088720321655,-0.6255375742912292,-0.6255375146865845,0.3297009766101837
38.101463734091325,0.46256000391438606,-0.6309060191630189,2.6043474437901053,1.1407489338610293,0.37856170209068163,-3.1155604982353657,-0.09908148646354675,0.6946632266044617,0.22852358222007751,0.2899237871170044,-0.6488507390022278,-0.642149806022644,0.28736814856529236
38.407084762414506,0.4482067731930732,-0.6340747367330984,2.615609119522992,1.058306807147145,0.3662869207867703,-3.044928703916471,-0.10112738609313965,0.692710280418396,0.21916070580482483,0.2840139865875244,-0.661457359790802,-0.6373714804649353,0.2748960256576538
38.692447330157115,0.43330222765077764,-0.6373651663409632,2.6273033618927,0.9726980368243616,0.35354065895080566,-2.97158390680422,-0.1023130714893341,0.6912853121757507,0.20955955982208252,0.2769060432910919,-0.6738970279693604,-0.6330726742744446,0.261542946100235
