Sungjin-Park-dev/lg_sgu_vision_v2/data/sample/trajectory/74/glns_trajectory_comp000.csv
time,ur20-shoulder_pan_joint,ur20-shoulder_lift_joint,ur20-elbow_joint,ur20-wrist_1_joint,ur20-wrist_2_joint,ur20-wrist_3_joint,target-POS_X,target-POS_Y,target-POS_Z,target-ROT_X,target-ROT_Y,target-ROT_Z,target-ROT_W
0.0,-1.526581112538473,-1.622594181691305,-2.0455079078674316,2.4869651794433594,-2.3402352333068848,2.1040170828448694,-0.17627134919166565,0.6566448211669922,0.3380172848701477,-0.7421415448188782,-0.530522346496582,0.23820027709007263,0.3332154154777527
0.15142071060836315,-1.5261647309426103,-1.628207835524172,-2.034489895730963,2.481933616808134,-2.340076749453425,2.104552931619825,-0.17679879069328308,0.6635359525680542,0.3411083519458771,-0.7421415448188782,-0.530522346496582,0.2382001131772995,0.3332153558731079
0.3027859330177307,-1.5257471332894117,-1.63383788423374,-2.023439705096168,2.476887359314359,-2.339917802742206,2.1050903453602836,-0.17733266949653625,0.6704269051551819,0.34419190883636475,-0.7421414852142334,-0.5305224657058716,0.23820015788078308,0.3332153558731079
0.45408821664750576,-1.525328293626865,-1.6394846777048586,-2.0123566492382086,2.4718260933574583,-2.339758383295329,2.105629357464345,-0.17787301540374756,0.6773173213005066,0.3472678065299988,-0.7421415448188782,-0.5305224657058716,0.23820015788078308,0.3332153260707855
0.7295076794900268,-1.524908185005188,-1.6451485792743128,-2.0012400150299072,2.4667494932757776,-2.3395984808551233,2.1061700026141565,-0.17841976881027222,0.6842079162597656,0.3503361940383911,-0.7421414852142334,-0.5305224657058716,0.2382001131772995,0.33321550488471985
0.8935854874941374,-1.5249083042144775,-1.645148754119873,-2.001240058686073,2.466749429702759,-2.339598612044518,2.1553933450153897,-0.1784197837114334,0.6842079162597656,0.35033613443374634,-0.7549723982810974,-0.5120981931686401,0.24632827937602997,0.32725265622138977
1.0576678784155928,-1.5249082278426969,-1.645148796957382,-2.001240100704925,2.4667495153777765,-2.3395986557006836,2.2046180622918263,-0.17841985821723938,0.6842079758644104,0.35033613443374634,-0.7673463821411133,-0.4933633506298065,0.2543072998523712,0.3210914433002472
1.2217502693370497,-1.524908368466199,-1.6451488733291626,-2.0012402534484863,2.466749558206202,-2.3395987842041266,2.2538427795682634,-0.1784197986125946,0.6842079162597656,0.35033589601516724,-0.779255747795105,-0.47432953119277954,0.262132465839386,0.3147357404232025
1.3858326602585065,-1.5249082706712491,-1.6451486349105835,-2.0012401863620295,2.466749601034881,-2.339598827032806,2.3030674968447005,-0.17841988801956177,0.6842077970504761,0.3503361940383911,-0.7906928062438965,-0.4550086259841919,0.2697986364364624,0.3081894814968109
1.5499150511799633,-1.5249082920845454,-1.6451486227806513,-2.001240229188622,2.4667496438614736,-2.3395988698593984,2.3522922141211375,-0.17841988801956177,0.6842077970504761,0.3503361940383911,-0.8016510009765625,-0.43541187047958374,0.2773014307022095,0.30145639181137085
1.7139974421014188,-1.5249083042144775,-1.6451485249848625,-2.001240234881349,2.4667496495542007,-2.3395988755521255,2.401516931397574,-0.17841988801956177,0.6842076778411865,0.3503362536430359,-0.8121235966682434,-0.4155515432357788,0.2846361994743347,0.29454079270362854
1.8780798330228756,-1.524908423423767,-1.6451485463984514,-2.0012401920541714,2.466749606727023,-2.3395988327249477,2.4507416486740112,-0.17841976881027222,0.6842077374458313,0.3503362536430359,-0.8221044540405273,-0.39543935656547546,0.2917986214160919,0.2874467372894287
2.0421622239443327,-1.524908423423767,-1.6451485678137465,-2.001240149223581,2.4667495638964327,-2.3395987898943575,2.4999663659504483,-0.17841976881027222,0.6842077374458313,0.3503362536430359,-0.8315870761871338,-0.3750877380371094,0.2987842559814453,0.2801785469055176
2.2062446148657897,-1.524908423423767,-1.6451485892276279,-2.0012401063958185,2.46674952106867,-2.339598747066595,2.5491910832268854,-0.17841967940330505,0.6842079758644104,0.3503362536430359,-0.8405662178993225,-0.3545088768005371,0.3055887818336487,0.27274057269096375
2.370327005787245,-1.524908423423767,-1.645148610642094,-2.001240063566886,2.4667494782397377,-2.3395987042376625,2.598415800503322,-0.17841967940330505,0.6842079758644104,0.3503362536430359,-0.8490360379219055,-0.33371517062187195,0.3122083842754364,0.2651374638080597
2.534409396708702,-1.524908423423767,-1.6451486349105835,-2.001240020743141,2.4667494354159927,-2.3395988941192627,2.647640517779759,-0.17841976881027222,0.6842079758644104,0.35033637285232544,-0.8569914698600769,-0.3127194941043854,0.3186389207839966,0.25737378001213074
2.6984917876301573,-1.5249085240748756,-1.6451486349105835,-2.0012400150299072,2.466749429702759,-2.3395988941192627,2.6968652350561957,-0.17841970920562744,0.6842079162597656,0.35033637285232544,-0.864427924156189,-0.2915341854095459,0.3248763382434845,0.24945415556430817
2.8625741785516143,-1.5249085026595317,-1.645148754119873,-2.0012402534484863,2.466749429702759,-2.3395988941192627,2.7460899523326328,-0.17841970920562744,0.6842077970504761,0.35033607482910156,-0.8713407516479492,-0.27017247676849365,0.33091700077056885,0.24138329923152924
3.0266565694730714,-1.5249083620367803,-1.6451486927328862,-2.0012401306745127,2.466749429702759,-2.3395988941192627,2.79531466960907,-0.17841988801956177,0.6842079162597656,0.35033637285232544,-0.8777257800102234,-0.24864718317985535,0.33675724267959595,0.23316648602485657
3.1907389603945284,-1.5249083413116116,-1.645148552798428,-2.0012400150299072,2.466749429702759,-2.3395988941192627,2.844539386885507,-0.17841988801956177,0.6842078566551208,0.35033637285232544,-0.8835790753364563,-0.22697120904922485,0.3423933982849121,0.22480840981006622
3.340220824597117,-1.5249035101022856,-1.6457443356303731,-2.0009234096694173,2.466156298953039,-2.3395573464052926,2.8893839461462836,-0.17841173708438873,0.6842838525772095,0.35011568665504456,-0.8885548710823059,-0.20695647597312927,0.3474016487598419,0.21668271720409393
3.5043032155185725,-1.5253310510399558,-1.6546762494942926,-1.9934074185993453,2.4524107702726505,-2.339950857250107,2.840159228869847,-0.1783134639263153,0.6855178475379944,0.3489341735839844,-0.884962260723114,-0.22607505321502686,0.34351202845573425,0.2184751033782959
3.6683856064400295,-1.5257088654560749,-1.6632975345094276,-1.9857654370363667,2.438573103081899,-2.340508734381031,2.79093451159341,-0.17830738425254822,0.6867440342903137,0.3481253683567047,-0.8808354139328003,-0.2452118992805481,0.33977246284484863,0.22035104036331177
3.8324679973614866,-1.5260230413162617,-1.6716348375384225,-1.9777667948290505,2.4247004747801966,-2.3412421226812956,2.741709794316973,-0.17841622233390808,0.6881599426269531,0.3478144407272339,-0.8761383295059204,-0.264398455619812,0.3361509442329407,0.22243575751781464
3.996550388282942,-1.526417381672245,-1.6794941695366852,-1.9689166180989106,2.411037416021498,-2.3421386155423427,2.692485077040536,-0.17855599522590637,0.690237820148468,0.3484193980693817,-0.8707802891731262,-0.28370168805122375,0.3324938416481018,0.22517280280590057
4.1606327792043984,-1.527067307965212,-1.6873614889566724,-1.959271525963914,2.3977956185116436,-2.34291210770178,2.643260359764099,-0.17850691080093384,0.6931390166282654,0.34945183992385864,-0.8648841977119446,-0.3029639720916748,0.32864922285079956,0.22842463850975037
4.324715170125855,-1.5281318711310679,-1.6958332370982574,-1.9490664185709488,2.3850811764851967,-2.343262089808183,2.594035642487662,-0.1780451089143753,0.696857213973999,0.3502315878868103,-0.8586297035217285,-0.32198554277420044,0.32452988624572754,0.2318631410598755
4.488797561047312,-1.5296034917451988,-1.7036969751280955,-1.9378972790434352,2.3724830057794906,-2.3437346433760067,2.544810925211225,-0.17736193537712097,0.7013183236122131,0.3520365059375763,-0.8517699837684631,-0.3409598171710968,0.3201840817928314,0.23604299128055573
4.652879951968767,-1.5311820466315498,-1.7097331845589736,-1.926060857745816,2.359304935560145,-2.34496780900732,2.4955862079347884,-0.1768609881401062,0.7057514786720276,0.35580676794052124,-0.8441014289855957,-0.36003002524375916,0.3158406615257263,0.24107205867767334
4.816962342890224,-1.532120881292414,-1.7148656846792665,-1.916211398416866,2.344824398248701,-2.346786222785147,2.4463614906583513,-0.1769264042377472,0.7079240083694458,0.3593175411224365,-0.8360665440559387,-0.37882328033447266,0.31219375133514404,0.2449910044670105
4.98104473381168,-1.5322482971831444,-1.7208795996236164,-1.9098138431689466,2.3292528087141258,-2.348440689829848,2.3971367733819147,-0.1773962378501892,0.7071510553359985,0.36020830273628235,-0.8281723856925964,-0.3969480097293854,0.30955907702445984,0.24644619226455688
5.145127124733136,-1.5323885742166583,-1.7298909130283038,-1.905471866535383,2.3142230846544276,-2.3487234760868207,2.3479120561054776,-0.17733830213546753,0.705625593662262,0.35733944177627563,-0.8207018971443176,-0.41423481702804565,0.30728715658187866,0.24582992494106293
5.309209515654593,-1.5327641574427344,-1.7402878873644403,-1.8999833319692783,2.3003799549174793,-2.3483918982759424,2.2986873388290405,-0.17695379257202148,0.7056602835655212,0.3539259731769562,-0.8128501772880554,-0.4314155578613281,0.30471909046173096,0.2455635517835617
5.4732919065760495,-1.5330797488907288,-1.7486624675467457,-1.890230725491461,2.287459998884103,-2.349210480869545,2.2494626215526035,-0.17713969945907593,0.7088084816932678,0.35471487045288086,-0.8034124374389648,-0.4494563341140747,0.30131542682647705,0.24844814836978912
5.637374297497506,-1.5329405553432038,-1.754991992326327,-1.8783830382818851,2.2744234196609256,-2.351273617997222,2.2002379042761664,-0.17813290655612946,0.713003396987915,0.35857802629470825,-0.7926811575889587,-0.4679773151874542,0.297647088766098,0.25310054421424866
5.801456688418963,-1.5326022299692692,-1.761026732335051,-1.8681922875760548,2.260382700561599,-2.3535069977846397,2.1510131869997293,-0.17926651239395142,0.7155261039733887,0.36187267303466797,-0.7817531228065491,-0.4859620928764343,0.2945614159107208,0.2567809820175171
5.965539079340418,-1.5337051008775413,-1.7687541616673637,-1.8614981155256063,2.245454256816815,-2.3541409619659275,2.1017884697232927,-0.17870542407035828,0.7158106565475464,0.36154645681381226,-0.7718849778175354,-0.5023560523986816,0.29205602407455444,0.25794416666030884
6.129621470261874,-1.5359348243435222,-1.7781002993884911,-1.857043447107749,2.230240691214125,-2.353391279806389,2.052563752446856,-0.17679709196090698,0.7148939967155457,0.35842669010162354,-0.7627324461936951,-0.5176050066947937,0.2899664342403412,0.2573786675930023
6.293703861183331,-1.5363243348942492,-1.7863118107234377,-1.8502693454859804,2.2156357896728367,-2.3540848025359224,2.003339035170419,-0.1767769455909729,0.7153195738792419,0.35789039731025696,-0.7519189119338989,-0.5338031649589539,0.2878512442111969,0.25848326086997986
6.457786252104787,-1.5352109556097273,-1.7936239106295726,-1.8419625071050176,2.2014721492855176,-2.355875945967605,1.954114317893982,-0.17826035618782043,0.7165884971618652,0.359194815158844,-0.7397307753562927,-0.5506049990653992,0.2857128083705902,0.2607693374156952
6.621868643026244,-1.534673341097128,-1.8017880974086649,-1.8354139659332889,2.187111054834624,-2.3568117925495273,1.9048896006175449,-0.17898808419704437,0.7168049812316895,0.3587024211883545,-0.7278383374214172,-0.5665823817253113,0.2839655876159668,0.26191478967666626
6.7859510339477005,-1.5349920323740753,-1.810581370357453,-1.8296782640315736,2.1727591828017223,-2.3570012221853838,1.855664883341108,-0.17882215976715088,0.7167346477508545,0.3571111857891083,-0.7161343097686768,-0.5818390250205994,0.28231215476989746,0.2625163495540619
6.950033424869157,-1.5360884497800593,-1.81961782537628,-1.8231092190370348,2.158855756866262,-2.3568489549604124,1.806440166064671,-0.1780063658952713,0.717624306678772,0.35564178228378296,-0.7042111754417419,-0.5967198610305786,0.28025248646736145,0.2635727822780609
7.114115815790614,-1.538397701930065,-1.829441590333661,-1.8153318843752446,2.145762852429605,-2.3560065122170437,1.757215448788234,-0.17611494660377502,0.7200161218643188,0.353891521692276,-0.692247748374939,-0.6111482381820679,0.2775229811668396,0.26508858799934387
7.27819820671207,-1.5412699559298522,-1.839483032193281,-1.8069475206712973,2.1329488697621612,-2.3549149864140877,1.707990731511797,-0.17373476922512054,0.7230666279792786,0.352163165807724,-0.6800727248191833,-0.6252401471138,0.27451860904693604,0.2668619751930237
7.442280597633526,-1.542940497105548,-1.8480035352833126,-1.7993059074305302,2.1190721640513552,-2.3548663520563857,1.6587660142353604,-0.1725490540266037,0.7247816920280457,0.35169243812561035,-0.66707843542099,-0.6393030881881714,0.2722075879573822,0.26870229840278625
7.60636100173349,-1.543392539024353,-1.855096697807312,-1.7924761772155762,2.104170083999634,-2.3558189868927,1.609541893005371,-0.17256736755371094,0.7251695990562439,0.3523934781551361,-0.6532816290855408,-0.6532812714576721,0.27059802412986755,0.2705979645252228
7.65636100173349,-1.54168208391659,-1.8632058929068833,-1.778284123221172,2.0997951642959536,-2.3557655579967696,1.6119581345577505,-0.17406363785266876,0.7343204021453857,0.35401564836502075,-0.6532821655273438,-0.6532821655273438,0.27059635519981384,0.27059629559516907
7.844603627178618,-1.5399639216137642,-1.8713518924576118,-1.7640276570685147,2.0954003246887134,-2.355711822746516,1.61438551812052,-0.17559753358364105,0.743469774723053,0.35560446977615356,-0.6532824039459229,-0.6532825231552124,0.2705956697463989,0.27059563994407654
8.032832431796738,-1.5382378077301153,-1.8795355913419278,-1.749705212607128,2.0909851459538573,-2.3556578388118488,1.616824135509428,-0.1771692931652069,0.7526177763938904,0.35715973377227783,-0.6532822847366333,-0.6532824635505676,0.27059581875801086,0.2705957889556885
8.253893001856722,-1.5365035631253585,-1.887757838883948,-1.735315303418992,2.0865491698734298,-2.3556036005901837,1.619274239810101,-0.1787794679403305,0.7617641091346741,0.3586809039115906,-0.6532818675041199,-0.6532819271087646,0.27059704065322876,0.2705971300601959
8.470428162581065,-1.5365829052909876,-1.9042839862683973,-1.7151396990547099,2.0674812645101044,-2.355969923407648,1.5976779212995444,-0.17916326224803925,0.77097088098526,0.3589283525943756,-0.6483241319656372,-0.6582140326499939,0.27268099784851074,0.26846811175346375
8.658631206816771,-1.5386535676384994,-1.929851658077295,-1.6887052786058505,2.032434324988112,-2.3567963831223797,1.549775418879517,-0.17814531922340393,0.7802481055259705,0.3577250838279724,-0.637718915939331,-0.6682916283607483,0.27726587653160095,0.26424330472946167
8.846826502448657,-1.5407170347985972,-1.9553304867241814,-1.6623627131180596,1.997509167415967,-2.357619971034982,1.5020393692290288,-0.1770937740802765,0.7895059585571289,0.3564097583293915,-0.6268562078475952,-0.6779896020889282,0.2821245789527893,0.26035964488983154
9.035034780717233,-1.542773106233535,-1.9807179960529269,-1.636114562689601,1.9627091859898547,-2.358440607105188,1.454474411568884,-0.17600874602794647,0.7987436652183533,0.3549802899360657,-0.6157536506652832,-0.6873003244400024,0.2872384190559387,0.25682613253593445
9.223223929620126,-1.5448210439281602,-2.006005073361382,-1.6099702489448555,1.9280468719652764,-2.3592579967703458,1.4070976190702358,-0.1748911738395691,0.8079581260681152,0.3534367084503174,-0.6044323444366455,-0.6962147951126099,0.2925869822502136,0.25365203619003296
9.615917243764045,-1.5468609968768519,-2.031193558369772,-1.583927869796753,1.893519703541891,-2.360072199498312,1.3599055449115198,-0.17374122142791748,0.8171497583389282,0.35177719593048096,-0.5929085612297058,-0.704728364944458,0.29815199971199036,0.25084391236305237
9.726022602999716,-1.5138293891061503,-2.0033349763885266,-1.58337734038641,1.8759617934955772,-2.328396293852064,1.3593247892669522,-0.18871578574180603,0.8011356592178345,0.3674745559692383,-0.5823431611061096,-0.7215042114257812,0.2892869710922241,0.23795169591903687
9.884245605044958,-1.505147914778884,-1.9981713164090333,-1.5783444338416381,1.872676244038181,-2.2809293932384915,1.3566195507183016,-0.17802563309669495,0.7999735474586487,0.35885685682296753,-0.5812737941741943,-0.7334219217300415,0.27362850308418274,0.22212697565555573
10.042468607090202,-1.4824372204806455,-1.9883924662128347,-1.5683703366438346,1.8684506984114024,-2.2334624926249185,1.3539657575378743,-0.17802800238132477,0.7993556261062622,0.3572911024093628,-0.5736798048019409,-0.7499001026153564,0.25611916184425354,0.20723001658916473
10.200691609135443,-1.4578801089432052,-1.9764552192935028,-1.560735286810076,1.8621403953618245,-2.185995592011346,1.3514557760635637,-0.1786268651485443,0.7965783476829529,0.35775226354599,-0.565291166305542,-0.7658708691596985,0.23905831575393677,0.19167399406433105
10.358914611180687,-1.4353533279807724,-1.9696646833926215,-1.5577076315536817,1.8568659876016942,-2.138528691397773,1.3489718105961663,-0.1766953468322754,0.7928281426429749,0.35257598757743835,-0.5581779479980469,-0.779682457447052,0.22432515025138855,0.17381258308887482
10.517137613225929,-1.4080865793049788,-1.961368891099086,-1.5554212234413378,1.8501750462797177,-2.0910617907842,1.3466163838902847,-0.1776544451713562,0.787711501121521,0.3494752049446106,-0.5488135814666748,-0.7941392660140991,0.2097119688987732,0.15545858442783356
10.675360615271172,-1.3849514614640186,-1.953537840619584,-1.5566732267607701,1.8421112008370213,-2.043594890170627,1.344379366355978,-0.17415983974933624,0.7811285853385925,0.3455263376235962,-0.5410881638526917,-0.8063910603523254,0.1961248368024826,0.13598529994487762
10.833583617316416,-1.3639912234126792,-1.9434471577021732,-1.5552868131438324,1.8340681579702753,-1.9961279895570543,1.342152621182129,-0.1686105877161026,0.7771852612495422,0.345598965883255,-0.533329963684082,-0.8179271221160889,0.18022580444812775,0.11862882226705551
10.991805824633062,-1.341386318206787,-1.9318790435791016,-1.5516456365585327,1.8261908292770386,-1.9486613273620605,1.339846134185791,-0.16414758563041687,0.7751344442367554,0.34887728095054626,-0.5241674184799194,-0.8296002149581909,0.1626404970884323,0.10276122391223907
11.237185572247652,-1.3241072289796039,-1.9398466598951485,-1.5339462571656473,1.8044356299680202,-1.8995537405049319,1.2662322099014138,-0.15578407049179077,0.7802683711051941,0.3470827639102936,-0.487851619720459,-0.8561110496520996,0.14752064645290375,0.0855112373828888
11.520903259658386,-1.3072711917685458,-1.947610149435773,-1.5167008225746599,1.78323837047865,-1.8517054342782833,1.1945059858798566,-0.14746332168579102,0.7857433557510376,0.3464805781841278,-0.45065972208976746,-0.8799940943717957,0.1338108479976654,0.06790318340063095
11.796700258949157,-1.2910068671593686,-1.955110008957688,-1.5000410027668298,1.76276092053968,-1.8054819450620445,1.125215417330212,-0.13933490216732025,0.7915109395980835,0.34698745608329773,-0.41314953565597534,-0.9011163711547852,0.12155939638614655,0.05020030215382576
12.063132983500022,-1.275383981335305,-1.9623140860911021,-1.4840382194381974,1.743091068267794,-1.761081435863669,1.0586575572808163,-0.1315091848373413,0.7975226640701294,0.34849077463150024,-0.3757646679878235,-0.9194969534873962,0.11073774099349976,0.03260737285017967
12.31935665174479,-1.26043769330393,-1.9692061681973667,-1.468728486548451,1.7242730802916313,-1.7186038291851098,0.9949821929305298,-0.1240653321146965,0.8037286996841431,0.3508673310279846,-0.33885976672172546,-0.9352452158927917,0.1012749969959259,0.015284329652786255
12.56544116990625,-1.246151030411581,-1.9757940817630564,-1.4540944187244818,1.7062855873460008,-1.6780008884538413,0.9341170160310597,-0.11704301834106445,0.8100927472114563,0.3539997339248657,0.30263733863830566,0.9485502243041992,-0.0930606871843338,0.0016815251437947154
12.972389180472813,-1.2324976192253259,-1.982089988193384,-1.4401090012176967,1.6890953842000946,-1.639197659921583,0.8759496683870095,-0.11046473681926727,0.8165808320045471,0.3577801287174225,0.2672426998615265,0.9596123695373535,-0.08598253130912781,0.018230099231004715
13.191283304584251,-1.221798277166347,-1.9861869231797429,-1.432952333864273,1.6840338323489306,-1.6302851958333837,0.8679036095092606,-0.11599414795637131,0.8195688724517822,0.35870108008384705,0.2579321265220642,0.9622184038162231,-0.08424700796604156,0.022565312683582306
13.483972538163554,-1.2120402935046766,-1.9895461010717164,-1.428140000279189,1.6832093139725557,-1.6318488906428326,0.8774901692940564,-0.12585386633872986,0.821155309677124,0.3584432601928711,0.25790297985076904,0.9622285962104797,-0.08421989530324936,0.022561118006706238
13.683575436373841,-1.2023126081429292,-1.9928948487987301,-1.4233426088718488,1.6823873557055156,-1.633407730218253,0.8870469630458625,-0.13572266697883606,0.8226182460784912,0.35817891359329224,0.2578732371330261,0.9622383713722229,-0.08420072495937347,0.022558627650141716
13.883365996082913,-1.1925963927153762,-1.9962396480102815,-1.4185508740787698,1.6815663666111904,-1.6349647317626632,0.8965924883621291,-0.14561793208122253,0.8239603042602539,0.3579082190990448,0.2578429579734802,0.9622474908828735,-0.08418936282396317,0.022557832300662994
14.082835491647613,-1.1832747877188459,-2.000259072893064,-1.412773698833857,1.6804241690398711,-1.6364592408935796,0.9057949630385665,-0.15541628003120422,0.8257965445518494,0.3576068878173828,0.25783461332321167,0.9622506499290466,-0.0841796025633812,0.02255595289170742
14.282634209742438,-1.174115598584268,-2.004556163801056,-1.406590930761677,1.6791497667736017,-1.6379280290642648,0.914856243106395,-0.16520452499389648,0.8277676105499268,0.35728442668914795,0.25783514976501465,0.9622509479522705,-0.08417432755231857,0.022554542869329453
14.482227962365043,-1.16498621422381,-2.0088392716127275,-1.400428281938387,1.6778795115198162,-1.6393920376743345,0.9238880370044662,-0.1750061810016632,0.8296142816543579,0.3569504916667938,0.25783494114875793,0.962250828742981,-0.08417608588933945,0.022554980590939522
14.896369207190236,-1.1558667823985036,-2.013117710130242,-1.3942723514190505,1.6766106410538286,-1.6408544502734816,0.9329099847570907,-0.18484072387218475,0.8313406705856323,0.356604665517807,0.25783416628837585,0.962250292301178,-0.0841846764087677,0.02255726233124733
15.147608552657353,-1.1623794584937426,-2.015815123587306,-1.3910615028542288,1.6756551257135204,-1.6398130851174755,0.9264658705929957,-0.1797342151403427,0.8345557451248169,0.3560367226600647,0.25783446431159973,0.9622504711151123,-0.08418159186840057,0.02255643904209137
15.347297020785795,-1.1732276587641013,-2.018070103794055,-1.388672675106279,1.6747877936465385,-1.6380773016911603,0.9157322854016071,-0.17042410373687744,0.8381074666976929,0.35540759563446045,0.257834255695343,0.9622504711151123,-0.08418301492929459,0.02255689539015293
15.54420010798453,-1.1837163560665838,-2.0183272208428624,-1.3888871951766228,1.6745782153285191,-1.6363879590327213,0.9053578180624691,-0.1607612669467926,0.8399658203125,0.35508638620376587,0.25783446431159973,0.9622507691383362,-0.08417912572622299,0.022555671632289886
15.743866839044081,-1.1938378009931339,-2.016502886878432,-1.3918143673137835,1.6750538230401912,-1.6347458247054727,0.8953502816004102,-0.15077833831310272,0.8400560617446899,0.3550870716571808,0.2578350603580475,0.9622515439987183,-0.0841684564948082,0.02255278453230858
15.943615880392777,-1.2039780908965263,-2.014675156212092,-1.3947469895118336,1.6755303162792143,-1.6331006329112723,0.8853241122460872,-0.1407909244298935,0.8400284647941589,0.3550868034362793,0.2578349709510803,0.9622517228126526,-0.08416630327701569,0.02255232445895672
16.143208534054743,-1.2141251650447706,-2.0128462027234773,-1.3976815737471862,1.6760071283105828,-1.6314543404203397,0.8752912349979588,-0.13081234693527222,0.8398833274841309,0.3550855815410614,0.25783422589302063,0.9622513651847839,-0.08417267352342606,0.022554045543074608
16.342917305015312,-1.2245760869827855,-2.0119558002691913,-1.399290500431043,1.676121922476056,-1.6297429618195414,0.8649637386395952,-0.12084265798330307,0.8404377698898315,0.35500264167785645,0.257834792137146,0.9622518420219421,-0.08416566997766495,0.02255212515592575
16.54262331926106,-1.2350393576648577,-2.0110785958149733,-1.4008810497482738,1.6762314539603196,-1.6280293345574774,0.8546241227135114,-0.11086785793304443,0.8408879637718201,0.3549194633960724,0.25783470273017883,0.9622517824172974,-0.08416751772165298,0.022552665323019028
16.732191120637413,-1.2427453643815136,-2.0063881190315707,-1.4073104257726556,1.6775300880382242,-1.626766525615336,0.8470139579968263,-0.10243037343025208,0.837932825088501,0.35548335313796997,0.25783634185791016,0.9622507691383362,-0.08417260646820068,0.022553781047463417
16.943501878581497,-1.246561963941887,-1.9963357755352766,-1.420543173623194,1.6805009101769426,-1.6261396459264417,0.8432539474184289,-0.09619449824094772,0.8302642703056335,0.35690173506736755,0.25784143805503845,0.9622495174407959,-0.08417289704084396,0.022553440183401108
17.143213518015596,-1.2503713666124485,-1.9863023875535313,-1.4337509687306733,1.6834661302923821,-1.625513948332754,0.8395010270210671,-0.09001680463552475,0.8225340843200684,0.3582404553890228,0.25784629583358765,0.9622479677200317,-0.08417441695928574,0.022553421556949615
17.394682135296545,-1.2515399183541276,-1.97319259077582,-1.4498579869653034,1.69132237951889,-1.6233156317326516,0.8226070619424016,-0.08527830988168716,0.814711332321167,0.35941842198371887,0.2501795291900635,0.9645044803619385,-0.08175109326839447,0.02140243537724018
17.970482035085233,-1.2323315939261892,-1.9359625691529663,-1.4887952256360393,1.7371828517347134,-1.6089064312357573,0.7037160934246497,-0.09104035794734955,0.8065714836120605,0.3598965108394623,0.18236325681209564,0.9813142418861389,-0.060071103274822235,0.012549113482236862
18.40220201544468,-1.2126259431734236,-1.8977686180683635,-1.5287405956448141,1.7842307060247768,-1.594124159430447,0.5817468965767871,-0.09667006134986877,0.7983354330062866,0.3603002429008484,0.11189093440771103,0.9930094480514526,-0.03713586926460266,0.005788261070847511
18.843532710017,-1.192403405296201,-1.8585728243247452,-1.5697337487335932,1.832512644406809,-1.5789541427055571,0.45657839876586326,-0.10215477645397186,0.7899980545043945,0.36062920093536377,0.039130356162786484,0.9991475939750671,-0.013078623451292515,0.001339387847110629
19.155834260990673,-1.1808510605268656,-1.8321049850467988,-1.5987856520811434,1.860094426410617,-1.5707962592942506,0.3899446698236288,-0.10368254035711288,0.7810302376747131,0.3608543574810028,-2.894885540172254e-07,1.0,5.3798096644186444e-08,1.8674331414558765e-08
19.41950833444825,-1.1794193095929202,-1.8207130388164887,-1.6135964183339728,1.8635131978336332,-1.570796276197512,0.3913764535089564,-0.10090387612581253,0.77143794298172,0.36095067858695984,-2.9571813797701907e-07,1.0,4.3504105207148314e-08,2.2846151637168077e-08
19.619264155825288,-1.1779922658733895,-1.8093585462607225,-1.6283584907457533,1.8669207292499268,-1.5707962930452,0.39280352987219147,-0.09809352457523346,0.7618536949157715,0.3609411120414734,-2.9001975576647965e-07,1.0,-1.321317277813705e-08,4.54455602039161e-08
19.81888311003676,-1.1765709212075963,-1.7980493991014233,-1.6430616092216443,1.8703146523202472,-1.5707963098256048,0.39422490705132274,-0.09525429457426071,0.7522857785224915,0.3608268201351166,-2.682251079022535e-07,1.0,-7.714042737916316e-08,7.027287551863992e-08
20.01835670342079,-1.1763404707547624,-1.768618958672377,-1.6740636396958162,1.9023290658654135,-1.5742217459239922,0.3923112716345614,-0.0932304710149765,0.742526113986969,0.3604699373245239,0.0010982442181557417,-0.9998821020126343,-0.013401735574007034,0.007416056003421545
20.21803978850475,-1.17662248845816,-1.7313210865092235,-1.712151460645909,1.946738678997723,-1.5791298347426317,0.38895711156767765,-0.09158139675855637,0.7326976656913757,0.35986536741256714,0.002760813571512699,-0.9993019104003906,-0.03263125941157341,0.017977828159928322
20.41772931834093,-1.17690512858659,-1.693940896360312,-1.750323343032236,1.9912463060297356,-1.5840487559214578,0.3855955487272682,-0.08994843065738678,0.7228807210922241,0.3590586483478546,0.004530505742877722,-0.9982344508171082,-0.05192701146006584,0.028480224311351776
20.617426447769315,-1.1771883002111512,-1.6564904139052214,-1.7885670064778207,2.035837628295351,-1.5889769269813625,0.38222766457058194,-0.08833225816488266,0.7130791544914246,0.3580513596534729,0.0064049577340483665,-0.9966768622398376,-0.07127392292022705,0.03891196474432945
20.817122366478355,-1.1774718806288218,-1.6189858670670847,-1.8268658793608827,2.0804933236255967,-1.5939122124630432,0.37885491845839697,-0.08673334121704102,0.7032972574234009,0.356845498085022,0.008381168358027935,-0.9946280121803284,-0.09065467119216919,0.04926064610481262
21.297680794321177,-1.17775576056295,-1.5814417080825953,-1.865205203354162,2.1251961841154836,-1.598852710572719,0.37547861006579886,-0.08515261113643646,0.6935392618179321,0.3554424047470093,0.01045618113130331,-0.992087185382843,-0.11005286127328873,0.05951474606990814
21.767028846789344,-1.1690516441912517,-1.624382916907591,-1.8232123842531396,2.0666879670395897,-1.5921626458813027,0.3883702247190203,-0.09034374356269836,0.6993467211723328,0.35627928376197815,0.007669437676668167,-0.9954102635383606,-0.08340182900428772,0.04629917070269585
22.00106242672257,-1.1594177587664425,-1.67651578637418,-1.7720239662895754,1.9964778930596225,-1.5841563300939152,0.403015490909243,-0.09648092091083527,0.7070934176445007,0.35770756006240845,0.00457041896879673,-0.9982056617736816,-0.0518389530479908,0.0296202190220356
22.227541088772124,-1.1500948680856606,-1.7269657368854099,-1.7224879791200025,1.9285342944447565,-1.5764084689195013,0.4171879882622621,-0.10266339778900146,0.714747965335846,0.3593864440917969,0.0018261602381244302,-0.9996834397315979,-0.021638138219714165,0.012706396169960499
22.551704775442634,-1.1358173578960375,-1.771107742310014,-1.6842752999090709,1.8694199531565825,-1.5610388623044238,0.43046296167527887,-0.10732240974903107,0.7195450663566589,0.35833629965782166,-0.002294877776876092,0.9999567270278931,-0.00483850110322237,0.007608892861753702
22.944990444345432,-1.10224928271164,-1.8050066506704991,-1.673874749853163,1.8252566189610961,-1.5175091211282083,0.4438872813452058,-0.10740268230438232,0.716300368309021,0.3489193618297577,-0.013417527079582214,0.9986984133720398,-0.025428252294659615,0.04212887957692146
23.38021145931191,-1.0530838432785825,-1.8546566445021044,-1.658641597191437,1.760572846638062,-1.453753340030261,0.4635491943990876,-0.1080237627029419,0.7138718366622925,0.3392814099788666,-0.03223126009106636,0.99365234375,-0.05254163220524788,0.0941038504242897
24.144875378662842,-0.9689873094592759,-1.939581999254055,-1.63258558400893,1.6499325043681448,-1.3447003088134826,0.4971805166277724,-0.11297370493412018,0.7176389098167419,0.33326250314712524,-0.0708501785993576,0.9759465456008911,-0.09012269228696823,0.18543565273284912
24.588349466797283,-0.9211012098772282,-1.9879400445859898,-1.6177488150566022,1.586931876314759,-1.2826035246131817,0.5163308046619863,-0.11964927613735199,0.7248084545135498,0.33486437797546387,-0.09611908346414566,0.9606462121009827,-0.10641731321811676,0.23789730668067932
24.83027076830226,-0.8890345546035647,-2.020322735657131,-1.607813456789343,1.544743862685652,-1.2410207648993243,0.5291546865430389,-0.12631389498710632,0.7317018508911133,0.3375645577907562,-0.11422836035490036,0.9482664465904236,-0.11524426192045212,0.27287596464157104
25.03051413704711,-0.8633427475819887,-2.0462677505874027,-1.5998532468730229,1.5109428224607666,-1.2077046541644947,0.5394291818324208,-0.1331532746553421,0.7384033203125,0.3404897451400757,-0.12936869263648987,0.9371128678321838,-0.12111771106719971,0.30068886280059814
25.229753893959103,-0.8415050840880745,-2.0683206371327527,-1.593087183849603,1.48221242831,-1.1793864430498695,0.5481623538709193,-0.14013174176216125,0.7448874115943909,0.34340500831604004,-0.1426483541727066,0.9267711043357849,-0.12528041005134583,0.324116587638855
25.672937436829898,-0.8226413562959676,-2.087632442831387,-1.5868694892092567,1.4571396889516925,-1.1548649166025204,0.5558105510070013,-0.14720965921878815,0.75121009349823,0.34619951248168945,-0.15437637269496918,0.9171811938285828,-0.1282893568277359,0.34422147274017334
26.7981978366516,-0.8932303689039751,-2.0531049770456766,-1.5564349512217044,1.514262104306311,-1.2380180587869964,0.5422104440027907,-0.1395426094532013,0.7547487020492554,0.3417629301548004,-0.10725058615207672,0.947388768196106,-0.11795036494731903,0.27755990624427795
27.35783743879672,-0.9548851096967628,-2.0229475647997903,-1.529852435311035,1.5641546808139957,-1.3106467192268236,0.5303316679565075,-0.13689009845256805,0.7641059756278992,0.34317681193351746,-0.06837088614702225,0.967951774597168,-0.10398871451616287,0.21813100576400757
27.799964873182,-0.994359860261219,-2.0036391335134303,-1.51283284895877,1.5960986479337034,-1.3571475757356255,0.5227262232590105,-0.13635602593421936,0.7731537818908691,0.3471893072128296,-0.04482676833868027,0.9782989025115967,-0.09260368347167969,0.17985069751739502
28.355794297333084,-1.047598586079185,-1.9879854799179038,-1.5024297330331833,1.6344038997822596,-1.4433117346552053,0.48848860034192265,-0.14133311808109283,0.7746068835258484,0.3439328670501709,-0.026194479316473007,0.9875326156616211,-0.09352151304483414,0.12388215214014053
28.745378527384233,-1.1071648629692006,-1.9731046652651343,-1.493972006407408,1.6760508135848526,-1.5456615108776253,0.44410237613285003,-0.15029290318489075,0.7781785726547241,0.3432004749774933,-0.011085448786616325,0.9938040971755981,-0.09328234940767288,0.05940422788262367
29.145979757138413,-1.1497957809583625,-1.962454632693089,-1.4879189060797862,1.7058570438801968,-1.6189121007105853,0.4123356520248556,-0.15727950632572174,0.7842022180557251,0.34691229462623596,-0.002228017197921872,0.9959414601325989,-0.08900472521781921,0.013184805400669575
29.329091598805245,-1.1572400560121467,-1.9523964407541785,-1.4946965398893348,1.7162222249305412,-1.6406339594840194,0.40795233768910627,-0.1610327661037445,0.7802205681800842,0.3498161733150482,-6.712036082490158e-08,0.9961950182914734,-0.08715233206748962,7.257327183651796e-08
29.614794236485903,-1.1499775230679632,-1.941695611048426,-1.5076874898603472,1.7190219134360305,-1.6417880784638146,0.41514069162720724,-0.16361020505428314,0.770728349685669,0.3515338897705078,1.1254343945665823e-07,0.9961951375007629,-0.08715026080608368,4.019506860686306e-08
29.8440159529935,-1.1426993023147274,-1.930971666463276,-1.5207065016032126,1.7218276495531477,-1.642944690457868,0.42234457314017065,-0.16604705154895782,0.7611837983131409,0.3531650900840759,-3.31301563960551e-08,0.9961948990821838,-0.08715272694826126,4.583987589512617e-08
30.014860554326958,-1.1434557376880294,-1.924689292214179,-1.528597877013476,1.7233845817607225,-1.6428240424039826,0.4215960166564539,-0.16315463185310364,0.7563674449920654,0.35394948720932007,2.0222691077265154e-08,0.9961950182914734,-0.08715169131755829,2.6393308871774934e-08
30.315569837449754,-1.154961043303518,-1.9243578215064172,-1.529618294821114,1.7232686204020582,-1.6409946593342521,0.4102085822584446,-0.15328001976013184,0.7578234076499939,0.3536968231201172,1.227928976277326e-07,0.9961951971054077,-0.08714936673641205,7.456066697386632e-08
30.567876216124343,-1.1647646243049552,-1.9222375538860097,-1.5327128510070505,1.7235575293993401,-1.6394356575000233,0.4005054990993735,-0.1442348062992096,0.7575182914733887,0.3537612855434418,-2.696544925129274e-07,0.99619460105896,-0.08715610951185226,3.780748514259358e-08
30.84621666455139,-1.1659737039858413,-1.9111129909636817,-1.5462464965750276,1.725884901233525,-1.6392422099876485,0.399309172641021,-0.13944755494594574,0.7489026188850403,0.3553556501865387,-3.363373650699941e-07,0.99619460105896,-0.0871560275554657,4.8982098377337024e-08
31.07495894985149,-1.167179808922126,-1.9000157982254862,-1.5597468448014584,1.7282065469465047,-1.6390492384215263,0.39811578955003274,-0.13467754423618317,0.7402613162994385,0.3568473756313324,3.1425250313077413e-07,-0.99619460105896,0.08715607225894928,6.440263600193674e-11
31.230440471447718,-1.1628173257486771,-1.8939851069495786,-1.566834442269609,1.729569556035441,-1.6397425027540704,0.4024337086951147,-0.13623195886611938,0.7349225878715515,0.3577328622341156,7.300378257468765e-08,0.9961950778961182,-0.08715051412582397,7.579004801527844e-08
31.506192867305778,-1.1510678699272452,-1.894668553703195,-1.565423478703886,1.7296623287316981,-1.641611396591011,0.4140626085159916,-0.14616486430168152,0.733912467956543,0.3579190671443939,3.7051719914416026e-07,0.9961954951286316,-0.08714600652456284,9.950559842764051e-08
31.767071671531596,-1.139330516302407,-1.8953512964917005,-1.5640139684615102,1.7297550058700482,-1.6434783654264051,0.4256795303155933,-0.15608233213424683,0.732771635055542,0.35810714960098267,-8.785445260173219e-08,0.9961948394775391,-0.08715327829122543,1.6891363863180686e-09
32.021057957128356,-1.1178066764779853,-1.8749980811443137,-1.5786706069989156,1.7636493212970008,-1.6256841235128308,0.4486239161369401,-0.16523948311805725,0.7360290884971619,0.3579328954219818,-0.0005433724727481604,0.9978490471839905,-0.0655384510755539,0.001291917753405869
32.22074253232844,-1.0950905405810265,-1.8508391213968012,-1.5962764688283158,1.8036018307557866,-1.6042739076156938,0.4730427635038216,-0.1741827428340912,0.7404423952102661,0.3584079146385193,-0.0007220307597890496,0.9991989135742188,-0.03997286781668663,0.0017220877343788743
32.42036524908311,-1.0735504282744217,-1.8279308808169483,-1.612970868033359,1.841485982557685,-1.583972107299614,0.4961974372153345,-0.18305829167366028,0.744849443435669,0.3596019148826599,-0.00042990417568944395,0.9998757839202881,-0.01571877859532833,0.001027764636091888
32.77619676539916,-1.0608961049836672,-1.8167774362612759,-1.618889949876482,1.8648711719516442,-1.5707962564067917,0.5098996057186278,-0.1896703690290451,0.7509741187095642,0.360835999250412,-2.6151542442676146e-07,1.0,4.509788453788133e-08,1.7024788689923298e-08
33.1667552853543,-1.0649748185304544,-1.8282084205372215,-1.6037607103204266,1.861172859653762,-1.5707962721338096,0.5058208793899723,-0.1916058510541916,0.7607686519622803,0.3609625995159149,-3.382870659152104e-07,1.0,5.548093540141963e-08,1.2581198305383623e-08
33.366445672007245,-1.0690634015051173,-1.8396670648274245,-1.5885948619324701,1.857465598400268,-1.570796287898883,0.5017322836025128,-0.19345031678676605,0.7705813050270081,0.36098310351371765,-3.030605739695602e-07,1.0,1.172680796912573e-08,3.9037836074840015e-08
33.56614291319434,-1.0731619068111145,-1.8511535173988818,-1.5733922084769372,1.853749340221744,-1.5707963037022157,0.497633765452624,-0.19520296156406403,0.7804107666015625,0.36089715361595154,-3.229660308079474e-07,1.0,4.4803663001857785e-08,1.838924035268974e-08
33.770442113516296,-1.0729373139031957,-1.856837711489216,-1.5643939082449123,1.850435202610807,-1.570796314870016,0.49785835502398634,-0.19794505834579468,0.785089373588562,0.3618480861186981,3.0930266348150326e-07,-1.0,3.3334444538013486e-08,9.382453924899892e-09
34.140748090607204,-1.0623409667527686,-1.8485770453543424,-1.5703187374696446,1.8480993963235586,-1.570796314870016,0.508454721662967,-0.20315095782279968,0.7773821353912354,0.36546561121940613,3.0242830462157144e-07,-1.0,2.845143853846821e-08,8.665294259913026e-09
34.34065603421358,-1.051654989271372,-1.8402465054951382,-1.5762936824934173,1.8457438323700468,-1.570796314870016,0.5191407187977635,-0.2082483023405075,0.7695703506469727,0.36905741691589355,-3.460239668129361e-07,1.0,-8.397800144166467e-08,2.2977427960313435e-08
34.54032775716213,-1.0409074555688898,-1.831867977835639,-1.5823030459910727,1.8433746992680171,-1.570796314870016,0.5298882722668582,-0.2132202386856079,0.7616766691207886,0.37261292338371277,2.393393572219793e-07,-1.0,-1.8818095526285106e-08,4.0225053510312136e-08
34.73977417455343,-1.0300965013255434,-1.8234400089954446,-1.5883478703762044,1.8409915860560506,-1.570796314870016,0.5406992463934588,-0.21806485950946808,0.7537019848823547,0.3761316239833832,2.416636277757789e-07,-1.0,-2.897843387472676e-08,4.528424213390281e-08
34.96297337496729,-1.0191834161575695,-1.8149324212584346,-1.5944498001277791,1.8385859596088645,-1.570796314870016,0.5516123516325236,-0.2227959930896759,0.7456201910972595,0.3796243369579315,2.795662226162676e-07,-1.0,-1.525331150276088e-08,3.7024292964815686e-08
35.17798092232521,-0.9997061621197338,-1.7900667481258024,-1.6203295863574327,1.8599261941426504,-1.5550397191377883,0.5699858795092496,-0.22477489709854126,0.736266553401947,0.3807615637779236,-0.00047203057329170406,0.9999171495437622,0.012807635590434074,0.0011413637548685074
35.37766305746015,-0.9753166306277464,-1.756156097199152,-1.6570307072406163,1.893992390313065,-1.5307950923500702,0.5926771005912853,-0.2251209020614624,0.7262898087501526,0.3805965185165405,-0.000884604174643755,0.9994669556617737,0.03256448358297348,0.002129699569195509
35.57734901101764,-0.950068202764023,-1.7210512562548022,-1.695024286717175,1.929258254148241,-1.5056966721227814,0.6161674107195384,-0.2250654548406601,0.7163123488426208,0.38023126125335693,-0.0009110124665312469,0.998589813709259,0.053035542368888855,0.00216859532520175
35.800763559335365,-0.9239242686909404,-1.6847013238055903,-1.7343654149013477,1.965774920616091,-1.479708066127097,0.6404908704875697,-0.2245810478925705,0.706359326839447,0.37963759899139404,-0.0005084063159301877,0.99724280834198,0.07419611513614655,0.0011519630206748843
36.05960704234902,-0.9192378488965571,-1.6719596887268355,-1.7508318750079803,1.9792260914478423,-1.472168298296932,0.6446491278659338,-0.2208309769630432,0.7022371888160706,0.3776155412197113,-0.00030973224784247577,0.9967687726020813,0.08031774312257767,0.0008886039140634239
36.49561063642524,-0.9473502100503502,-1.6956357764270666,-1.7318322787493572,1.9570530614284178,-1.4929817687550326,0.6179947043195034,-0.2127247154712677,0.7066986560821533,0.3738608956336975,-0.0007687347824685276,0.9979864358901978,0.06337514519691467,0.002444041660055518
36.69528494845055,-0.9752743536862661,-1.719153348290239,-1.7129598883425978,1.93502848399365,-1.51365588913412,0.5915187371258823,-0.2045673429965973,0.7111695408821106,0.3702355623245239,-0.0009468442876823246,0.9989131689071655,0.046498991549015045,0.003065034979954362
36.894967977655156,-1.002997907094823,-1.7425019840833045,-1.6942230658204567,1.9131621178563432,-1.5341814990857665,0.5652329573323893,-0.19636240601539612,0.7156585454940796,0.3667411208152771,-0.0008499008254148066,0.9995532631874084,0.0297442264854908,0.002770527731627226
37.09467009897254,-1.0304991733794429,-1.7656634107902252,-1.675636474920099,1.89147107598458,-1.5545425349391375,0.5391579366109615,-0.1881151795387268,0.720173716545105,0.36337974667549133,-0.00048433797201141715,0.999911904335022,0.013169124722480774,0.0015838586259633303
37.456030007156585,-1.0477897255643471,-1.774963004810444,-1.6704970313391776,1.884654182272628,-1.5634109885461112,0.5219537956448821,-0.18019792437553406,0.722349226474762,0.36050736904144287,-0.0005079599213786423,0.9999805688858032,0.006171431392431259,0.0007072293665260077
37.87064153231111,-1.0234854419486696,-1.7270666550566638,-1.7210417967245546,1.939372537457926,-1.524918845795477,0.540774423312948,-0.17350900173187256,0.7150532007217407,0.3592279553413391,-0.002554180333390832,0.9992526173591614,0.038405243307352066,0.0035613717045634985
38.07025569952455,-0.9984230240880472,-1.6776762533270924,-1.773163227283335,1.9957977464451713,-1.485226000648425,0.560182131125903,-0.16633814573287964,0.708207368850708,0.3580755889415741,-0.003605641657486558,0.9974085092544556,0.07167953252792358,0.005029951222240925
38.26989443502751,-0.9728302611679274,-1.6272407028138103,-1.8263875978435358,2.05341696755782,-1.4446932164165567,0.5800005248516065,-0.15872502326965332,0.7018329501152039,0.357052743434906,-0.0035646911710500717,0.9943930506706238,0.10557019710540771,0.004972688388079405
38.46955611831871,-0.9469768976517255,-1.576291587799169,-1.8801539303145065,2.111622901539829,-1.4037477034861632,0.6000207211429189,-0.1507238745689392,0.6959328651428223,0.35614028573036194,-0.0023765000514686108,0.9902015924453735,0.1395850032567978,0.0033132550306618214
38.762126013326274,-0.9211419957068209,-1.525378854925628,-1.9338818689037809,2.169787271374897,-1.3628314292467345,0.6200266212564447,-0.14239631593227386,0.6904909610748291,0.35529762506484985,-3.748646849999204e-05,0.9848829507827759,0.1732206791639328,5.172970486455597e-05
39.05497519152156,-0.931567730130672,-1.517840529404869,-1.942331351026095,2.17353673775666,-1.3653374765326975,0.6097433081736424,-0.13309314846992493,0.6870605945587158,0.35405397415161133,-3.053307636946556e-06,-0.9848116040229797,-0.17362596094608307,2.201620077357802e-07
39.25465971084228,-0.942493126860661,-1.5108414593888493,-1.950219599863441,2.176593018997734,-1.3684127315284658,0.5990380195347247,-0.12384539097547531,0.6835241317749023,0.35276666283607483,-3.147845518469694e-06,-0.9848117232322693,-0.17362526059150696,3.0564254416276526e-07
39.45418812187305,-0.9534549019013145,-1.5038190845583959,-1.9581341142153394,2.17965947674326,-1.3714982262056272,0.5882970854793992,-0.11466268450021744,0.6798570156097412,0.35144034028053284,4.5939408721551445e-08,-0.9848083257675171,-0.17364495992660522,5.562842186890293e-09
39.65396579207769,-0.9627361933064417,-1.496039288216701,-1.9672615180411093,2.182768182667409,-1.3741611848123416,0.5792331845418561,-0.1059829369187355,0.6752076148986816,0.3497602045536041,-2.0160259737167507e-06,-0.9848105907440186,-0.17363165318965912,1.3221441008681722e-07
39.85362540783277,-0.9719460946764328,-1.4882059260818352,-1.9764687438475292,2.185884658731766,-1.3768067820716974,0.5702408816625011,-0.09740743786096573,0.6704045534133911,0.34801340103149414,-2.252699232485611e-06,-0.9848108887672424,-0.17363007366657257,2.4465111891913693e-07
40.248399392404906,-0.9811819092949158,-1.4803505237696242,-1.9857018753743967,2.1890099034045405,-1.3794598230610602,0.5612232777761466,-0.08890809118747711,0.6654893159866333,0.3462144732475281,-2.0156218738520693e-07,-0.984808623790741,-0.17364273965358734,1.3985015812068013e-07
40.53793683366045,-0.9657220438624519,-1.4789277153675298,-1.9892612793209903,2.188160407312463,-1.3750572144629813,0.5763409631791284,-0.09548377245664597,0.6624831557273865,0.3450663387775421,-7.959843969729263e-06,-0.9848171472549438,-0.1735946536064148,9.586620990376105e-07
40.73764873386487,-0.9452451076434187,-1.4787933068858534,-1.9916920670866876,2.186508958194208,-1.3692212581306331,0.5963619019094696,-0.1050373986363411,0.6597521901130676,0.3440752923488617,-7.508485396101605e-06,-0.9848167300224304,-0.1735973060131073,2.2290154788606742e-07
40.96215952059348,-0.9289277452171003,-1.4775303293134483,-1.9973972164994853,2.1877964283025895,-1.3645764593758538,0.6123192761466872,-0.1116347461938858,0.6561943888664246,0.341412216424942,1.1107255915021597e-07,-0.9848082661628723,-0.17364506423473358,1.3224264705513633e-07
41.24404631772524,-0.9254669107625189,-1.4728312405380373,-2.013053003008572,2.1980502398708297,-1.3636130683326433,0.6157167182861986,-0.10927277058362961,0.6504355072975159,0.3336016535758972,-3.937568919809564e-07,-0.9848088622093201,-0.17364157736301422,1.7704087440506555e-07
41.44373668575174,-0.9220192974137799,-1.4681501032569488,-2.0286489811641526,2.2082648797509083,-1.36265335764315,0.6191011814916668,-0.10683318972587585,0.6446588039398193,0.32583191990852356,-6.082622689973505e-07,-0.9848091006278992,-0.1736399382352829,1.1708790736975061e-07
41.64337761917597,-0.9185841942668755,-1.4634859522113453,-2.0441883668846774,2.218442454219747,-1.3616971294133222,0.6224733636454277,-0.10431652516126633,0.638865053653717,0.31810274720191956,-4.6944882114985376e-07,-0.9848091006278992,-0.17364062368869781,1.660018398297325e-07
41.968428171539394,-0.9151602623780223,-1.4588369693958327,-2.059677217153889,2.228586930319814,-1.360744010921937,0.6258345791657505,-0.10172209143638611,0.6330527067184448,0.31041157245635986,-4.0622269992240945e-09,-0.9848085641860962,-0.1736430674791336,1.531806788079848e-07
42.04982578659017,-0.9110547248980322,-1.4564785832825116,-2.0602733245883615,2.2259801931268846,-1.3596083401332104,0.6298692974021355,-0.10264581441879272,0.6313776969909668,0.3115052878856659,-1.2805114124603278e-07,-0.9848087430000305,-0.17364245653152466,8.67618652478086e-08
42.3137606070272,-0.9063401626345335,-1.4561493788119502,-2.047660363455683,2.2120604331450093,-1.3583095170347268,0.6345057765359928,-0.10671011358499527,0.6333069205284119,0.32041916251182556,-4.655713894408109e-07,-0.9848089814186096,-0.17364071309566498,1.1136209820961085e-07
42.51345671200075,-0.9016247425428702,-1.4558201144416885,-2.0350451073584463,2.1981381404227665,-1.3570104576116448,0.6391430992905648,-0.11072491854429245,0.635122537612915,0.329379141330719,-1.7474008018325549e-07,-0.984808623790741,-0.17364275455474854,8.733452716569445e-08
42.70845360505604,-0.8969609758767969,-1.458558010136388,-2.0228135285296003,2.187671903624248,-1.355729467818728,0.6437318319785353,-0.11578238755464554,0.6382285952568054,0.3363080322742462,1.9454522259820806e-07,-0.9848082065582275,-0.1736452281475067,2.8041867494721373e-08
42.92186627163387,-0.8924137766003603,-1.4681365909470885,-2.011441308472391,2.184917632900367,-1.3544891545786988,0.6482108520195418,-0.12330329418182373,0.6443933844566345,0.3385730981826782,-4.756679317097223e-08,-0.9848084449768066,-0.17364397644996643,1.0728259525194517e-07
43.15016252182072,-0.8878660975639462,-1.4777161823622145,-2.0000678885698036,2.1821630715824782,-1.3532487104773163,0.6526903446271596,-0.13088694214820862,0.6505077481269836,0.34076136350631714,-3.2395007565355627e-07,0.984808087348938,0.17364607751369476,4.6877008941237364e-08
43.37759544163658,-0.8927110297352743,-1.488447681430227,-1.9856715206310631,2.1795206447916358,-1.3545710240486508,0.6479186851158539,-0.1349208503961563,0.6590269804000854,0.3439368009567261,-2.6196187263849424e-07,-0.984808623790741,-0.17364326119422913,4.110601281581694e-08
43.594043065346895,-0.897940320300661,-1.499239812214671,-1.9711343617563761,2.1768792122881924,-1.355998209649781,0.6427684563139228,-0.13873030245304108,0.6677113771438599,0.3470645844936371,-9.557263780379799e-08,-0.9848083257675171,-0.17364466190338135,5.8123998059045334e-08
43.79850554382367,-0.8949230061622337,-1.50847446769791,-1.9596046202379724,2.173939553596941,-1.3551803334672905,0.6457435099917205,-0.14551573991775513,0.6738789677619934,0.349277138710022,-1.0997358685926883e-06,-0.9848094582557678,-0.17363861203193665,1.8585649286251282e-07
43.99825873887105,-0.886626124248986,-1.5167029800515013,-1.9500118932693096,2.170811574184551,-1.352925140557774,0.6539204576497778,-0.1543101966381073,0.6783258318901062,0.350900799036026,-1.6667189584040898e-06,-0.9848100543022156,-0.17363522946834564,1.9982475407687161e-07
44.197955067362024,-0.8783507773087584,-1.5249101348886926,-1.940444064704483,2.1676917135995657,-1.350675801114532,0.662076181630188,-0.16316668689250946,0.6826625466346741,0.3524667024612427,-2.333652275865461e-07,-0.9848085045814514,-0.17364348471164703,8.713423227391104e-08
44.39465311458273,-0.8649333796238348,-1.530370099972614,-1.9353674685890132,2.1651203771948255,-1.3471039883328657,0.6753426246625673,-0.17292571067810059,0.6838199496269226,0.3528503477573395,-4.122454356547678e-06,-0.9848126769065857,-0.173620343208313,3.151759813135868e-07
44.59434365024729,-0.8503119009824062,-1.5351494314131644,-1.931392220477084,2.162689320901966,-1.3432228583294015,0.6898060165323947,-0.1829061508178711,0.6840881109237671,0.35294878482818604,3.993813606939511e-06,0.9848125576972961,0.1736210286617279,1.0542853257078377e-09
44.82949950254593,-0.8387905396503886,-1.5363269416614203,-1.931635045885869,2.161558275929528,-1.3401662780349657,0.7012037442918474,-0.1891905814409256,0.6823996901512146,0.3524046242237091,2.4488622329954524e-07,-0.984808087348938,-0.1736462265253067,9.562278791008794e-08
45.1891484320723,-0.8372608791980063,-1.5257903305650844,-1.9456102211108364,2.16464913126061,-1.3397672948621746,0.702720852161324,-0.183346226811409,0.6747574210166931,0.34972506761550903,1.5733260738670651e-07,-0.984808087348938,-0.17364579439163208,7.903235399453479e-08
45.38882958000531,-0.8357358555504953,-1.5152856587200918,-1.9595430338883342,2.167730617392774,-1.3393695211127665,0.7042333612761236,-0.1774941235780716,0.6671549677848816,0.3469615578651428,1.757096583787643e-07,-0.9848082065582275,-0.1736457794904709,3.966298844915173e-09
45.58848660668363,-0.8342151117752897,-1.5048104675026164,-1.9734367452003294,2.1708034555494273,-1.3389728636875915,0.7057416256397793,-0.17163410782814026,0.6595913171768188,0.3441139757633209,2.2226515739021124e-07,-0.984808087348938,-0.1736462265253067,3.4928808734235872e-09
45.78379700189461,-0.8263086773271449,-1.4943864694919653,-1.987946054841436,2.173060564830793,-1.3369356791144047,0.7135967258372734,-0.16869616508483887,0.6508341431617737,0.34094446897506714,-1.5547578868790879e-06,-0.9848099946975708,-0.17363539338111877,1.2425519457792689e-07
45.999790016627436,-0.8155179316150686,-1.483956674608879,-2.002771329119959,2.1749582321804417,-1.3341574790008885,0.7243185783115434,-0.1669120192527771,0.6416040062904358,0.3375795781612396,-1.3493850019585807e-06,-0.9848098754882812,-0.17363622784614563,5.5913549346087166e-08
46.16764240224737,-0.803375272623931,-1.4801960048098413,-2.009538798132908,2.1750671087168834,-1.331032637149768,0.7365632703703099,-0.1697455495595932,0.6365922689437866,0.3356759250164032,8.006576535990462e-05,0.9848108887672424,0.17362992465496063,1.3397137081483379e-05
46.44403075613042,-0.7892934852767112,-1.4863401585042761,-2.0043271711973976,2.1725241065374354,-1.3274106472578642,0.7509998901186649,-0.17967075109481812,0.6376224756240845,0.3360308110713959,0.0002751220599748194,0.9848135709762573,0.17361468076705933,4.734827598440461e-05
46.69251938149122,-0.7752826686856124,-1.492453346297674,-1.9991418103242216,2.1699939208267387,-1.323806911821517,0.7653637507921873,-0.18961146473884583,0.6384961605072021,0.33636489510536194,0.00046305597061291337,0.9848098754882812,0.17363540828227997,8.130255446303636e-05
46.834453589275206,-0.7665745628139076,-1.4933381307888365,-2.0040315033990006,2.1736436825581187,-1.3216190674279729,0.7741383502788711,-0.19310151040554047,0.6363073587417603,0.3328113853931427,0.0004997465293854475,0.9848060607910156,0.1736568808555603,8.81436571944505e-05
47.09497671869598,-0.7635001606844636,-1.488656749620909,-2.019656881731673,2.1838795805414364,-1.3209356968351234,0.7769742106494669,-0.1896103471517563,0.6309561729431152,0.32513684034347534,0.0003802458813879639,0.9848070740699768,0.17365118861198425,6.69516230118461e-05
47.294716372313125,-0.7604365120853162,-1.4839917428152478,-2.035227606192723,2.1940796757785805,-1.3202547165107112,0.7798001518523259,-0.186042919754982,0.6255964636802673,0.3175022602081299,0.000260981876635924,0.9848079085350037,0.1736469864845276,4.590349271893501e-05
47.49445656609736,-0.7573837628796389,-1.4793433324771872,-2.0507429354454048,2.2042434826334816,-1.3195761588768464,0.7826160393417458,-0.18240047991275787,0.6202292442321777,0.3099084496498108,0.00014182162703946233,0.9848084449768066,0.17364414036273956,2.490182851033751e-05
47.7195264538743,-0.7543431311316035,-1.4747133733487015,-2.066196678785734,2.214366945689811,-1.3189002946818564,0.7854207495627176,-0.17868530750274658,0.6148584485054016,0.3023592233657837,2.2994847313384525e-05,0.9848087430000305,0.1736426055431366,4.0208938116848e-06
47.95831079592873,-0.703980972756881,-1.4260503785662368,-2.1219060928751725,2.261573023605592,-1.2564331320509672,0.8030301770800856,-0.17043928802013397,0.6113520860671997,0.2998841404914856,-0.009002077393233776,0.9779126644134521,0.20881938934326172,0.0002514582884032279
48.231232538660095,-0.6391516033898595,-1.36387484067157,-2.190284793251422,2.3203339881559373,-1.1751677907539784,0.8252179073647156,-0.16057483851909637,0.6100095510482788,0.2993704676628113,0.01850375533103943,-0.9669990539550781,-0.2540905773639679,0.0028815437108278275
48.500584410136184,-0.5746890230809694,-1.302051077091629,-2.2582766233040497,2.378762497230427,-1.0943622293111523,0.8472801047809461,-0.15060743689537048,0.6103574633598328,0.29928433895111084,0.02537376433610916,-0.9541695713996887,-0.2980287969112396,0.009763701818883419
48.76151231590329,-0.5122425066035979,-1.2421608484878652,-2.3241420124237973,2.4353636577360236,-1.016083857581022,0.868652308125553,-0.14077608287334442,0.6120666861534119,0.2992720901966095,0.029522355645895004,-0.9400516748428345,-0.33917126059532166,0.019851839169859886
49.01074133925625,-0.4525958227132926,-1.1849558395432704,-2.38705428144622,2.489427066216545,-0.9413151505751347,0.8890662740094152,-0.1311832219362259,0.6148079037666321,0.29899531602859497,0.031149135902523994,-0.9251910448074341,-0.37682655453681946,0.03245113417506218
49.39880092035534,-0.3960983822677708,-1.1307711577598447,-2.446644889683951,2.5406360186962424,-0.8704941041105488,0.9084024172206872,-0.12187790870666504,0.6183149814605713,0.2981880009174347,0.03057161532342434,-0.9100318551063538,-0.4107435941696167,0.046872179955244064
49.64336490358097,-0.35146534635475307,-1.1137675873759285,-2.475686654116224,2.558583015437523,-0.8263165969562429,0.9388952896623363,-0.12293805927038193,0.6202378869056702,0.29678359627723694,0.029426250606775284,-0.9025214910507202,-0.4262925684452057,0.05351276695728302
49.90728198192441,-0.3157724678274138,-1.1268746755036196,-2.480245629674577,2.5496398490352545,-0.8031708745995916,0.9790298312351594,-0.13287018239498138,0.6203581094741821,0.2958129644393921,0.029220564290881157,-0.9014203548431396,-0.428719699382782,0.05279052257537842
50.106906524071334,-0.28109105353589037,-1.1396103351720819,-2.4846754130545605,2.54095011394321,-0.7806810553626045,1.0180270407939596,-0.14284531772136688,0.6204050779342651,0.29546746611595154,0.029275713488459587,-0.9000217914581299,-0.43169066309928894,0.05241038277745247
50.30656606532061,-0.2475499978363543,-1.1519272339790212,-2.488959540853848,2.53254610578234,-0.7589307232291006,1.0557419842199516,-0.15282580256462097,0.6203619241714478,0.2956863045692444,0.029569368809461594,-0.8983635306358337,-0.4351131319999695,0.052393414080142975
50.506287781664966,-0.2152052399123732,-1.163804830016946,-2.493090868079342,2.524441840609844,-0.7379561530209809,1.0921117611929296,-0.1627849042415619,0.6202136278152466,0.29640477895736694,0.03007728047668934,-0.8964822888374329,-0.43889930844306946,0.052746109664440155
50.70612725443566,-0.18405706087221319,-1.1752430200576782,-2.4970693588256836,2.516637388859884,-0.717757527028219,1.1271360556231897,-0.17270632088184357,0.6199472546577454,0.29755979776382446,0.030775627121329308,-0.8944112062454224,-0.4429706037044525,0.053464625030756
