Sungjin-Park-dev/lg_sgu_vision_v2/data/sample/trajectory/74/trajectory_dp_ee_s0010_eev50mms_av20dps_jv0p30_corner30d_x2p5.csv
time,ur20-shoulder_pan_joint,ur20-shoulder_lift_joint,ur20-elbow_joint,ur20-wrist_1_joint,ur20-wrist_2_joint,ur20-wrist_3_joint,target-POS_X,target-POS_Y,target-POS_Z,target-ROT_X,target-ROT_Y,target-ROT_Z,target-ROT_W
0.0,0.6310357451438904,-0.4380609393119812,2.014126777648926,1.6268804709063929,0.8174002806292933,0.0,0.0204695463180542,0.6878004670143127,0.05463145673274994,-0.5273682475090027,-0.4466787576675415,0.4898674190044403,0.5314043760299683
0.1944299042224884,0.6500581497020617,-0.447006809294462,1.9911617495950213,1.6472811889486905,0.8213332204394592,0.0,0.02142241597175598,0.696933388710022,0.05782351642847061,-0.5225536227226257,-0.4568382799625397,0.4919500946998596,0.525567889213562
0.389325525611639,0.6683070550574202,-0.455588917520181,1.9691305378122381,1.6668523620670397,0.825106236944526,0.0,0.021993041038513184,0.705938458442688,0.06150371581315994,-0.517794668674469,-0.46651917695999146,0.4938698410987854,0.5199434161186218
0.5845104157924652,0.685833615155101,-0.4638313207029395,1.9479713860814025,1.6856488506871168,0.8287299063777275,0.0,0.022202730178833008,0.7147907018661499,0.0656069666147232,-0.5130960941314697,-0.4757547080516815,0.4956408441066742,0.514519214630127
0.7798335701227188,0.7026893680258889,-0.471758256184612,1.9276220744912942,1.7037259271500858,0.8322148843831692,0.0,0.02207261323928833,0.7234724164009094,0.07007784396409988,-0.5084596276283264,-0.48457756638526917,0.49727657437324524,0.5092831254005432
0.9747996740043163,0.71889350266781,-0.47937874818087595,1.9080594368918793,1.721104170838382,0.8355651383443659,0.0,0.02162572741508484,0.7319557070732117,0.07485942542552948,-0.503894567489624,-0.49300330877304077,0.4987862706184387,0.5042322874069214
1.1706239485523284,0.7335355665482097,-0.4855723631718426,1.8900600882160912,1.7371050638461625,0.8372609110783397,0.0,0.021026611328125,0.7404676675796509,0.07926225662231445,-0.5,-0.5,0.5,0.5
1.3693737136491129,0.7415694583979361,-0.4843100316374267,1.8780126002610174,1.747890163776184,0.8292269023116021,0.0,0.021145224571228027,0.7502049207687378,0.07964235544204712,-0.4999999701976776,-0.4999999701976776,0.5,0.4999999701976776
1.5643263506062814,0.749571369499817,-0.4830527251030051,1.8660130700929876,1.7586323311440297,0.821224874758125,0.0,0.021129250526428223,0.7599416375160217,0.08010324090719223,-0.5,-0.5,0.4999999403953552,0.4999999403953552
1.8028942256420688,0.7570269038316729,-0.4829470779292089,1.8552601055302103,1.769279603434415,0.8137692361927827,0.0,0.021014511585235596,0.7690663933753967,0.08151194453239441,-0.4999999701976776,-0.49999991059303284,0.49999991059303284,0.5
2.05475550796218,0.7598797899212866,-0.49286987864116055,1.855139192167313,1.7793233687292707,0.8109163501031691,0.0,0.021107733249664307,0.7727259397506714,0.09054654836654663,-0.5,-0.4999999701976776,0.49999988079071045,0.4999999701976776
2.249779633240176,0.7627311551847586,-0.5027873896730317,1.8550183432613194,1.7893617798598376,0.808064984839697,0.0,0.021119236946105957,0.7763282060623169,0.09960798174142838,-0.5000000596046448,-0.49999988079071045,0.5000000596046448,0.5
2.4704692522763816,0.7655797838794264,-0.5126953824745821,1.854897610338834,1.7993905567274442,0.8052163561450293,0.0,0.02104949951171875,0.779870867729187,0.1086915135383606,-0.5,-0.4999999403953552,0.5,0.5
2.657323873819662,0.7712234974467127,-0.5154881086233124,1.8471912871951324,1.8098895963941377,0.799572651593528,0.0,0.021127521991729736,0.7871630191802979,0.11256047338247299,-0.5,-0.49999988079071045,0.5,0.5
2.8523534007685907,0.7786502489868488,-0.513716423131132,1.8346346855843443,1.8206744639534138,0.7921459148341446,0.0,0.021230459213256836,0.7968971133232117,0.11313328146934509,-0.5,-0.49999991059303284,0.49999991059303284,0.4999999701976776
3.0474277988391645,0.7860540055880747,-0.5119502231866286,1.8221169621136688,1.8314259390706056,0.7847421729679069,0.0,0.021200835704803467,0.8066290020942688,0.11378482729196548,-0.5000000596046448,-0.5,0.5,0.5
3.2424090087729223,0.7934296342191198,-0.510190733297851,1.8096467953323174,1.8421365677381116,0.7773665590158695,0.0,0.02103942632675171,0.816349446773529,0.1145135760307312,-0.5,-0.49999991059303284,0.5,0.5
3.437148037584377,0.8005362918198357,-0.5070505576782592,1.7963705318607868,1.8522725887445348,0.7702598851063378,0.0,0.02109062671661377,0.8260800242424011,0.11416507512331009,-0.5,-0.5,0.49999991059303284,0.5000000596046448
3.637629844003429,0.8075808165977414,-0.5036413527174282,1.7829516141208561,1.8622822310807465,0.7632153379133386,0.0,0.021078288555145264,0.8358164429664612,0.11365477740764618,-0.5000000596046448,-0.5,0.49999988079071045,0.5000000596046448
3.8257188119706194,0.8106598227631582,-0.4988960644441817,1.7757649484210192,1.864723571885755,0.760136343383034,0.0,0.021030306816101074,0.8400768637657166,0.11058081686496735,-0.5,-0.4999999701976776,0.49999988079071045,0.4999999701976776
4.17470250458041,0.8064834812849533,-0.49169281914893853,1.7799754063778501,1.8533098938677628,0.7643127588834429,0.0,0.021058201789855957,0.8342664241790771,0.10275378078222275,-0.5,-0.5,0.49999988079071045,0.4999999701976776
4.381884284348352,0.8022919214193579,-0.4844633255744434,1.784201207040878,1.8418546249562733,0.7685043930409755,0.0,0.021000444889068604,0.8284017443656921,0.0949685350060463,-0.5,-0.5,0.49999991059303284,0.4999999701976776
4.589081207864661,0.7953897834439029,-0.48373578363459946,1.7952712534562127,1.8300570116556072,0.7754065742270572,0.0,0.021102547645568848,0.8190675973892212,0.09216050803661346,-0.4999999701976776,-0.5,0.49999991059303284,0.4999999701976776
4.784134856068272,0.788443231676607,-0.4830413581131822,1.806426437375998,1.818207376883008,0.7823531692154536,0.0,0.021083056926727295,0.8096944689750671,0.08946627378463745,-0.5,-0.5000000596046448,0.4999999403953552,0.4999999403953552
4.948474848219312,0.7860322492034709,-0.48196796638586387,1.8097649645236051,1.8137954600819008,0.7847641692126837,0.0,0.021133065223693848,0.806532084941864,0.08786620944738388,-0.4999999403953552,-0.5000000596046448,0.4999999403953552,0.4999999403953552
5.4007522688408445,0.7930533005862795,-0.4801123571641854,1.796851966230966,1.8248529081411256,0.7777430818974539,0.0,0.021456778049468994,0.8162651062011719,0.08843022584915161,-0.49999991059303284,-0.5,0.4999999701976776,0.4999999701976776
5.595666069646652,0.8000479397469505,-0.478263728487199,1.7839875448480758,1.8358687596133878,0.7707484069395344,0.0,0.02165156602859497,0.8259873986244202,0.08907642215490341,-0.4999999701976776,-0.5,0.49999991059303284,0.4999999701976776
5.790639698614652,0.8070248133991066,-0.47641979509580884,1.7711557974862993,1.8468566322008735,0.7637714975810503,0.0,0.021717488765716553,0.8357086181640625,0.08980466425418854,-0.5,-0.4999999403953552,0.4999999403953552,0.5
5.98567783098417,0.8139840110122093,-0.4745805333439328,1.7583565595949244,1.8578166668089642,0.7568122643520824,0.0,0.02165508270263672,0.8454266786575317,0.09061403572559357,-0.5000000596046448,-0.5,0.5,0.5
6.180773984750087,0.8209252748133233,-0.47274601135895084,1.7455903052655493,1.8687484574712758,0.7498709650268849,0.0,0.021464407444000244,0.8551389575004578,0.09150373190641403,-0.5,-0.4999999403953552,0.4999999403953552,0.5
6.375684209277208,0.8278400904468196,-0.4709184794187715,1.7328726939562393,1.8796385949361172,0.742956114004662,0.0,0.02114623785018921,0.8648310899734497,0.09247137606143951,-0.5,-0.49999988079071045,0.5,0.5
6.5648451001544545,0.8337406709884433,-0.47258590161542563,1.7227973289349423,1.8913813451469184,0.737055520703909,0.0,0.02106398344039917,0.8734340071678162,0.09640045464038849,-0.5000000596046448,-0.49999988079071045,0.5000000596046448,0.5
6.759904652943189,0.8390580861229248,-0.47621614133005274,1.7142299577822577,1.903578865578155,0.7317381055694275,0.0,0.021081745624542236,0.8813937306404114,0.10203632712364197,-0.5,-0.4999999403953552,0.4999999403953552,0.5
7.002965307193705,0.844351589679718,-0.4798300564289093,1.7057011127471924,1.9157215356826782,0.7264446020126343,0.0,0.021000027656555176,0.8893083930015564,0.10774357616901398,-0.5,-0.4999999701976776,0.49999991059303284,0.5
7.167613271524525,0.8406261906174262,-0.5254684020018737,1.6563067234479465,1.9160527511740617,0.6977860458061557,0.0,0.04550749063491821,0.926945149898529,0.1375788450241089,-0.505072295665741,-0.524671733379364,0.4579032361507416,0.5098490715026855
7.3322624279482405,0.8356776545025736,-0.5705318982869286,1.6069119765208317,1.9163511988881887,0.668743113801506,0.0,0.0708308219909668,0.9633204340934753,0.17298713326454163,-0.5084565877914429,-0.5474225878715515,0.4145400822162628,0.5195737481117249
7.496911584371956,0.8293146808056583,-0.6149278843902534,1.5575172295937172,1.9166119118230625,0.6392544581861714,0.0,0.09685194492340088,0.9978606700897217,0.2138277292251587,-0.5102269649505615,-0.568146288394928,0.370026171207428,0.5291112661361694
7.661560740795672,0.8214166821942314,-0.6585888711283441,1.5081224826666024,1.9168340602486558,0.6092753750300103,0.0,0.12340101599693298,1.0300008058547974,0.2599015235900879,-0.5104416608810425,-0.5867819786071777,0.3244940936565399,0.5383675694465637
7.826209897219387,0.8121358233674248,-0.7015787995940159,1.4587277357394879,1.9170233592173866,0.5788488601253592,0.0,0.1500135362148285,1.059192180633545,0.3110365569591522,-0.5090563297271729,-0.6034154295921326,0.27812546491622925,0.5471722483634949
7.990859053643103,0.8014315054620328,-0.7438760303648551,1.4093329888123733,1.9171801210387656,0.5479586595606407,0.0,0.17639756202697754,1.0849350690841675,0.3669303059577942,-0.5060983300209045,-0.6180562376976013,0.23106896877288818,0.5554080009460449
8.155508210066818,0.7892392183558289,-0.7854624862608136,1.3599382418852586,1.9173068700218892,0.5165833389918187,0.0,0.20227563381195068,1.106773853302002,0.4272211790084839,-0.5016051530838013,-0.6307212114334106,0.1834663599729538,0.5629590749740601
8.320157366490534,0.7754781572425304,-0.826317772881768,1.310543494958144,1.9174058378684709,0.4846969978271764,0.0,0.22737839818000793,1.1243059635162354,0.49148935079574585,-0.49562233686447144,-0.6414363980293274,0.13545598089694977,0.5697099566459656
8.48480652291425,0.7600622997531724,-0.8664159079558125,1.2611487480310293,1.917478433680843,0.45227203297754803,0.0,0.25143328309059143,1.1371898651123047,0.5592583417892456,-0.4881996810436249,-0.6502396464347839,0.08717739582061768,0.5755428075790405
8.649455679337965,0.7429025303435518,-0.9057174577164515,1.2117540011039147,1.9175249750697287,0.4192886923384647,0.0,0.27416449785232544,1.1451549530029297,0.6299899816513062,-0.4793917238712311,-0.6571829915046692,0.03877798095345497,0.580336332321167
8.81410483576168,0.7239210365755381,-0.9441529200519261,1.1623592541768,1.9175417427950414,0.38576311555351767,0.0,0.29528483748435974,1.1480144262313843,0.7030622959136963,-0.46925756335258484,-0.6623421907424927,-0.009571793489158154,0.5839592814445496
8.978753992185396,0.7030440383909558,-0.9816488611098804,1.1129645072496854,1.9175245792258155,0.35171665995753104,0.0,0.31450796127319336,1.1456830501556396,0.7778130173683167,-0.4578638970851898,-0.6658115983009338,-0.057697594165802,0.5862818360328674
9.143403148609112,0.6801955191207247,-1.0181350930024973,1.063569760322571,1.917469615063198,0.3171652463900711,0.0,0.3315582275390625,1.138181209564209,0.8535631895065308,-0.44528529047966003,-0.6677001118659973,-0.10542864352464676,0.5871816277503967
9.308052305032827,0.6553411140059444,-1.0535660304179342,1.0141750133954561,1.9173737271332254,0.2821222097891083,0.0,0.3461149334907532,1.12564218044281,0.929648220539093,-0.43158403038978577,-0.6681439876556396,-0.15259303152561188,0.5865442156791687
9.472701461456543,0.6285948767405767,-1.0879722583802263,0.9647802664683416,1.9172357785394107,0.2466063394688276,0.0,0.35766369104385376,1.1083248853683472,1.00547456741333,-0.41676104068756104,-0.6673367619514465,-0.19900238513946533,0.5842686891555786
9.637350617880259,0.6001520862446227,-1.1214267194246723,0.9153855195412269,1.917055876424718,0.21063883004786021,0.0,0.3655919134616852,1.086600422859192,1.080488920211792,-0.4007837176322937,-0.6654988527297974,-0.24445833265781403,0.5802791118621826
9.801999774303974,0.5702113217399137,-1.1540057008704923,0.8659907726141123,1.9168342791566555,0.17423899464144915,0.0,0.36931049823760986,1.060936450958252,1.1541459560394287,-0.3836212754249573,-0.6628485321998596,-0.28876274824142456,0.5745280981063843
9.96664893072769,0.5389504450558323,-1.1857764097679917,0.8165960256869976,1.9165708312156526,0.13742328115470492,0.0,0.3683074116706848,1.0318835973739624,1.2258999347686768,-0.36525779962539673,-0.6595934629440308,-0.33172163367271423,0.5669955611228943
10.131298087151405,0.5063714434061947,-1.216686261541727,0.7672012787598831,1.9162583354750393,0.1001458524553824,0.0,0.362417608499527,1.0000665187835693,1.2951490879058838,-0.3457643985748291,-0.6558704376220703,-0.3731677830219269,0.5576977133750916
10.295947243575121,0.47275966141217235,-1.2468655545776328,0.7178065318327684,1.915897993431063,0.0624784114609272,0.0,0.35111451148986816,0.9661771059036255,1.3614091873168945,-0.32509666681289673,-0.6519235968589783,-0.4128935635089874,0.5466504693031311
10.460596399998837,0.4382884373660516,-1.2763881007637026,0.6684117849056537,1.9154896524942981,0.02446535798037562,0.0,0.3341239392757416,0.9309425354003906,1.4241753816604614,-0.3032696545124054,-0.6479486227035522,-0.45071545243263245,0.5338965654373169
10.625245556422552,0.4030683714228004,-1.305287921179414,0.6190170379785391,1.9150309925129376,-0.013870332761395768,0.0,0.3113710284233093,0.895117998123169,1.4829474687576294,-0.28033676743507385,-0.6441102623939514,-0.4864674210548401,0.5195022821426392
10.789894762697958,0.367199986960531,-1.333595487355746,0.5696222760959172,1.9145199510614817,-0.05250692940150827,0.0,0.28290003538131714,0.8594679832458496,1.5372551679611206,-0.2563660740852356,-0.6405609846115112,-0.5199939608573914,0.5035517811775208
10.954544051287375,0.3307702488455072,-1.3613372985085075,0.5202274895190921,1.9139552305774834,-0.09142290754443086,0.0,0.2488798350095749,0.8247473835945129,1.5866632461547852,-0.23144115507602692,-0.63744056224823,-0.5511521697044373,0.48614364862442017
11.119193042754453,0.2937852555966676,-1.3884653739801738,0.47083279207896833,1.9133311996250373,-0.13062284570789845,0.0,0.20974263548851013,0.7916951179504395,1.63075590133667,-0.20569728314876556,-0.6348534822463989,-0.5798196196556091,0.4673958122730255
11.28384225583625,0.25632040425006797,-1.4150036848152967,0.42143802815442954,1.9126500744333383,-0.17007118071656768,0.0,0.16588330268859863,0.7609995603561401,1.669193148612976,-0.1792457550764084,-0.6329210996627808,-0.6058793067932129,0.4474283456802368
11.448491494336153,0.21848758013315575,-1.4410372351184306,0.3720432566044587,1.911920164822006,-0.20971241849478472,0.0,0.11768260598182678,0.7332797050476074,1.7016966342926025,-0.1521812230348587,-0.6317662000656128,-0.6292277574539185,0.42636221647262573
11.613140771729203,0.18033155506188142,-1.4665811823109571,0.322648473386544,1.9111433198285261,-0.24952397099099133,0.0,0.0657423660159111,0.7090954780578613,1.7280205488204956,-0.1246388852596283,-0.6314744353294373,-0.6497822403907776,0.4043366312980652
11.777790081008812,0.14188860222978825,-1.491649763904982,0.27325368060266136,1.9103223214327723,-0.28948384527989773,0.0,0.010743416845798492,0.6889257431030273,1.747975468635559,-0.09676247090101242,-0.6321178674697876,-0.6674764156341553,0.3814961612224579
11.942439350323369,0.10318606229471701,-1.516256387519802,0.22385889980829396,1.9094610340388896,-0.3295704736981186,0.0,-0.04656902700662613,0.6731583476066589,1.7614299058914185,-0.0687030702829361,-0.633754551410675,-0.6822601556777954,0.35798898339271545
12.10708842513498,0.06420415787895385,-1.5403204673745559,0.17446417736481057,1.90855758804164,-0.36977815417846266,0.0,-0.10523787140846252,0.6620956659317017,1.7683199644088745,-0.04065563157200813,-0.63641357421875,-0.6941033005714417,0.3339843451976776
12.271737516918815,0.025011814582566072,-1.5639283364439756,0.12506944982966045,1.9076234655117625,-0.4100610922064014,0.0,-0.16457712650299072,0.6559125185012817,1.768640160560608,-0.012747449800372124,-0.6401422023773193,-0.7029851675033569,0.30962440371513367
12.436386699516488,-0.01435647784483501,-1.5871173861957693,0.07567469505035887,1.9066651111309247,-0.45039252821595777,0.0,-0.2238004505634308,0.6546885967254639,1.762434482574463,0.014873860403895378,-0.644962728023529,-0.7089022397994995,0.2850603461265564
12.601035964576077,-0.05388472861474811,-1.6098958591018564,0.026279915532482136,1.9056874986040142,-0.49075119950795487,0.0,-0.28207090497016907,0.6584017276763916,1.7498059272766113,0.04204777255654335,-0.6508786082267761,-0.7118678689002991,0.26044777035713196
12.765685268702276,-0.09355958450861189,-1.6322704496809295,-0.023114875705377638,1.9046959417412146,-0.5311155610242693,0.0,-0.3385685086250305,0.666926920413971,1.7309141159057617,0.06861451268196106,-0.657880425453186,-0.7119110822677612,0.2359403669834137
12.930334560303276,-0.1333751548692469,-1.6542259993274742,-0.07250966318567777,1.9036958787658433,-0.5714614078973261,0.0,-0.39247027039527893,0.6800383925437927,1.7059822082519531,0.0944071039557457,-0.6659438014030457,-0.709078311920166,0.21169327199459076
13.094983781082723,-0.1733337898650032,-1.6757041709569995,-0.12190442941951171,1.9026950328939882,-0.6117486019689031,0.0,-0.4429329037666321,0.697409987449646,1.6753146648406982,0.11924046277999878,-0.6750271916389465,-0.7034394145011902,0.18786442279815674
13.259632892473038,-0.21339506289406285,-1.696799166279432,-0.17129916283660596,1.9017009071335833,-0.6519591565481762,0.0,-0.4894375205039978,0.7186399698257446,1.6391866207122803,0.14300952851772308,-0.6850956678390503,-0.6950581073760986,0.16457943618297577
13.424281966942841,-0.25355216503910993,-1.7175163807926115,-0.22069388517754693,1.9007184957819372,-0.6920707082157358,0.0,-0.5313824415206909,0.7432519197463989,1.5979499816894531,0.16557389497756958,-0.6960926055908203,-0.6840205788612366,0.14197295904159546
13.588931146000338,-0.29379927803317557,-1.737860965323864,-0.27008863889479573,1.8997529285403332,-0.7320604683928096,0.0,-0.5682491660118103,0.7707065343856812,1.5519927740097046,0.1868010014295578,-0.70795077085495,-0.6704249382019043,0.12017259746789932
13.753580521883894,-0.3341310982267042,-1.7578377170472337,-0.3194834516598628,1.8988095114037469,-0.771905008769741,0.0,-0.5996090173721313,0.8004138469696045,1.5017352104187012,0.20656690001487732,-0.7205942273139954,-0.6543806195259094,0.09929762780666351
13.91822967830761,-0.3745503458423217,-1.777409843060651,-0.36887819858697757,1.8978976891708865,-0.8115559993394387,0.0,-0.6250660419464111,0.8317373394966125,1.4476639032363892,0.22473368048667908,-0.7339327931404114,-0.6360213756561279,0.0794617161154747
14.082878909989017,-0.4150508057054604,-1.796577191801909,-0.4182729680913999,1.897026152383674,-0.8509730277485735,0.0,-0.6443866491317749,0.864022970199585,1.3902599811553955,0.24119338393211365,-0.7478727698326111,-0.6154835224151611,0.06076214089989662
14.2475283269575,-0.45561870847373037,-1.8153909766673488,-0.46766779318194474,1.8961944640498665,-0.8901558594547794,0.0,-0.6575124859809875,0.8966163396835327,1.3299623727798462,0.2558809816837311,-0.7623205780982971,-0.5928900241851807,0.04328605905175209
14.412177774313879,-0.496251247675884,-1.8338513246218815,-0.5170626273888582,1.8954066284700783,-0.9290784460941132,0.0,-0.6644066572189331,0.9288557767868042,1.2672641277313232,0.2687152028083801,-0.7771706581115723,-0.568385899066925,0.027114437893033028
14.576827098731068,-0.5369457156566598,-1.8519572777273507,-0.5664574247140148,1.8946668772596547,-0.9677131086670816,0.0,-0.6651281714439392,0.9600938558578491,1.2026643753051758,0.279626727104187,-0.7923129200935364,-0.5421230792999268,0.012317594140768051
14.741476202688926,-0.5776994882115624,-1.8697070700384733,-0.6158521559013724,1.8939795434579112,-1.0060306943842343,0.0,-0.6598287224769592,0.9897097945213318,1.1366610527038574,-0.28855860233306885,0.8076329231262207,0.5142584443092346,0.0010457229800522327
14.906125019046474,-0.6185110500751342,-1.8870927828439132,-0.6652468008086367,1.8933497749214094,-1.043994627173594,0.0,-0.6487407088279724,1.0171198844909668,1.0697543621063232,-0.29546424746513367,0.8230132460594177,0.4849565029144287,0.012928991578519344
15.070774001477389,-0.6593877011879585,-1.904058201971156,-0.7146414955379115,1.89278746812311,-1.081516198118721,0.0,-0.6321182250976562,1.0417847633361816,1.002495527267456,-0.3002856373786926,0.8383286595344543,0.4544118046760559,0.023309221491217613
15.235422984761083,-0.7003181847465388,-1.9206676679605925,-0.7640361905230195,1.8922827909460556,-1.118634479633514,0.0,-0.6104329228401184,1.063232183456421,0.935260534286499,-0.30304503440856934,0.8534706830978394,0.422750324010849,0.032151151448488235
15.400072086121048,-0.7413024117362778,-1.9369167294086818,-0.8134309209310091,1.8918364464921296,-1.155320012455128,0.0,-0.5841274261474609,1.0810421705245972,0.8684916496276855,-0.30373844504356384,0.8683216571807861,0.3901344835758209,0.03944084048271179
15.564721439019067,-0.782340783835923,-1.9528010144529688,-0.8628257268004146,1.8914493947585995,-1.191542046077736,0.0,-0.5536959171295166,1.094862699508667,0.8026086688041687,-0.3023749589920044,0.882765531539917,0.35672616958618164,0.04517517238855362
15.72937071727402,-0.8234362046276199,-1.9683190532277137,-0.9122205102769,1.8911223816750684,-1.2272752632474024,0.0,-0.5196711421012878,1.1044129133224487,0.7380001544952393,-0.29897648096084595,0.8966898918151855,0.3226822316646576,0.04935977980494499
15.894019754074344,-0.8645943632106892,-1.9834714196339063,-0.9616152213169977,1.890855911816151,-1.2624980873445775,0.0,-0.4826139807701111,1.1094835996627808,0.6750221252441406,-0.29357659816741943,0.9099860787391663,0.28815487027168274,0.05200853943824768
16.05866901073716,-0.9058227658032368,-1.9982578220106086,-1.0110099983158425,1.8906506147651283,-1.297185685256945,0.0,-0.4430978298187256,1.1099379062652588,0.6140011548995972,-0.286218523979187,0.9225495457649231,0.25329214334487915,0.053145620971918106
16.223318464286073,-0.9471303363279543,-2.0126764506644745,-1.0604048343805164,1.8905074857795607,-1.3313085429003533,0.0,-0.40170010924339294,1.1057096719741821,0.5552343130111694,-0.27695465087890625,0.9342802166938782,0.21823900938034058,0.052804552018642426
16.38796762070979,-0.9885273435059287,-2.026728148722119,-1.1097995813076311,1.8904267574960087,-1.3648461665846703,0.0,-0.35899847745895386,1.096798062324524,0.49898067116737366,-0.2658483386039734,0.9450842142105103,0.1831311285495758,0.05102282017469406
16.552616777133508,-1.0300263098250624,-2.0404228232000534,-1.1591943282347459,1.8904054460651596,-1.3978103099926424,0.0,-0.31557154655456543,1.0832582712173462,0.44545432925224304,-0.25297415256500244,0.9548748731613159,0.14808805286884308,0.04783044382929802
16.71726604282483,-1.0716444401896448,-2.053770404841928,-1.2085891079421425,1.8904404270117547,-1.4302168732180138,0.0,-0.2719765901565552,1.0652035474777222,0.3948403000831604,-0.2384098470211029,0.9635714888572693,0.1132226437330246,0.043260008096694946
16.88191564597926,-1.1134035248425096,-2.066777722335105,-1.2579839888884718,1.8905281466035382,-1.4620760045592767,0.0,-0.2287391722202301,1.0428017377853394,0.34729811549186707,-0.22223509848117828,0.9710982441902161,0.0786428302526474,0.03735033795237541
17.04656504113325,-1.1553168489160577,-2.079452171145537,-1.3073788074346688,1.890667257315447,-1.4933955051613255,0.0,-0.18636558949947357,1.0162686109542847,0.30295976996421814,-0.20453841984272003,0.9773839116096497,0.0444524921476841,0.030143674463033676
17.211214197556966,-1.1973772440858106,-2.0918078258350854,-1.3567735543617836,1.8908582880673481,-1.5241850857658756,0.0,-0.1453491449356079,0.9858623743057251,0.26192453503608704,-0.1854226142168045,0.9823607802391052,0.010746884159743786,0.02168499305844307
17.37586295661638,-1.2395920760118764,-2.1038111099129875,-1.4061681820796084,1.8911136479248394,-1.5543609685070368,0.0,-0.10608617216348648,0.9519059658050537,0.2243097722530365,-0.16498786211013794,0.9859685897827148,-0.02234850637614727,0.012064321897923946
17.54051201812993,-1.2819279781405457,-2.1155218689828956,-1.4555629005336737,1.8914289843773282,-1.5840007005912944,0.0,-0.06903975456953049,0.9147167205810547,0.19011688232421875,-0.14336082339286804,0.9881520867347717,-0.054784126579761505,0.001306459424085915
17.705159680006616,-1.3243670463562012,-2.1269779205322266,-1.5049571990966797,1.8917975425720215,-1.6131700277328491,0.0,-0.03460266441106796,0.8746485114097595,0.15935799479484558,0.12065728008747101,-0.9888616800308228,0.08650393038988113,0.010557811707258224
17.755159680006617,-1.3201284206506132,-2.1360852593203696,-1.4913261152730013,1.8874575653589252,-1.6138808381571719,0.0,-0.04070829227566719,0.8824292421340942,0.15806519985198975,0.12272487580776215,-0.9886074066162109,0.08647890388965607,0.01073744148015976
17.95464109650027,-1.3158785869429557,-2.1452166802235846,-1.4776591069288234,1.8831062874525484,-1.6145935281446504,0.0,-0.04688377305865288,0.890144407749176,0.1567154824733734,0.12479745596647263,-0.9883480668067932,0.08645500987768173,0.010917652398347855
18.37402289170878,-1.3116173203265657,-2.1543726664884026,-1.4639553315792064,1.8787433037321104,-1.6153081354117549,0.0,-0.053128987550735474,0.8977925181388855,0.15530899167060852,0.126875102519989,-0.9880834817886353,0.08643210679292679,0.011098568327724934
18.603155504027036,-1.307356553710234,-2.149476372538104,-1.4711701234953787,1.8811972471541654,-1.6160509179346865,0.0,-0.05620839446783066,0.8933687210083008,0.15610969066619873,0.12894995510578156,-0.9878122806549072,0.08643655478954315,0.011290274560451508
18.80583738256526,-1.3031070885792033,-2.138483354882631,-1.487460839483974,1.8866085785551547,-1.6168040178162766,0.0,-0.05780302733182907,0.8836734294891357,0.15781685709953308,0.13101787865161896,-0.9875364303588867,0.0864536389708519,0.011486084200441837
19.015452408897563,-1.2985668257731784,-2.1342686537986544,-1.4936258565067917,1.8887368220072116,-1.6175800942356584,0.0,-0.06120822951197624,0.8797873854637146,0.15848159790039062,0.13322889804840088,-0.9872391223907471,0.08644349128007889,0.011685045436024666
19.416698895849603,-1.2934650272615145,-2.1427065800980194,-1.4808893929360252,1.8847370905506347,-1.6184021939010724,0.0,-0.06820830702781677,0.8867888450622559,0.15729019045829773,0.1357164829969406,-0.986903190612793,0.08638142794370651,0.011891080997884274
19.616209388234036,-1.2883530334701425,-2.1511613684938746,-1.4681274772020074,1.8807293661517916,-1.6192259364255717,0.0,-0.07528285682201385,0.8937118053436279,0.15605145692825317,0.138208270072937,-0.9865601062774658,0.08632088452577591,0.012097867205739021
19.9042531535019,-1.2821915174881007,-2.155894599466602,-1.4608852196104922,1.8785591123445062,-1.6202313767074437,0.0,-0.08252409845590591,0.8973128795623779,0.15537378191947937,0.14120975136756897,-0.9861369729042053,0.08626169711351395,0.012352236546576023
20.25810019927185,-1.2728004073994637,-2.1491392978216886,-1.4706825779015649,1.8820609429704775,-1.6217960223151577,0.0,-0.09003210812807083,0.8908568024635315,0.15653187036514282,0.14577965438365936,-0.9854715466499329,0.0862065851688385,0.012752445414662361
20.572815462404247,-1.2633687516149512,-2.1423548304654307,-1.4805222358468748,1.8855778925928433,-1.6233674232099853,0.0,-0.09744966775178909,0.8842849135398865,0.15766653418540955,0.15036645531654358,-0.9847811460494995,0.08615659922361374,0.013155244290828705
20.840247243144265,-1.262607974253753,-2.1183854026267763,-1.5109372502396414,1.91711427370326,-1.6156559573635745,0.0,-0.09203895926475525,0.8778039813041687,0.15841996669769287,0.15149737894535065,-0.9856771230697632,0.07322617620229721,0.011266233399510384
21.03970071996068,-1.2633029482738483,-2.0917943363298153,-1.5444733646462412,1.9530031828110739,-1.6064741870294785,0.0,-0.08452130109071732,0.8712806701660156,0.15904080867767334,0.1518845558166504,-0.9866387248039246,0.058260053396224976,0.008993818424642086
21.239156506457082,-1.2639899630323281,-2.065507806961099,-1.577625403245101,1.9884810704872646,-1.597397571866754,0.0,-0.07705559581518173,0.8646910786628723,0.1595858335494995,0.1521035134792328,-0.9873860478401184,0.04345031455159187,0.00672824215143919
21.438624176629535,-1.2646691984951277,-2.0395189286716975,-1.6104020503294703,2.023557230289437,-1.5884237342240972,0.0,-0.06964127719402313,0.8580371141433716,0.1600559651851654,0.15215983986854553,-0.9879260659217834,0.028797531500458717,0.004471802618354559
21.63810633818125,-1.2653408279528267,-2.013821071024859,-1.6428116680719294,2.058240611055493,-1.579550384642831,0.0,-0.06227811798453331,0.8513206839561462,0.16045129299163818,0.15205910801887512,-0.9882653951644897,0.014302561059594154,0.0022266029845923185
22.11634324776098,-1.2659915787095937,-1.9885198196699463,-1.6747334546897745,2.092386218489895,-1.5708205402689597,0.0,-0.055006206035614014,0.844560980796814,0.16076606512069702,0.1518130898475647,-0.988409161567688,3.6730209103552625e-05,6.621901320613688e-06
22.596545751958857,-1.261060589692588,-2.0098771244923563,-1.6529393208118044,2.062525625210042,-1.5809232103782012,0.0,-0.06467139720916748,0.8448874354362488,0.1583240032196045,0.15415702760219574,-0.987923264503479,0.0153510682284832,0.0027276123873889446
22.795993398695956,-1.2561147185456596,-2.0312988874151747,-1.6310794104474515,2.0325749102066895,-1.5910563711757437,0.0,-0.074365995824337,0.8451284766197205,0.15599912405014038,0.15632104873657227,-0.9872137308120728,0.030719943344593048,0.005378274247050285
22.995448887169132,-1.251154923045461,-2.052780960076307,-1.6091579568068344,2.0025398734885154,-1.601218060357164,0.0,-0.08409001678228378,0.8452925086021423,0.15379169583320618,0.15830165147781372,-0.9862802624702454,0.0461355559527874,0.007954687811434269
23.194910969406138,-1.246183289166092,-2.0743143076179305,-1.5871841795411485,1.9724331470901806,-1.611404004153424,0.0,-0.09384113550186157,0.8453879356384277,0.15170139074325562,0.1600950062274933,-0.9851230382919312,0.06158639118075371,0.010452307760715485
23.432458663140498,-1.2412026997684522,-2.0958864436729514,-1.5651708204058898,1.9422721887542427,-1.6216082961241445,0.0,-0.10361610352993011,0.8454235792160034,0.14972802996635437,0.16169767081737518,-0.9837430715560913,0.07705780863761902,0.012866557575762272
23.62572460078875,-1.2234742872407902,-2.1121022435978745,-1.5541355936617167,1.9157351280348585,-1.6000647586127668,0.0,-0.1068497896194458,0.8426693081855774,0.1464962363243103,-0.17078062891960144,0.981107234954834,-0.09089155495166779,0.0011477073421701789
24.093292009843967,-1.180706811469134,-2.122919337552842,-1.5589704048523003,1.889481449620174,-1.5210560734438958,0.0,-0.09979097545146942,0.8366897106170654,0.14293470978736877,-0.1952599734067917,0.9741880893707275,-0.10365912318229675,0.0456712506711483
24.53942308689999,-1.1217751853003606,-2.1378247984360192,-1.565632553612291,1.8533050811538652,-1.4121857177717947,0.0,-0.0908077210187912,0.8335410356521606,0.14422810077667236,-0.23052096366882324,0.9599185585975647,-0.11783812940120697,0.10737975686788559
24.951665176205264,-1.0936845911243007,-2.137162580324115,-1.5782474475706927,1.8448668158326234,-1.3548460804437243,0.0,-0.08349370956420898,0.8326630592346191,0.1482829749584198,-0.24792513251304626,0.9513900876045227,-0.11906012147665024,0.13861683011054993
25.35308381499753,-1.1221536601862325,-2.1061147981618724,-1.6040102233543156,1.889379055954927,-1.3907221209396698,0.0,-0.07547102868556976,0.8267735242843628,0.14787116646766663,-0.23074299097061157,0.9609300494194031,-0.10118924826383591,0.11459436267614365
25.583536025586795,-1.154458430251978,-2.070883879243495,-1.6332440752282495,1.9398885292058485,-1.4314318201774525,0.0,-0.0673108920454979,0.8210883140563965,0.14851588010787964,-0.21178226172924042,0.9700850248336792,-0.07993447035551071,0.08771409094333649
25.83848842621405,-1.1906336298046545,-2.0314319493983777,-1.6659804303572496,1.996449534606414,-1.477018942161577,0.0,-0.05912565439939499,0.8158870339393616,0.15075182914733887,-0.19132500886917114,0.9782567620277405,-0.05495860055088997,0.05820440128445625
26.105837916444667,-1.2290885011887838,-1.9894938562624838,-1.700779749825765,2.0565748750311044,-1.525478852109535,0.0,-0.051244884729385376,0.8115471005439758,0.1549932360649109,-0.17059825360774994,0.9845786094665527,-0.02712996117770672,0.027661088854074478
26.63748419246821,-1.2648585440084585,-1.9513837886663405,-1.7321408750920015,2.1112679557282235,-1.5712895740817465,0.0,-0.04483846575021744,0.8084984421730042,0.16069656610488892,0.15237276256084442,-0.9883227348327637,0.00075919134542346,0.00013247232709545642
27.0719948466782,-1.260719231039785,-1.975380813014486,-1.7065617805529534,2.0780734221027264,-1.5819661332611086,0.0,-0.05448600649833679,0.8104666471481323,0.15911006927490234,0.15430346131324768,-0.9878693222999573,0.017199307680130005,0.0029637888073921204
27.27145135960621,-1.2565719807861622,-1.9994238525399401,-1.6809336371587835,2.044815236737402,-1.592663165135608,0.0,-0.06416336447000504,0.8123576641082764,0.1576167345046997,0.1560257226228714,-0.9871620535850525,0.033676471561193466,0.005728788208216429
27.47090312278909,-1.2524190772295414,-2.023499666211905,-1.6552705588918613,2.011511715646588,-1.603374778614464,0.0,-0.07386753708124161,0.8141798377037048,0.15621629357337952,0.15753640234470367,-0.9862017035484314,0.05017548426985741,0.008422348648309708
27.67035877890033,-1.2482626654989593,-2.0475958179777995,-1.6295858016859248,1.9781800613367122,-1.6140954407511987,0.0,-0.083595871925354,0.8159415125846863,0.1549077033996582,0.15883266925811768,-0.9849892854690552,0.06668148934841156,0.011039694771170616
27.90001175244683,-1.2441049405093263,-2.0716995831591727,-1.6038929291290402,1.9448378755637499,-1.6248194901862805,0.0,-0.09334509819746017,0.8176511526107788,0.15368878841400146,0.15991221368312836,-0.9835267663002014,0.08317974209785461,0.01357597578316927
28.127828990592697,-1.2342654814457446,-2.0754731126416117,-1.5996372485668162,1.9394007691584014,-1.6281650551387643,0.0,-0.10320397466421127,0.8168296217918396,0.15369507670402527,0.16450603306293488,-0.9825184941291809,0.08595342934131622,0.01439137477427721
28.483998273507947,-1.223240690916422,-2.075009180933388,-1.5998497263287876,1.9397799343298758,-1.6299729073756426,0.0,-0.11306741088628769,0.8153777718544006,0.15394741296768188,0.1698552817106247,-0.9816076755523682,0.08587579429149628,0.014859730377793312
28.93284267356233,-1.262432738152296,-2.0805355646703694,-1.6000798724462675,1.9572346260414688,-1.701666407799643,0.0,-0.11747970432043076,0.8159834146499634,0.14862912893295288,0.14787259697914124,-0.9839199185371399,0.08516557514667511,0.0527447871863842
29.684159034264532,-1.3528763393760612,-2.092308352449186,-1.6003617697044183,1.992760023161208,-1.847358463826141,0.0,-0.11664506047964096,0.8246065974235535,0.14538860321044922,0.0986424908041954,-0.9834967851638794,0.07847552746534348,0.1297895610332489
30.423251347116807,-1.409004533969797,-2.0996144007977624,-1.6005367117008322,2.014806650844942,-1.937773174881101,0.0,-0.11429396271705627,0.8336873054504395,0.14864912629127502,0.06891051679849625,-0.9792348742485046,0.07081777602434158,0.17701765894889832
30.88323385161155,-1.3716539172110016,-2.0784262707525065,-1.6187123769252036,2.0298860089724355,-1.8847899940788033,0.0,-0.1193808913230896,0.8264679908752441,0.14699357748031616,0.09056966006755829,-0.9824155569076538,0.0629052221775055,0.15066389739513397
31.165013067365717,-1.318930344490115,-2.049912728073765,-1.6428055670257808,2.048629234789642,-1.809385802498596,0.0,-0.12512706220149994,0.8183500170707703,0.14650243520736694,0.12029813230037689,-0.9849162697792053,0.0510275699198246,0.11342116445302963
31.53559811943485,-1.2505991801705374,-2.0129584120142523,-1.6740309875878654,2.0729209581516876,-1.7116599478314882,0.0,-0.1312304586172104,0.8111715912818909,0.14939191937446594,0.15748006105422974,-0.9847761392593384,0.03252078965306282,0.0660170316696167
31.927025493309344,-1.180500461476148,-1.9750481812755505,-1.706064130794068,2.097841046950322,-1.6114061725052042,0.0,-0.13678254187107086,0.8073987364768982,0.15660813450813293,0.19374366104602814,-0.9808222651481628,0.010054780170321465,0.01870851218700409
32.11306708491715,-1.1513410208631434,-1.9543112301343535,-1.7271511048090977,2.110666058863667,-1.5707963705062866,0.0,-0.13747255504131317,0.8018286228179932,0.1608106791973114,0.2081935554742813,-0.9780876636505127,3.883812826899202e-09,1.9154326125203625e-08
32.36384434353568,-1.1498793590875516,-1.9440245204553999,-1.742658270206313,2.1158864672022926,-1.5707963705062866,0.0,-0.13447517156600952,0.7923136353492737,0.16082832217216492,0.20890827476978302,-0.9779351949691772,6.876861746718532e-09,1.785116232611017e-08
32.790048626111016,-1.1485000078550391,-1.933925694022754,-1.7579347800612624,2.1208974631206905,-1.5708571243428862,0.0,-0.13142751157283783,0.7828385233879089,0.16076692938804626,0.20958273112773895,-0.9777909517288208,8.787154365563765e-05,1.2275167136976961e-05
33.27206500182829,-1.1766680485285974,-1.9791366576256435,-1.7103362715086086,2.053356731272707,-1.5946106962010103,0.0,-0.12213803827762604,0.7860885858535767,0.15916937589645386,0.19529154896736145,-0.9801292419433594,0.0343499630689621,0.005277270916849375
33.496548314209356,-1.204754456096332,-2.024216596446974,-1.662875707022806,1.986011737558386,-1.6182954284168014,0.0,-0.11283960938453674,0.7895827293395996,0.15831118822097778,0.18004359304904938,-0.9812173843383789,0.06830364465713501,0.011456973850727081
33.77339790027299,-1.224716877083915,-2.0477246623324197,-1.6383052587673765,1.9508674683721527,-1.6297305531060449,0.0,-0.10328231751918793,0.7921026945114136,0.1580536663532257,0.1691393256187439,-0.9817314147949219,0.08588533848524094,0.014796881005167961
34.05264458814337,-1.2359800773479068,-2.0478692177454456,-1.6385294013785918,1.95059785557932,-1.627881545304309,0.0,-0.09337203949689865,0.7932026386260986,0.15786632895469666,0.16367393732070923,-0.9826577305793762,0.08596263825893402,0.014318099245429039
34.371699129120614,-1.2472447800172344,-2.048013792440809,-1.63875357388833,1.9503282068226682,-1.6260322908622646,0.0,-0.08344879001379013,0.7941804528236389,0.15768110752105713,0.1582030951976776,-0.9835527539253235,0.08604801446199417,0.013840666972100735
34.682260353360746,-1.245526326206474,-2.0108957772028737,-1.6792144155695903,2.002046440801332,-1.6096822770352939,0.0,-0.07478193193674088,0.7898587584495544,0.15834814310073853,0.16048595309257507,-0.9851065278053284,0.06095849350094795,0.009665575809776783
34.88557368263623,-1.241512967696017,-1.967129214662983,-1.7268551848445424,2.0630404395839763,-1.5907413060277957,0.0,-0.06629369407892227,0.784730076789856,0.1593931019306183,0.16352081298828125,-0.986031174659729,0.03129486367106438,0.00490493793040514
35.11554433778739,-1.2375088776769914,-1.9234637270728647,-1.7743859320368327,2.1238935781983637,-1.5718440774935953,0.0,-0.057782936841249466,0.7796974182128906,0.16069239377975464,0.1658724546432495,-0.9861457943916321,0.0016448944807052612,0.0002545710012782365
35.47363660594979,-1.2145784436021585,-1.8626993789731,-1.8489482827246084,2.218649313085075,-1.5362438607081714,0.0,-0.05403143912553787,0.7711437344551086,0.15770229697227478,-0.17634712159633636,0.9834081530570984,0.04132666438817978,0.010100260376930237
35.805646069375385,-1.1898270616388502,-1.799107241758564,-1.9273461642974699,2.318252152112753,-1.498582906672277,0.0,-0.04993976280093193,0.7623472213745117,0.15542620420455933,-0.1857079416513443,0.9785866141319275,0.08649944514036179,0.019963338971138
36.13492917123522,-1.165278930558176,-1.736037303992795,-2.005100266114923,2.4170370826707037,-1.4612312130308118,0.0,-0.04526675492525101,0.7536264657974243,0.1542319357395172,-0.19294370710849762,0.9719709157943726,0.13127653300762177,0.02848723717033863
36.42360480235773,-1.1434277925927565,-1.6803669160075838,-2.074212906549096,2.5036397720074572,-1.4285595754708824,0.0,-0.04050980135798454,0.7450048923492432,0.15368229150772095,-0.19776788353919983,0.9647460579872131,0.17010849714279175,0.03487125784158707
36.62306384848314,-1.138280347544342,-1.6722153961358515,-2.0894494557760086,2.51001603869732,-1.4269448552845259,0.0,-0.03926835209131241,0.7356996536254883,0.15031611919403076,-0.20014937222003937,0.9642552733421326,0.17001928389072418,0.03529061749577522
36.882107437796684,-1.1331470258928051,-1.6640862421464593,-2.1046441994411813,2.5163748103883607,-1.4253345655163332,0.0,-0.03792113810777664,0.7264201641082764,0.14692506194114685,-0.20252351462841034,0.9637590646743774,0.16993354260921478,0.03570958971977234
37.08962893037582,-1.1183414244258647,-1.6610490753888671,-2.111547121178309,2.518075627178868,-1.4207457266698809,0.0,-0.04422688111662865,0.7218294739723206,0.1452016532421112,-0.2093776911497116,0.9623000621795654,0.16963797807693481,0.03690988942980766
37.289038243875744,-1.0993618397714926,-1.6601649078534209,-2.1149521092159933,2.517802545982936,-1.4148714015049202,0.0,-0.05377047881484032,0.7191191911697388,0.14420953392982483,-0.21815544366836548,0.9603492617607117,0.16928817331790924,0.03845653310418129
37.60793978580775,-1.0832148266668506,-1.6602905118063038,-2.116260144724238,2.516863187253015,-1.409871984981449,0.0,-0.06231915205717087,0.7176675200462341,0.14373323321342468,-0.22561277449131012,0.9586167335510254,0.16902723908424377,0.03978096693754196
37.97416248655978,-1.0900245981884553,-1.6683526394937913,-2.1010207668615224,2.5107230745736033,-1.4119638351537196,0.0,-0.0632466971874237,0.7269916534423828,0.1471472978591919,-0.22246547043323517,0.9593527913093567,0.16915255784988403,0.03922499343752861
38.31563458266125,-1.0968419787918275,-1.6764237756169655,-2.0857643608691734,2.5045761010737824,-1.4140580227111663,0.0,-0.06403454393148422,0.736339807510376,0.15053406357765198,-0.21931295096874237,0.9600777626037598,0.16928379237651825,0.03866983950138092
38.564623682892005,-1.0848504080081642,-1.6779097526009001,-2.0845444443814327,2.502943533344594,-1.4104097499853487,0.0,-0.07130647450685501,0.7364375591278076,0.1505143940448761,-0.22486412525177002,0.9588000774383545,0.16901837289333344,0.039639316499233246
38.76405642846791,-1.0665384881034348,-1.6772060014044625,-2.0879999132303415,2.502809625190745,-1.4048318972946496,0.0,-0.08072244375944138,0.7333557605743408,0.1493849754333496,-0.23332983255386353,0.9567764401435852,0.16865399479866028,0.04113047569990158
39.143186347109186,-1.0481289669868248,-1.6764984992649241,-2.0914737994789014,2.502675003316097,-1.399224315051553,0.0,-0.09009918570518494,0.730152428150177,0.14827197790145874,-0.2418275773525238,0.9546552896499634,0.1683289259672165,0.04264000058174133
39.51761181711733,-1.0547562552210548,-1.6843973506555596,-2.0763576461804716,2.496539850647671,-1.401224243984824,0.0,-0.09127116203308105,0.7393339276313782,0.15163320302963257,-0.2387661337852478,0.9554261565208435,0.1684613823890686,0.04209936037659645
39.99962394113293,-1.061648921146281,-1.6923927862979145,-2.061034723168011,2.4903367584927554,-1.4033047955860083,0.0,-0.09221768379211426,0.748668372631073,0.15501472353935242,-0.2355804294347763,0.9562159180641174,0.16860415041446686,0.0415385402739048
40.40403754703316,-1.058211727187143,-1.6855280084491766,-2.0737811103577997,2.495654834809673,-1.4022687209132605,0.0,-0.09009488672018051,0.7410451173782349,0.1522952914237976,-0.23716960847377777,0.9558237791061401,0.16853077709674835,0.04181766137480736
40.60347532175097,-1.0538776604193998,-1.677378551300364,-2.0889547508304513,2.5019689389979503,-1.4009620476025488,0.0,-0.08762437105178833,0.731957733631134,0.149015873670578,-0.23917269706726074,0.9553250074386597,0.16844044625759125,0.042170342057943344
40.80292632124934,-1.0495568068277072,-1.6692539392261185,-2.1040821317520546,2.50826379351272,-1.399659357918629,0.0,-0.08506754785776138,0.7229025363922119,0.14571166038513184,-0.24116896092891693,0.9548228979110718,0.1683526486158371,0.04252247139811516
41.002376836459966,-1.0452488864254532,-1.661153645760417,-2.119164233360434,2.514539806253705,-1.3983605674486272,0.0,-0.08242503553628922,0.7138808369636536,0.1423833966255188,-0.24315854907035828,0.9543174505233765,0.1682673692703247,0.04287419468164444
41.19329921222839,-1.0470703337760299,-1.6537826785419285,-2.132078802455019,2.52038325512638,-1.398909023353244,0.0,-0.07706884294748306,0.7064664959907532,0.13965079188346863,-0.24231718480587006,0.9545316100120544,0.16830389201641083,0.042725570499897
41.39275410465512,-1.054098422752548,-1.647021967510068,-2.143168718811398,2.5258665598432413,-1.4010266372231672,0.0,-0.06952330470085144,0.7003390789031982,0.13742026686668396,-0.239070326089859,0.9553502798080444,0.1684471070766449,0.0421527624130249
41.60411662909868,-1.0608249759181938,-1.6424794279108537,-2.1540335630129914,2.533287931793389,-1.4030561759203173,0.0,-0.0627172440290451,0.694997251033783,0.13388130068778992,-0.23596131801605225,0.9561221599578857,0.168586865067482,0.04160545393824577
41.82959440457229,-1.0662533806058128,-1.6474326476990329,-2.1639224557581165,2.548992345747308,-1.4047064627704393,0.0,-0.058735642582178116,0.6932666301727295,0.1249038577079773,-0.2334536463022232,0.9567385315895081,0.16869042813777924,0.04116210713982582
42.029027131521744,-1.071698912433397,-1.6524014953730226,-2.1738425489129187,2.5647463086408018,-1.4063619564346241,0.0,-0.054701246321201324,0.6913953423500061,0.11597886681556702,-0.23093688488006592,0.9573490619659424,0.16879813373088837,0.04071826487779617
42.378487556448555,-1.0771625361696417,-1.6573868512488026,-2.1837955999908294,2.5805526115566733,-1.4080229502117654,0.0,-0.05061512440443039,0.6893813014030457,0.10710689425468445,-0.22841066122055054,0.9579540491104126,0.16890941560268402,0.04027395322918892
42.712530445080176,-1.058709740655829,-1.6584512187156817,-2.185356467513573,2.5798570517566413,-1.4026277715194324,0.0,-0.05993948504328728,0.6877373456954956,0.10599532723426819,-0.2369794249534607,0.955909013748169,0.16833718121051788,0.04172679781913757
42.91198975197591,-1.0393605023572765,-1.6593775937826452,-2.186620412601373,2.578569379975128,-1.3969682187567538,0.0,-0.06972263753414154,0.685980498790741,0.10518079996109009,-0.2459508776664734,0.9536691904067993,0.16778278350830078,0.043266333639621735
43.11144879810132,-1.0199687530483053,-1.6603060041307665,-2.1878871346244697,2.577278879129872,-1.3912962317420008,0.0,-0.07948330044746399,0.6840934753417969,0.10438808798789978,-0.254927396774292,0.951326847076416,0.16727235913276672,0.044824328273534775
43.310906372737065,-1.000534501980587,-1.661236449317107,-2.1891566329785186,2.5759855498365627,-1.385611813181239,0.0,-0.08921972662210464,0.6820766925811768,0.1036180853843689,-0.2639075219631195,0.9488810896873474,0.16680645942687988,0.046400174498558044
43.510367374639884,-0.9810584959808576,-1.662168893586168,-2.190428858878758,2.574689441795746,-1.379915181517451,0.0,-0.09893032163381577,0.6799303293228149,0.10287028551101685,-0.2728898227214813,0.9463316202163696,0.16638557612895966,0.047993004322052
43.709825917851106,-0.9615417618986458,-1.6631032877759213,-2.1917037452485726,2.573390623343195,-1.374206637098847,0.0,-0.10861317068338394,0.6776552200317383,0.10214531421661377,-0.28187236189842224,0.9436779618263245,0.16601048409938812,0.04960210621356964
43.90928123868622,-0.9419851292383926,-1.6640395921725435,-2.1929812379024662,2.5720891496815725,-1.3684864225512128,0.0,-0.11826640367507935,0.6752513647079468,0.10144343972206116,-0.29085347056388855,0.9409195184707642,0.16568151116371155,0.0512266680598259
44.34110627029782,-0.9223889708518982,-1.664977788925171,-2.194261312484741,2.5707850456237793,-1.3627546469317835,0.0,-0.12788867950439453,0.6727195978164673,0.10076472163200378,-0.299831748008728,0.9380560517311096,0.16539929807186127,0.05286581441760063
44.50688026330264,-0.9225882240414435,-1.6606915390456143,-2.2010852558204355,2.5210528477223333,-1.3170047607421305,-0.039370622061050645,-0.09010042250156403,0.6599295139312744,0.10638344287872314,-0.3184608519077301,0.9326378703117371,0.14630740880966187,0.08581047505140305
44.6726564418111,-0.9227230905271818,-1.656390866886877,-2.2079593601162206,2.4713199941697948,-1.2713562235734222,-0.07870855148963782,-0.052864063531160355,0.6472725868225098,0.11446809768676758,-0.337706059217453,0.9252981543540955,0.1259671300649643,0.11794136464595795
44.83843262031956,-0.9228052095934911,-1.652078176426457,-2.214873894813708,2.421587140617256,-1.2257910293795042,-0.11801954852115008,-0.016347959637641907,0.6349329948425293,0.12498217821121216,-0.3574608266353607,0.9160031080245972,0.10445494204759598,0.1491609513759613
45.00420879882802,-0.9228626700073114,-1.6477597658255416,-2.2218076525452584,2.3718542870647177,-1.1802646804539847,-0.157318179416719,0.019297145307064056,0.6231035590171814,0.13787329196929932,-0.3776109516620636,0.9047259092330933,0.08185520023107529,0.17938928306102753
45.169984977336476,-0.9229082274333712,-1.643438655698059,-2.228750489034491,2.3221214335121796,-1.134757595597743,-0.19661087629967572,0.05390918254852295,0.6119559407234192,0.15306273102760315,-0.3980458974838257,0.891447126865387,0.058251362293958664,0.20853832364082336
45.335761155844935,-0.922946214257784,-1.639115385599053,-2.235699093129613,2.272388579959641,-1.0892621389182389,-0.23590028685883177,0.08732569217681885,0.6016446948051453,0.17044517397880554,-0.41865700483322144,0.8761547803878784,0.03372829034924507,0.2365192323923111
45.501537334353394,-0.922977779744859,-1.6347904794665005,-2.242652730271937,2.2226557264071025,-1.043776794439367,-0.2751869387661386,0.11938826739788055,0.5923128724098206,0.1898932158946991,-0.4393356144428253,0.8588455319404602,0.008374534547328949,0.26324570178985596
45.66731351286185,-0.9230035860516277,-1.6304641622490943,-2.249610740703099,2.172922872854564,-0.9983005823095764,-0.3144712125094337,0.14994624257087708,0.5840939879417419,0.21125930547714233,-0.459972620010376,0.8395236730575562,-0.01771644875407219,0.28863704204559326
45.83308969137031,-0.9230243529079073,-1.6261364883370804,-2.2565726415113665,2.1231900193020254,-0.9528319818157344,-0.35375369040164284,0.17885881662368774,0.5771105885505676,0.23437750339508057,-0.4804583489894867,0.8182014226913452,-0.04444647580385208,0.3126189410686493
45.99886586987877,-0.923041056841856,-1.6218077306146492,-2.263538033434984,2.073457165749487,-0.9073695769581094,-0.3930349907807179,0.2059956192970276,0.571473240852356,0.25906479358673096,-0.5006839036941528,0.7948994636535645,-0.07171358913183212,0.335123211145401
46.16464204838723,-0.9230543308697877,-1.6174777761778822,-2.270506107639428,2.023724312196949,-0.8619122707405924,-0.4323153320016387,0.2312377393245697,0.5672786831855774,0.28512269258499146,-0.5205410122871399,0.7696461081504822,-0.09941237419843674,0.35608866810798645
46.330418226895695,-0.9230647891018869,-1.6131469275601877,-2.2774764348747127,1.97399145864441,-0.8164593183722765,-0.47159493946853426,0.2544786036014557,0.5646089315414429,0.3123384118080139,-0.539922833442688,0.7424777150154114,-0.12743407487869263,0.3754606544971466
46.496194405404154,-0.9230726657779513,-1.6088152396217108,-2.284449106817067,1.9242586050918715,-0.7710100522503197,-0.5108740993230474,0.27562516927719116,0.563530445098877,0.34048742055892944,-0.5587249398231506,0.7134382724761963,-0.1556677520275116,0.3931918442249298
46.66197058391261,-0.9230781639069751,-1.604482905783116,-2.291423931674449,1.8745257515393332,-0.725564339937431,-0.5501528683611178,0.29459846019744873,0.5640928149223328,0.36933496594429016,-0.5768447518348694,0.6825795769691467,-0.1840001493692398,0.40924209356307983
46.82774676242107,-0.923081455474233,-1.6001498679995756,-2.298400743722667,1.8247928979867947,-0.6801218151652997,-0.5894312789502473,0.311333566904068,0.5663295388221741,0.3986387252807617,-0.5941832065582275,0.6499608755111694,-0.21231608092784882,0.4235788881778717
46.99352294092953,-0.9230826825302698,-1.5958162793774047,-2.3053793007758414,1.7750600444342561,-0.6346822555631123,-0.6287094802593013,0.32578155398368835,0.5702558159828186,0.4281505346298218,-0.6106441617012024,0.6156482100486755,-0.2404995858669281,0.43617743253707886
47.15929911943799,-0.9230819630724635,-1.5914821029640704,-2.312359489204025,1.7253271908817176,-0.589245414863859,-0.66798758359679,0.33790814876556396,0.5758695006370544,0.4576188921928406,-0.6261357665061951,0.5797150731086731,-0.26843389868736267,0.4470207095146179
47.32507529794645,-0.923079453491079,-1.5871473155588283,-2.3193413089672403,1.675594337329179,-0.5438109577792566,-0.7072656438028974,0.3476957082748413,0.5831500291824341,0.48679113388061523,-0.6405701041221619,0.5422413945198059,-0.29600220918655396,0.45609959959983826
47.49085147645491,-0.9230753562917366,-1.5828120790444085,-2.32632473566776,1.6258614837766407,-0.4983785548397712,-0.746543701003915,0.3551417291164398,0.5920595526695251,0.515415608882904,-0.6538640856742859,0.5033131837844849,-0.3230883479118347,0.4634127914905548
47.656627654963366,-0.9230696568586043,-1.5784762102914704,-2.3333096409465743,1.5761286302241022,-0.4529482983493849,-0.7858217943906514,0.36025965213775635,0.6025412678718567,0.5432440638542175,-0.6659401059150696,0.4630226194858551,-0.34957706928253174,0.46896666288375854
47.82240368259603,-0.9230623896473386,-1.574139920382157,-2.340295900791762,1.526395821934302,-0.40751988676283735,-0.8251000555581458,0.36307793855667114,0.614522397518158,0.5700339078903198,-0.6767255067825317,0.4214676320552826,-0.3753543794155121,0.47277548909187317
47.98817981329814,-0.9230538526401506,-1.5698030461196717,-2.347283363916558,1.4766629827236701,-0.36209288787216404,-0.864378614461912,0.36364108324050903,0.6279121041297913,0.595550537109375,-0.6861540675163269,0.3787509500980377,-0.4003086984157562,0.47486135363578796
48.1539559918066,-0.9230441316891712,-1.5654657864495365,-2.3542720834306263,1.4269301291711316,-0.3166672375424891,-0.903657400525626,0.3620075583457947,0.6426039934158325,0.6195693612098694,-0.6941652894020081,0.3349801301956177,-0.4243309795856476,0.47525355219841003
48.319732170315056,-0.9230332648929828,-1.5611282337160646,-2.3612619165977256,1.377197275618593,-0.2712428768724619,-0.9429363968512225,0.3582499921321869,0.658475935459137,0.6418772339820862,-0.7007055282592773,0.2902674973011017,-0.4473150670528412,0.4739891588687897
48.485508348823515,-0.9230212495623282,-1.556790320875147,-2.3682525429768155,1.3274644220660545,-0.22581973364419244,-0.9822156695609182,0.3524545431137085,0.6753917336463928,0.6622759103775024,-0.7057278156280518,0.2447286993265152,-0.4691583514213562,0.4711119830608368
48.651284527331974,-0.923007944201695,-1.5524521032545782,-2.375244653572611,1.277731568513516,-0.1803980562418709,-1.021495343617687,0.3447200655937195,0.6932013630867004,0.6805818676948547,-0.709192156791687,0.19848257303237915,-0.48976266384124756,0.4666729271411896
48.81706070584043,-0.92299360764663,-1.5481135499335776,-2.382237608935711,1.2279987149609777,-0.13497726160935797,-1.0607752296234385,0.3351566791534424,0.7117438316345215,0.6966296434402466,-0.7110656499862671,0.15165133774280548,-0.5090336799621582,0.4607298970222473
48.98283688434889,-0.9229784216918004,-1.5437746861145165,-2.38923141396798,1.1782658614084391,-0.08955724671064254,-1.1000555121033597,0.323885440826416,0.7308470010757446,0.7102729678153992,-0.7113229632377625,0.10435935854911804,-0.5268824696540833,0.45334696769714355
49.14861306285735,-0.9229624591338779,-1.5394355722139896,-2.396226002900222,1.1285330078559006,-0.04413788792008794,-1.1393361901557313,0.31103670597076416,0.7503296732902527,0.7213853597640991,-0.7099460959434509,0.05673258379101753,-0.5432254672050476,0.4445941746234894
49.31438924136581,-0.922945737959375,-1.5350963017123018,-2.4032212424571804,1.0788001543033623,0.0012809742157154436,-1.1786171286128435,0.2967491149902344,0.7700034976005554,0.7298617959022522,-0.7069247364997864,0.008898376487195492,-0.5579845309257507,0.4345475435256958
49.48016541987427,-0.9229281303014453,-1.5307568445825241,-2.4102174151545883,1.0290673007508238,0.04669929214109289,-1.2178986269542256,0.2811684310436249,0.7896739840507507,0.7356195449829102,-0.7022560834884644,-0.03901562839746475,-0.5710879564285278,0.4232877492904663
49.64594159838273,-0.9229099251948651,-1.5264171797777275,-2.4172140923460637,0.9793344471982852,0.09211729625948609,-1.25718057163787,0.26444607973098755,0.80914306640625,0.7385995388031006,-0.6959453225135803,-0.0868808850646019,-0.5824704766273499,0.41090142726898193
49.811717776891186,-0.922891119826913,-1.5220774219621045,-2.424211299335674,0.9296015936457467,0.13753496614847338,-1.2964628390208999,0.24673786759376526,0.828210175037384,0.7387656569480896,-0.6880049705505371,-0.13456940650939941,-0.5920732021331787,0.397478848695755
49.977493955399645,-0.9228717328073406,-1.5177375545534382,-2.431209077628357,0.8798687400932081,0.18295229690727582,-1.3357453620591826,0.2282027006149292,0.8466740846633911,0.7361061573028564,-0.6784554719924927,-0.1819545477628708,-0.5998446941375732,0.3831147849559784
50.143270135653474,-0.9228518152319105,-1.5133974470978588,-2.4382074674428833,0.8301358860170595,0.22836930439357914,-1.3750281168995175,0.20900127291679382,0.8643353581428528,0.7306330800056458,-0.6673246026039124,-0.22891069948673248,-0.6057406663894653,0.36790743470191956
50.30904647460157,-0.9228312147827306,-1.5090572982580297,-2.445206036864727,0.7804029843326303,0.27378590658997504,-1.4143113444736786,0.18929380178451538,0.8809974193572998,0.7223827242851257,-0.6546475291252136,-0.27531445026397705,-0.6097245812416077,0.35195812582969666
50.47482281443813,-0.922810163212382,-1.5047170079323378,-2.4522053132869046,0.7306700823816646,0.31920227494017667,-1.4535947522982713,0.16924020648002625,0.8964688777923584,0.7114142775535583,-0.6404668092727661,-0.3210448920726776,-0.6117669939994812,0.3353706896305084
50.64059906679779,-0.9227887724166899,-1.5003766477030582,-2.4592048693111743,0.6809372066737649,0.36461847277995935,-1.4928782886466323,0.1489974856376648,0.9105652570724487,0.697810709476471,-0.6248320937156677,-0.36598390340805054,-0.6118468642234802,0.318251371383667
50.80637519194489,-0.9227671039461773,-1.4960362555787197,-2.466204592285517,0.6312043691296347,0.4100345357445567,-1.5321619596431542,0.12871861457824707,0.9231103658676147,0.6816770434379578,-0.6077997088432312,-0.4100171625614166,-0.6099509000778198,0.3007079064846039
50.97215122513256,-0.9227451996358007,-1.4916958738606003,-2.473204590812572,0.5814715591733326,0.45545051802221304,-1.5714458067395922,0.10855189710855484,0.933938205242157,0.6631389856338501,-0.5894327163696289,-0.45303425192832947,-0.6060739755630493,0.28284868597984314
51.13792740364102,-0.9227231528038579,-1.4873556975296625,-2.4802049848789722,0.5317387056207941,0.5008666668710179,-1.6107298617501105,0.08863873034715652,0.9428943395614624,0.6423425674438477,-0.5698001980781555,-0.4949294626712799,-0.600218653678894,0.26478302478790283
51.30370350399824,-0.9227010139093746,-1.4830154296028288,-2.4872052618531293,0.4820058755136282,0.5462827170306414,-1.6500139052636287,0.06911345571279526,0.9498375058174133,0.6194530725479126,-0.5489777326583862,-0.5356014370918274,-0.5923959016799927,0.24662038683891296
51.46947972557536,-0.9226789178008848,-1.4786752866075972,-2.4942054133730602,0.4322730090404934,0.5916988952453055,-1.6892980293778224,0.05010183900594711,0.9546408653259277,0.5946522951126099,-0.5270460844039917,-0.5749544501304626,-0.5826247334480286,0.22846925258636475
51.635255990749144,-0.9226568886936801,-1.4743351756051404,-2.50120562930581,0.3825401294883586,0.6371151018304538,-1.7285820011311086,0.03171972930431366,0.9571932554244995,0.5681374073028564,-0.5040914416313171,-0.6128986477851868,-0.5709318518638611,0.21043740212917328
51.80103209613292,-0.9226349895373256,-1.469995135055926,-2.5082058618954357,0.33280729787322455,0.6825312690985686,-1.7678657578471282,0.014073282480239868,0.9573997855186462,0.5401199460029602,-0.48020485043525696,-0.6493498086929321,-0.5573520660400391,0.19263088703155518
51.96680812809669,-0.9226132837611994,-1.4656551887172775,-2.5152059302730834,0.2830744882840939,0.7279474260794494,-1.80714930347542,-0.002743370831012726,0.9551838636398315,0.5108225345611572,-0.45548179745674133,-0.6842306852340698,-0.5419278144836426,0.17515386641025543
52.13258430716447,-0.9225918498192663,-1.4613153052421721,-2.5222056734437346,0.23334163456375928,0.7733636273173917,-1.8464325730980213,-0.018647313117980957,0.9504868984222412,0.48047754168510437,-0.4300217032432556,-0.7174702882766724,-0.5247091054916382,0.15810765326023102
52.298360238852936,-0.9225708415899077,-1.4569756385538475,-2.5292049915652326,0.18360885505721897,0.8187798388621882,-1.8857155009756308,-0.03356821835041046,0.9432693719863892,0.4493247866630554,-0.40392744541168213,-0.7490049600601196,-0.5057531595230103,0.14159059524536133
52.46413638639722,-0.9225502398990876,-1.4526360602184556,-2.5362041436690266,0.1338760107939328,0.8641961281837127,-1.9249979273568387,-0.04744837060570717,0.9335110187530518,0.41760963201522827,-0.37730520963668823,-0.7787781953811646,-0.4851242005825043,0.12569749355316162
52.629912887705444,-0.9225304427904586,-1.4482966393545182,-2.5432026886390164,0.08414306040146517,0.9096125446367119,-1.9642801961028182,-0.06024313345551491,0.9212110638618469,0.3855799436569214,-0.35026314854621887,-0.806740939617157,-0.46289336681365967,0.11051905900239944
52.79568913697379,-0.922511217831116,-1.44395744865513,-2.5502008570578605,0.03441018562096198,0.9550290830491426,-2.003561695771295,-0.07192149013280869,0.9063885807991028,0.35348474979400635,-0.32291218638420105,-0.8328517079353333,-0.4391383230686188,0.09614195674657822
52.961465630861895,-0.9224929082687886,-1.4396185618890132,-2.5571983931069475,-0.015322762545469316,1.0004458067171769,-2.0428428696827443,-0.08246509730815887,0.8890827894210815,0.3215715289115906,-0.29536426067352295,-0.8570768237113953,-0.413942813873291,0.08264760673046112
53.127241896892585,-0.9224755597257663,-1.4352797462155922,-2.5641951438616557,-0.06505564235467527,1.0458626612013238,-2.0821232124157945,-0.09186866134405136,0.8693509697914124,0.29008418321609497,-0.26773256063461304,-0.8793904781341553,-0.38739627599716187,0.07011226564645767
53.29301819798531,-0.9224592934979733,-1.4309411666087823,-2.5711914126007627,-0.11478853268249414,1.091279844533805,-2.1214033085533646,-0.10014002025127411,0.8472703695297241,0.25925976037979126,-0.24013039469718933,-0.899774968624115,-0.3595935106277466,0.0586065910756588
53.45879443891693,-0.9224441471616112,-1.4266026440084572,-2.578187062877007,-0.16452140496198084,1.1366971991297177,-2.160682882769077,-0.10729948431253433,0.8229354619979858,0.2293281853199005,-0.21267107129096985,-0.9182206392288208,-0.3306344151496887,0.04819534346461296
53.624571030486784,-0.922430179505503,-1.422264256388939,-2.5851816033027104,-0.21425438243293604,1.1821150435551524,-2.1999622074470775,-0.11337965726852417,0.7964589595794678,0.20050862431526184,-0.18546736240386963,-0.9347253441810608,-0.30062320828437805,0.03893723338842392
53.790347467864244,-0.9224174536888349,-1.4179260979980781,-2.592175848355595,-0.26398731364617456,1.227533443370887,-2.2392416201177885,-0.11842364817857742,0.7679693102836609,0.17300790548324585,-0.15863056480884552,-0.9492953419685364,-0.2696681022644043,0.030883872881531715
53.95612369952863,-0.9224061959864467,-1.413587811796541,-2.5991694253280793,-0.31372018314549205,1.2729527656504072,-2.278522442845506,-0.1224861592054367,0.7376109957695007,0.14701944589614868,-0.13227015733718872,-0.9619444608688354,-0.23788118362426758,0.024080831557512283
54.1218998269927,-0.9223967376603369,-1.4092490380685725,-2.606162835611983,-0.36345302138471347,1.3183746630279023,-2.3178076768091174,-0.12563146650791168,0.70554119348526,0.12272024154663086,-0.10649233311414719,-0.9726946949958801,-0.20537692308425903,0.018566560000181198
54.283877776935725,-0.9219514099855122,-1.4050739225465279,-2.611853505323033,-0.41204640636761947,1.362738510227342,-2.355716451758006,-0.12884987890720367,0.6735559105873108,0.10158896446228027,-0.08204090595245361,-0.9813100695610046,-0.17343132197856903,0.014880209229886532
54.449653955444184,-0.9023049142432644,-1.407966417629348,-2.5621206517704946,-0.41224665100700203,1.3620147772728508,-2.3342698993245774,-0.17130619287490845,0.7084996104240417,0.13851875066757202,-0.0851220116019249,-0.977493941783905,-0.19003327190876007,0.033867157995700836
54.61543013395264,-0.8822534547080686,-1.4109187240661694,-2.512387798217956,-0.41245105635279017,1.3612756438146723,-2.312385457591699,-0.21434739232063293,0.7405756711959839,0.1774698793888092,-0.08818069100379944,-0.97314453125,-0.20577529072761536,0.0535755418241024
54.7812063124611,-0.8621170837228944,-1.4138833548841627,-2.4626549446654176,-0.41265628254035186,1.3605331313830271,-2.290408871111851,-0.25759267807006836,0.7697712182998657,0.21838518977165222,-0.09120327979326248,-0.9682624340057373,-0.2206428050994873,0.07393539696931839
54.94698249096956,-0.841944326884738,-1.4168533943407036,-2.412922091112879,-0.4128618893575484,1.3597893542321937,-2.268392821612393,-0.30082663893699646,0.7960551381111145,0.26117944717407227,-0.09418506920337677,-0.9628505110740662,-0.23460935056209564,0.0949028879404068
55.11275866947802,-0.8217509537494657,-1.4198265871861337,-2.3631892375603405,-0.41306770207455457,1.3590448614800212,-2.24635445504335,-0.3438534140586853,0.8194065690040588,0.30576184391975403,-0.09712298959493637,-0.9569113850593567,-0.2476492077112198,0.11643654853105545
55.27853484798648,-0.8015422009223063,-1.422801985614214,-2.313456384007802,-0.41327368231768213,1.3582995793131998,-2.22429899190064,-0.38648325204849243,0.8398150205612183,0.3520359694957733,-0.10001435875892639,-0.9504486918449402,-0.25973761081695557,0.13849447667598724
55.44431102649494,-0.7813211181368084,-1.4257792307805366,-2.2637235304552634,-0.41347977701220184,1.3575540041529486,-2.2022298045427218,-0.42852917313575745,0.8572821617126465,0.3999011218547821,-0.10285637527704239,-0.9434660077095032,-0.27085134387016296,0.16103413701057434
55.610087205003396,-0.761089919357572,-1.4287579580818255,-2.213990676902725,-0.4136859835804023,1.356808150228256,-2.1801494133871286,-0.4698061943054199,0.8718228340148926,0.44925451278686523,-0.10564632713794708,-0.9359670877456665,-0.28096941113471985,0.18401207029819489
55.775863383511854,-0.7408520364200254,-1.431737568639924,-2.164257823350187,-0.41389224307825023,1.3560619013378281,-2.1580613485230455,-0.5101304054260254,0.8834652304649353,0.4999889135360718,-0.10838159918785095,-0.9279563426971436,-0.29007336497306824,0.2073831409215927
55.94163956202031,-0.7206106748763997,-1.434717839934718,-2.1145249697976483,-0.4140985602673571,1.3553156655327014,-2.1359692822217715,-0.5493212342262268,0.8922494649887085,0.5519943833351135,-0.11105934530496597,-0.9194381833076477,-0.2981466054916382,0.23110131919384003
56.10741574052877,-0.7003691535470294,-1.4376978950819341,-2.0647921162451097,-0.4143048593181437,1.3545694218093802,-2.1138772923156974,-0.587202250957489,0.8982281684875488,0.6051598191261292,-0.11367684602737427,-0.9104170799255371,-0.305175244808197,0.255120187997818
56.27319191903723,-0.6801304251190683,-1.4406777644684354,-2.015059262692571,-0.414511147516789,1.3538233400101618,-2.091788009748527,-0.6236022710800171,0.9014666080474854,0.659369170665741,-0.11623159795999527,-0.9008982181549072,-0.3111472725868225,0.2793920636177063
56.43896809754569,-0.659897122387376,-1.4436568020101412,-1.9653264091400326,-0.4147173579934922,1.3530774800143288,-2.069704543798272,-0.6583561301231384,0.9020406603813171,0.7145059108734131,-0.11872103810310364,-0.8908867835998535,-0.3160531520843506,0.3038691580295563
56.60474427605415,-0.6396721390804899,-1.4466345213172982,-1.9155935555874941,-0.41492352206335686,1.3523316978334536,-2.047630154948279,-0.6913044452667236,0.9000376462936401,0.7704508304595947,-0.12114258110523224,-0.8803881406784058,-0.3198860287666321,0.3285028636455536
56.77052045456261,-0.6194575199010024,-1.449610716295106,-1.8658607020349556,-0.4151295757931071,1.351586509686975,-2.0255672921439105,-0.7222967147827148,0.895555317401886,0.8270828723907471,-0.12349347025156021,-0.8694081902503967,-0.3226405680179596,0.3532446622848511
56.93629631817672,-0.5992529021582574,-1.4525854890643695,-1.8161279429507216,-0.41533546447332914,1.350841649025389,-2.0035151355647702,-0.751192569732666,0.8886996507644653,0.8842793107032776,-0.1257716566324234,-0.857952892780304,-0.324313223361969,0.378046452999115
57.10207211173213,-0.5790568581295245,-1.4555589460404426,-1.7663952048840992,-0.41554133667446047,1.3500970783644983,-1.9814724553420546,-0.7778608798980713,0.879584789276123,0.9419155716896057,-0.12797488272190094,-0.846028745174408,-0.3249019384384155,0.40286025404930115
57.26784790501807,-0.5588680956642863,-1.4585313394655361,-1.716662466898315,-0.41574711665838343,1.3493528318840993,-1.9594377527989821,-0.8021802306175232,0.8683345913887024,0.9998664855957031,-0.13010095059871674,-0.8336423635482788,-0.32440677285194397,0.42763808369636536
57.433623697934685,-0.5386850354374074,-1.4615029150150531,-1.6669297290233307,-0.4159528346709307,1.3486087683552361,-1.9374093341018763,-0.8240386843681335,0.855079174041748,1.0580060482025146,-0.1321476697921753,-0.8208005428314209,-0.3228296935558319,0.45233219861984253
57.59940002491337,-0.5185061594347123,-1.464473806610041,-1.6171968309297253,-0.4161585102050845,1.3478648583186519,-1.9153855255727108,-0.8433351516723633,0.8399574160575867,1.1162084341049194,-0.1341128796339035,-0.8075104355812073,-0.32017451524734497,0.4768947660923004
57.76517607699093,-0.4983301667956009,-1.467444325427573,-1.5674640153064572,-0.41636413959992813,1.3471210589723006,-1.8933648041313518,-0.859978199005127,0.8231142163276672,1.1743459701538086,-0.13599474728107452,-0.7937797904014587,-0.31644734740257263,0.5012785196304321
57.93095211466464,-0.4781556765228707,-1.4704146030756244,-1.5177312040043445,-0.4165697654716392,1.3463772537949823,-1.8713457964695333,-0.8738881349563599,0.804701030254364,1.2322927713394165,-0.13779111206531525,-0.7796159982681274,-0.31165605783462524,0.5254359841346741
58.0967282931731,-0.4579820813289061,-1.4733847258629043,-1.467998350451806,-0.41677536994336084,1.3456334785387203,-1.8493276363886462,-0.8849959969520569,0.7848748564720154,1.289923071861267,-0.13950009644031525,-0.7650269269943237,-0.30581116676330566,0.5493204593658447
58.26250401550154,-0.43780914618457445,-1.4763547825816516,-1.4182656337532729,-0.4169810003495019,1.3448897578030197,-1.8273102151335683,-0.8932439088821411,0.7637979388237,1.3471113443374634,-0.14111974835395813,-0.7500208020210266,-0.2989252507686615,0.5728853940963745
58.428280075110614,-0.41763669732952835,-1.4793247525985187,-1.3685328158705516,-0.4171866247473788,1.3441461187801784,-1.8052935247926076,-0.8985856771469116,0.7416359186172485,1.4037336111068726,-0.14264804124832153,-0.7346059679985046,-0.29101309180259705,0.596084713935852
58.59405621976507,-0.3974647317207988,-1.4822947339527184,-1.3187999724742139,-0.4173922175931876,1.3434024505108557,-1.7832773313132944,-0.9009883999824524,0.7185585498809814,1.4596667289733887,-0.14408333599567413,-0.7187909483909607,-0.2820914387702942,0.618873119354248
58.75983221247835,-0.37729306802169876,-1.4852646824503517,-1.269067174660231,-0.41759780857685297,1.3426587363103573,-1.7612613672772677,-0.9004303216934204,0.6947371959686279,1.5147895812988281,-0.14542385935783386,-0.7025845646858215,-0.27217915654182434,0.6412061452865601
58.92560858709066,-0.3571215331836258,-1.4882345443784817,-1.219334262276539,-0.41780340273131594,1.3419151020560758,-1.7392455502747999,-0.8969029188156128,0.6703444719314575,1.5689823627471924,-0.14666779339313507,-0.6859956979751587,-0.2612967789173126,0.6630402207374573
59.09138496685957,-0.33695011952116355,-1.491204407955292,-1.1696013483458652,-0.41800899381728573,1.3411714969767006,-1.7172298278402593,-0.8904099464416504,0.6455543041229248,1.6221277713775635,-0.1478135883808136,-0.6690337061882019,-0.24946710467338562,0.6843326687812805
59.25716078340759,-0.3167788080494661,-1.4941742108953096,-1.119868603381459,-0.418214581487253,1.3404277953599257,-1.6952142551758946,-0.8809678554534912,0.6205403208732605,1.6741094589233398,-0.1488596498966217,-0.6517080068588257,-0.236714705824852,0.7050415277481079
59.4229365291479,-0.29660751341430114,-1.4971439831406774,-1.0701358796593672,-0.41842016269850724,1.3396841114641074,-1.6731987945703624,-0.8686047792434692,0.5954748392105103,1.7248156070709229,-0.14980435371398926,-0.6340281367301941,-0.22306594252586365,0.7251265048980713
59.58871287357276,-0.2764361525004458,-1.5001138033026533,-1.0204029763319094,-0.41862574688680576,1.3389405329393071,-1.65118324813856,-0.8533626198768616,0.5705288648605347,1.7741358280181885,-0.15064637362957,-0.6160039305686951,-0.2085489183664322,0.7445482611656189
59.75448944192932,-0.2562647493525785,-1.5030836746468348,-0.9706700058249413,-0.418831352773578,1.3381968891575313,-1.6291676074916603,-0.8352941870689392,0.5458704829216003,1.8219633102416992,-0.15138430893421173,-0.5976452827453613,-0.19319359958171844,0.7632686495780945
59.92026608573654,-0.23609332064878266,-1.5060536141437175,-0.9209370126827758,-0.41903695038867106,1.3374532101938137,-1.6071519154614586,-0.8144646286964417,0.5216646790504456,1.8681941032409668,-0.15201681852340698,-0.578962504863739,-0.17703159153461456,0.7812509536743164
60.086042633956794,-0.21592189762207867,-1.50902346633552,-0.8712040482166996,-0.41924254273178824,1.3367095530441664,-1.5851362784062164,-0.7909507751464844,0.49807223677635193,1.9127278327941895,-0.15254266560077667,-0.5599660277366638,-0.1600961983203888,0.7984597682952881
60.25181860864953,-0.1957504992112334,-1.511993293273292,-0.8214712558088786,-0.41944815410919034,1.3359658607305764,-1.5631206157792121,-0.7648414373397827,0.47524890303611755,1.9554680585861206,-0.1529606729745865,-0.5406662821769714,-0.14242202043533325,0.8148612976074219
60.41759420237381,-0.1755791195458252,-1.514963178205139,-0.7717385776915937,-0.4196537642265529,1.3352222491684655,-1.5411050503866215,-0.7362352609634399,0.45334500074386597,1.9963221549987793,-0.1532697230577469,-0.521074116230011,-0.1240454614162445,0.8304232954978943
60.583370037820245,-0.15540769316993697,-1.5179330355393865,-0.7220058270576634,-0.41985935681424025,1.3344785991792056,-1.5190894267199646,-0.7052417993545532,0.4325040578842163,2.03520131111145,-0.1534687727689743,-0.5012001395225525,-0.10500399768352509,0.8451153635978699
60.74914629790172,-0.13523621489382076,-1.5209028913416187,-0.6722729490332219,-0.420064926828017,1.333734899705228,-1.4970735929843941,-0.6719810366630554,0.41286319494247437,2.072021961212158,-0.15355700254440308,-0.4810553789138794,-0.08533657342195511,0.8589082956314087
60.91492238733079,-0.11506472546674998,-1.5238728373062629,-0.6225401222045005,-0.42027052953182553,1.3329912544891638,-1.4750579328526876,-0.6365824341773987,0.3945513963699341,2.106703758239746,-0.15353338420391083,-0.46065130829811096,-0.06508352607488632,0.871775209903717
61.08069876076868,-0.09489316020215564,-1.5268426556735777,-0.5728072101731327,-0.4204761192318035,1.3322475502419906,-1.45304211508662,-0.5991836786270142,0.3776896595954895,2.139171838760376,-0.15339721739292145,-0.4399988651275635,-0.044286131858825684,0.883690595626831
61.24647527046024,-0.07472159571072584,-1.5298125471147714,-0.5230742572656656,-0.4206817229870886,1.3315039370500437,-1.4310262562666207,-0.5599316954612732,0.3623899817466736,2.169355869293213,-0.15314766764640808,-0.41910964250564575,-0.02298688516020775,0.8946309089660645
61.412252207853925,-0.054549951515713575,-1.5327824540124417,-0.4733411760475586,-0.42088731163559,1.3307603199880427,-1.4090103475747873,-0.5189806222915649,0.34875521063804626,2.197190523147583,-0.15278416872024536,-0.39799514412879944,-0.001229365705512464,0.9045745730400085
61.57802882218714,-0.03437836167425989,-1.5357523335108598,-0.42360819174759395,-0.4210929213767871,1.33001668703971,-1.3869945500359884,-0.4764920473098755,0.3368782699108124,2.222615957260132,-0.15230612456798553,-0.3766672909259796,0.02094181813299656,0.913502037525177
61.74380451838248,-0.014206875744762482,-1.5387221749076605,-0.37387548288899275,-0.42129852477560514,1.3292729642909533,-1.3649788830280951,-0.4326339364051819,0.32684195041656494,2.2455763816833496,-0.15171314775943756,-0.35513776540756226,0.04348143935203552,0.9213954210281372
61.909580666489816,0.005964674214588386,-1.5416919932477824,-0.3241426384567936,-0.4215041099123222,1.3285292551038044,-1.3429630592697415,-0.3875791132450104,0.31871795654296875,2.2660231590270996,-0.15100479125976562,-0.33341842889785767,0.06634363532066345,0.9282392263412476
62.07535673666954,0.02613619740410638,-1.5446620400115019,-0.2744098174028758,-0.4217097143631312,1.327785633593197,-1.3209472992721132,-0.3415062427520752,0.31256726384162903,2.28391170501709,-0.1501806378364563,-0.3115214705467224,0.08948163688182831,0.9340198040008545
62.24113330226056,0.04630778280480627,-1.547631818440569,-0.22467684772557117,-0.42191529844785725,1.327041919630523,-1.29893147204087,-0.29459673166275024,0.3084397315979004,2.299203395843506,-0.14924056828022003,-0.2894587218761444,0.11284822225570679,0.9387257695198059
62.4069095333914,0.0664793309974191,-1.5506016781780105,-0.1749439783863188,-0.4221209068209688,1.326298314376687,-1.276915715516131,-0.247036874294281,0.30637326836586,2.311866044998169,-0.14818425476551056,-0.2672426700592041,0.13639554381370544,0.9423475861549377
62.572686209498684,0.08665093093529269,-1.5535715609054235,-0.12521097555413274,-0.42232651447853825,1.3255546941378251,-1.2548998848119985,-0.19901418685913086,0.3063945472240448,2.321871757507324,-0.14701178669929504,-0.2448853999376297,0.1600755751132965,0.9448779821395874
62.738462437828574,0.10682248402304019,-1.5565414248755514,-0.075478107055167,-0.4225320951666384,1.324810979590075,-1.2328841301609412,-0.15071865916252136,0.3085181713104248,2.3291993141174316,-0.1457231193780899,-0.22239941358566284,0.18383966386318207,0.9463118314743042
62.90423870301646,0.12699403857398964,-1.559511395232499,-0.025745227498800694,-0.42273770342796635,1.3240673700188745,-1.2108682618901885,-0.10234089940786362,0.31274664402008057,2.333833694458008,-0.1443183869123459,-0.19979728758335114,0.20763957500457764,0.9466462135314941
63.070015424405874,0.14716562698628607,-1.5624812795745435,0.02398778891802248,-0.4229433135044959,1.3233236441167937,-1.1888523114886425,-0.05407056212425232,0.31907105445861816,2.3357648849487305,-0.14279772341251373,-0.17709115147590637,0.23142634332180023,0.9458801746368408
63.235791616018076,0.16733717287154456,-1.565451136621022,0.07372064640168274,-0.42314892163740414,1.3225800395367318,-1.1668365636465594,-0.006097897887229919,0.3274698257446289,2.334989309310913,-0.1411612331867218,-0.1542939394712448,0.2551511228084564,0.9440151453018188
63.401568306212695,0.18750877682295158,-1.5684210215528687,0.12345365346006829,-0.42335450251555773,1.3218364279746209,-1.1448207258296057,0.04138961434364319,0.3379104435443878,2.3315086364746094,-0.13940949738025665,-0.13141798973083496,0.2787657380104065,0.9410547018051147
63.56734456545666,0.20768032361407357,-1.5713909939532886,0.173186531233256,-0.42356008149354835,1.3210927083667208,-1.1228049765838657,0.08820594847202301,0.3503480851650238,2.325330972671509,-0.13754288852214813,-0.10847616195678711,0.3022212088108063,0.9370043873786926
63.7331207935905,0.2278518553089175,-1.5743608552386394,0.2229193996734099,-0.4237656886042007,1.3203490995091793,-1.1007892289079604,0.13416966795921326,0.364726722240448,2.316470146179199,-0.13556183874607086,-0.08548101037740707,0.3254697322845459,0.9318719506263733
63.89889748088447,0.24802345518740504,-1.5773306281945119,0.27265240586160205,-0.4239712986133452,1.3196053779256054,-1.0787732857217498,0.17910289764404297,0.3809792399406433,2.3049464225769043,-0.13346703350543976,-0.062445152550935745,0.34846359491348267,0.9256674647331238
64.06467369970997,0.26819500534069984,-1.5803006948129532,0.3223852715092512,-0.4241769339819017,1.318861764035898,-1.0567576306291735,0.22283118963241577,0.3990270495414734,2.290785074234009,-0.13125905394554138,-0.03938175365328789,0.3711550831794739,0.918402910232544
64.23045023124115,0.2883666037959155,-1.5832703873915366,0.37211823096860547,-0.4243824937256005,1.318118047227849,-1.034741706471797,0.26518896222114563,0.4187818169593811,2.274016857147217,-0.1289386749267578,-0.01630297861993313,0.39349809288978577,0.9100924730300903
64.39622628133554,0.30853811732045255,-1.5862403246124468,0.421851045996923,-0.4245880954775932,1.3173745322160044,-1.0127259352409281,0.3060136139392853,0.4401443898677826,2.254678964614868,-0.1265067309141159,0.006778025068342686,0.4154459536075592,0.9007522463798523
64.56200251841815,0.3287096570005489,-1.589210221384403,0.47158391712170766,-0.4247936799875083,1.3166307343385946,-0.9907102108141297,0.3451513350009918,0.4630063772201538,2.232814073562622,-0.12396438419818878,0.029848571866750717,0.4369536340236664,0.8904005885124207
64.7277781334072,0.34888116555184256,-1.592180082633203,0.5213166016184193,-0.42499928401312825,1.3158870930893352,-0.9686944672213461,0.38245588541030884,0.4872497022151947,2.208469867706299,-0.12131235748529434,0.05289594456553459,0.4579767882823944,0.879057765007019
64.89355354892899,0.36905259480107017,-1.5951499396281792,0.5710492262749586,-0.42520489219637436,1.3151434885221687,-0.9466787679923646,0.4177893102169037,0.5127479434013367,2.1817002296447754,-0.1185518354177475,0.07590737193822861,0.4784714877605438,0.8667459487915039
65.05932894772661,0.38922404424649854,-1.5981198192296022,0.6207818459142453,-0.4254104546241108,1.3143997836535266,-0.9246631004940414,0.45102253556251526,0.5393667221069336,2.1525628566741943,-0.11568402498960495,0.09887026995420456,0.49839547276496887,0.853489100933075
65.22510511642892,0.4093955481962258,-1.601089796550179,0.6705146965249373,-0.42561605245742046,1.3136561475233102,-0.9026473457236115,0.4820358157157898,0.5669640302658081,2.121122121810913,-0.11271022260189056,0.1217719316482544,0.5177074670791626,0.8393133878707886
65.3908816400954,0.42956703039329147,-1.6040600002447463,0.7202476536248799,-0.4258216415311145,1.3129126207073591,-0.8806315419828654,0.510719358921051,0.5953904390335083,2.087446928024292,-0.10963157564401627,0.14459963142871857,0.536366879940033,0.8242464661598206
65.55665806198598,0.44973838185046805,-1.607030506647135,0.7699805801920557,-0.42602728880367896,1.3121692122485396,-0.8586158426587641,0.5369741916656494,0.6244912147521973,2.0516104698181152,-0.10644964128732681,0.1673407107591629,0.5543348789215088,0.8083181977272034
65.72243443542385,0.46990963966402977,-1.610001541946281,0.8197134922234149,-0.42623289459102237,1.3114259151134102,-0.8366002427282461,0.5607113242149353,0.6541053652763367,2.0136923789978027,-0.10316591709852219,0.18998239934444427,0.571573793888092,0.7915598154067993
65.8882106698923,0.49008070085196787,-1.6129731383327837,0.8694463625639504,-0.42643849686963825,1.310682735795783,-0.8145846882142134,0.5818543434143066,0.6840677857398987,1.9737746715545654,-0.09978195279836655,0.21251226961612701,0.5880472660064697,0.7740041017532349
66.05398698361527,0.5102515893691068,-1.6159454624749323,0.919179256680841,-0.4266441069870008,1.3099398354471279,-0.7925692239180533,0.6003375053405762,0.7142091989517212,1.9319446086883545,-0.0962994247674942,0.23491784930229187,0.6037206649780273,0.7556859850883484
66.21976269974971,0.5304222359104549,-1.6189185106715052,0.9689119715211714,-0.4268497368234259,1.309197121459118,-0.7705539532025258,0.6161075830459595,0.7443572878837585,1.8882944583892822,-0.09272010624408722,0.2571867108345032,0.618560791015625,0.7366414070129395
66.38553873707637,0.5505927778784176,-1.6218922287664157,1.0186447827191696,-0.42705537491268863,1.3084546033747888,-0.7485387793882092,0.6291234493255615,0.7743377685546875,1.8429186344146729,-0.0890456959605217,0.27930665016174316,0.6325361132621765,0.7169076800346375
66.55131523446026,0.5707633892827337,-1.6248664023207047,1.0683777319343368,-0.4272609937424881,1.3077121683649786,-0.7265236164909821,0.6393559575080872,0.8039747476577759,1.7959160804748535,-0.08527825027704239,0.30126574635505676,0.6456169486045837,0.6965237855911255
66.71709108167506,0.5909340528672447,-1.627841012449527,1.1181104860987772,-0.42746659834808753,1.3069695299319708,-0.7045085842657047,0.6467884182929993,0.8330913782119751,1.747389793395996,-0.08141989260911942,0.3230516314506531,0.6577750444412231,0.6755296587944031
66.88286717906922,0.6111050631541994,-1.6308157978777338,1.167843315317024,-0.42767214718170266,1.306226769189144,-0.6824935124829845,0.651416540145874,0.8615116477012634,1.6974444389343262,-0.07747261971235275,0.3446526527404785,0.6689844131469727,0.6539666056632996
67.04864329676326,0.6312765570003971,-1.6337904720940484,1.2175761506252343,-0.42787764078137336,1.3054836137531014,-0.6604783958504347,0.6532483696937561,0.8890597820281982,1.6461892127990723,-0.0734385997056961,0.36605697870254517,0.6792204976081848,0.6318770051002502
67.2144195210154,0.6514487021985791,-1.6367648957784835,1.267309017900876,-0.4280830845046313,1.304739918481365,-0.6384631629811435,0.6523041725158691,0.9155621528625488,1.5937350988388062,-0.06932014971971512,0.38725295662879944,0.6884607672691345,0.6093041896820068
67.38019587910416,0.6716221628062253,-1.6397398783741228,1.3170419253275067,-0.42828844422777435,1.3039952994082362,-0.6164479537599421,0.6486145257949829,0.9408468008041382,1.5401976108551025,-0.06512005627155304,0.40822848677635193,0.6966848373413086,0.586292564868927
67.54597205761263,0.6918001903665509,-1.6427206157573964,1.3667747788800453,-0.4284936919183882,1.3032472663211163,-0.5944329342897723,0.6422152519226074,0.9647442102432251,1.4856986999511719,-0.06084281951189041,0.4289698898792267,0.7038758397102356,0.5628870129585266
67.7117484308913,0.7119884801248422,-1.6457165092826065,1.4165076908636458,-0.42869883389267877,1.3024915002230495,-0.5724183651243921,0.6331470012664795,0.9870877861976624,1.4303674697875977,-0.05649518221616745,0.4494614005088806,0.7100203037261963,0.5391325354576111
67.87752481199387,0.7321930542972016,-1.648737731006925,1.466240605194412,-0.4289038830659209,1.3017236883010084,-0.5504047932928722,0.6214638352394104,1.0077159404754639,1.3743363618850708,-0.05208422616124153,0.46968793869018555,0.7151070833206177,0.5150750875473022
68.04330063413673,0.7524199133367412,-1.651794207655897,1.5159733518372691,-0.4291087848136911,1.3009394084216168,-0.5283926797770752,0.6072317361831665,1.0264729261398315,1.3177391290664673,-0.04761729761958122,0.4896344840526581,0.7191275358200073,0.49076080322265625
68.20907654348414,0.7726751080182164,-1.6548960243549002,1.565706124641495,-0.42931350692167963,1.3001340446332716,-0.5063823330442512,0.59052973985672,1.0432101488113403,1.2607107162475586,-0.04310212284326553,0.5092865824699402,0.7220754027366638,0.46623629331588745
68.37485295015496,0.7929644954409442,-1.6580529941722604,1.615439046642738,-0.4295180689980761,1.2993034754035373,-0.4843741289141588,0.5714499950408936,1.0577867031097412,1.2033867835998535,-0.0385461263358593,0.5286304950714111,0.7239466905593872,0.44154858589172363
68.54062927804006,0.813295205485751,-1.6612668879530483,1.6651719450082672,-0.4297228045515657,1.2984416624205766,-0.46236720804642484,0.5500982999801636,1.0700756311416626,1.1458936929702759,-0.03395724669098854,0.5476557612419128,0.7247388362884521,0.41674163937568665
68.70640598158352,0.8336814917202923,-1.6645000503401706,1.7149049560713057,-0.4299298814785316,1.2975332001598618,-0.4403536169215184,0.5266016721725464,1.0799899101257324,1.0883129835128784,-0.029343415051698685,0.5663678646087646,0.7244475483894348,0.39184457063674927
68.87218255045747,0.8541468861464753,-1.6676617668893776,1.7646379267334928,-0.4301438886131209,1.296550709730787,-0.4183162669173561,0.5010993480682373,1.0874826908111572,1.0306658744812012,-0.024712203070521355,0.5847914218902588,0.7230615019798279,0.3668656051158905
69.03795834287239,0.8747172760903582,-1.6706494661902056,1.8143706644579678,-0.4303699766981189,1.2954639727581108,-0.3962359813883898,0.4737229347229004,1.0925095081329346,0.9729633927345276,-0.02007059007883072,0.6029528975486755,0.7205638289451599,0.3418079614639282
69.20373434506172,0.8954189367029174,-1.6733602222778494,1.8641034651147668,-0.4306133327159285,1.2942421065535976,-0.3740934099814526,0.44459325075149536,1.0950162410736084,0.9152209162712097,-0.015424720011651516,0.6208764314651489,0.7169321775436401,0.3166743814945221
69.36951100489408,0.9162788270447966,-1.67568933387308,1.9138364630644755,-0.43087921523351475,1.2928540040845364,-0.3518687214139354,0.4138217866420746,1.094939112663269,0.8574599623680115,-0.010779932141304016,0.6385834217071533,0.7121389508247375,0.29146718978881836
69.53528761961005,0.9373241626416733,-1.6775303912107515,1.963569447479267,-0.4311730424179697,1.2912676326545416,-0.32954200700482056,0.3815140724182129,1.0922024250030518,0.7997111082077026,-0.006140754558146,0.6560918092727661,0.7061505913734436,0.2661900222301483
69.70106317295124,0.9585785626004169,-1.6787861561770336,2.0133021134816245,-0.431499585448822,1.2894549930240644,-0.3070953231452778,0.34777411818504333,1.0867112874984741,0.7420265078544617,-0.0015094656264409423,0.6734132170677185,0.6989291310310364,0.24085326492786407
69.86683948914573,0.9800294917671442,-1.6794494116302803,2.063035008339973,-0.43185849733580817,1.2874265231482795,-0.2845295111726413,0.312739759683609,1.078307032585144,0.6845669150352478,0.0031239495147019625,0.6905254125595093,0.6904467344284058,0.21551838517189026
70.03261632469676,1.0015797630882304,-1.6797239571539178,2.1127680590052806,-0.43223702790693463,1.2852821622147044,-0.261890568630898,0.27665185928344727,1.0667343139648438,0.6277149319648743,0.007794843055307865,0.7073376178741455,0.6807166934013367,0.19036144018173218
70.19839261763875,1.023109751181925,-1.6798697297261465,2.1625009468878766,-0.4326192508343608,1.2831450654195018,-0.23923633829126467,0.23981690406799316,1.0517773628234863,0.5718958973884583,0.01254295650869608,0.723747968673706,0.6697851419448853,0.1655881255865097
70.36416947644229,1.0444984806225535,-1.6801504118526467,2.212234004528937,-0.43298901605687395,1.2811406051426173,-0.21662543579967686,0.20258106291294098,1.033299446105957,0.5175071358680725,0.017406310886144638,0.73966383934021,0.657723069190979,0.14140263199806213
70.52994565495075,1.0656242984276123,-1.6808312486523223,2.2619668580814754,-0.4333299945330323,1.2793943295310766,-0.1941168929948916,0.1653173565864563,1.0112483501434326,0.4649145305156708,0.022419625893235207,0.755001425743103,0.6446279883384705,0.11800418049097061
70.69572174619191,1.0863656307434233,-1.6821780095301715,2.311699685453821,-0.43362594806669746,1.2780318552535672,-0.17176970016741747,0.12841147184371948,0.9856529831886292,0.4144400358200073,0.027614669874310493,0.7696874737739563,0.6306206583976746,0.09558288007974625
70.86149713873051,1.1066060677856082,-1.6844457716154588,2.361432303215405,-0.4338612637208889,1.2771738167069269,-0.14964039221913744,0.09224247932434082,0.956623911857605,0.36634594202041626,0.03301841393113136,0.7836624383926392,0.6158414483070374,0.07431157678365707
71.02727252805879,1.126279052287684,-1.6877880395393683,2.411164920013889,-0.43402672781424656,1.2768894839808684,-0.12776255614897544,0.05711071193218231,0.9243578910827637,0.320759654045105,0.03863871097564697,0.7969028353691101,0.6004207134246826,0.054293323308229446
71.1930479847988,1.1454509837678484,-1.6920840721475128,2.460897557035892,-0.4341302955370027,1.2771122985807226,-0.10610732407886624,0.023114128038287163,0.8891183137893677,0.2775563895702362,0.04443991184234619,0.8094615340232849,0.5844132900238037,0.035470280796289444
71.35882402576328,1.1642006480753173,-1.6971837413115285,2.5106303693252365,-0.43418173769091883,1.2777624786422246,-0.08463965853107491,-0.009692519903182983,0.851141095161438,0.23659420013427734,0.05038448050618172,0.8213945031166077,0.5678527355194092,0.017768394201993942
71.52460007418914,1.1825929671256532,-1.7029631933575085,2.5603631838529934,-0.43418909469250166,1.2787740656248756,-0.06333077283912665,-0.04125645384192467,0.8106298446655273,0.19776497781276703,0.05644045025110245,0.8327460289001465,0.5507696270942688,0.0011286832159385085
71.69037679076351,1.2006935940784862,-1.709298208647818,2.6100961988253064,-0.4341604283183948,1.2800809158332913,-0.04215152087422194,-0.07154077291488647,0.7677618265151978,0.16097187995910645,-0.06257715076208115,-0.8435568809509277,-0.5331842303276062,0.01450737752020359
71.85615269883264,1.2185864515171008,-1.7160285878640649,2.6598289712460463,-0.43410611966557267,1.2815980206981956,-0.02106458665647877,-0.10054251551628113,0.7226860523223877,0.12611189484596252,-0.06875928491353989,-0.8538714051246643,-0.5150942206382751,0.02921547181904316
72.02192887734111,1.2364288568496704,-1.7228548526763916,2.709561824798584,-0.43404558300971985,1.2831661701202393,0.0,-0.12835413217544556,0.6754992008209229,0.09303121268749237,-0.07493061572313309,-0.8637589812278748,-0.49643200635910034,0.04313899949193001
72.15386374666299,1.196848396053106,-1.726647216188672,2.70894833411408,-0.4139126351504079,1.2520708045329,0.0,-0.11921820044517517,0.6756020784378052,0.09174758195877075,-0.08603924512863159,-0.8649736642837524,-0.4919952154159546,0.0485621877014637
72.33839087932314,1.1562154551676675,-1.7305405444403723,2.7083185301599184,-0.3932443646755972,1.220148585177861,0.0,-0.11002892255783081,0.6756306886672974,0.09092174470424652,-0.09770507365465164,-0.8657771944999695,-0.4877721965312958,0.054422032088041306
72.52289230748023,1.114638268079385,-1.7345243475712715,2.707674090543673,-0.37209579581504526,1.187484543209063,0.0,-0.10080920159816742,0.6756096482276917,0.09060829877853394,-0.10989714413881302,-0.8661173582077026,-0.48381608724594116,0.060706574469804764
72.70735244079437,1.0722952088783493,-1.7385815343034752,2.7070177800346378,-0.350557659976801,1.1542188136181424,0.0,-0.09158966690301895,0.6755663156509399,0.090857595205307,-0.12255750596523285,-0.8659456372261047,-0.48018401861190796,0.06738677620887756
72.89179499073829,1.0294371678367065,-1.7426880650729417,2.706353487391097,-0.32875757450509807,1.1205485018601056,0.0,-0.08240709453821182,0.6755298376083374,0.09171004593372345,-0.13559871912002563,-0.8652225732803345,-0.47693347930908203,0.07441363483667374
73.23219335342787,0.9863789717303675,-1.7468137741088867,2.705686092376709,-0.3068556785583496,1.0867209434509277,0.0,-0.07330331206321716,0.6755268573760986,0.09318837523460388,-0.14890578389167786,-0.8639235496520996,-0.4741150736808777,0.08171869069337845
73.39576195097254,0.9942641841473967,-1.746763167599865,2.703043918344979,-0.35270511671039906,1.0376503641875285,0.0,-0.09083042293787003,0.6954922080039978,0.11389443278312683,-0.125364750623703,-0.8536341786384583,-0.49634847044944763,0.09607488662004471
73.55933482018341,1.0021496337785039,-1.746712232780034,2.7004017126697626,-0.39855560035877485,0.9885785034242666,0.0,-0.10932489484548569,0.7130712270736694,0.13507983088493347,-0.10082872211933136,-0.8425819873809814,-0.5174711346626282,0.11005755513906479
73.72290768939428,1.0100349900222574,-1.7466615944276564,2.697759768064036,-0.44440630273420484,0.9395066426610047,0.0,-0.12870103120803833,0.7282006740570068,0.15652254223823547,-0.07535622268915176,-0.8307825922966003,-0.5374369025230408,0.12362539023160934
73.88648055860514,1.0179204000299023,-1.7466109867352497,2.6951176716973873,-0.4902568494104741,0.8904347818977428,0.0,-0.14886127412319183,0.7408396005630493,0.178000807762146,-0.04900757595896721,-0.8182534575462341,-0.5562031865119934,0.1367381513118744
74.05005342781601,1.0258057584136078,-1.7465600213820023,2.692475152197035,-0.5361073248978699,0.8413629211344809,0.0,-0.16969752311706543,0.7509688138961792,0.1992950737476349,-0.021844958886504173,-0.8050149083137512,-0.5737301707267761,0.14935649931430817
74.21362629702688,1.033691124930065,-1.746509413604428,2.689833192301601,-0.5819579455104825,0.792291060371219,0.0,-0.19109216332435608,0.758590579032898,0.22018900513648987,0.006067699287086725,-0.7910887598991394,-0.5899816155433655,0.16144181787967682
74.37719916623774,1.0415764999393038,-1.7464586978123506,2.6871910046158973,-0.6278085637818211,0.7432191996079571,0.0,-0.21291816234588623,0.7637299299240112,0.2404736876487732,0.03466479107737541,-0.7764989733695984,-0.6049244999885559,0.17295657098293304
74.54077203544861,1.0494619690395175,-1.7464080024248774,2.684549032295829,-0.6736590641096138,0.6941473388446953,0.0,-0.23504182696342468,0.76643306016922,0.25994792580604553,0.06387939304113388,-0.7612720131874084,-0.6185289621353149,0.18386432528495789
74.70434490465948,1.0573473337482797,-1.7463571449907156,2.6819066456244043,-0.7195096191052589,0.6450754780814333,0.0,-0.2573225498199463,0.7667683362960815,0.27842146158218384,0.09364325553178787,-0.7454359531402588,-0.6307691931724548,0.19412967562675476
74.86791775887801,1.065232813871706,-1.746306487765914,2.6792645481453246,-0.7653601644120706,0.5960036218158741,0.0,-0.27961617708206177,0.7648236751556396,0.2957153022289276,0.12388724833726883,-0.7290209531784058,-0.6416220664978027,0.20371884107589722
75.03149054374015,1.0731182484943869,-1.746255778765804,2.67662228212201,-0.8112107976977139,0.5469317863572319,0.0,-0.30177420377731323,0.7607069611549377,0.31166476011276245,0.15454073250293732,-0.7120593190193176,-0.6510685086250305,0.21259915828704834
75.19506341295101,1.0810035356933099,-1.7462048202073124,2.6739799895560368,-0.8570612711297565,0.49785992559396997,0.0,-0.32364732027053833,0.7545455098152161,0.32612061500549316,0.18553313612937927,-0.6945847272872925,-0.659092903137207,0.22073984146118164
75.35863628216188,1.0888889062822882,-1.7461542776106738,2.671338157976582,-0.9029119285201722,0.4487880648307081,0.0,-0.34508568048477173,0.7464824914932251,0.33895042538642883,0.21679288148880005,-0.6766329407691956,-0.6656830906867981,0.22811149060726166
75.52220915137275,1.0967742659308817,-1.746103501184732,2.668695903474293,-0.9487624990793365,0.39971620406744623,0.0,-0.3659402132034302,0.736678421497345,0.35003992915153503,0.2482481449842453,-0.6582410931587219,-0.6708306670188904,0.23468653857707977
75.68578214241498,1.104659719788706,-1.746052789978598,2.666053742768279,-0.9946130767061528,0.3506443067547771,0.0,-0.3860652446746826,0.7253074645996094,0.35929417610168457,0.2798270285129547,-0.6394482254981995,-0.6745308041572571,0.24043923616409302
75.84935508847664,1.1125449987825167,-1.7460019055080191,2.6634114933776023,-1.0404636121761146,0.3015724229362776,0.0,-0.40531834959983826,0.7125565409660339,0.3666384220123291,0.31145742535591125,-0.6202946305274963,-0.6767823100090027,0.24534572660923004
