Sungjin-Park-dev/lg_sgu_vision_v2/data/sample/trajectory/163/trajectory.csv
time,shoulder_pan_joint,shoulder_lift_joint,elbow_joint,wrist_1_joint,wrist_2_joint,wrist_3_joint,target-POS_X,target-POS_Y,target-POS_Z,target-ROT_X,target-ROT_Y,target-ROT_Z,target-ROT_W
0.0,-1.272787930813744,-1.7429746865495612,-2.3654270876279764,-0.0013800010486779931,1.3981468108041006,-2.896887224094667,-0.011083800345659256,0.9481010437011719,0.2609192132949829,0.0002241982993931837,0.9517384199108165,0.3069102875285586,7.217979062267321e-05
1.0,-1.2729284544697992,-1.742892510861608,-2.364764867214158,-0.0031243080308847983,1.3984656385800944,-2.896883196271332,-0.011115000583231449,0.9482229948043823,0.26087382435798645,0.00020061749614767898,0.9518968689909931,0.30641850988415636,8.577958495230799e-05
2.0,-1.2729987162978267,-1.7428514230176313,-2.364433757007249,-0.003996461521988201,1.3986250524680914,-2.8968811823596643,-0.011130677536129951,0.9482837915420532,0.2608516812324524,0.00018882462447143038,0.9519759739221033,0.3061726651410379,9.241621995537405e-05
3.0,-1.2730689781258544,-1.7428103351736548,-2.36410264680034,-0.004868615013091604,1.3987844663560884,-2.8968791684479966,-0.011146255768835545,0.9483445882797241,0.2608293294906616,0.00017710785144263783,0.9520550113827755,0.305926811689211,9.91131994231382e-05
4.0,-1.273139239953882,-1.742769247329678,-2.363771536593431,-0.0057407685041950055,1.3989438802440852,-2.8968771545363294,-0.01116173155605793,0.9484051465988159,0.2608075737953186,0.00016544769612706793,0.9521339761036126,0.30568096602543554,0.00010576361210555291
5.0,-1.2732095017819096,-1.7427281594857016,-2.3634404263865214,-0.006612921995298409,1.3991032941320822,-2.896875140624662,-0.011177243664860725,0.9484655857086182,0.26078546047210693,0.00015371358541618827,0.9522129035900967,0.3054350175791699,0.00011245026910308081
6.0,-1.273279763609937,-1.7426870716417249,-2.3631093161796124,-0.007485075486401812,1.3992627080200792,-2.896873126712994,-0.011192466132342815,0.9485257267951965,0.26076358556747437,0.00014212853768999473,0.952291766277143,0.30518905204699864,0.00011912553182173367
7.0,-1.2733500254379648,-1.7426459837977484,-2.3627782059727034,-0.008357228977505213,1.399422121908076,-2.896871112801327,-0.011207890696823597,0.948586106300354,0.2607422471046448,0.00013064414949670624,0.9523705462519286,0.3049431255065832,0.00012557939974814093
8.0,-1.2734202872659923,-1.7426048959537717,-2.3624470957657944,-0.009229382468608615,1.399581535796073,-2.8968690988896593,-0.011223223991692066,0.948646068572998,0.26072072982788086,0.00011906332224359065,0.9524492636264728,0.30469717520757456,0.0001321432542272896
9.0,-1.27349054909402,-1.7425638081097952,-2.362115985558885,-0.010101535959712018,1.39974094968407,-2.8968670849779916,-0.011238476261496544,0.9487059116363525,0.26069921255111694,0.00010758162803199216,0.9525279690260307,0.3044510427148419,0.0001387053857838197
10.0,-1.2735608109220475,-1.7425227202658184,-2.361784875351976,-0.010973689450815421,1.3999003635720668,-2.8968650710663244,-0.011253655888140202,0.9487655758857727,0.2606777548789978,9.617802463949491e-05,0.9526066043866349,0.30420490945425516,0.0001452331954734359
11.0,-1.2736310727500753,-1.7424816324218417,-2.361453765145067,-0.011845842941918825,1.4000597774600638,-2.8968630571546568,-0.011268730275332928,0.9488251209259033,0.26065701246261597,8.487394209543401e-05,0.952685116609904,0.3039589419695153,0.00015160198038553977
12.0,-1.2737013345781028,-1.7424405445778652,-2.3611226549381574,-0.012717996433022228,1.4002191913480608,-2.896861043242989,-0.01128380186855793,0.9488846659660339,0.26063603162765503,7.346120897820451e-05,0.9527636146670669,0.30371279883087643,0.0001581022175869936
13.0,-1.2737715964061305,-1.7423994567338885,-2.3607915447312484,-0.01359014992412563,1.4003786052360578,-2.896859029331322,-0.011298881843686104,0.9489440321922302,0.26061517000198364,6.226140804952455e-05,0.9528420349315828,0.30346667944648575,0.00016448915194211024
14.0,-1.273841858234158,-1.742358368889912,-2.3604604345243394,-0.014462303415229031,1.4005380191240546,-2.8968570154196542,-0.011313793249428272,0.9490030407905579,0.26059457659721375,5.0934322595505515e-05,0.9529204104967524,0.3032204799318235,0.00017092194313437026
15.0,-1.2739121200621857,-1.7423172810459353,-2.3601293243174304,-0.015334456906332434,1.4006974330120516,-2.8968550015079866,-0.01132882758975029,0.9490619897842407,0.2605738043785095,3.960168737679563e-05,0.9529987387331704,0.3029742084520854,0.00017724989427807023
16.0,-1.2739823818902132,-1.7422761932019588,-2.359798214110521,-0.016206610397435837,1.4008568469000486,-2.8968529875963194,-0.011343521997332573,0.949120819568634,0.260553777217865,2.864797975372715e-05,0.9530769519526207,0.30272807788676354,0.0001835619264601215
17.0,-1.274052643718241,-1.742235105357982,-2.359467103903612,-0.01707876388853924,1.4010162607880454,-2.8968509736846517,-0.011358333751559258,0.9491795897483826,0.2605334222316742,1.747042501935882e-05,0.9531551252560437,0.30248185206071787,0.000189912710598385
18.0,-1.2741229055462684,-1.7421940175140056,-2.359135993696703,-0.017950917379642644,1.4011756746760424,-2.896848959772984,-0.011373192071914673,0.9492379426956177,0.2605133056640625,6.344397774374315e-06,0.9532332962854397,0.30223541213106797,0.0001961288026216812
19.0,-1.274193167374296,-1.7421529296700289,-2.3588048834897934,-0.018823070870746045,1.4013350885640394,-2.896846945861317,-0.011387915350496769,0.9492962956428528,0.2604934573173523,-4.758897609899495e-06,0.9533113199842566,0.30198921538441714,0.0002023826358185582
20.0,-1.2742634292023236,-1.7421118418260524,-2.3584737732828844,-0.01969522436184945,1.4014945024520362,-2.896844931949649,-0.011402650736272335,0.9493546485900879,0.2604737877845764,-1.5661317910071767e-05,0.9533892890827877,0.3017429696743646,0.0002084922904782083
21.0,-1.2743336910303513,-1.7420707539820757,-2.3581426630759754,-0.020567377852952852,1.4016539163400332,-2.8968429180379816,-0.011417101137340069,0.9494127631187439,0.26045411825180054,-2.661378374235041e-05,0.9534672601320637,0.3014964958724284,0.00021476640502706684
22.0,-1.2744039528583788,-1.742029666138099,-2.3578115528690664,-0.021439531344056253,1.4018133302280302,-2.8968409041263143,-0.011431768536567688,0.9494708180427551,0.26043471693992615,-3.742386632782602e-05,0.9535451147546748,0.30125016841346186,0.00022081170500682902
23.0,-1.2744742146864065,-1.7419885782941225,-2.357480442662157,-0.02231168483515966,1.401972744116027,-2.8968388902146467,-0.011445996351540089,0.9495283365249634,0.2604151666164398,-4.827488203988697e-05,0.95362294920276,0.3010036824754992,0.00022706729130239606
24.0,-1.274544476514434,-1.7419474904501457,-2.357149332455248,-0.02318383832626306,1.402132158004024,-2.896836876302979,-0.011460483074188232,0.9495860934257507,0.26039600372314453,-5.907932571514196e-05,0.9537006838041167,0.30075729060895007,0.00023316680101556343
25.0,-1.2746147383424615,-1.7419064026061692,-2.356818222248339,-0.024055991817366465,1.402291571892021,-2.896834862391312,-0.011474902741611004,0.9496436715126038,0.26037701964378357,-6.992630369549588e-05,0.9537783582599744,0.3005108669720214,0.00023928423247389445
26.0,-1.2746850001704892,-1.7418653147621925,-2.35648711204143,-0.024928145308469866,1.4024509857800178,-2.896832848479644,-0.011489356867969036,0.949701189994812,0.2603580355644226,-8.06712787255407e-05,0.9538559586896416,0.3002644557979126,0.00024525250830465504
27.0,-1.2747552619985167,-1.741824226918216,-2.3561560018345205,-0.025800298799573268,1.4026103996680148,-2.8968308345679765,-0.011503534391522408,0.9497580528259277,0.2603389620780945,-9.134997280698874e-05,0.9539335912664064,0.30001771935885946,0.00025135526146589205
28.0,-1.2748255238265445,-1.7417831390742393,-2.3558248916276114,-0.02667245229067667,1.4027698135560118,-2.8968288206563093,-0.011517605744302273,0.9498151540756226,0.260320246219635,-0.00010197080146847846,0.9540110893297707,0.29977118735400793,0.0002574298895527303
29.0,-1.274895785654572,-1.7417420512302628,-2.3554937814207024,-0.02754460578178007,1.4029292274440086,-2.8968268067446417,-0.011531829833984375,0.9498721361160278,0.26030176877975464,-0.00011246357852336963,0.9540885130391901,0.29952466889337814,0.0002633684170359678
30.0,-1.2749660474825997,-1.741700963386286,-2.355162671213793,-0.028416759272883476,1.4030886413320056,-2.896824792832974,-0.011546057648956776,0.9499289989471436,0.26028338074684143,-0.00012313444673408565,0.9541659040628372,0.2992780310099635,0.00026928916770689295
31.0,-1.2750363093106272,-1.7416598755423096,-2.354831561006884,-0.029288912763986878,1.4032480552200026,-2.896822778921307,-0.011560121551156044,0.9499856233596802,0.2602652907371521,-0.0001336184467328498,0.9542432257965365,0.2990313903604942,0.0002752210032616304
32.0,-1.2751065711386549,-1.741618787698333,-2.354500450799975,-0.03016106625509028,1.4034074691079994,-2.896820765009639,-0.011574094183743,0.9500418901443481,0.2602470815181732,-0.00014418051681025235,0.9543204900008292,0.2987847093215907,0.0002811621744556403
33.0,-1.2751768329666824,-1.7415776998543562,-2.354169340593066,-0.031033219746193684,1.4035668829959964,-2.8968187510979715,-0.011588032357394695,0.9500985145568848,0.2602291703224182,-0.0001544302420311286,0.9543976624832495,0.2985380975064002,0.00028694088037757614
34.0,-1.27524709479471,-1.7415366120103797,-2.3538382303861565,-0.031905373237297086,1.4037262968839934,-2.8968167371863043,-0.011601947247982025,0.9501546621322632,0.26021143794059753,-0.00016488398343473436,0.9544747949076932,0.29829138932949817,0.00029283283092533253
35.0,-1.2753173566227376,-1.741495524166403,-2.3535071201792475,-0.03277752672840048,1.4038857107719904,-2.8968147232746366,-0.011615950614213943,0.9502108097076416,0.2601938247680664,-0.00017532842915697177,0.9545518631765235,0.29804466212532443,0.00029857121500614594
36.0,-1.2753876184507653,-1.7414544363224265,-2.3531760099723384,-0.03364968021950389,1.4040451246599872,-2.896812709362969,-0.011629695072770119,0.9502664804458618,0.2601759433746338,-0.00018552885260837007,0.9546289206019941,0.2977977448979157,0.0003044060322243408
37.0,-1.2754578802787928,-1.7414133484784498,-2.3528448997654294,-0.03452183371060729,1.4042045385479842,-2.8968106954513018,-0.01164350938051939,0.9503224492073059,0.26015883684158325,-0.0001958345577629422,0.9547058052557246,0.2975511567182209,0.0003101539829220061
38.0,-1.2755281421068205,-1.7413722606344733,-2.35251378955852,-0.03539398720171069,1.4043639524359812,-2.896808681539634,-0.01165709737688303,0.9503780603408813,0.2601414918899536,-0.0002059722907537564,0.9547827262088572,0.29730422724796407,0.0003158624522074292
39.0,-1.275598403934848,-1.7413311727904965,-2.352182679351611,-0.03626614069281409,1.404523366323978,-2.8968066676279665,-0.01167079247534275,0.9504334926605225,0.260124534368515,-0.00021612047546376025,0.9548595432092702,0.2970574062784515,0.0003215730754337999
40.0,-1.2756686657628757,-1.74129008494652,-2.351851569144702,-0.0371382941839175,1.404682780211975,-2.8968046537162992,-0.011684383265674114,0.9504889249801636,0.26010754704475403,-0.00022620400991313838,0.954936268706777,0.29681065420944347,0.00032724285567438307
41.0,-1.2757389275909032,-1.7412489971025433,-2.3515204589377925,-0.0380104476750209,1.404842194099972,-2.8968026398046316,-0.011697939597070217,0.9505438804626465,0.2600904703140259,-0.00023638533679891895,0.9550130010405213,0.296563654373277,0.00033297194695855475
42.0,-1.275809189418931,-1.7412079092585668,-2.3511893487308835,-0.038882601166124305,1.4050016079879688,-2.896800625892964,-0.01171148382127285,0.950598955154419,0.26007378101348877,-0.0002463387075574212,0.9550896417331761,0.2963167241169808,0.0003384964037651898
43.0,-1.2758794512469585,-1.7411668214145901,-2.3508582385239745,-0.039754754657227706,1.4051610218759658,-2.8967986119812967,-0.011724784970283508,0.9506540298461914,0.2600574791431427,-0.0002562926876670716,0.9551661882453821,0.296069871333237,0.00034414468726361256
44.0,-1.2759497130749862,-1.7411257335706134,-2.3505271283170655,-0.040626908148331115,1.4053204357639628,-2.896796598069629,-0.01173816155642271,0.9507086873054504,0.26004111766815186,-0.00026631380560675764,0.9552426853784893,0.29582295175112344,0.00034975005609165965
45.0,-1.2760199749030137,-1.741084645726637,-2.350196018110156,-0.04149906163943451,1.4054798496519596,-2.8967945841579614,-0.011751565150916576,0.9507631063461304,0.26002463698387146,-0.00027615312107585134,0.9553191790768835,0.2955758170947502,0.00035521274442332413
46.0,-1.2760902367310414,-1.7410435578826602,-2.349864907903247,-0.04237121513053791,1.4056392635399566,-2.896792570246294,-0.01176472008228302,0.9508177042007446,0.2600085139274597,-0.0002859971000105377,0.9553955620268428,0.29532881350839346,0.00036080021716584264
47.0,-1.2761604985590689,-1.7410024700386837,-2.349533797696338,-0.04324336862164132,1.4057986774279536,-2.8967905563346266,-0.011777921579778194,0.9508720636367798,0.2599927484989166,-0.0002957779398581617,0.9554718730442622,0.29508181605698314,0.0003662911578121625
48.0,-1.2762307603870966,-1.740961382194707,-2.3492026874894285,-0.044115522112744714,1.4059580913159504,-2.896788542422959,-0.011791215278208256,0.9509261846542358,0.25997692346572876,-0.0003056566949070836,0.9555481491079126,0.29483470478404983,0.00037170597162718117
49.0,-1.276301022215124,-1.7409202943507305,-2.3488715772825195,-0.04498767560384812,1.4061175052039474,-2.8967865285112917,-0.011804518289864063,0.9509802460670471,0.25996124744415283,-0.0003153374905622294,0.9556243264193134,0.2945876866464955,0.000377086418223313
50.0,-1.2763712840431516,-1.7408792065067538,-2.3485404670756105,-0.045859829094951524,1.4062769190919444,-2.896784514599624,-0.011817527003586292,0.9510340094566345,0.2599455416202545,-0.0003251041436408022,0.955700493071442,0.29434047545637,0.00038256818536156097
51.0,-1.2764415458711793,-1.7408381186627773,-2.3482093568687015,-0.04673198258605493,1.4064363329799412,-2.8967825006879564,-0.01183043047785759,0.9510876536369324,0.25992998480796814,-0.0003346666098131034,0.9557766147237172,0.29409318292544157,0.000387946277304842
52.0,-1.2765118076992068,-1.7407970308188006,-2.347878246661792,-0.04760413607715833,1.4065957468679382,-2.896780486776289,-0.011843453161418438,0.951141357421875,0.25991499423980713,-0.00034423347562850966,0.9558525868536244,0.29384614859831054,0.00039327151974526966
53.0,-1.2765820695272345,-1.7407559429748238,-2.347547136454883,-0.048476289568261735,1.4067551607559352,-2.8967784728646215,-0.01185643021017313,0.9511947631835938,0.2598998248577118,-0.0003539052961523821,0.9559285505881037,0.29359891360224133,0.00039856386218186475
54.0,-1.276652331355262,-1.7407148551308473,-2.347216026247974,-0.04934844305936514,1.406914574643932,-2.896776458952954,-0.011869309470057487,0.9512479305267334,0.2598847448825836,-0.000363392201314598,0.9560044669756664,0.29335160462111187,0.0004038996149922239
55.0,-1.2767225931832897,-1.7406737672868706,-2.346884916041065,-0.05022059655046854,1.407073988531929,-2.8967744450412867,-0.011882145889103413,0.951301097869873,0.259869784116745,-0.0003729492504949858,0.9560802848461846,0.2931043881907981,0.00040921949232720396
56.0,-1.2767928550113172,-1.7406326794428941,-2.3465538058341555,-0.05109275004157194,1.407233402419926,-2.896772431129619,-0.0118947084993124,0.9513542056083679,0.2598552107810974,-0.00038214339229178726,0.9561560411801645,0.29285714451597183,0.0004144720188034733
57.0,-1.276863116839345,-1.7405915915989174,-2.3462226956272465,-0.05196490353267534,1.4073928163079228,-2.8967704172179514,-0.011907536536455154,0.9514069557189941,0.2598406970500946,-0.000391642929567606,0.9562317742860196,0.2926097475469891,0.00041964522371280616
58.0,-1.2769333786673724,-1.740550503754941,-2.3458915854203375,-0.05283705702377874,1.4075522301959198,-2.896768403306284,-0.011920268647372723,0.9514598250389099,0.25982633233070374,-0.00040087560243406555,0.9563073923521884,0.2923624978703293,0.00042481799734838126
59.0,-1.2770036404954002,-1.7405094159109642,-2.345560475213428,-0.053709210514882144,1.4077116440839168,-2.8967663893946165,-0.011932804249227047,0.9515120983123779,0.2598119378089905,-0.00041025559560605243,0.9563830232538332,0.29211497661602864,0.0004300683916585022
60.0,-1.2770739023234277,-1.7404683280669877,-2.345229365006519,-0.05458136400598555,1.4078710579719138,-2.896764375482949,-0.011945369653403759,0.9515647888183594,0.2597979009151459,-0.00041946882129050115,0.9564585007215715,0.29186772867343297,0.0004352038176936646
61.0,-1.2771441641514554,-1.740427240223011,-2.34489825479961,-0.055453517497088954,1.4080304718599106,-2.8967623615712816,-0.011957770213484764,0.9516168832778931,0.2597837448120117,-0.00042869932606035704,0.9565339934879749,0.29162020102819897,0.0004403079689615911
62.0,-1.2772144259794829,-1.7403861523790345,-2.344567144592701,-0.056325670988192356,1.4081898857479076,-2.896760347659614,-0.011970303021371365,0.9516689777374268,0.25977006554603577,-0.0004378394920952109,0.9566093666739389,0.2913728359472425,0.0004453766114578358
63.0,-1.2772846878075106,-1.7403450645350578,-2.3442360343857915,-0.05719782447929576,1.4083492996359046,-2.8967583337479463,-0.011982466094195843,0.9517208337783813,0.25975605845451355,-0.0004468594311527896,0.9566847406204915,0.2911252383369499,0.00045053724152203456
64.0,-1.277354949635538,-1.740303976691081,-2.3439049241788825,-0.058069977970399166,1.4085087135239014,-2.896756319836279,-0.011994842439889908,0.9517725110054016,0.25974249839782715,-0.00045603782110302624,0.9567600310250705,0.2908776848703253,0.0004555292432663516
65.0,-1.2774252114635658,-1.7402628888471046,-2.3435738139719735,-0.05894213146150256,1.4086681274118984,-2.8967543059246115,-0.012007427401840687,0.9518245458602905,0.259729266166687,-0.0004650492510231452,0.9568351852173882,0.2906303495200043,0.0004604314069771583
66.0,-1.2774954732915933,-1.7402218010031278,-2.343242703765064,-0.059814284952605976,1.4088275412998954,-2.896752292012944,-0.012019547633826733,0.9518761038780212,0.2597160339355469,-0.00047403690182049995,0.9569103521057079,0.29038274174229534,0.00046542472338618996
67.0,-1.277565735119621,-1.7401807131591513,-2.342911593558155,-0.06068643844370937,1.4089869551878922,-2.896750278101276,-0.01203175913542509,0.9519273042678833,0.25970274209976196,-0.0004829718079356442,0.9569854715860944,0.2901350592982683,0.00047040127930293366
68.0,-1.2776359969476485,-1.7401396253151746,-2.342580483351246,-0.06155859193481277,1.4091463690758892,-2.896748264189609,-0.012043830938637257,0.9519786238670349,0.25968968868255615,-0.0004918052600590423,0.957060464625212,0.2898875632171894,0.0004752588340416025
69.0,-1.2777062587756762,-1.7400985374711981,-2.342249373144337,-0.06243074542591618,1.4093057829638862,-2.8967462502779413,-0.012055918574333191,0.9520297646522522,0.2596769630908966,-0.0005006443712517423,0.957135441397955,0.28963988950213493,0.0004801919891821056
70.0,-1.2777765206037037,-1.7400574496272214,-2.3419182629374276,-0.06330289891701958,1.409465196851883,-2.8967442363662737,-0.012067937292158604,0.9520806670188904,0.2596643269062042,-0.000509519878304243,0.9572103133206896,0.28939233084934834,0.0004850851286296705
71.0,-1.2778467824317314,-1.740016361783245,-2.3415871527305185,-0.06417505240812298,1.40962461073988,-2.8967422224546064,-0.012079975567758083,0.9521315097808838,0.25965172052383423,-0.0005181826712079309,0.9572851619144837,0.2891446182180378,0.0004899189988245128
72.0,-1.277917044259759,-1.7399752739392682,-2.3412560425236095,-0.0650472058992264,1.409784024627877,-2.896740208542939,-0.012091989628970623,0.9521819949150085,0.25963902473449707,-0.0005270358885978029,0.9573599868863722,0.2888967514147045,0.0004947364225060252
73.0,-1.2779873060877867,-1.7399341860952917,-2.3409249323167005,-0.0659193593903298,1.4099434385158738,-2.896738194631271,-0.012103739194571972,0.9522326588630676,0.2596268653869629,-0.0005356986075072048,0.9574346546953784,0.28864917367297027,0.0004995530550488339
74.0,-1.2780575679158142,-1.739893098251315,-2.340593822109791,-0.06679151288143319,1.4101028524038708,-2.896736180719604,-0.01211554929614067,0.9522830247879028,0.2596147656440735,-0.0005443136788932714,0.9575093347986449,0.2884013230176527,0.0005043587443320898
75.0,-1.2781278297438416,-1.7398520104073383,-2.340262711902882,-0.0676636663725366,1.4102622662918678,-2.8967341668079363,-0.012127397581934929,0.952333390712738,0.2596028745174408,-0.0005528844198171416,0.9575838627148101,0.2881537454954062,0.0005090618535406232
76.0,-1.2781980915718694,-1.7398109225633618,-2.339931601695973,-0.06853581986364,1.4104216801798646,-2.8967321528962686,-0.01213920023292303,0.9523835182189941,0.2595909535884857,-0.0005614433986271024,0.9576584171028796,0.28790584749524406,0.0005137230407652099
77.0,-1.2782683533998969,-1.739769834719385,-2.3396004914890636,-0.0694079733547434,1.4105810940678616,-2.8967301389846014,-0.01215085107833147,0.9524330496788025,0.25957900285720825,-0.0005700563328120052,0.9577329262925565,0.28765786639165,0.0005184919265013024
78.0,-1.2783386152279246,-1.7397287468754086,-2.3392693812821546,-0.07028012684584681,1.4107405079558586,-2.8967281250729338,-0.012162331491708755,0.9524829983711243,0.259567528963089,-0.0005783263606909765,0.9578073050690077,0.28741008717326527,0.000523150190101468
79.0,-1.278408877055952,-1.7396876590314319,-2.3389382710752455,-0.0711522803369502,1.4108999218438554,-2.896726111161266,-0.012174038216471672,0.9525328874588013,0.2595560550689697,-0.0005868407687187556,0.9578816482886567,0.287162192827511,0.0005277311945140665
80.0,-1.2784791388839798,-1.7396465711874554,-2.3386071608683365,-0.07202443382805361,1.4110593357318524,-2.896724097249599,-0.012185557745397091,0.9525822997093201,0.25954487919807434,-0.000595195844871478,0.9579559038252485,0.2869143577576011,0.000532335233344009
81.0,-1.2785494007120073,-1.7396054833434786,-2.338276050661427,-0.07289658731915702,1.4112187496198494,-2.8967220833379312,-0.012197033502161503,0.9526314735412598,0.25953373312950134,-0.0006035534619510042,0.9580301593187958,0.2866662891239943,0.0005368786638871297
82.0,-1.278619662540035,-1.7395643954995021,-2.337944940454518,-0.07376874081026041,1.4113781635078462,-2.8967200694262636,-0.012208557687699795,0.9526807069778442,0.2595227360725403,-0.0006119246500345174,0.9581042963469227,0.2864183822751165,0.0005414468543431636
83.0,-1.2786899243680625,-1.7395233076555254,-2.337613830247609,-0.07464089430136382,1.4115375773958432,-2.8967180555145964,-0.012219730764627457,0.9527296423912048,0.25951170921325684,-0.0006200745439886046,0.9581784050187312,0.28617033652557405,0.0005460367754146473
84.0,-1.2787601861960902,-1.739482219811549,-2.3372827200407,-0.07551304779246722,1.4116969912838402,-2.8967160416029287,-0.012231164611876011,0.952778697013855,0.2595010995864868,-0.0006283623592918483,0.9582524212344237,0.28592236592914855,0.0005504730583702665
85.0,-1.2788304480241177,-1.7394411319675722,-2.3369516098337906,-0.07638520128357063,1.4118564051718372,-2.896714027691261,-0.012242461554706097,0.952827513217926,0.2594905495643616,-0.0006364132393085781,0.9583263972666762,0.2856742958858896,0.0005549325750339726
86.0,-1.2789007098521454,-1.7394000441235955,-2.3366204996268816,-0.07725735477467403,1.412015819059834,-2.896712013779594,-0.012253488413989544,0.952876091003418,0.25947993993759155,-0.0006445358266552051,0.9584003212193002,0.2854261653144047,0.0005594767415031497
87.0,-1.278970971680173,-1.739358956279619,-2.3362893894199726,-0.07812950826577743,1.412175232947831,-2.896709999867926,-0.012264669872820377,0.9529244899749756,0.25946977734565735,-0.000652518105111479,0.9584741670643062,0.2851780624836154,0.0005638870436981105
88.0,-1.2790412335082006,-1.7393178684356423,-2.335958279213063,-0.07900166175688082,1.412334646835828,-2.8967079859562586,-0.01227596402168274,0.9529728889465332,0.25945958495140076,-0.0006606410662055606,0.9585479228816856,0.2849300269178476,0.0005682017092894079
89.0,-1.2791114953362281,-1.7392767805916658,-2.335627169006154,-0.07987381524798425,1.4124940607238248,-2.8967059720445913,-0.01228698156774044,0.9530210494995117,0.25944966077804565,-0.0006686049363239006,0.9586216410669476,0.2846818827758689,0.0005725947412219952
90.0,-1.2791817571642559,-1.739235692747689,-2.335296058799245,-0.08074596873908764,1.4126534746118218,-2.8967039581329237,-0.012298038229346275,0.9530692100524902,0.259439617395401,-0.0006766171778962648,0.9586953068124072,0.28443367943133085,0.0005769663889055555
91.0,-1.2792520189922834,-1.7391946049037126,-2.334964948592336,-0.08161812223019103,1.4128128884998188,-2.896701944221256,-0.012308807112276554,0.9531169533729553,0.25942984223365784,-0.0006844205864260521,0.9587689159571159,0.2841854313697286,0.0005813433398905375
92.0,-1.279322280820311,-1.7391535170597359,-2.3346338383854266,-0.08249027572129444,1.4129723023878156,-2.896699930309589,-0.012319833971560001,0.9531646966934204,0.2594204843044281,-0.0006922955359871316,0.9588424375613047,0.2839372427302466,0.000585533202468494
93.0,-1.2793925426483386,-1.7391124292157594,-2.3343027281785176,-0.08336242921239784,1.4131317162758126,-2.896697916397921,-0.012330755591392517,0.9532124996185303,0.25941118597984314,-0.0007001686058892015,0.9589158721550981,0.28368911157839855,0.000589800652642929
94.0,-1.2794628044763663,-1.7390713413717827,-2.3339716179716086,-0.08423458270350125,1.4132911301638096,-2.8966959024862535,-0.012341662310063839,0.9532598853111267,0.25940191745758057,-0.0007078643657567735,0.9589892712081051,0.2834408648490394,0.0005939439499444837
95.0,-1.2795330663043938,-1.7390302535278062,-2.3336405077646996,-0.08510673619460465,1.4134505440518064,-2.8966938885745863,-0.012352421879768372,0.953307032585144,0.25939249992370605,-0.0007156838041019321,0.9590626597301839,0.28319241628903274,0.0005982176336554625
96.0,-1.2796033281324215,-1.7389891656838294,-2.33330939755779,-0.08597888968570805,1.4136099579398034,-2.8966918746629187,-0.01236299891024828,0.9533541202545166,0.25938352942466736,-0.000723276178948145,0.9591359334578424,0.2829441203042538,0.0006023344370745129
97.0,-1.279673589960449,-1.7389480778398527,-2.332978287350881,-0.08685104317681144,1.4137693718278004,-2.896689860751251,-0.012373699806630611,0.9534012675285339,0.25937485694885254,-0.0007309556622190999,0.9592091363122416,0.2826958270816764,0.0006065225059059648
98.0,-1.2797438517884767,-1.7389069899958762,-2.332647177143972,-0.08772319666791487,1.4139287857157972,-2.896687846839584,-0.012384382076561451,0.9534481763839722,0.2593661844730377,-0.0007384676562772121,0.9592822567498647,0.2824475769540968,0.0006105924718550304
99.0,-1.2798141136165042,-1.7388659021518995,-2.3323160669370626,-0.08859535015901826,1.4140881996037942,-2.896685832927916,-0.012395012192428112,0.9534949064254761,0.25935739278793335,-0.000746113163016635,0.9593553811783445,0.28219907529612603,0.0006146717111535614
100.0,-1.279884375444532,-1.738824814307923,-2.3319849567301536,-0.08946750365012167,1.4142476134917912,-2.8966838190162485,-0.012405508197844028,0.9535415768623352,0.25934889912605286,-0.0007537069136540046,0.9594284297906966,0.28195059338583384,0.0006188090359276448
101.0,-1.2799546372725594,-1.7387837264639463,-2.3316538465232446,-0.09033965714122506,1.414407027379788,-2.8966818051045813,-0.012415878474712372,0.9535881280899048,0.2593408226966858,-0.0007609725501523207,0.9595013499565966,0.2817023117600107,0.0006228172385319777
102.0,-1.280024899100587,-1.7387426386199698,-2.3313227363163356,-0.09121181063232847,1.414566441267785,-2.8966797911929136,-0.012426238507032394,0.9536342620849609,0.2593323290348053,-0.0007684714907041713,0.9595743015941768,0.2814536838088744,0.0006269306419108262
103.0,-1.2800951609286146,-1.738701550775993,-2.330991626109426,-0.09208396412343188,1.414725855155782,-2.896677777281246,-0.012436696328222752,0.9536803364753723,0.2593243420124054,-0.0007758727741527283,0.9596471544533975,0.28120515466089885,0.0006308431461724588
104.0,-1.2801654227566421,-1.7386604629320166,-2.330660515902517,-0.09295611761453527,1.4148852690437788,-2.8966757633695788,-0.012447012588381767,0.9537262320518494,0.259316623210907,-0.0007831955300262856,0.959719923106212,0.2809566742504591,0.0006348164219916123
105.0,-1.2802356845846699,-1.7386193750880399,-2.330329405695608,-0.09382827110563867,1.4150446829317758,-2.896673749457911,-0.012457326054573059,0.953772246837616,0.2593090534210205,-0.0007904557362457704,0.9597926161542429,0.28070821355647807,0.0006387467837596952
106.0,-1.2803059464126973,-1.7385782872440634,-2.3299982954886986,-0.09470042459674208,1.4152040968197728,-2.8966717355462435,-0.01246738899499178,0.9538179636001587,0.2593013346195221,-0.0007976877058813553,0.9598652639533524,0.28045966849507736,0.0006427267820735022
107.0,-1.280376208240725,-1.7385371994000867,-2.3296671852817896,-0.09557257808784549,1.4153635107077696,-2.8966697216345763,-0.012477653101086617,0.9538635015487671,0.2592940032482147,-0.0008048185915667722,0.9599378765524407,0.28021100521992104,0.0006465142438267971
108.0,-1.2804464700687526,-1.73849611155611,-2.3293360750748806,-0.09644473157894888,1.4155229245957666,-2.8966677077229086,-0.012487565167248249,0.9539089202880859,0.2592866122722626,-0.0008119748717610551,0.9600103995840701,0.27996240874975425,0.0006504416018686262
109.0,-1.2805167318967803,-1.7384550237121335,-2.3290049648679716,-0.09731688507005229,1.4156823384837636,-2.896665693811241,-0.01249770075082779,0.9539541602134705,0.2592793107032776,-0.0008191875979825344,0.960082893345735,0.2797136728847401,0.0006542460468768956
110.0,-1.2805869937248078,-1.7384139358681567,-2.328673854661062,-0.09818903856115568,1.4158417523717606,-2.8966636798995737,-0.012507758103311062,0.953999400138855,0.25927263498306274,-0.0008261600627289693,0.9601552710555283,0.27946509611785514,0.0006580088704778412
111.0,-1.2806572555528355,-1.7383728480241802,-2.328342744454153,-0.09906119205225909,1.4160011662597574,-2.896661665987906,-0.012517757713794708,0.9540444612503052,0.25926584005355835,-0.000833246961755714,0.9602276008313582,0.2792164434654103,0.0006618154441700556
112.0,-1.280727517380863,-1.7383317601802035,-2.328011634247244,-0.0999333455433625,1.4161605801477544,-2.8966596520762384,-0.012527724727988243,0.9540889263153076,0.25925880670547485,-0.000840256243856196,0.960299927535946,0.2789675612040807,0.0006655371882065545
113.0,-1.2807977792088907,-1.738290672336227,-2.327680524040335,-0.1008054990344659,1.4163199940357514,-2.8966576381645712,-0.012537547387182713,0.9541337490081787,0.2592524290084839,-0.0008472668271796332,0.960372100171302,0.27871896849745154,0.0006692915678455045
114.0,-1.2808680410369182,-1.7382495844922503,-2.3273494138334256,-0.10167765252556929,1.4164794079237482,-2.8966556242529036,-0.012547241523861885,0.9541784524917603,0.25924602150917053,-0.0008539624083627058,0.9604442507329887,0.2784702121521279,0.0006729978468041319
115.0,-1.280938302864946,-1.7382084966482738,-2.3270183036265166,-0.1025498060166727,1.4166388218117452,-2.896653610341236,-0.01255709957331419,0.9542226791381836,0.2592396140098572,-0.0008609250972609454,0.9605163955918651,0.2782212334804791,0.0006766445074276048
116.0,-1.2810085646929734,-1.738167408804297,-2.3266871934196076,-0.1034219595077761,1.4167982356997422,-2.8966515964295687,-0.012566854245960712,0.9542670845985413,0.2592337131500244,-0.0008677132347859428,0.9605883779496557,0.2779725750409993,0.0006802550017945907
117.0,-1.2810788265210011,-1.7381263209603206,-2.326356083212698,-0.1042941129988795,1.416957649587739,-2.896649582517901,-0.012576530687510967,0.9543110132217407,0.25922760367393494,-0.0008745001292478701,0.9606603444688817,0.2777237298047483,0.000683898963625473
118.0,-1.2811490883490286,-1.7380852331163439,-2.326024973005789,-0.10516626648998291,1.417117063475736,-2.8966475686062334,-0.012586262077093124,0.9543551206588745,0.2592216730117798,-0.0008812319024521464,0.9607322594938783,0.2774748212894165,0.0006874216521044348
119.0,-1.2812193501770563,-1.7380441452723672,-2.32569386279888,-0.1060384199810863,1.417276477363733,-2.896645554694566,-0.012595619075000286,0.9543988704681396,0.2592160105705261,-0.0008878902725516409,0.9608040927235261,0.2772259538458157,0.0006910650211886728
120.0,-1.2812896120050838,-1.7380030574283907,-2.325362752591971,-0.10691057347218973,1.4174358912517298,-2.8966435407828985,-0.012605172581970692,0.9544426202774048,0.2592107057571411,-0.0008944969085167488,0.9608758421715702,0.2769771350688112,0.0006945901166260965
121.0,-1.2813598738331116,-1.737961969584414,-2.3250316423850617,-0.10778272696329312,1.4175953051397268,-2.896641526871231,-0.012614622712135315,0.9544860124588013,0.25920504331588745,-0.0009010979195388081,0.9609475821778398,0.2767281064920925,0.0006981449736871708
122.0,-1.281430135661139,-1.7379208817404375,-2.3247005321781526,-0.10865488045439652,1.4177547190277238,-2.8966395129595637,-0.012624149210751057,0.9545294642448425,0.259199857711792,-0.0009077484939965605,0.9610192247782037,0.276479173595478,0.0007015463872475382
123.0,-1.2815003974891668,-1.7378797938964607,-2.3243694219712436,-0.10952703394549992,1.4179141329157205,-2.896637499047896,-0.01263353694230318,0.9545726180076599,0.25919464230537415,-0.0009141590110712313,0.9610908404701931,0.27623009181737856,0.0007050192643159541
124.0,-1.2815706593171943,-1.7378387060524843,-2.324038311764334,-0.11039918743660333,1.4180735468037176,-2.8966354851362284,-0.012642738409340382,0.9546158313751221,0.2591896951198578,-0.0009205926235771476,0.9611623313267619,0.27598120115576547,0.0007084887763537072
125.0,-1.2816409211452218,-1.7377976182085075,-2.323707201557425,-0.11127134092770673,1.4182329606917146,-2.896633471224561,-0.012652065604925156,0.9546588063240051,0.2591850757598877,-0.000927031087632551,0.9612337995670797,0.27573214628132137,0.0007118218134276028
126.0,-1.2817111829732495,-1.737756530364531,-2.323376091350516,-0.11214349441881014,1.4183923745797113,-2.8966314573128935,-0.012661068700253963,0.9547015428543091,0.2591802179813385,-0.0009333814526470787,0.9613052019082935,0.27548307745584355,0.000715275175463404
127.0,-1.281781444801277,-1.7377154425205543,-2.323044981143607,-0.11301564790991353,1.4185517884677084,-2.896629443401226,-0.012670516036450863,0.9547441005706787,0.25917568802833557,-0.0009397301734320081,0.9613765433186868,0.2752339779699616,0.0007184947076296897
128.0,-1.2818517066293047,-1.7376743546765778,-2.3227138709366977,-0.11388780140101694,1.4187112023557054,-2.8966274294895586,-0.012679645791649818,0.9547865986824036,0.2591710388660431,-0.0009461153063162599,0.9614478395722774,0.2749847914439132,0.0007218879241414168
129.0,-1.2819219684573322,-1.737633266832601,-2.3223827607297887,-0.11475995489212035,1.4188706162437021,-2.896625415577891,-0.012688594870269299,0.9548291563987732,0.2591671049594879,-0.0009523282612099532,0.9615190058825607,0.2747358157714512,0.0007252102389074511
130.0,-1.28199223028536,-1.7375921789886244,-2.3220516505228797,-0.11563210838322374,1.4190300301316991,-2.8966234016662233,-0.012697604484856129,0.9548709392547607,0.25916269421577454,-0.00095846182408112,0.9615902210939833,0.2744864248335131,0.0007284431839516894
131.0,-1.2820624921133874,-1.737551091144648,-2.3217205403159706,-0.11650426187432714,1.4191894440196962,-2.896621387754556,-0.012706504203379154,0.9549133777618408,0.2591589093208313,-0.0009646141986748017,0.9616612793326048,0.27423733870821526,0.0007317172001684954
132.0,-1.2821327539414151,-1.7375100033006712,-2.321389430109061,-0.11737641536543054,1.4193488579076932,-2.8966193738428885,-0.012715395539999008,0.9549551010131836,0.2591550350189209,-0.0009707226564064882,0.9617322948310362,0.27398815777418123,0.0007349667090670076
133.0,-1.2822030157694426,-1.7374689154566947,-2.321058319902152,-0.11824856885653397,1.41950827179569,-2.896617359931221,-0.01272428035736084,0.9549968838691711,0.259151428937912,-0.0009767685338349119,0.9618032740194149,0.2737388593000909,0.0007381855123576569
134.0,-1.2822732775974703,-1.737427827612718,-2.320727209695243,-0.11912072234763735,1.419667685683687,-2.8966153460195536,-0.012733208015561104,0.9550384283065796,0.25914788246154785,-0.0009828247643663495,0.9618741693251478,0.27348961038141123,0.0007412516196251893
135.0,-1.2823435394254978,-1.7373867397687415,-2.3203960994883337,-0.11999287583874076,1.419827099571684,-2.896613332107886,-0.012741982005536556,0.955079972743988,0.2591443955898285,-0.0009888917612252838,0.9619450216449319,0.2732402664078016,0.000744472302805669
136.0,-1.2824138012535256,-1.7373456519247648,-2.3200649892814247,-0.12086502932984416,1.4199865134596807,-2.8966113181962183,-0.012750533409416676,0.9551212191581726,0.25914108753204346,-0.000994638775719967,0.9620158063918872,0.2729909156723515,0.0007476003236614699
137.0,-1.282484063081553,-1.7373045640807883,-2.3197338790745157,-0.12173718282094756,1.4201459273476778,-2.896609304284551,-0.012759247794747353,0.9551624655723572,0.2591381072998047,-0.001000619179562408,0.9620865006307738,0.27274163687074504,0.0007507212240214976
138.0,-1.2825543249095808,-1.7372634762368115,-2.3194027688676067,-0.12260933631205097,1.4203053412356748,-2.8966072903728834,-0.012767921201884747,0.9552034139633179,0.2591351270675659,-0.0010065680905723424,0.9621571627638859,0.27249222525684585,0.0007537488975816614
139.0,-1.2826245867376083,-1.737222388392835,-2.319071658660697,-0.12348148980315438,1.4204647551236715,-2.896605276461216,-0.012776480987668037,0.9552441835403442,0.25913217663764954,-0.0010123691843273916,0.9622277507469559,0.2722428292294674,0.0007567920612593722
140.0,-1.282694848565636,-1.7371813005488583,-2.318740548453788,-0.12435364329425776,1.4206241690116685,-2.8966032625495486,-0.012785114347934723,0.9552850127220154,0.2591295838356018,-0.00101815838130246,0.962298282641017,0.2719933847927814,0.0007597424733533025
141.0,-1.2827651103936635,-1.7371402127048816,-2.318409438246879,-0.12522579678536117,1.4207835828996656,-2.896601248637881,-0.012793496251106262,0.9553256630897522,0.25912708044052124,-0.0010237779822488138,0.9623687303539719,0.27174399156634604,0.000762733975237526
142.0,-1.2828353722216912,-1.7370991248609051,-2.31807832803997,-0.1260979502764646,1.4209429967876623,-2.8965992347262133,-0.012801974080502987,0.9553660750389099,0.25912460684776306,-0.001029557607494859,0.96243913295368,0.2714945103234812,0.000765659659778568
143.0,-1.2829056340497187,-1.7370580370169284,-2.3177472178330607,-0.12697010376756795,1.4211024106756593,-2.896597220814546,-0.01281040720641613,0.9554065465927124,0.25912249088287354,-0.0010351011318289135,0.9625094610790657,0.2712450463952206,0.0007685733459059944
144.0,-1.2829758958777464,-1.737016949172952,-2.3174161076261517,-0.12784225725867138,1.4212618245636564,-2.8965952069028784,-0.012818675488233566,0.9554466009140015,0.2591204345226288,-0.0010407630194644514,0.9625797323733891,0.27099553574235535,0.0007715205931081693
145.0,-1.283046157705774,-1.7369758613289752,-2.3170849974192427,-0.1287144107497748,1.4214212384516531,-2.8965931929912108,-0.012827064841985703,0.955486536026001,0.2591181993484497,-0.0010463394457367484,0.9626499657007813,0.27074591244410456,0.0007743415641510638
146.0,-1.2831164195338016,-1.7369347734849987,-2.316753887212333,-0.12958656424087817,1.4215806523396501,-2.8965911790795436,-0.012835151515901089,0.9555265307426453,0.25911659002304077,-0.0010517271389348499,0.9627200879798156,0.2704964362210336,0.0007772141801025086
147.0,-1.2831866813618291,-1.736893685641022,-2.316422777005424,-0.1304587177319816,1.4217400662276471,-2.896589165167876,-0.012843342497944832,0.9555661678314209,0.2591148912906647,-0.0010572751476476544,0.9627901698836625,0.27024685460715797,0.0007800766554104547
148.0,-1.2832569431898568,-1.7368525977970455,-2.316091666798515,-0.131330871223085,1.421899480115644,-2.8965871512562082,-0.012851485051214695,0.9556058049201965,0.25911328196525574,-0.0010627094363154631,0.9628602137640112,0.2699971600634973,0.0007829154635055886
149.0,-1.2833272050178843,-1.7368115099530688,-2.315760556591606,-0.13220302471418838,1.422058894003641,-2.896585137344541,-0.012859458103775978,0.9556450247764587,0.2591119110584259,-0.001068076569002355,0.9629301467315122,0.2697476125743091,0.0007856452963402069
150.0,-1.283397466845912,-1.7367704221090923,-2.3154294463846967,-0.1330751782052918,1.422218307891638,-2.8965831234328734,-0.012867734767496586,0.9556844830513,0.2591108977794647,-0.0010733972665245874,0.9630000079407086,0.26949807249450713,0.0007883186213423715
151.0,-1.2834677286739395,-1.7367293342651156,-2.3150983361777877,-0.1339473316963952,1.4223777217796347,-2.8965811095212057,-0.012875513173639774,0.9557235836982727,0.2591096758842468,-0.0010786658887651191,0.9630698840138228,0.2692482295315792,0.0007911255353199336
152.0,-1.283537990501967,-1.7366882464211388,-2.3147672259708787,-0.1348194851874986,1.4225371356676317,-2.8965790956095385,-0.012883548624813557,0.9557628631591797,0.25910884141921997,-0.0010838164116372122,0.9631396032161292,0.26899869881814037,0.0007937838563297852
153.0,-1.2836082523299948,-1.7366471585771623,-2.3144361157639697,-0.135691638678602,1.4226965495556287,-2.896577081697871,-0.012891470454633236,0.9558014273643494,0.25910794734954834,-0.0010891285862259228,0.9632093370850157,0.26874886506712226,0.0007964146539200691
154.0,-1.2836785141580223,-1.7366060707331856,-2.3141050055570602,-0.1365637921697054,1.4228559634436255,-2.896575067786203,-0.012899204157292843,0.9558401107788086,0.2591075301170349,-0.0010941824477475096,0.9632789437706226,0.26849923787031243,0.0007990719528569713
155.0,-1.28374877598605,-1.7365649828892091,-2.313773895350151,-0.1374359456608088,1.4230153773316225,-2.896573053874536,-0.012907066382467747,0.9558788537979126,0.25910696387290955,-0.0010993968186535548,0.9633485252616021,0.2682494502873934,0.0008016379749166585
156.0,-1.2838190378140775,-1.7365238950452324,-2.313442785143242,-0.1383080991519122,1.4231747912196195,-2.8965710399628684,-0.012914862483739853,0.955917239189148,0.25910669565200806,-0.0011043641765144951,0.9634180346120925,0.26799967206867786,0.0008041983707766477
157.0,-1.2838892996421052,-1.736482807201256,-2.3131116749363327,-0.13918025264301562,1.4233342051076165,-2.8965690260512007,-0.012922503985464573,0.9559553861618042,0.25910627841949463,-0.0011094798494686229,0.9634875199489398,0.2677497282412253,0.000806835705124574
158.0,-1.2839595614701327,-1.7364417193572792,-2.3127805647294237,-0.140052406134119,1.4234936189956133,-2.8965670121395335,-0.012930219992995262,0.9559934139251709,0.25910621881484985,-0.001114568807936863,0.9635569008231356,0.26749990956102265,0.0008093190539286184
159.0,-1.2840298232981604,-1.7364006315133027,-2.3124494545225147,-0.1409245596252224,1.4236530328836103,-2.896564998227866,-0.0129376370459795,0.9560315012931824,0.25910627841949463,-0.0011192844898588463,0.9636262096844163,0.26725010018421064,0.0008118885426614954
160.0,-1.284100085126188,-1.736359543669326,-2.3121183443156057,-0.14179671311632583,1.4238124467716073,-2.896562984316198,-0.012945234775543213,0.9560694098472595,0.25910642743110657,-0.0011242748662652294,0.9636954821105427,0.2670001694250541,0.0008144278642091672
161.0,-1.2841703469542156,-1.7363184558253493,-2.3117872341086962,-0.14266886660742922,1.4239718606596041,-2.896560970404531,-0.0129528334364295,0.9561070799827576,0.25910699367523193,-0.001129134700984247,0.9637646402047158,0.2667504005845408,0.0008167826446231445
162.0,-1.284240608782243,-1.7362773679813728,-2.3114561239017872,-0.14354102009853262,1.4241312745476011,-2.8965589564928633,-0.012960276566445827,0.9561445116996765,0.2591075003147125,-0.0011339355057522484,0.9638337839424402,0.26650043151773956,0.0008192205594564861
163.0,-1.2843108706102708,-1.736236280137396,-2.311125013694878,-0.14441317358963604,1.4242906884355981,-2.8965569425811957,-0.012967739254236221,0.9561819434165955,0.2591080963611603,-0.0011386970997344073,0.9639028588442655,0.2662504591228225,0.0008216432639727083
164.0,-1.2843811324382983,-1.7361951922934196,-2.3107939034879688,-0.14528532708073943,1.424450102323595,-2.8965549286695285,-0.012974992394447327,0.9562191963195801,0.25910884141921997,-0.0011434361556424961,0.9639718724110824,0.26600045635992137,0.000823996567561002
165.0,-1.284451394266326,-1.7361541044494428,-2.3104627932810597,-0.14615748057184283,1.424609516211592,-2.896552914757861,-0.012982371263206005,0.9562563896179199,0.2591099739074707,-0.0011480304683208053,0.9640407982477183,0.2657505193652097,0.0008263153557453863
166.0,-1.2845216560943535,-1.7361130166054664,-2.3101316830741507,-0.14702963406294625,1.424768930099589,-2.896550900846193,-0.012989574111998081,0.9562932848930359,0.25911077857017517,-0.0011527479816585602,0.9641097188776547,0.2655003471447923,0.0008287362276249765
167.0,-1.2845919179223813,-1.7360719287614896,-2.3098005728672417,-0.14790178755404965,1.4249283439875857,-2.896548886934526,-0.01299684401601553,0.9563301205635071,0.2591123580932617,-0.0011573919614402065,0.9641784772224965,0.26525051163269386,0.0008310134471060605
168.0,-1.2846621797504088,-1.7360308409175131,-2.3094694626603323,-0.14877394104515304,1.4250877578755827,-2.8965468730228583,-0.01300408598035574,0.9563666582107544,0.2591136693954468,-0.001161980677770837,0.9642472868306562,0.26500023649565363,0.0008332453842504023
169.0,-1.2847324415784365,-1.7359897530735364,-2.3091383524534232,-0.14964609453625644,1.4252471717635797,-2.8965448591111906,-0.01301104761660099,0.956403374671936,0.2591152787208557,-0.0011663662326224795,0.9643159750069071,0.26475014982208306,0.0008355270635019474
170.0,-1.284802703406464,-1.73594866522956,-2.3088072422465142,-0.15051824802735986,1.4254065856515765,-2.8965428451995234,-0.013018138706684113,0.956439733505249,0.2591170072555542,-0.0011708195727322469,0.964384566609375,0.26450016077056177,0.0008377466938960132
171.0,-1.2848729652344917,-1.7359075773855832,-2.308476132039605,-0.15139040151846325,1.4255659995395735,-2.8965408312878558,-0.013024996966123581,0.9564757943153381,0.25911858677864075,-0.0011752426345593427,0.9644531699534252,0.26424987468305666,0.0008399413838168748
172.0,-1.2849432270625192,-1.7358664895416065,-2.3081450218326958,-0.15226255500956665,1.4257254134275705,-2.896538817376188,-0.01303202472627163,0.9565119743347168,0.25912073254585266,-0.0011795432314254983,0.964521655360806,0.263999765001739,0.000842078881279118
173.0,-1.285013488890547,-1.73582540169763,-2.3078139116257868,-0.15313470850067007,1.4258848273155673,-2.896536803464521,-0.013039066456258297,0.9565480351448059,0.2591228485107422,-0.0011839639562590282,0.9645901023611304,0.2637495403238262,0.000844177270775267
174.0,-1.2850837507185744,-1.7357843138536533,-2.3074828014188777,-0.15400686199177346,1.4260442412035643,-2.8965347895528533,-0.013046002015471458,0.9565838575363159,0.2591251730918884,-0.0011882565456080476,0.9646584550510968,0.2634994059358687,0.0008462956086257482
175.0,-1.285154012546602,-1.7357432260096768,-2.3071516912119683,-0.15487901548287686,1.4262036550915613,-2.8965327756411856,-0.013052773661911488,0.9566192626953125,0.2591274678707123,-0.001192487185477976,0.9647267997271178,0.2632490456456633,0.0008484275063870498
176.0,-1.2852242743746296,-1.7357021381657,-2.3068205810050593,-0.15575116897398028,1.4263630689795581,-2.8965307617295184,-0.01305951178073883,0.9566548466682434,0.25912991166114807,-0.001196718377880862,0.9647950468537387,0.2629987873315661,0.0008504667786215101
177.0,-1.285294536202657,-1.7356610503217236,-2.3064894707981503,-0.15662332246508365,1.4265224828675551,-2.8965287478178507,-0.013066234067082405,0.9566901922225952,0.2591326832771301,-0.0012008554260817593,0.9648632053233356,0.26274859887969576,0.0008524940945462263
178.0,-1.2853647980306848,-1.7356199624777469,-2.3061583605912412,-0.15749547595618707,1.4266818967555521,-2.896526733906183,-0.01307298056781292,0.9567254781723022,0.2591356337070465,-0.001205053866913295,0.9649313372815435,0.26249825128208215,0.0008545472946431243
179.0,-1.2854350598587123,-1.7355788746337704,-2.305827250384332,-0.1583676294472905,1.4268413106435491,-2.896524719994516,-0.01307961530983448,0.9567605257034302,0.25913870334625244,-0.0012090205863841271,0.9649993839978017,0.26224796191466404,0.0008565189372841005
180.0,-1.28550532168674,-1.7355377867897936,-2.3054961401774228,-0.15923978293839386,1.427000724531546,-2.8965227060828482,-0.013086295686662197,0.9567953944206238,0.25914183259010315,-0.001213152619666119,0.9650673716434731,0.2619976327323563,0.0008584244410996852
181.0,-1.2855755835147675,-1.7354966989458172,-2.3051650299705138,-0.16011193642949728,1.427160138419543,-2.8965206921711806,-0.01309268083423376,0.9568302631378174,0.2591450810432434,-0.0012170305363376583,0.9651352934273609,0.2617472902283778,0.0008603927340653691
182.0,-1.2856458453427952,-1.7354556111018404,-2.3048339197636043,-0.16098408992060068,1.42731955230754,-2.8965186782595134,-0.013099237345159054,0.9568650126457214,0.25914865732192993,-0.0012209496996363688,0.9652031519013884,0.26149692408227204,0.0008622858962971603
183.0,-1.2857161071708227,-1.7354145232578637,-2.3045028095566953,-0.16185624341170407,1.4274789661955367,-2.8965166643478457,-0.01310567744076252,0.9568995237350464,0.25915223360061646,-0.0012248484186027587,0.9652709526581802,0.2612465136199252,0.0008641887264463992
184.0,-1.2857863689988505,-1.7353734354138872,-2.3041716993497863,-0.1627283969028075,1.4276383800835337,-2.896514650436178,-0.013112161308526993,0.9569336771965027,0.2591557800769806,-0.0012288054565989318,0.9653387141659685,0.2609959903565412,0.0008660181018582625
185.0,-1.285856630826878,-1.7353323475699105,-2.3038405891428773,-0.1636005503939109,1.4277977939715307,-2.896512636524511,-0.013118517585098743,0.9569678902626038,0.25915956497192383,-0.0012326074617344325,0.9654064018564346,0.2607454826883241,0.0008678658252072034
186.0,-1.2859268926549057,-1.735291259725934,-2.303509478935968,-0.16447270388501428,1.4279572078595275,-2.896510622612843,-0.013124755583703518,0.9570021033287048,0.2591637969017029,-0.0012362946833759318,0.9654740004622517,0.2604950475893334,0.0008695908823449718
187.0,-1.2859971544829332,-1.7352501718819573,-2.303178368729059,-0.16534485737611768,1.4281166217475245,-2.8965086087011755,-0.013131001964211464,0.9570357203483582,0.2591678500175476,-0.001240099629192974,0.9655415749117383,0.26024444254444085,0.0008714325004007407
188.0,-1.2860674163109609,-1.7352090840379808,-2.3028472585221498,-0.1662170108672211,1.4282760356355215,-2.8965065947895083,-0.013137351721525192,0.9570698142051697,0.2591722011566162,-0.0012437036440587001,0.9656090323865651,0.25999401443761155,0.0008730586132324163
189.0,-1.2861376781389884,-1.735167996194004,-2.3025161483152408,-0.1670891643583245,1.4284354495235183,-2.8965045808778407,-0.013143477030098438,0.9571030735969543,0.2591765522956848,-0.0012474308802485627,0.9656764706160823,0.25974339772969796,0.000874843127617016
190.0,-1.286207939967016,-1.7351269083500276,-2.3021850381083313,-0.1679613178494279,1.4285948634115153,-2.896502566966173,-0.013149595819413662,0.9571366310119629,0.25918132066726685,-0.001251007506063135,0.965743821638283,0.2594928469612246,0.0008765407364680364
191.0,-1.2862782017950436,-1.7350858205060509,-2.3018539279014223,-0.1688334713405313,1.4287542772995123,-2.896500553054506,-0.013155626133084297,0.9571699500083923,0.25918614864349365,-0.0012545769083546522,0.9658111277511171,0.2592422040020395,0.0008781873724921741
192.0,-1.2863484636230713,-1.7350447326620744,-2.3015228176945133,-0.1697056248316347,1.428913691187509,-2.896498539142838,-0.013161655515432358,0.9572031497955322,0.2591908574104309,-0.001257987437296914,0.9658783563357696,0.2589915908141055,0.000879839359547443
193.0,-1.2864187254510988,-1.7350036448180977,-2.301191707487604,-0.1705777783227381,1.4290731050755061,-2.8964965252311705,-0.013167600147426128,0.9572362899780273,0.2591959238052368,-0.0012615235396476847,0.9659455295782227,0.25874092333241827,0.0008814983230974957
194.0,-1.2864889872791265,-1.734962556974121,-2.300860597280695,-0.17144993181384152,1.4292325189635031,-2.8964945113195033,-0.01317334920167923,0.9572688341140747,0.2592009902000427,-0.0012649466708228399,0.9660126625010821,0.2584901463935345,0.0008831845444230397
195.0,-1.286559249107154,-1.7349214691301444,-2.300529487073786,-0.1723220853049449,1.4293919328515,-2.8964924974078357,-0.013179346919059753,0.9573017954826355,0.259206622838974,-0.0012682170895316296,0.9660796571482743,0.2582396273877103,0.0008845995384014048
196.0,-1.2866295109351817,-1.7348803812861677,-2.300198376866877,-0.1731942387960483,1.429551346739497,-2.896490483496168,-0.013185186311602592,0.9573342800140381,0.25921201705932617,-0.0012716676399569698,0.9661466525560151,0.2579888432594167,0.0008862109728655058
197.0,-1.2866997727632092,-1.7348392934421912,-2.2998672666599673,-0.17406639228715173,1.429710760627494,-2.896488469584501,-0.013190999627113342,0.9573668241500854,0.25921764969825745,-0.001274926403904619,0.9662135730844671,0.25773807957302824,0.0008877432168463798
198.0,-1.286770034591237,-1.7347982055982145,-2.2995361564530583,-0.1749385457782551,1.4298701745154907,-2.896486455672833,-0.013196690939366817,0.9573990106582642,0.25922340154647827,-0.0012781610340960026,0.9662804194370453,0.25748733278939284,0.0008892524632441936
199.0,-1.2868402964192645,-1.734757117754238,-2.2992050462461493,-0.17581069926935852,1.4300295884034877,-2.8964844417611655,-0.013202306814491749,0.9574312567710876,0.2592293322086334,-0.0012812735130880756,0.9663472013832682,0.2572365670963392,0.0008906544788124774
200.0,-1.2869105582472922,-1.7347160299102613,-2.2988739360392403,-0.17668285276046192,1.4301890022914847,-2.896482427849498,-0.013207935728132725,0.957463264465332,0.2592353820800781,-0.0012845155011689412,0.9664139265109093,0.25698575204583657,0.0008921385150217483
201.0,-1.2869808200753197,-1.7346749420662848,-2.298542825832331,-0.17755500625156534,1.4303484161794815,-2.8964804139378306,-0.01321366522461176,0.9574950933456421,0.2592417001724243,-0.0012875678788789905,0.9664805963570001,0.256734884212721,0.0008934554580780707
202.0,-1.2870510819033472,-1.734633854222308,-2.298211715625422,-0.17842715974266873,1.4305078300674785,-2.896478400026163,-0.013219200074672699,0.9575268030166626,0.25924789905548096,-0.001290720723313274,0.9665471984734814,0.25648400793098924,0.0008948959353693548
203.0,-1.2871213437313749,-1.7345927663783316,-2.297880605418513,-0.17929931323377213,1.4306672439554755,-2.8964763861144953,-0.013224818743765354,0.957558274269104,0.25925442576408386,-0.001293772606394027,0.9666137229687704,0.2562331625811995,0.0008961665764587922
204.0,-1.2871916055594024,-1.7345516785343549,-2.2975494952116033,-0.18017146672487555,1.4308266578434725,-2.896474372202828,-0.013230079784989357,0.9575896859169006,0.259260892868042,-0.0012966524851435602,0.9666802174827106,0.25598216770038,0.0008975741343710078
205.0,-1.28726186738743,-1.7345105906903782,-2.2972183850046943,-0.18104362021597895,1.4309860717314693,-2.8964723582911605,-0.013235543854534626,0.957621157169342,0.25926798582077026,-0.0012996813480108125,0.9667465659653659,0.2557314608501512,0.0008988626222004172
206.0,-1.2873321292154576,-1.7344695028464017,-2.2968872747977853,-0.18191577370708234,1.4311454856194663,-2.896470344379493,-0.013240919448435307,0.9576522707939148,0.2592748701572418,-0.0013025596428875201,0.9668129327741349,0.25548042203054616,0.0009001767309543677
207.0,-1.2874023910434853,-1.734428415002425,-2.2965561645908763,-0.18278792719818576,1.4313048995074633,-2.8964683304678256,-0.013246259652078152,0.9576830267906189,0.25928184390068054,-0.0013055453123709186,0.9668792531689523,0.25522929453907733,0.000901416646889423
208.0,-1.2874726528715128,-1.7343873271584485,-2.296225054383967,-0.18366008068928913,1.43146431339546,-2.896466316556158,-0.01325155608355999,0.9577139616012573,0.25928911566734314,-0.0013082341533864224,0.9669454490679673,0.25497837619814906,0.0009026192453898712
209.0,-1.2875429146995405,-1.7343462393144717,-2.295893944177058,-0.18453223418039255,1.431623727283457,-2.8964643026444903,-0.013256590813398361,0.9577445983886719,0.2592962980270386,-0.0013110012992557341,0.9670116188456624,0.2547272918658908,0.0009039202143870529
210.0,-1.287613176527568,-1.7343051514704952,-2.295562833970149,-0.18540438767149597,1.431783141171454,-2.896462288732823,-0.013261917978525162,0.9577754139900208,0.25930410623550415,-0.0013137211814069566,0.967077651914415,0.25447646324454176,0.0009049634846397566
211.0,-1.2876834383555957,-1.7342640636265185,-2.29523172376324,-0.18627654116259934,1.431942555059451,-2.8964602748211554,-0.013266810216009617,0.9578055143356323,0.25931164622306824,-0.0013163067972399942,0.9671437102657112,0.2542252738449505,0.0009061833972513497
212.0,-1.2877537001836232,-1.734222975782542,-2.2949006135563303,-0.18714869465370276,1.432101968947448,-2.8964582609094878,-0.013272101990878582,0.9578359723091125,0.2593195140361786,-0.0013190205934010665,0.9672096603408308,0.25397423084732473,0.0009073001480694095
213.0,-1.287823962011651,-1.7341818879385653,-2.2945695033494213,-0.18802084814480616,1.432261382835445,-2.8964562469978206,-0.013277128338813782,0.9578659534454346,0.2593275010585785,-0.0013217089582228938,0.9672755594378671,0.25372311663850317,0.0009084507886490897
214.0,-1.2878942238396784,-1.7341408000945888,-2.2942383931425123,-0.18889300163590955,1.4324207967234417,-2.896454233086153,-0.013282067142426968,0.9578959345817566,0.2593357563018799,-0.0013242705933786646,0.967341383088951,0.2534720255436543,0.0009094711364068377
215.0,-1.2879644856677062,-1.734099712250612,-2.293907282935603,-0.18976515512701297,1.4325802106114387,-2.8964522191744853,-0.013286988250911236,0.9579257369041443,0.25934383273124695,-0.0013266848134326585,0.9674071753912777,0.25322078866446185,0.0009105476502230561
216.0,-1.2880347474957337,-1.7340586244066354,-2.293576172728694,-0.19063730861811637,1.4327396244994357,-2.896450205262818,-0.013291762210428715,0.9579554200172424,0.2593522369861603,-0.0013291620890366457,0.9674728921693703,0.2529695738933769,0.0009115534973027774
217.0,-1.2881050093237614,-1.734017536562659,-2.293245062521785,-0.19150946210921976,1.4328990383874325,-2.8964481913511504,-0.013296594843268394,0.9579848051071167,0.25936079025268555,-0.0013314754964036798,0.9675385408802923,0.25271835377036744,0.0009125523726703892
218.0,-1.2881752711517889,-1.7339764487186822,-2.292913952314876,-0.19238161560032319,1.4330584522754295,-2.8964461774394827,-0.01330149732530117,0.9580144286155701,0.25936946272850037,-0.0013339393923526934,0.9676040893715856,0.252467249954066,0.0009135303570028834
219.0,-1.2882455329798166,-1.7339353608747057,-2.2925828421079664,-0.19325376909142658,1.4332178661634265,-2.8964441635278155,-0.013306314125657082,0.9580435156822205,0.2593784034252167,-0.0013362954131228941,0.9676696059743185,0.2522160023596422,0.0009144078942019468
220.0,-1.288315794807844,-1.733894273030729,-2.2922517319010574,-0.19412592258252998,1.4333772800514233,-2.896442149616148,-0.013310931622982025,0.9580724239349365,0.2593872845172882,-0.0013386743099655083,0.967735123098286,0.25196448448072717,0.0009154416412587148
221.0,-1.2883860566358718,-1.7338531851867525,-2.2919206216941483,-0.19499807607363337,1.4335366939394203,-2.8964401357044802,-0.01331549696624279,0.9581015706062317,0.25939634442329407,-0.001340741496296474,0.9678004904369101,0.2517132762875457,0.0009163312205815511
222.0,-1.2884563184638993,-1.7338120973427757,-2.291589511487239,-0.1958702295647368,1.4336961078274173,-2.896438121792813,-0.01332023460417986,0.958130419254303,0.25940579175949097,-0.001343040153742908,0.9678657955366251,0.2514620387692068,0.0009171321798264974
223.0,-1.288526580291927,-1.7337710094987993,-2.29125840128033,-0.1967423830558402,1.433855521715414,-2.8964361078811454,-0.013324793428182602,0.9581590890884399,0.2594153881072998,-0.0013452613258493331,0.9679310052579917,0.2512109007902341,0.0009179631681379149
224.0,-1.2885968421199545,-1.7337299216548225,-2.290927291073421,-0.19761453654694358,1.434014935603411,-2.8964340939694777,-0.013329274952411652,0.9581872820854187,0.25942474603652954,-0.0013473078059162316,0.967996260396062,0.2509593201327481,0.0009188359071819004
225.0,-1.2886671039479822,-1.733688833810846,-2.290596180866512,-0.198486690038047,1.434174349491408,-2.8964320800578105,-0.013333817012608051,0.9582156538963318,0.2594345211982727,-0.0013494707045231412,0.9680613974075252,0.25070792566438727,0.0009196669327990754
226.0,-1.2887373657760097,-1.7336477459668693,-2.2902650706596024,-0.19935884352915037,1.4343337633794049,-2.896430066146143,-0.013338128104805946,0.9582440257072449,0.2594444453716278,-0.001351415264023577,0.968126449592353,0.2504565914412544,0.0009203695550621278
227.0,-1.2888076276040372,-1.7336066581228926,-2.2899339604526934,-0.2002309970202538,1.4344931772674019,-2.896428052234475,-0.0133425397798419,0.9582722187042236,0.25945448875427246,-0.0013533932544745832,0.9681914495010887,0.2502051897200674,0.0009211280174264215
228.0,-1.288877889432065,-1.7335655702789161,-2.2896028502457844,-0.20110315051135721,1.434652591155399,-2.896426038322808,-0.013346883468329906,0.9583000540733337,0.25946471095085144,-0.0013553210651012218,0.9682563813845019,0.24995378220617318,0.0009218317794010809
229.0,-1.2889481512600924,-1.7335244824349394,-2.2892717400388753,-0.20197530400246058,1.434812005043396,-2.8964240244111403,-0.013351277448236942,0.9583278894424438,0.25947505235671997,-0.0013573332030831335,0.9683212783255319,0.24970223988799561,0.0009224876700920191
230.0,-1.2890184130881202,-1.733483394590963,-2.288940629831966,-0.202847457493564,1.4349714189313927,-2.8964220104994727,-0.013355459086596966,0.9583553075790405,0.2594854533672333,-0.0013590912650181769,0.968386120399199,0.24945064123226673,0.0009231890015372166
231.0,-1.2890886749161476,-1.7334423067469862,-2.288609519625057,-0.2037196109846674,1.4351308328193897,-2.8964199965878055,-0.013359534554183483,0.9583829641342163,0.25949627161026,-0.0013608822785817396,0.9684508192932106,0.24919932813044954,0.0009238338949989046
232.0,-1.2891589367441754,-1.7334012189030097,-2.288278409418148,-0.2045917644757708,1.4352902467073867,-2.896417982676138,-0.013363818638026714,0.9584103226661682,0.25950685143470764,-0.0013627675013115595,0.9685155232436872,0.24894772455842695,0.0009244122056338543
233.0,-1.2892291985722029,-1.733360131059033,-2.2879472992112384,-0.20546391796687422,1.4354496605953835,-2.89641596876447,-0.013367902487516403,0.9584375619888306,0.25951769948005676,-0.0013644871631543099,0.9685801464124536,0.2486961649968975,0.0009250222955327818
234.0,-1.2892994604002306,-1.7333190432150565,-2.2876161890043294,-0.2063360714579776,1.4356090744833805,-2.896413954852803,-0.013371857814490795,0.958464503288269,0.2595288157463074,-0.0013660923785478642,0.9686447074133767,0.24844457731021713,0.0009255251561333469
235.0,-1.289369722228258,-1.7332779553710798,-2.2872850787974204,-0.207208224949081,1.4357684883713775,-2.8964119409411353,-0.013375908136367798,0.9584915041923523,0.2595401406288147,-0.0013677308720256675,0.9687091813164631,0.24819305745693873,0.000926053792366298
236.0,-1.2894399840562858,-1.7332368675271033,-2.2869539685905114,-0.20808037844018443,1.4359279022593743,-2.8964099270294676,-0.013379870913922787,0.9585182666778564,0.2595515251159668,-0.0013694049896141175,0.9687735939159063,0.24794150492123226,0.0009266059720394244
237.0,-1.2895102458843133,-1.7331957796831265,-2.286622858383602,-0.20895253193128782,1.4360873161473713,-2.8964079131178004,-0.013383906334638596,0.9585449695587158,0.25956305861473083,-0.001370873859503996,0.9688379751377115,0.24768980465614998,0.0009269872268815118
238.0,-1.289580507712341,-1.7331546918391498,-2.286291748176693,-0.20982468542239124,1.4362467300353683,-2.896405899206133,-0.013387775048613548,0.9585712552070618,0.2595747113227844,-0.0013724743424558304,0.9689022756279763,0.24743814660133254,0.0009274716198794647
239.0,-1.2896507695403685,-1.7331136039951733,-2.285960637969784,-0.2106968389134946,1.436406143923365,-2.896403885294465,-0.013391410931944847,0.9585976004600525,0.259586364030838,-0.0013738374410067818,0.9689665251539702,0.24718641665307428,0.0009279676390594498
240.0,-1.2897210313683962,-1.7330725161511966,-2.2856295277628744,-0.21156899240459803,1.436565557811362,-2.896401871382798,-0.013395259156823158,0.9586238861083984,0.25959858298301697,-0.0013752459339918593,0.9690306673014083,0.24693483486657827,0.000928362765473072
241.0,-1.2897912931964237,-1.7330314283072201,-2.2852984175559654,-0.21244114589570146,1.436724971699359,-2.8963998574711303,-0.013399075716733932,0.9586499333381653,0.25961050391197205,-0.0013767383976113164,0.9690947766541638,0.24668310842574656,0.0009286928515108408
242.0,-1.2898615550244514,-1.7329903404632434,-2.2849673073490564,-0.21331329938680482,1.4368843855873559,-2.8963978435594626,-0.013402750715613365,0.9586756825447083,0.2596227824687958,-0.0013780769314728507,0.9691588544893363,0.2464312327344064,0.0009290865887947003
243.0,-1.289931816852479,-1.732949252619267,-2.2846361971421474,-0.21418545287790824,1.4370437994753529,-2.8963958296477954,-0.013406413607299328,0.9587015509605408,0.25963521003723145,-0.001379424941635493,0.9692227969596003,0.2461796157425011,0.0009294264436697001
244.0,-1.2900020786805066,-1.7329081647752902,-2.284305086935238,-0.21505760636901164,1.4372032133633499,-2.8963938157361278,-0.01340990699827671,0.9587271213531494,0.2596479058265686,-0.0013805019835424915,0.9692866917951677,0.24592791412841186,0.0009297179688624567
245.0,-1.2900723405085341,-1.7328670769313137,-2.283973976728329,-0.21592975986011503,1.4373626272513467,-2.89639180182446,-0.013413519598543644,0.9587526917457581,0.259660542011261,-0.0013818106432351971,0.9693505632103365,0.24567602929512483,0.000929963940393838
246.0,-1.2901426023365619,-1.732825989087337,-2.28364286652142,-0.21680191335121846,1.4375220411393437,-2.896389787912793,-0.013417093083262444,0.9587780833244324,0.25967347621917725,-0.0013828685317112714,0.9694143276023531,0.24542429357195042,0.0009301820308646865
247.0,-1.2902128641645894,-1.7327849012433605,-2.283311756314511,-0.21767406684232185,1.4376814550273407,-2.8963877740011252,-0.013420586474239826,0.9588030576705933,0.25968629121780396,-0.001384111520811826,0.9694780850072346,0.24517230941418755,0.0009303883689837501
248.0,-1.290283125992617,-1.7327438133993838,-2.2829806461076014,-0.21854622033342525,1.4378408689153375,-2.8963857600894576,-0.01342407800257206,0.9588280916213989,0.2596995532512665,-0.0013851699863498615,0.969541734304872,0.244920478406467,0.0009305924763833716
249.0,-1.2903533878206446,-1.732702725555407,-2.2826495359006924,-0.21941837382452867,1.4380002828033345,-2.8963837461777904,-0.013427349738776684,0.9588530659675598,0.259712815284729,-0.0013862231077744625,0.9696053409572534,0.24466854087433307,0.0009307411501515833
250.0,-1.2904236496486723,-1.7326616377114306,-2.2823184256937834,-0.22029052731563206,1.4381596966913315,-2.8963817322661227,-0.013430703431367874,0.9588776230812073,0.25972622632980347,-0.0013871223890703946,0.9696688837995033,0.24441658110437117,0.0009308940613064918
251.0,-1.2904939114766998,-1.7326205498674538,-2.281987315486874,-0.22116268080673546,1.4383191105793283,-2.896379718354455,-0.01343392301350832,0.9589020609855652,0.25973960757255554,-0.0013881433634487623,0.9697323622206793,0.24416459988024525,0.000931066712812685
252.0,-1.2905641733047273,-1.7325794620234773,-2.281656205279965,-0.22203483429783885,1.4384785244673253,-2.896377704442788,-0.013437182642519474,0.9589265584945679,0.25975334644317627,-0.0013891296604404012,0.9697957624761194,0.24391265297687012,0.0009311927478220432
253.0,-1.290634435132755,-1.7325383741795006,-2.281325095073056,-0.22290698778894227,1.4386379383553223,-2.89637569053112,-0.013440468348562717,0.9589509963989258,0.2597673237323761,-0.0013899144697578955,0.9698591018758842,0.24366067296433078,0.0009311803474209262
254.0,-1.2907046969607825,-1.7324972863355241,-2.280993984866147,-0.22377914128004567,1.4387973522433193,-2.8963736766194526,-0.01344349980354309,0.9589752554893494,0.2597813606262207,-0.0013907403881448627,0.9699223678744336,0.24340870748470136,0.0009312672288899309
255.0,-1.2907749587888102,-1.7324561984915474,-2.2806628746592374,-0.22465129477114906,1.438956766131316,-2.8963716627077853,-0.01344656478613615,0.9589992761611938,0.259795606136322,-0.0013914701429307238,0.9699855644924219,0.24315674196942816,0.0009313012251152323
256.0,-1.2908452206168377,-1.732415110647571,-2.2803317644523284,-0.22552344826225248,1.439116180019313,-2.8963696487961177,-0.013449531979858875,0.9590228199958801,0.2598099410533905,-0.001392245489268322,0.9700487226723841,0.24290465216123275,0.0009312639819564231
257.0,-1.2909154824448654,-1.7323740228035942,-2.2800006542454194,-0.22639560175335588,1.43927559390731,-2.89636763488445,-0.0134525615721941,0.9590466022491455,0.2598244249820709,-0.001392816007239346,0.970111807914592,0.24265257677566954,0.0009312316465864861
258.0,-1.290985744272893,-1.7323329349596177,-2.2796695440385104,-0.22726775524445927,1.4394350077953069,-2.896365620972783,-0.013455548323690891,0.9590702056884766,0.25983887910842896,-0.0013935495934481181,0.970174847794974,0.2424004033323509,0.0009312302848334295
259.0,-1.2910560061009206,-1.732291847115641,-2.279338433831601,-0.2281399087355627,1.4395944216833039,-2.896363607061115,-0.013458493165671825,0.9590938091278076,0.25985392928123474,-0.0013940317139494252,0.9702377599848858,0.24214846444759433,0.0009310965382898573
260.0,-1.2911262679289481,-1.7322507592716643,-2.279007323624692,-0.22901206222666606,1.4397538355713009,-2.8963615931494475,-0.013461420312523842,0.9591169357299805,0.2598685324192047,-0.001394719148896512,0.9703006817449178,0.24189620715316576,0.0009309826831599559
261.0,-1.2911965297569759,-1.7322096714276878,-2.278676213417783,-0.22988421571776949,1.4399132494592977,-2.8963595792377803,-0.01346414815634489,0.9591400623321533,0.2598836421966553,-0.0013952195863160986,0.9703635163638786,0.24164402100724514,0.0009309047667032906
262.0,-1.2912667915850033,-1.732168583583711,-2.2783451032108735,-0.2307563692088729,1.4400726633472947,-2.8963575653261127,-0.013466981239616871,0.9591630697250366,0.2598989009857178,-0.0013956840411597374,0.9704262478352743,0.2413919706206859,0.0009306440082894916
263.0,-1.291337053413031,-1.7321274957397346,-2.2780139930039645,-0.23162852269997627,1.4402320772352917,-2.896355551414445,-0.013469789177179337,0.9591860175132751,0.259914368391037,-0.0013961249119744657,0.9704889531761716,0.24113974540450123,0.0009304754166803551
264.0,-1.2914073152410586,-1.7320864078957579,-2.2776828827970554,-0.2325006761910797,1.4403914911232885,-2.896353537502778,-0.01347254030406475,0.9592087268829346,0.2599300146102905,-0.001396501001461577,0.9705515728301987,0.24088758591791393,0.000930167952618246
265.0,-1.2914775770690863,-1.7320453200517814,-2.2773517725901464,-0.2333728296821831,1.4405509050112855,-2.89635152359111,-0.013475225307047367,0.9592311978340149,0.25994566082954407,-0.001396939631305738,0.9706141487815688,0.2406353213461449,0.0009299813625010728
266.0,-1.2915478388971138,-1.7320042322078046,-2.277020662383237,-0.23424498317328651,1.4407103188992825,-2.8963495096794425,-0.013477621600031853,0.9592536687850952,0.25996118783950806,-0.0013970435667762292,0.9706766797799157,0.24038295932560047,0.000929766948398657
267.0,-1.2916181007251415,-1.7319631443638281,-2.276689552176328,-0.23511713666438994,1.4408697327872793,-2.8963474957677753,-0.013480269350111485,0.9592760801315308,0.25997743010520935,-0.001397393694045618,0.9707390707137926,0.2401308809269309,0.0009294653528475471
268.0,-1.291688362553169,-1.7319220565198514,-2.276358441969419,-0.23598929015549328,1.4410291466752763,-2.8963454818561076,-0.013482850976288319,0.9592978954315186,0.2599935829639435,-0.0013976248529394728,0.9708014609842239,0.23987852508338933,0.0009290852945415592
269.0,-1.2917586243811967,-1.731880968675875,-2.27602733176251,-0.2368614436465967,1.4411885605632733,-2.89634346794444,-0.013485277071595192,0.9593198299407959,0.2600094676017761,-0.0013977600851503029,0.9708637802250729,0.23962617525859214,0.0009287867161347708
270.0,-1.2918288862092242,-1.7318398808318982,-2.2756962215556005,-0.2377335971377001,1.44134797445127,-2.8963414540327728,-0.013487748801708221,0.9593416452407837,0.26002591848373413,-0.0013980063018471341,0.9709260413927243,0.23937377819340885,0.0009284596095073237
271.0,-1.291899148037252,-1.7317987929879215,-2.2753651113486915,-0.23860575062880351,1.441507388339267,-2.896339440121105,-0.013489924371242523,0.9593633413314819,0.26004257798194885,-0.001397963557523565,0.9709882156742559,0.23912145313775082,0.0009280996213032303
272.0,-1.2919694098652794,-1.731757705143945,-2.2750340011417824,-0.23947790411990694,1.441666802227264,-2.8963374262094375,-0.013492424041032791,0.9593849778175354,0.2600594162940979,-0.0013981116263454463,0.9710503143265058,0.23886915221855914,0.0009276037200674251
273.0,-1.2920396716933071,-1.7317166172999683,-2.274702890934873,-0.24035005761101033,1.441826216115261,-2.8963354122977703,-0.013494773767888546,0.9594064950942993,0.26007646322250366,-0.0013979932723800015,0.971112345368517,0.2386168450132272,0.0009271265296475255
274.0,-1.2921099335213346,-1.7316755294559918,-2.274371780727964,-0.2412222111021137,1.4419856300032579,-2.8963333983861026,-0.01349697820842266,0.9594275951385498,0.26009315252304077,-0.0013980380299224216,0.9711743579051879,0.23836432869921179,0.0009267366870567526
275.0,-1.2921801953493623,-1.731634441612015,-2.274040670521055,-0.24209436459321712,1.4421450438912549,-2.896331384474435,-0.013499217107892036,0.9594485759735107,0.2601102590560913,-0.0013979551515804528,0.971236316682485,0.238111749032445,0.0009262025393390977
276.0,-1.2922504571773898,-1.7315933537680386,-2.273709560314146,-0.24296651808432052,1.4423044577792519,-2.8963293705627677,-0.013501259498298168,0.9594695568084717,0.2601277232170105,-0.001397732006145226,0.9712981637616338,0.2378593418407173,0.0009256984488395474
277.0,-1.2923207190054173,-1.7315522659240619,-2.2733784501072365,-0.24383867157542394,1.4424638716672487,-2.8963273566511,-0.013503476046025753,0.9594904780387878,0.26014500856399536,-0.0013975805533816004,0.9713599636869901,0.23760684319206468,0.0009250853516711584
278.0,-1.292390980833445,-1.7315111780800854,-2.2730473399003275,-0.24471082506652733,1.4426232855552457,-2.8963253427394324,-0.013505491428077221,0.9595109224319458,0.2601623833179474,-0.0013974347394773105,0.9714217273487851,0.23735420777620586,0.0009245873572720229
279.0,-1.2924612426614726,-1.7314700902361086,-2.2727162296934185,-0.24558297855763075,1.4427826994432427,-2.896323328827765,-0.01350738201290369,0.9595316648483276,0.26018038392066956,-0.0013971520416114405,0.9714833539723442,0.23710184968022233,0.0009240124647469556
280.0,-1.2925315044895003,-1.731429002392132,-2.272385119486509,-0.24645513204873412,1.4429421133312395,-2.8963213149160976,-0.01350942812860012,0.9595519304275513,0.2601984143257141,-0.0013967626209056075,0.9715449589375332,0.23684929672132626,0.0009232875288319233
281.0,-1.2926017663175278,-1.7313879145481554,-2.2720540092796,-0.24732728553983752,1.4431015272192365,-2.89631930100443,-0.013511414639651775,0.9595720767974854,0.2602161467075348,-0.0013965020659867616,0.971606530751632,0.23659659294711308,0.0009227071994899975
282.0,-1.2926720281455555,-1.7313468267041787,-2.271722899072691,-0.24819943903094094,1.4432609411072335,-2.8963172870927627,-0.013513334095478058,0.9595922231674194,0.2602345943450928,-0.0013960131799782007,0.9716679849171754,0.23634408841893886,0.0009220106388227569
283.0,-1.292742289973583,-1.7313057388602022,-2.271391788865782,-0.24907159252204433,1.4434203549952302,-2.896315273181095,-0.013515199534595013,0.9596120715141296,0.2602526545524597,-0.0013956770913434709,0.9717294260759914,0.23609135054842512,0.0009212924083008085
284.0,-1.2928125518016107,-1.7312646510162255,-2.2710606786588725,-0.24994374601314776,1.4435797688832273,-2.8963132592694274,-0.013516890816390514,0.9596318602561951,0.26027125120162964,-0.0013950915451320363,0.9717907543796785,0.23583879230293361,0.0009205796270323099
285.0,-1.2928828136296382,-1.731223563172249,-2.2707295684519635,-0.25081589950425115,1.4437391827712243,-2.89631124535776,-0.013518634252250195,0.9596514701843262,0.2602899372577667,-0.0013946703046682648,0.9718520352298162,0.23558614206207354,0.000919881902033729
286.0,-1.292953075457666,-1.7311824753282723,-2.2703984582450545,-0.2516880529953545,1.443898596659221,-2.8963092314460925,-0.01352040097117424,0.959671139717102,0.26030877232551575,-0.001393983580305415,0.9719132490282716,0.23533348343872984,0.0009191004731459557
287.0,-1.2930233372856934,-1.7311413874842958,-2.2700673480381455,-0.2525602064864579,1.444058010547218,-2.896307217534425,-0.013522106222808361,0.9596902132034302,0.26032766699790955,-0.0013934796509792213,0.9719744011288294,0.23508079161583775,0.0009182472361967879
288.0,-1.2930935991137211,-1.731100299640319,-2.269736237831236,-0.2534323599775613,1.444217424435215,-2.8963052036227577,-0.013523728586733341,0.9597094058990479,0.2603464722633362,-0.0013929139380365408,0.9720355215984775,0.2348279428857219,0.0009174865650408983
289.0,-1.2931638609417486,-1.7310592117963426,-2.269405127624327,-0.25430451346866473,1.4443768383232118,-2.89630318971109,-0.013525206595659256,0.959728479385376,0.2603658437728882,-0.0013920485320744122,0.9720965436595566,0.2345752155609826,0.0009166518132277022
290.0,-1.2932341227697763,-1.7310181239523659,-2.269074017417418,-0.25517666695976815,1.4445362522112088,-2.8963011757994224,-0.013526814989745617,0.959747314453125,0.26038527488708496,-0.0013913994182098161,0.9721574868562364,0.23432252612765103,0.0009156998317175657
291.0,-1.2933043845978038,-1.7309770361083892,-2.2687429072105085,-0.2560488204508716,1.4446956660992059,-2.896299161887755,-0.013528338633477688,0.9597663283348083,0.2604047656059265,-0.0013906150419032788,0.9722183815300803,0.23406975009488223,0.000914819848725006
292.0,-1.2933746464258316,-1.7309359482644127,-2.2684117970035995,-0.25692097394197494,1.4448550799872026,-2.8962971479760875,-0.013529798947274685,0.9597848057746887,0.2604244351387024,-0.001389781005559189,0.972279199409409,0.23381700473709582,0.0009138929522862784
293.0,-1.293444908253859,-1.730894860420436,-2.2680806867966905,-0.2577931274330783,1.4450144938751996,-2.89629513406442,-0.013531281612813473,0.9598033428192139,0.2604442238807678,-0.001388916951240112,0.9723399731410357,0.23356415436566783,0.0009128730706100207
294.0,-1.2935151700818868,-1.7308537725764594,-2.2677495765897815,-0.25866528092418173,1.4451739077631967,-2.8962931201527526,-0.013532458804547787,0.9598215222358704,0.2604641616344452,-0.0013880060909172418,0.972400693269786,0.23331123730141096,0.0009119848771478955
295.0,-1.2935854319099143,-1.7308126847324827,-2.267418466382872,-0.25953743441528515,1.4453333216511934,-2.896291106241085,-0.013533920049667358,0.959839940071106,0.2604845464229584,-0.0013869537216630752,0.9724612964896359,0.2330585196123023,0.0009108376323773389
296.0,-1.293655693737942,-1.7307715968885062,-2.267087356175963,-0.2604095879063886,1.4454927355391904,-2.8962890923294173,-0.013534994795918465,0.9598578214645386,0.26050472259521484,-0.0013859662082037938,0.9725218910036141,0.23280554700651704,0.0009098897849550722
297.0,-1.2937259555659695,-1.7307305090445295,-2.266756245969054,-0.261281741397492,1.4456521494271874,-2.89628707841775,-0.013536425307393074,0.9598758220672607,0.2605251669883728,-0.001384990884721158,0.9725823793514752,0.23255272786917003,0.0009088101452974709
298.0,-1.2937962173939972,-1.730689421200553,-2.2664251357621445,-0.26215389488859536,1.4458115633151842,-2.8962850645060825,-0.01353762298822403,0.9598933458328247,0.26054561138153076,-0.0013840031071215672,0.9726428389250713,0.23229973809963111,0.000907800649937979
299.0,-1.2938664792220247,-1.7306483333565763,-2.2660940255552355,-0.26302604837969873,1.4459709772031812,-2.896283050594415,-0.01353871263563633,0.9599113464355469,0.2605665326118469,-0.001382793564499044,0.9727031989635258,0.23204687600440513,0.0009066116466290423
300.0,-1.2939367410500524,-1.7306072455125998,-2.2657629153483265,-0.26389820187080215,1.4461303910911782,-2.8962810366827476,-0.013539811596274376,0.9599286913871765,0.260587215423584,-0.0013816059739182813,0.9727635099226194,0.2317939279018415,0.0009054920179508006
301.0,-1.29400700287808,-1.730566157668623,-2.2654318051414175,-0.2647703553619056,1.4462898049791753,-2.89627902277108,-0.013540823012590408,0.959945797920227,0.26060816645622253,-0.001380478077777342,0.972823779660835,0.23154086046580402,0.0009044011493791054
302.0,-1.2940772647061074,-1.7305250698246464,-2.265100694934508,-0.265642508853009,1.446449218867172,-2.8962770088594123,-0.013541698455810547,0.9599632620811462,0.2606293857097626,-0.0013790116290248898,0.9728839453622476,0.23128794042253953,0.0009032155966745265
303.0,-1.2941475265341351,-1.7304839819806699,-2.264769584727599,-0.26651466234411236,1.446608632755169,-2.896274994947745,-0.01354279275983572,0.9599799513816833,0.2606506049633026,-0.0013778560395617406,0.97294409565093,0.2310347910579626,0.0009019820020310567
304.0,-1.2942177883621626,-1.7304428941366932,-2.26443847452069,-0.2673868158352158,1.446768046643166,-2.8962729810360774,-0.013543703593313694,0.9599969983100891,0.26067233085632324,-0.0013764717046735923,0.9730041249408911,0.23078185983112673,0.0009007477689539664
305.0,-1.2942880501901903,-1.7304018062927167,-2.264107364313781,-0.26825896932631915,1.4469274605311628,-2.89627096712441,-0.013544563204050064,0.9600135087966919,0.26069366931915283,-0.001375086445210253,0.9730641483048833,0.2305286604058918,0.0008995290019481525
306.0,-1.2943583120182178,-1.73036071844874,-2.2637762541068716,-0.2691311228174226,1.4470868744191598,-2.8962689532127426,-0.013545581139624119,0.9600304365158081,0.2607153654098511,-0.001373678501084084,0.9731240659965394,0.2302756141547034,0.0008981711487876745
307.0,-1.2944285738462455,-1.7303196306047635,-2.2634451438999625,-0.270003276308526,1.4472462883071568,-2.896266939301075,-0.013546139933168888,0.960046648979187,0.2607373893260956,-0.0013721977103416422,0.9731839392833314,0.23002246174552543,0.0008969319646342708
308.0,-1.294498835674273,-1.7302785427607867,-2.2631140336930535,-0.27087542979962936,1.4474057021951536,-2.8962649253894073,-0.013547012582421303,0.9600630402565002,0.26075953245162964,-0.0013707692556809896,0.9732437069730844,0.22976946249161417,0.0008955083760025622
309.0,-1.2945690975023008,-1.7302374549168102,-2.262782923486144,-0.2717475832907328,1.4475651160831506,-2.89626291147774,-0.013547692447900772,0.9600791931152344,0.26078155636787415,-0.001369116214478915,0.9733034626295889,0.22951622075701697,0.0008941831245273875
310.0,-1.2946393593303283,-1.7301963670728335,-2.262451813279235,-0.2726197367818362,1.4477245299711476,-2.8962608975660724,-0.01354841236025095,0.9600951075553894,0.2608039975166321,-0.0013676124294055613,0.973363135485658,0.22926303475658125,0.0008927530308571818
311.0,-1.294709621158356,-1.730155279228857,-2.262120703072326,-0.2734918902729396,1.4478839438591444,-2.8962588836544048,-0.013549082912504673,0.9601110219955444,0.2608265280723572,-0.0013658794439648375,0.9734227413016057,0.22900983956338045,0.0008913323547263562
312.0,-1.2947798829863835,-1.7301141913848803,-2.261789592865417,-0.274364043764043,1.4480433577471414,-2.8962568697427375,-0.013549545779824257,0.9601268172264099,0.2608491778373718,-0.0013641933210236147,0.973482279634181,0.2287566353137626,0.0008899521039886174
313.0,-1.2948501448144112,-1.7300731035409036,-2.2614584826585076,-0.27523619725514636,1.4482027716351384,-2.89625485583107,-0.013550011441111565,0.9601423144340515,0.26087209582328796,-0.0013624136513485498,0.9735417263965539,0.22850352554302128,0.0008885990489817233
314.0,-1.2949204066424387,-1.730032015696927,-2.2611273724515986,-0.2761083507462498,1.4483621855231352,-2.8962528419194022,-0.01355051901191473,0.960157573223114,0.2608948051929474,-0.0013607574918035486,0.9736011804035576,0.22825008847197836,0.0008871123840413071
315.0,-1.2949906684704664,-1.7299909278529504,-2.2607962622446895,-0.2769805042373532,1.4485215994111322,-2.896250828007735,-0.013551007024943829,0.9601730704307556,0.2609180808067322,-0.0013588200457061712,0.9736604959709341,0.22799694726186143,0.0008855693027309424
316.0,-1.295060930298494,-1.729949840008974,-2.2604651520377805,-0.27785265772845663,1.4486810132991292,-2.8962488140960674,-0.013551468029618263,0.9601883292198181,0.2609415650367737,-0.0013570464847413365,0.9737197532654974,0.22774375730634902,0.0008840437793103699
317.0,-1.2951311921265216,-1.7299087521649972,-2.260134041830871,-0.27872481121956,1.448840427187126,-2.8962468001843997,-0.013551685959100723,0.960203230381012,0.26096490025520325,-0.001355144261469029,0.9737789857541036,0.22749037689937485,0.0008825564686864493
318.0,-1.295201453954549,-1.7298676643210207,-2.259802931623962,-0.2795969647106634,1.448999841075123,-2.8962447862727325,-0.013552127406001091,0.9602182507514954,0.2609884738922119,-0.0013531086682630376,0.9738381150431386,0.22723714240861945,0.0008808496599751066
319.0,-1.2952717157825768,-1.729826576477044,-2.259471821417053,-0.2804691182017668,1.44915925496312,-2.896242772361065,-0.013552125543355942,0.960232675075531,0.2610121965408325,-0.0013510972908004008,0.9738972223644431,0.2269837033699688,0.0008793243926663457
320.0,-1.2953419776106043,-1.7297854886330675,-2.2591407112101436,-0.2813412716928702,1.4493186688511168,-2.896240758449397,-0.013552444986999035,0.9602473378181458,0.26103609800338745,-0.001349059507244785,0.9739562096346606,0.2267304819855682,0.000877662305755332
321.0,-1.295412239438632,-1.7297444007890908,-2.2588096010032346,-0.28221342518397363,1.4494780827391138,-2.89623874453773,-0.013552905060350895,0.9602617621421814,0.26105996966362,-0.0013471905798475479,0.974015171790324,0.2264770693321831,0.0008759375050249081
322.0,-1.2954825012666595,-1.7297033129451143,-2.2584784907963256,-0.28308557867507705,1.4496374966271108,-2.8962367306260624,-0.013552871532738209,0.9602760672569275,0.26108402013778687,-0.0013448598773758201,0.974074077827016,0.226223601520669,0.0008742839220259327
323.0,-1.2955527630946873,-1.7296622251011375,-2.2581473805894166,-0.2839577321661804,1.4497969105151076,-2.8962347167143947,-0.013553093187510967,0.9602901935577393,0.26110854744911194,-0.001342802530031149,0.9741328817749305,0.22597027302731212,0.0008724873617363535
324.0,-1.2956230249227147,-1.7296211372571608,-2.257816270382507,-0.2848298856572838,1.4499563244031046,-2.8962327028027275,-0.013552890159189701,0.9603039622306824,0.2611328065395355,-0.0013404071563214276,0.9741916834670495,0.22571665611798147,0.0008708175514983208
325.0,-1.2956932867507425,-1.7295800494131843,-2.257485160175598,-0.2857020391483872,1.4501157382911016,-2.89623068889106,-0.013552991673350334,0.9603179097175598,0.26115769147872925,-0.0013382395680933377,0.9742503290770548,0.22546341206574266,0.0008690384237873523
326.0,-1.29576354857877,-1.7295389615692076,-2.257154049968689,-0.28657419263949063,1.4502751521790986,-2.896228674979392,-0.013553019613027573,0.9603317379951477,0.2611822187900543,-0.0013360496372082254,0.9743089857511312,0.2252098203478778,0.0008672224890022459
327.0,-1.2958338104067977,-1.7294978737252311,-2.2568229397617796,-0.28744634613059405,1.4504345660670954,-2.896226661067725,-0.013553043827414513,0.9603453874588013,0.2612071931362152,-0.0013337016813253632,0.9743675407426897,0.22495636879007122,0.0008654060629548958
328.0,-1.2959040722348252,-1.7294567858812544,-2.2564918295548706,-0.2883184996216975,1.4505939799550924,-2.8962246471560573,-0.013552912510931492,0.9603586196899414,0.26123225688934326,-0.0013313086157052782,0.9744260363129633,0.2247028740312922,0.0008635825696587129
329.0,-1.2959743340628527,-1.729415698037278,-2.2561607193479616,-0.28919065311280084,1.4507533938430894,-2.8962226332443897,-0.013552697375416756,0.9603720307350159,0.26125767827033997,-0.001328813540748524,0.9744844634563224,0.2244493758155579,0.0008616454165140402
330.0,-1.2960445958908804,-1.7293746101933012,-2.2558296091410526,-0.2900628066039042,1.4509128077310862,-2.896220619332722,-0.013552524149417877,0.9603850245475769,0.2612830102443695,-0.0013264269015572576,0.9745428365984015,0.22419580943484368,0.0008598012977225898
331.0,-1.2961148577189079,-1.7293335223493247,-2.255498498934143,-0.29093496009500763,1.4510722216190832,-2.896218605421055,-0.013552314601838589,0.9603980183601379,0.2613084018230438,-0.0013238229619319875,0.9746011446890432,0.22394222534834052,0.0008578867088480206
332.0,-1.2961851195469356,-1.729292434505348,-2.255167388727234,-0.29180711358611106,1.4512316355070802,-2.896216591509387,-0.01355197373777628,0.9604107737541199,0.26133400201797485,-0.0013213492912985882,0.9746594045776433,0.22368854764026969,0.0008560134292263216
333.0,-1.296255381374963,-1.7292513466613715,-2.254836278520325,-0.2926792670772145,1.451391049395077,-2.8962145775977195,-0.013551765121519566,0.9604233503341675,0.2613597512245178,-0.0013187743964132783,0.9747175889044821,0.22343489754544912,0.0008539749287410829
334.0,-1.2963256432029908,-1.7292102588173948,-2.254505168313416,-0.29355142056831784,1.451550463283074,-2.8962125636860523,-0.013551237061619759,0.9604359865188599,0.26138579845428467,-0.0013160529491751717,0.9747756970811708,0.22318127703347765,0.0008520365359717113
335.0,-1.2963959050310183,-1.729169170973418,-2.2541740581065066,-0.29442357405942127,1.451709877171071,-2.8962105497743846,-0.013550864532589912,0.9604485630989075,0.26141202449798584,-0.001313327346872262,0.9748337131244543,0.22292775607589638,0.0008499989615986779
336.0,-1.296466166859046,-1.7291280831294416,-2.2538429478995976,-0.29529572755052463,1.4518692910590678,-2.896208535862717,-0.013550522737205029,0.9604607820510864,0.26143819093704224,-0.0013107176606722095,0.9748917048324524,0.22267403732334198,0.0008479211116254635
337.0,-1.2965364286870735,-1.7290869952854648,-2.2535118376926886,-0.29616788104162806,1.4520287049470648,-2.8962065219510498,-0.013549973256886005,0.9604727029800415,0.26146456599235535,-0.0013080471449911566,0.9749496429784235,0.2224202488104838,0.0008459243425528685
338.0,-1.2966066905151012,-1.7290459074414883,-2.253180727485779,-0.2970400345327315,1.4521881188350618,-2.896204508039382,-0.013549480587244034,0.9604846239089966,0.26149117946624756,-0.001305133888025591,0.9750074863958352,0.22216657278917593,0.0008438203134846213
339.0,-1.2966769523431287,-1.7290048195975116,-2.25284961727887,-0.29791218802383485,1.4523475327230586,-2.8962024941277145,-0.013548786751925945,0.9604965448379517,0.26151764392852783,-0.0013022862351868077,0.9750652919732483,0.2219127575708933,0.0008417047983019549
340.0,-1.2967472141711565,-1.7289637317535351,-2.252518507071961,-0.29878434151493827,1.4525069466110556,-2.8962004802160473,-0.013548205606639385,0.9605082273483276,0.2615448236465454,-0.0012993866815736066,0.9751229970099072,0.22165907929640352,0.000839560681986917
341.0,-1.296817475999184,-1.7289226439095584,-2.252187396865052,-0.2996564950060417,1.4526663604990526,-2.8961984663043796,-0.013547573238611221,0.9605196714401245,0.2615717351436615,-0.001296446348461073,0.9751806613846704,0.22140527492396975,0.0008373315136378621
342.0,-1.2968877378272117,-1.728881556065582,-2.2518562866581426,-0.30052864849714506,1.4528257743870494,-2.896196452392712,-0.013546748086810112,0.9605311155319214,0.26159897446632385,-0.0012933580246701623,0.9752382560427388,0.22115147219613704,0.0008351773575591771
343.0,-1.2969579996552392,-1.7288404682216052,-2.2515251764512336,-0.3014008019882485,1.4529851882750464,-2.8961944384810447,-0.01354597881436348,0.9605423212051392,0.26162612438201904,-0.0012904124338712672,0.9752957835610593,0.22089765841477002,0.0008330129899776503
344.0,-1.2970282614832669,-1.7287993803776287,-2.2511940662443246,-0.30227295547935185,1.4531446021630434,-2.896192424569377,-0.01354525052011013,0.9605535268783569,0.2616537809371948,-0.0012872345466584873,0.9753532223184489,0.2206439317234971,0.0008307429429460462
345.0,-1.2970985233112944,-1.728758292533652,-2.250862956037415,-0.30314510897045527,1.4533040160510402,-2.8961904106577094,-0.013544457964599133,0.960564374923706,0.26168131828308105,-0.001284239753012917,0.9754106510064509,0.22038994141444965,0.0008284653063709036
346.0,-1.297168785139322,-1.7287172046896753,-2.250531845830506,-0.3040172624615587,1.4534634299390372,-2.8961883967460422,-0.013543616980314255,0.9605752229690552,0.26170921325683594,-0.0012811545069826014,0.975467958790713,0.2201361793041831,0.0008261822835472855
347.0,-1.2972390469673496,-1.7286761168456988,-2.250200735623597,-0.3048894159526621,1.4536228438270342,-2.8961863828343746,-0.013542539440095425,0.9605858325958252,0.2617368698120117,-0.001277787987839962,0.9755252351294087,0.2198822504238623,0.0008239126823349912
348.0,-1.2973093087953773,-1.728635029001722,-2.249869625416688,-0.3057615694437655,1.453782257715031,-2.896184368922707,-0.013541602529585361,0.9605963826179504,0.2617650628089905,-0.0012746045907095509,0.975582418050271,0.2196284270503566,0.0008215873111703428
349.0,-1.2973795706234048,-1.7285939411577456,-2.2495385152097787,-0.3066337229348689,1.453941671603028,-2.8961823550110397,-0.013540699146687984,0.9606066346168518,0.26179322600364685,-0.0012713620606333244,0.9756395661629588,0.21937445057651078,0.0008191520727418309
350.0,-1.2974498324514325,-1.7285528533137688,-2.2492074050028696,-0.30750587642597227,1.454101085491025,-2.896180341099372,-0.013539601117372513,0.9606167078018188,0.2618215084075928,-0.0012681074710450895,0.9756966604729854,0.21912040389469722,0.0008168490254902045
351.0,-1.29752009427946,-1.7285117654697923,-2.2488762947959606,-0.3083780299170757,1.454260499379022,-2.8961783271877044,-0.013538573868572712,0.960627019405365,0.26185011863708496,-0.0012646236602479718,0.9757536502410286,0.21886651527146192,0.0008144085176147476
352.0,-1.2975903561074875,-1.7284706776258156,-2.2485451845890516,-0.3092501834081791,1.4544199132670188,-2.896176313276037,-0.013537290506064892,0.9606367945671082,0.26187875866889954,-0.0012612184631523773,0.9758105949475706,0.21861251759354586,0.0008119528729666474
353.0,-1.2976606179355152,-1.7284295897818391,-2.248214074382142,-0.31012233689928254,1.4545793271550158,-2.8961742993643695,-0.01353621855378151,0.9606466889381409,0.2619079351425171,-0.0012576449196557064,0.9758674294183239,0.21835870342107017,0.0008094257210494241
354.0,-1.2977308797635427,-1.7283885019378624,-2.247882964175233,-0.3109944903903859,1.4547387410430128,-2.896172285452702,-0.013535055331885815,0.9606561660766602,0.2619365453720093,-0.0012542695155600852,0.9759242781809108,0.21810451375578924,0.0008069351902357354
355.0,-1.2978011415915705,-1.728347414093886,-2.247551853968324,-0.31186664388148927,1.4548981549310096,-2.8961702715410347,-0.013533812016248703,0.9606656432151794,0.2619657516479492,-0.001250814859551952,0.9759810236490531,0.2178504757183904,0.000804467777168391
356.0,-1.297871403419598,-1.7283063262499092,-2.2472207437614147,-0.3127387973725927,1.4550575688190066,-2.896168257629367,-0.013532557524740696,0.9606750011444092,0.2619948983192444,-0.0012472146483005584,0.9760377051666296,0.2175964144480848,0.0008018528655077862
357.0,-1.2979416652476257,-1.7282652384059325,-2.2468896335545057,-0.3136109508636961,1.4552169827070036,-2.8961662437176994,-0.013531106524169445,0.9606842994689941,0.2620244324207306,-0.0012434967832200233,0.9760943130684229,0.21734237228863093,0.0007993242045263635
358.0,-1.2980119270756532,-1.728224150561956,-2.2465585233475966,-0.31448310435479954,1.4553763965950004,-2.896164229806032,-0.013529741205275059,0.9606934189796448,0.2620542347431183,-0.0012398057882930308,0.9761508424988844,0.21708837093705646,0.0007967271933504642
359.0,-1.2980821889036809,-1.7281830627179793,-2.2462274131406876,-0.31535525784590296,1.4555358104829974,-2.8961622158943645,-0.013528311625123024,0.9607022404670715,0.2620837092399597,-0.0012361894825792307,0.9762073567894946,0.21683412471465494,0.000794194473066099
360.0,-1.2981524507317084,-1.7281419748740028,-2.245896302933778,-0.31622741133700627,1.4556952243709944,-2.896160201982697,-0.013526920229196548,0.960710883140564,0.2621133327484131,-0.0012323448741720711,0.9762637962559236,0.21657990439900215,0.0007914901154317208
361.0,-1.298222712559736,-1.728100887030026,-2.245565192726869,-0.3170995648281097,1.4558546382589912,-2.8961581880710296,-0.013525409623980522,0.9607197046279907,0.26214370131492615,-0.0012286041717572045,0.9763201196810468,0.21632589344621828,0.0007888361496174424
362.0,-1.2982929743877636,-1.7280597991860496,-2.24523408251996,-0.3179717183192131,1.4560140521469882,-2.896156174159362,-0.013523704372346401,0.9607281684875488,0.26217353343963623,-0.0012246793695454257,0.9763764324424133,0.2160716182189307,0.0007862135333243447
363.0,-1.2983632362157913,-1.7280187113420729,-2.244902972313051,-0.31884387181031654,1.4561734660349852,-2.8961541602476943,-0.013522105291485786,0.9607363343238831,0.26220375299453735,-0.0012209659886197085,0.9764326810688487,0.21581731758338793,0.0007835903685352062
364.0,-1.2984334980438188,-1.7279776234980964,-2.2445718621061417,-0.31971602530141996,1.456332879922982,-2.896152146336027,-0.013520361855626106,0.9607445597648621,0.26223447918891907,-0.0012169326826996843,0.9764888273197929,0.21556316838998038,0.0007807868687787872
365.0,-1.2985037598718465,-1.7279365356541196,-2.2442407518992327,-0.3205881787925233,1.456492293810979,-2.8961501324243595,-0.013518714345991611,0.9607524871826172,0.26226502656936646,-0.0012129669395347996,0.9765449311702858,0.21530889613741816,0.0007780494275140817
366.0,-1.298574021699874,-1.727895447810143,-2.2439096416923237,-0.32146033228362675,1.456651707698976,-2.896148118512692,-0.013517048209905624,0.9607605934143066,0.26229602098464966,-0.0012090268884959712,0.9766009235341797,0.21505481477356378,0.0007752734215859793
367.0,-1.2986442835279017,-1.7278543599661664,-2.243578531485414,-0.3223324857747301,1.4568111215869728,-2.8961461046010246,-0.013515419326722622,0.9607683420181274,0.2623268663883209,-0.001204885092690556,0.9766569001201068,0.21480049146040164,0.0007723781892356344
368.0,-1.2987145453559292,-1.7278132721221897,-2.243247421278505,-0.32320463926583354,1.4569705354749698,-2.896144090689357,-0.013513556681573391,0.9607758522033691,0.26235777139663696,-0.0012008548164096791,0.9767128224900475,0.21454609766186356,0.000769616333501983
369.0,-1.298784807183957,-1.7277721842782132,-2.242916311071596,-0.32407679275693696,1.4571299493629668,-2.8961420767776893,-0.013511642813682556,0.9607833027839661,0.26238900423049927,-0.0011966524447560003,0.9767686579144613,0.21429178494644413,0.0007667094465107476
370.0,-1.2988550690119844,-1.7277310964342365,-2.242585200864687,-0.3249489462480403,1.4572893632509638,-2.896140062866022,-0.013509769923985004,0.960790753364563,0.26242050528526306,-0.0011924424758270836,0.976824405723147,0.21403755519931658,0.0007638251514410599
371.0,-1.2989253308400122,-1.72769000859026,-2.2422540906577777,-0.32582109973914375,1.4574487771389606,-2.8961380489543544,-0.013507841154932976,0.9607978463172913,0.26245203614234924,-0.0011881726592151008,0.976880111024169,0.2137832030583292,0.0007609344652241654
