Sungjin-Park-dev/lg_sgu_vision_v2/data/curved_structure/ik/100/glns_trajectory_comp000.csv
time,ur20-shoulder_pan_joint,ur20-shoulder_lift_joint,ur20-elbow_joint,ur20-wrist_1_joint,ur20-wrist_2_joint,ur20-wrist_3_joint,target-POS_X,target-POS_Y,target-POS_Z,target-ROT_X,target-ROT_Y,target-ROT_Z,target-ROT_W
0.0,-0.2639196554767054,-1.599217716847555,-2.7952070236206055,-2.187136952077047,-0.21120912233461553,0.0,-0.11510103195905685,0.7460401058197021,0.222684845328331,-0.08372237533330917,0.7237434983253479,0.6742753386497498,0.12057607620954514
0.23735387321193707,-0.26159215401190117,-1.6338814107626243,-2.769219647771269,-2.1497301435500034,-0.1400029603710344,0.0,-0.11065781116485596,0.7505574822425842,0.23031988739967346,-0.05056409537792206,0.7183523178100586,0.6804384589195251,0.13570794463157654
0.6980893608154259,-0.2581219327926174,-1.6855637353419355,-2.7304734022932,-2.0939579334529603,-0.03383712635272352,0.0,-0.1035628616809845,0.7523749470710754,0.23666852712631226,-0.0005442571127787232,0.7097911238670349,0.6865121722221375,0.15778879821300507
1.222865291731551,-0.2541693643019484,-1.7444297023072548,-2.6863415791813727,-2.0304336027677725,0.08708534625349566,0.0,-0.09553126245737076,0.7474379539489746,0.23626723885536194,0.05695474520325661,0.699324905872345,0.6888347864151001,0.18222899734973907
1.502149414339659,-0.25157171157448693,-1.7831167838855018,-2.6573378690761795,-1.9886850154240998,0.16655635137800548,0.0,-0.090728759765625,0.7402631044387817,0.2314775437116623,0.09485513716936111,0.6920597553253174,0.6876779794692993,0.1978757530450821
1.700311333009598,-0.24963564040826278,-1.8119508702732554,-2.635720950750432,-1.9575691409532014,0.22578733323553027,0.0,-0.0875910073518753,0.7329608201980591,0.22556133568286896,0.12307552248239517,0.6864573359489441,0.6854289174079895,0.2093222290277481
2.0251650327287676,-0.24806128417721532,-1.8357784660265566,-2.6178567126303127,-1.9317865556114564,0.2746572772242563,0.0,-0.08539773523807526,0.7257295846939087,0.21915265917778015,0.1463463306427002,0.6817204356193542,0.6826813220977783,0.21860051155090332
2.350370186584525,-0.25480685697557054,-1.8431921018979123,-2.6121041174432746,-1.9041164860399538,0.2681433767654632,0.0,-0.09182831645011902,0.7301424741744995,0.21302412450313568,0.15571512281894684,0.6823962330818176,0.6827555894851685,0.20960181951522827
2.5486649677329587,-0.2615803110086053,-1.8506363802851424,-2.606327745260388,-1.8763320487599733,0.26160255263498206,0.0,-0.09833385050296783,0.7347007989883423,0.20709101855754852,0.16509824991226196,0.68283611536026,0.6828365325927734,0.20052826404571533
2.747040550427966,-0.26838973766751734,-1.8581201939286902,-2.600520695778379,-1.8484000532087455,0.25502699133521806,0.0,-0.1049121767282486,0.7394106388092041,0.20135296881198883,0.17450371384620667,0.6830370426177979,0.6829243898391724,0.19137129187583923
3.124894686453495,-0.2741138064771728,-1.8638705882193765,-2.5963205935458835,-1.8228376195151605,0.24951547999667972,0.0,-0.1102287769317627,0.7433995008468628,0.19657666981220245,0.18307845294475555,0.6830092072486877,0.6830105781555176,0.18296776711940765
3.582698617222377,-0.26845068981649645,-1.8515902972785414,-2.6087837178987923,-1.8227357216366267,0.2551629992887936,0.0,-0.10206012427806854,0.738627016544342,0.19954900443553925,0.18304455280303955,0.6830111145973206,0.6830114722251892,0.18299101293087006
3.8756267954555685,-0.26357509327426915,-1.8389187415275297,-2.619108405005591,-1.8251557655103687,0.26002495640433265,0.0,-0.09498696029186249,0.7345985174179077,0.20294708013534546,0.18301400542259216,0.6830125451087952,0.6830125451087952,0.18301226198673248
4.2048825545005855,-0.26634169613503716,-1.8227516255164673,-2.6087395982293478,-1.8516890548190652,0.25726374454144124,0.0,-0.09914781153202057,0.7369145154953003,0.2116432636976242,0.18301674723625183,0.6830120086669922,0.683012068271637,0.1830132007598877
4.403192590712791,-0.2690663021928901,-1.8068299249911073,-2.5985281890835426,-1.8778195709876098,0.2545444476465625,0.0,-0.10304874181747437,0.739168643951416,0.22047609090805054,0.18301953375339508,0.6830115914344788,0.6830115914344788,0.18301403522491455
4.700967224802363,-0.27175168670623473,-1.791137422255279,-2.5884637763217286,-1.903573930316901,0.2518642958691536,0.0,-0.10669393837451935,0.7413603067398071,0.22943802177906036,0.183022141456604,0.6830110549926758,0.6830111742019653,0.18301500380039215
4.9794845216227035,-0.26713438824934727,-1.7738298034584956,-2.596556422907384,-1.9128217657228237,0.25646298668933865,0.0,-0.1001586765050888,0.7375349402427673,0.23479968309402466,0.18300417065620422,0.683012843132019,0.6830127239227295,0.1830202341079712
5.227227010579186,-0.2618893326571144,-1.7562846107873098,-2.606189359460154,-1.9207699932378843,0.2616873638416886,0.0,-0.09265904128551483,0.7332594394683838,0.2396790236234665,0.18298445641994476,0.6830146908760071,0.6830146908760071,0.18302585184574127
5.472041523108891,-0.25512559463160894,-1.7498531664702932,-2.6203139558122537,-1.9131101963568273,0.2684466094588759,0.0,-0.08429844677448273,0.728226900100708,0.23878693580627441,0.18297114968299866,0.6830148696899414,0.6830153465270996,0.18303608894348145
5.670377394209317,-0.24825693613801114,-1.74418589219581,-2.6347484825786576,-1.9043761212010857,0.2753118887964759,0.0,-0.0758078545331955,0.7232595682144165,0.2375306487083435,0.1829582303762436,0.6830148696899414,0.6830160021781921,0.18304674327373505
5.868711421291045,-0.24138746110034306,-1.7385179441974539,-2.649184725317292,-1.8956410077410983,0.28217798427643304,0.0,-0.06724195182323456,0.7184168100357056,0.23630021512508392,0.1829453557729721,0.6830145716667175,0.683016836643219,0.1830572634935379
6.062764177123717,-0.23449738417589283,-1.7361800114230004,-2.663698074801991,-1.8834904775241132,0.2890751830564621,0.0,-0.05906403064727783,0.7138011455535889,0.23385922610759735,0.18293900787830353,0.6830133199691772,0.683016836643219,0.18306846916675568
6.261092131982259,-0.22753481355361863,-1.7421383022952388,-2.67844818348107,-1.862786357713871,0.2960710826357828,0.0,-0.05189234018325806,0.709525465965271,0.22850942611694336,0.18294885754585266,0.6830097436904907,0.6830143332481384,0.18308141827583313
6.4593451898793495,-0.22051687426914093,-1.7481439754652681,-2.693315589898186,-1.841917591901716,0.3031226159201862,0.0,-0.04452544450759888,0.7053095102310181,0.22338934242725372,0.18295884132385254,0.6830061674118042,0.6830117702484131,0.18309438228607178
6.66976507300836,-0.21425680451174703,-1.7571669034361963,-2.7071671100419095,-1.8190361343348769,0.30940744290887007,0.0,-0.0379457026720047,0.7016544342041016,0.21770530939102173,0.1829698085784912,0.6830036044120789,0.6830098032951355,0.18310032784938812
6.890872843346771,-0.21225959340019476,-1.7819806083374254,-2.715114571281194,-1.786207764799968,0.31138138391814196,0.0,-0.036286041140556335,0.700609028339386,0.207990363240242,0.18298552930355072,0.6830067038536072,0.6830108761787415,0.1830686777830124
7.089313544116195,-0.21022207876188512,-1.8072950513998092,-2.7232224115184014,-1.752716921947993,0.31339515886576136,0.0,-0.034309327602386475,0.6994906663894653,0.19833175837993622,0.18300165235996246,0.6830100417137146,0.6830118298530579,0.18303637206554413
7.3376683417003585,-0.2108702561377787,-1.825227419134509,-2.7250894874321046,-1.7328665937069987,0.3127293731876681,0.0,-0.034914374351501465,0.6998443007469177,0.1920987367630005,0.18301358819007874,0.6830126643180847,0.6830125451087952,0.18301236629486084
7.7302939083631195,-0.21887103324368073,-1.82208257050617,-2.709722853874896,-1.751378006375052,0.3047286134611396,0.0,-0.04318511486053467,0.7044325470924377,0.19507667422294617,0.1830137073993683,0.6830126047134399,0.6830125451087952,0.18301229178905487
7.928631250953213,-0.22682878999822634,-1.8189546317968508,-2.694438847038323,-1.7697898827772471,0.2967708739925183,0.0,-0.05131036043167114,0.7091337442398071,0.19827407598495483,0.1830136477947235,0.6830126047134399,0.6830125451087952,0.18301235139369965
8.221488557522651,-0.23474261423325102,-1.8158439615505726,-2.679239218871445,-1.7881001124284286,0.28885706694798724,0.0,-0.059285372495651245,0.7139423489570618,0.20168578624725342,0.1830136924982071,0.6830126047134399,0.6830125451087952,0.18301229178905487
8.510228139852883,-0.23551257250923857,-1.8067820080238968,-2.694054056975944,-1.7942218200173026,0.24449961240614065,0.0,-0.06499482691287994,0.7215035557746887,0.20410382747650146,0.16388478875160217,0.6868076920509338,0.6868454217910767,0.1722799390554428
8.708259393965603,-0.23467851506644102,-1.7956489941879135,-2.716974927655003,-1.7979709354021778,0.18830290537766667,0.0,-0.07125037908554077,0.7290069460868835,0.20571880042552948,0.13873237371444702,0.6915115714073181,0.6910621523857117,0.15810808539390564
8.910768510601764,-0.23377683819836845,-1.783613395040009,-2.741754058955683,-1.802024002307184,0.12755017038681832,0.0,-0.07870408892631531,0.7354738712310791,0.2065279185771942,0.11141758412122726,0.6962581276893616,0.6945987939834595,0.1426294893026352
9.126071389948791,-0.23281819678428628,-1.7708174321013819,-2.768098642376781,-1.8063331267028124,0.06295930658271044,0.0,-0.08727411180734634,0.7404212355613708,0.20630978047847748,0.0822819173336029,0.700912594795227,0.697190523147583,0.1260025054216385
9.347261426453649,-0.23183334265684033,-1.757671581390543,-2.7951635817138243,-1.8107600780992064,-0.003397704368746743,0.0,-0.09660710394382477,0.7433816194534302,0.20492614805698395,0.05229838192462921,0.7052668333053589,0.6985965967178345,0.10874875634908676
9.5649733119027,-0.23086397508329765,-1.7447324454813826,-2.821802932498969,-1.8151174169311437,-0.06871127000346205,0.0,-0.10614804923534393,0.7441511154174805,0.20242543518543243,0.02278769202530384,0.7091230154037476,0.6987369060516357,0.09160721302032471
9.775900976582832,-0.23030910307814872,-1.7347100458921136,-2.840954778664358,-1.8113519789139954,-0.11863719420791664,0.0,-0.11562342941761017,0.7438175082206726,0.20026680827140808,0.003271846566349268,0.7114231586456299,0.6986839771270752,0.07554475963115692
9.990999988966005,-0.23056659559236428,-1.7298668729487554,-2.846233597105565,-1.7903812610274976,-0.14098046343565057,0.0,-0.1254795789718628,0.7447195053100586,0.2008778154850006,0.002700761193409562,0.7112228870391846,0.7003469467163086,0.060570087283849716
10.189384959392564,-0.2308226997175296,-1.7250498141947883,-2.8514839523747675,-1.7695236163896655,-0.16320325867431726,0.0,-0.13531465828418732,0.7453775405883789,0.20198673009872437,0.0020956231746822596,0.7107038497924805,0.7020031213760376,0.045685816556215286
10.387615684174316,-0.23107689439886292,-1.7202686701420002,-2.85669516239991,-1.7488214807694162,-0.185260366697792,0.0,-0.14508850872516632,0.745790958404541,0.20358030498027802,0.0014583623269572854,0.7098733186721802,0.7036483883857727,0.030928637832403183
10.58591309165241,-0.23132925695265233,-1.7155219865494573,-2.8618688122315254,-1.7282685573698517,-0.20715849643369066,0.0,-0.15478429198265076,0.7459614276885986,0.2056460678577423,0.0007895251037552953,0.7087385654449463,0.7052823901176453,0.016300301998853683
10.88763667908709,-0.23157961466828214,-1.7108130119286098,-2.867001361153157,-1.7078789120973454,-0.22888266135009186,0.0,-0.1643768548965454,0.7458909153938293,0.20816859602928162,9.021731239045039e-05,0.7073079347610474,0.7069031596183777,0.0018168272217735648
11.181358191644787,-0.22439822126373726,-1.7285031286841832,-2.8622038673433416,-1.6924785640030415,-0.2243982567426322,0.0,-0.17349311709403992,0.7460675239562988,0.20499077439308167,-7.229185428059282e-08,0.7071067094802856,0.7071067094802856,5.0738169221631324e-08
11.37966170859897,-0.2161711519614425,-1.7493553214570419,-2.8559965136942953,-1.6778336053691474,-0.21617119391512074,0.0,-0.18246231973171234,0.7461587190628052,0.20076516270637512,-7.84415661314597e-08,0.7071067094802856,0.7071067094802856,4.9470795460138106e-08
11.577993202483295,-0.20796872079075515,-1.7701450668320529,-2.849807749604972,-1.6632325049312826,-0.20796876919982626,0.0,-0.1913364678621292,0.7461022138595581,0.1963396966457367,4.124450558862236e-09,-0.7071067094802856,-0.7071067094802856,3.444485230374994e-08
12.00420340227572,-0.19979064123665868,-1.790873091005403,-2.8436373588987514,-1.6486747526657182,-0.1997906960819577,0.0,-0.20010896027088165,0.7458999156951904,0.19171790778636932,-9.19455889203391e-09,-0.7071067094802856,-0.7071067094802856,4.6740673553813394e-08
12.334289717504177,-0.20653743663740626,-1.793032375116036,-2.8523492912683963,-1.637803671553549,-0.20653747477579,0.0,-0.19249171018600464,0.7459964752197266,0.19073621928691864,-3.764205303014023e-08,0.7071067690849304,0.7071067690849304,9.954502111497732e-09
12.532624117114935,-0.21538418696080291,-1.7925895041800637,-2.8631571653793855,-1.6274388395286643,-0.21538420512978007,0.0,-0.18258237838745117,0.7459990382194519,0.19035351276397705,-1.0499291391852239e-07,0.7071067094802856,0.7071067094802856,9.577397008797561e-08
12.731280565450598,-0.2244159924585933,-1.7915522448991008,-2.873814549936602,-1.6178188680052654,-0.2244159924585933,0.0,-0.17268022894859314,0.745885968208313,0.19018661975860596,-1.1161238688828234e-07,0.7071067094802856,0.7071067094802856,1.1285651879688885e-07
12.930202572624365,-0.23521226888045707,-1.7845832257855896,-2.882866905059416,-1.615735510390871,-0.23521226888045707,0.0,-0.1628396064043045,0.7460154294967651,0.19141177833080292,-1.0264706418183778e-07,0.7071067094802856,0.7071067094802856,9.806007028601016e-08
13.176246667836354,-0.24602499605108843,-1.7776035876791858,-2.8919330536434247,-1.6136489782752534,-0.24602499605108843,0.0,-0.1529933512210846,0.7459588050842285,0.1926010102033615,-1.0030951358430684e-07,0.7071067094802856,0.7071067094802856,9.69229674296912e-08
13.40451454165521,-0.2556999353533902,-1.7547904136655383,-2.8962349923230293,-1.6321601070563592,-0.2556999353533902,0.0,-0.14497898519039154,0.7459555864334106,0.19712163507938385,-6.416257747332565e-08,0.7071067094802856,0.7071067094802856,5.617383180833713e-08
13.602833462684778,-0.26428358381745437,-1.717396199173653,-2.896106651590399,-1.66968247746939,-0.26428358381745437,0.0,-0.13848336040973663,0.7460052371025085,0.20461365580558777,-1.762331081067714e-08,0.7071067094802856,0.7071067094802856,1.1385824727483396e-08
13.957007366563682,-0.27282936585671497,-1.680166947776083,-2.895978877027821,-1.707039319433341,-0.27282936585671497,0.0,-0.13176128268241882,0.7458876967430115,0.21190223097801208,-2.132761345308154e-08,-0.7071067094802856,-0.7071067094802856,1.830240314859566e-08
14.258014684671686,-0.2628329571260747,-1.6679693171692695,-2.8861332921711784,-1.7290826205936178,-0.2628329571260747,0.0,-0.13945372402668,0.745969295501709,0.21534305810928345,-5.7477009818285296e-08,-0.7071067094802856,-0.7071067094802856,7.622341513524589e-08
14.467665260670627,-0.25063562508997517,-1.6588270645126304,-2.875149312941334,-1.7492089703845584,-0.25063562508997517,0.0,-0.14884473383426666,0.7458898425102234,0.21852907538414001,-1.273175698202067e-08,-0.7071067094802856,-0.7071067094802856,2.422733125229115e-08
14.676108910199627,-0.23989687860991096,-1.6618544074070238,-2.8653938612483723,-1.7559369926298818,-0.23989687860991096,0.0,-0.15868189930915833,0.7460405826568604,0.2191821038722992,-2.022885858821155e-08,-0.7071067094802856,-0.7071067094802856,1.9534143191890507e-08
14.87446970349215,-0.22937585256960227,-1.6666501004165626,-2.8558221592463013,-1.760712885378219,-0.22937585256960227,0.0,-0.16859640181064606,0.7460708618164062,0.21944524347782135,-1.0510376569072832e-07,-0.7071067094802856,-0.7071067094802856,9.495916231117008e-08
15.310324827084008,-0.2188692920457702,-1.671439199755866,-2.846263617520851,-1.765482211679997,-0.2188692920457702,0.0,-0.17850948870182037,0.7459186315536499,0.21970440447330475,-1.0060994526384093e-07,-0.7071067094802856,-0.7071067094802856,1.0023666874303672e-07
15.576865495141243,-0.22496400257707386,-1.65688105791794,-2.84880298317412,-1.7775010060277243,-0.2249639704302903,0.0,-0.17319561541080475,0.7461293339729309,0.22262029349803925,-7.874727003809312e-08,-0.7071067094802856,-0.7071067094802856,3.295689410265368e-08
15.77517379909346,-0.23536085551663152,-1.6372891987581835,-2.854472370661116,-1.791423530569794,-0.2353607828378794,0.0,-0.1638970524072647,0.7463020086288452,0.22605866193771362,-9.793819799597259e-08,-0.7071067094802856,-0.7071067094802856,2.93872837175968e-08
15.973526508506035,-0.24579505728309947,-1.6176269593630936,-2.860162124404437,-1.8053960692807953,-0.24579494392677492,0.0,-0.15452958643436432,0.7462948560714722,0.22931596636772156,-1.458601417425598e-07,-0.7071067094802856,-0.7071067094802856,6.073345559798327e-08
16.17188188150117,-0.25626451613173645,-1.5978982814223925,-2.8658711037789786,-1.8194158210854736,-0.2562643619603904,0.0,-0.14510175585746765,0.7461059093475342,0.23238882422447205,5.642356626367473e-08,0.7071067094802856,0.7071067094802856,1.6163374638722416e-08
16.356186995139986,-0.26045258403352867,-1.5862542097775505,-2.8671265625448834,-1.829804468384351,-0.2604524107779003,0.0,-0.14145520329475403,0.7460143566131592,0.23450331389904022,-1.1821015277746483e-07,-0.7071067094802856,-0.7071067094802856,4.447044066324679e-09
16.789728879354726,-0.24997507989021925,-1.5935216389723996,-2.8579939205966327,-1.8316696714953615,-0.24997493831281914,0.0,-0.15136322379112244,0.746393084526062,0.234732985496521,-1.22561900184337e-07,-0.7071067094802856,-0.7071067094802856,8.14456324604862e-09
16.98801580014063,-0.2395170172645558,-1.6007755830995265,-2.848878224708929,-1.8335314136314393,-0.23951690730660347,0.0,-0.16127385199069977,0.7465904951095581,0.23491935431957245,-8.740937573747942e-08,-0.7071067094802856,-0.7071067094802856,4.208862147692116e-09
17.186364411733877,-0.22907184760963284,-1.6080205843762678,-2.8397737668874488,-1.8353908605635445,-0.22907176923214703,0.0,-0.17119023203849792,0.7466069459915161,0.23506273329257965,-1.268598452952574e-07,-0.7071067094802856,-0.7071067094802856,5.983942941156783e-08
17.384761265836488,-0.218640460045096,-1.6152560260895228,-2.830681322127006,-1.837247854010782,-0.2186404132064072,0.0,-0.18110820651054382,0.7464426755905151,0.2351631224155426,-4.620509841402054e-08,-0.7071067094802856,-0.7071067094802856,1.3678483234969008e-08
17.583029858194124,-0.20823278850479796,-1.6224750178425025,-2.8216095492703728,-1.8391006255363112,-0.20823277313320193,0.0,-0.19101549685001373,0.7460986375808716,0.23522081971168518,-7.005425572970125e-08,-0.7071067094802856,-0.7071067094802856,5.0120924299790204e-08
17.77985057922436,-0.1993618962871418,-1.6340308350096244,-2.8131754049072306,-1.83597908935481,-0.1993618962871418,0.0,-0.2007850706577301,0.7459293603897095,0.23404917120933533,-1.6364790411671493e-08,0.7071067094802856,0.7071067094802856,2.164573942309289e-08
17.978204033694993,-0.19196566157107112,-1.6497135945379215,-2.805357605561384,-1.8281144051589882,-0.19196566157107112,0.0,-0.21039777994155884,0.7459539175033569,0.2316087931394577,-1.3097992734856234e-07,0.7071067094802856,0.7071067094802856,1.3345535876396752e-07
18.279812959966478,-0.18611890865986544,-1.6657219806638224,-2.7999595281247376,-1.8175043087610292,-0.18611890865986544,0.0,-0.21798200905323029,0.7458778619766235,0.22848300635814667,-1.5567859179554944e-07,0.7071067094802856,0.7071067094802856,1.4681472748634405e-07
18.644326678400116,-0.1915392975053173,-1.684455936135199,-2.8122340574619495,-1.7864955724973663,-0.1915392975053173,0.0,-0.21082298457622528,0.7459263205528259,0.22162431478500366,-1.5363839622750675e-07,0.7071067690849304,0.7071067094802856,1.5508912554196286e-07
19.02379670922494,-0.1970334572888335,-1.7034448588253828,-2.824675641888625,-1.7550648105031548,-0.1970334572888335,0.0,-0.20338869094848633,0.7458668947219849,0.2150639146566391,-2.0085456853280448e-08,-0.7071067094802856,-0.7071067094802856,2.345652028168388e-08
19.394265484912378,-0.19991096502348002,-1.728266359915048,-2.7762005776797745,-1.7787266193157605,-0.13954501646961404,0.0,-0.20981533825397491,0.7531008720397949,0.2153288722038269,0.02133648842573166,0.7067852020263672,0.706784188747406,0.021342197433114052
19.61957153419089,-0.20318689384970864,-1.7570528895851842,-2.719060984126666,-1.8070893681259999,-0.07195320168606051,0.0,-0.21737909317016602,0.7594947814941406,0.21563628315925598,0.046358589082956314,0.7055859565734863,0.7055842280387878,0.04637106508016586
19.880005348858038,-0.20697357709023792,-1.7903275653297102,-2.6530126806513725,-1.8398741907739076,0.006176942714084489,0.0,-0.22613471746444702,0.7640681266784668,0.2158273309469223,0.07520727068185806,0.7030958533287048,0.7030938267707825,0.07522774487733841
20.16197570045805,-0.2110733995579714,-1.8263538856101686,-2.581502522197813,-1.8753701496262154,0.09076804819408842,0.0,-0.2358676940202713,0.7656493186950684,0.2158358097076416,0.10629788786172867,0.6990699172019958,0.6990682482719421,0.10632693022489548
20.429886644497312,-0.21496879955833012,-1.860583886820686,-2.513557953022444,-1.909096233917483,0.17114133140586643,0.0,-0.24559596180915833,0.7639650702476501,0.2156529426574707,0.13564550876617432,0.6939709782600403,0.6939702033996582,0.13568280637264252
20.664481980074484,-0.2183797937361475,-1.8905572746178325,-2.4540625148517425,-1.9386283685243269,0.24151993207901823,0.0,-0.2546776533126831,0.7600048780441284,0.21534015238285065,0.16114778816699982,0.6884939074516296,0.6884944438934326,0.16119208931922913
21.003420106366235,-0.22133285204042608,-1.9165066480636597,-2.402554512023926,-1.964195728302002,0.3024500012397766,0.0,-0.2630813717842102,0.754757285118103,0.21495483815670013,0.18305030465126038,0.6829948425292969,0.6829968690872192,0.1831008344888687
21.16252443525535,-0.24328425058228786,-1.9412914469809712,-2.354823213357192,-1.987049470741708,0.3399885682524193,0.0,-0.26493608951568604,0.75882887840271,0.21403788030147552,0.20331481099128723,0.6772493124008179,0.6772485971450806,0.20329976081848145
21.32162955887306,-0.2651277069950888,-1.9660122163682006,-2.3070916762718787,-2.0098099276778014,0.3775620266907628,0.0,-0.26688045263290405,0.7626407146453857,0.21298706531524658,0.22343042492866516,0.6709164381027222,0.6709056496620178,0.22323884069919586
21.48073468249077,-0.28699903032869717,-1.990784824672077,-2.259360139186566,-2.032605069133799,0.4152488882616829,0.0,-0.26878851652145386,0.766209602355957,0.21177303791046143,0.2433653473854065,0.6639737486839294,0.663953959941864,0.2430582493543625
21.63983980610848,-0.3089234664796835,-2.0156264638265484,-2.2116286021012526,-2.0554562088204267,0.4530595838719181,0.0,-0.27066510915756226,0.7695461511611938,0.2103925347328186,0.26309850811958313,0.6564167141914368,0.6563926339149475,0.2627641558647156
21.79894492972619,-0.33091857252434426,-2.0405496542711563,-2.1638970650159397,-2.0783793456185897,0.4910085259472555,0.0,-0.27252113819122314,0.7726600766181946,0.20884376764297485,0.28261062502861023,0.6482406258583069,0.6482203006744385,0.2823575437068939
21.9580500533439,-0.35297696233098985,-2.0655430467932345,-2.1161655279306264,-2.1013669453492767,0.5290741041531505,0.0,-0.27440205216407776,0.7755709290504456,0.20713239908218384,0.30187922716140747,0.6394502520561218,0.6394433975219727,0.30180197954177856
22.11715517696161,-0.3750631037680351,-2.090565518848768,-2.0684339908453135,-2.1243823764715124,0.5671887383780586,0.0,-0.2763916254043579,0.7783163189888,0.20527182519435883,0.32087942957878113,0.6300663948059082,0.6300796866416931,0.32101771235466003
22.27626030057932,-0.3971256247628136,-2.115559725344849,-2.0207024537600002,-2.147372870875587,0.6052587444197272,0.0,-0.2785870134830475,0.7809491753578186,0.2032809853553772,0.33958643674850464,0.6201233863830566,0.620156466960907,0.3399028182029724
22.43536542419703,-0.4191286449895359,-2.140484984347934,-1.9729709166746874,-2.1703019595183557,0.6432160948930546,0.0,-0.2810535728931427,0.7835230827331543,0.20117448270320892,0.3579798638820648,0.6096545457839966,0.6096998453140259,0.35838228464126587
22.59447054781474,-0.4410638399885666,-2.1653319127616815,-1.925239379589374,-2.193160814619533,0.6810382637617062,0.0,-0.2838103771209717,0.7860814332962036,0.19895800948143005,0.3760429620742798,0.5986815690994263,0.598727822303772,0.37642669677734375
22.75357567143245,-0.462945396112838,-2.190116269639604,-1.8775078425040612,-2.215965159206618,0.7187380384456741,0.0,-0.28684183955192566,0.7886570692062378,0.19662989675998688,0.39375942945480347,0.5872142314910889,0.5872506499290466,0.3940427303314209
22.91268079505016,-0.4847932786676452,-2.214857500625115,-1.8297763054187481,-2.2387355138411222,0.7563263162317256,0.0,-0.29012560844421387,0.7912837266921997,0.19418813288211823,0.4111115634441376,0.5752600431442261,0.5752776861190796,0.41124045848846436
23.07178591866787,-0.5067314505577087,-2.239680051803589,-1.782044768333435,-2.261601209640503,0.7938815355300903,0.0,-0.2935258746147156,0.7939816117286682,0.19160276651382446,0.42805469036102295,0.5627779364585876,0.562792181968689,0.4281531572341919
23.254748458048518,-0.5352948819757699,-2.25669547892548,-1.7271560065192413,-2.2994384079612016,0.8346674766231158,0.0,-0.2940952181816101,0.7986458539962769,0.2003786712884903,0.44732043147087097,0.5475997924804688,0.5476108193397522,0.4473936855792999
23.453874053439314,-0.5623771630989958,-2.2728285749111192,-1.675113489070941,-2.3353135668956586,0.8733385284522719,0.0,-0.2946833074092865,0.8031455874443054,0.2092406153678894,0.46509093046188354,0.5326005816459656,0.5326083898544312,0.46514004468917847
23.65320906602424,-0.5882254534584634,-2.2882265743461203,-1.6254422632269825,-2.369554091931588,0.9102475529040124,0.0,-0.2952805459499359,0.8075305223464966,0.21817100048065186,0.4815830886363983,0.5177478194236755,0.5177521109580994,0.48160937428474426
24.011699329114123,-0.6129572958500233,-2.302959498260072,-1.5779164535163837,-2.402315688803804,0.945562390476329,0.0,-0.29587605595588684,0.8118259906768799,0.22713010013103485,0.49691927433013916,0.5030593872070312,0.5030600428581238,0.4969235956668854
24.26027336040902,-0.6208366377143176,-2.3137557267123015,-1.564686347708458,-2.4047431691858083,0.9499595467479695,0.0,-0.2960395812988281,0.8166337013244629,0.22218118607997894,0.5,0.5000000596046448,0.4999999403953552,0.49999988079071045
24.54061141374855,-0.624402947301637,-2.323589584406176,-1.560247621511723,-2.3993480376886684,0.9463932933000974,0.0,-0.29601430892944336,0.8215525150299072,0.21351179480552673,0.4999999701976776,0.5,0.4999999701976776,0.4999999701976776
24.908566789722897,-0.6631800914929874,-2.360327373063537,-1.4951460892643087,-2.4277465764349517,0.9989541094141454,0.0,-0.29437991976737976,0.8286160826683044,0.2068839818239212,0.5222930908203125,0.47665005922317505,0.4766541123390198,0.5223172307014465
25.211730624410006,-0.7073207308832526,-2.4007217407071035,-1.4206981523150684,-2.4618404599780486,1.060639113169515,0.0,-0.2929908335208893,0.836316704750061,0.2007194310426712,0.5467573404312134,0.448356568813324,0.4483659267425537,0.5468094944953918
25.492214741591045,-0.7481593547996825,-2.4380943390954597,-1.3518194196908508,-2.4933838926763556,1.1177096654869934,0.0,-0.29209497570991516,0.8441486954689026,0.19464439153671265,0.5680298805236816,0.4210599362850189,0.4210745096206665,0.5681079626083374
25.90390371774002,-0.7889644678843181,-2.4701783708327643,-1.2889908398158438,-2.5241456407040674,1.175289085694049,0.0,-0.28938791155815125,0.8503079414367676,0.19134292006492615,0.5880417823791504,0.39261582493782043,0.3926334083080292,0.5881315469741821
26.447356443059935,-0.8421300363813603,-2.496057097218139,-1.2252828333969918,-2.5619365530913054,1.2519931214913738,0.0,-0.2811153829097748,0.8523204326629639,0.19645433127880096,0.6122928261756897,0.35363003611564636,0.35364317893981934,0.6123558282852173
26.851043326289552,-0.8998176508852681,-2.524136962322086,-1.1561560842810168,-2.6029418060618856,1.3352212891393167,0.0,-0.2745363712310791,0.8569189310073853,0.20225143432617188,0.6356838941574097,0.3096480667591095,0.3096555769443512,0.6357179880142212
27.22380017431413,-0.9530845377153208,-2.550065006141505,-1.0923266686645907,-2.6408047370949173,1.4120715008407438,0.0,-0.2701953053474426,0.8638926148414612,0.20781411230564117,0.6544835567474365,0.2676672339439392,0.26766905188560486,0.6544912457466125
27.538863942436965,-0.9981075687209909,-2.571980293297718,-1.0383758198466193,-2.6728078072819277,1.4770279807503894,0.0,-0.26742565631866455,0.8721277713775635,0.21265621483325958,0.668217122554779,0.23129336535930634,0.23128975927829742,0.6682023406028748
27.96244102680988,-1.0362474742725052,-2.5905451691757326,-0.9926729821571202,-2.6999182449185533,1.5320539075566206,0.0,-0.26544618606567383,0.880933403968811,0.21684812009334564,0.6782718300819397,0.19992899894714355,0.19992049038410187,0.6782384514808655
28.388733054401385,-1.0741254587159121,-2.6018069699872353,-0.9770933912953225,-2.7042462301081356,1.5879399152158262,0.0,-0.2593654990196228,0.8823709487915039,0.21140156686306,0.6868926286697388,0.16792231798171997,0.16791537404060364,0.6868661642074585
28.670616454517955,-1.113785840869956,-2.61230403336612,-0.9661591307918572,-2.7047008736335334,1.6466790749663007,0.0,-0.25320982933044434,0.8844901323318481,0.20391270518302917,0.694313645362854,0.13393689692020416,0.1339329481124878,0.6942992210388184
29.065738330890046,-1.1519130220845406,-2.6223952986523007,-0.9556475696565192,-2.7051379414361967,1.7031474816372245,0.0,-0.2479931116104126,0.8888475298881531,0.1966681331396103,0.6998639106750488,0.10095863044261932,0.10095777362585068,0.6998609900474548
29.282449494702238,-1.1652622255355733,-2.6218409821340085,-0.951595379443239,-2.7097620527497757,1.7145087316166499,0.0,-0.2420501410961151,0.891653299331665,0.20013704895973206,0.7010518908500671,0.09230250865221024,0.0923050120472908,0.7010607719421387
29.571811477534084,-1.1699592280780198,-2.6174462384188133,-0.94978753220884,-2.71598289237559,1.7098657742037215,0.0,-0.23560938239097595,0.8933645486831665,0.20754066109657288,0.7010481357574463,0.09228187799453735,0.09228778630495071,0.7010694742202759
29.773485285120735,-1.1749456206976954,-2.618719220533577,-0.9501642818146541,-2.714326727436356,1.704881314461529,0.0,-0.22876158356666565,0.895216166973114,0.20549243688583374,0.7010504007339478,0.09228186309337616,0.09228646755218506,0.7010673880577087
30.019918739825002,-1.1800764587762373,-2.622821177525692,-0.9516314457706885,-2.7087388536086086,1.6997263980778137,0.0,-0.22169926762580872,0.8971041440963745,0.19872769713401794,0.7010557651519775,0.09229206293821335,0.0922931507229805,0.7010598182678223
30.158845772418633,-1.1835154606083493,-2.622493960155963,-0.951262042748563,-2.7094251908729965,1.696274163770243,0.0,-0.2169719636440277,0.8983743190765381,0.19942820072174072,0.701058566570282,0.09229759871959686,0.09229689836502075,0.7010558247566223
30.438698776232314,-1.1849005010931077,-2.6167909109295526,-0.9486635735524602,-2.717726707786779,1.6948890568112067,0.0,-0.21508044004440308,0.898908257484436,0.20919319987297058,0.701058566570282,0.09229760617017746,0.09229688346385956,0.7010558843612671
30.746179018241527,-1.186284253144777,-2.6110931669613016,-0.9460675215807854,-2.726020502219378,1.6935052383470974,0.0,-0.21316373348236084,0.8993744254112244,0.2189558893442154,0.701058566570282,0.09229758381843567,0.09229689836502075,0.7010558247566223
30.997758526593902,-1.1919951581480013,-2.6118485928360684,-0.9456996863594619,-2.725632950334915,1.6877943751007138,0.0,-0.20534178614616394,0.9015085101127625,0.21813568472862244,0.701058566570282,0.09229764342308044,0.09229694306850433,0.7010557651519775
31.19696212956355,-1.1986534663908965,-2.61401690013284,-0.9458197053442657,-2.7233446716405667,1.681136132297651,0.0,-0.19621145725250244,0.9039562940597534,0.21499711275100708,0.7010586261749268,0.09229759126901627,0.09229689836502075,0.7010558247566223
31.396058127522924,-1.2053397220364708,-2.616145104033292,-0.9458081623381294,-2.7212326760266174,1.674444022051604,0.0,-0.18703097105026245,0.9063774943351746,0.21200470626354218,0.701056718826294,0.09229923784732819,0.09229933470487595,0.7010571360588074
31.595242973655917,-1.2121861900426563,-2.618043409654224,-0.9450424219785711,-2.720131247611748,1.6675577619931143,0.0,-0.177657812833786,0.9089640378952026,0.20985059440135956,0.7010441422462463,0.09231071174144745,0.09231577068567276,0.7010660171508789
31.794445477664926,-1.219030705616564,-2.6199411739284115,-0.944276899987987,-2.719030133295241,1.6606734657145472,0.0,-0.16826561093330383,0.9114835858345032,0.20769594609737396,0.7010315656661987,0.09232226014137268,0.09233205020427704,0.7010749578475952
32.10561255784398,-1.2258729392594516,-2.621838305496439,-0.9435116332190263,-2.717929386085345,1.65379146462971,0.0,-0.15885531902313232,0.9139358997344971,0.20554086565971375,0.7010189294815063,0.09233406186103821,0.09234818071126938,0.7010838985443115
32.33996898811336,-1.2273689540474861,-2.617794942706282,-0.941252441451328,-2.724204868021417,1.6523231331012154,0.0,-0.1568261981010437,0.9144963622093201,0.21274124085903168,0.7010295391082764,0.09232643246650696,0.09233640879392624,0.7010758519172668
32.63491442349908,-1.2272915024872673,-2.6120032100460606,-0.9385535668393341,-2.7326512764858055,1.6524481195978025,0.0,-0.15695136785507202,0.9144508838653564,0.22270146012306213,0.7010470628738403,0.09231308102607727,0.09231644868850708,0.701062798500061
32.85557663683132,-1.2436821345790796,-2.6087093718842826,-0.9376381540450403,-2.7368398169540984,1.6725851235015823,0.0,-0.15166795253753662,0.914341390132904,0.22795610129833221,0.7026232481002808,0.07949598133563995,0.07949627935886383,0.7026246190071106
33.070266195499144,-1.2747015720960828,-2.6075279187600735,-0.9382574266890868,-2.7374013393612024,1.7105030918212298,0.0,-0.14181144535541534,0.914955198764801,0.22920916974544525,0.7049456834793091,0.05523505434393883,0.05523526296019554,0.7049466371536255
33.26929854687377,-1.3059210198314017,-2.6063388477447544,-0.9388806923409585,-2.7379664824084027,1.7486655513930975,0.0,-0.13207244873046875,0.9165666103363037,0.23047012090682983,0.7064375877380371,0.030751526355743408,0.03075162135064602,0.7064380049705505
33.54343523719209,-1.336663643532293,-2.605167937769424,-0.9394944386686844,-2.738522993855516,1.7862451442182177,0.0,-0.12254108488559723,0.9191427230834961,0.2317110002040863,0.7070758938789368,0.006605669390410185,0.00660568056628108,0.7070759534835815
33.75771411949195,-1.3458342560052658,-2.6088784159552234,-0.9417930443382637,-2.7325137413196874,1.7957583865271345,0.0,-0.11884400248527527,0.9201076030731201,0.22493594884872437,0.7071068286895752,2.9969093873205566e-08,-8.738835433064196e-09,0.7071066498756409
34.01893301701781,-1.346891306145906,-2.6144585486569,-0.9447429069925108,-2.7239837593572807,1.7947013650841688,0.0,-0.1173279881477356,0.9201686382293701,0.21509326994419098,0.7071067094802856,1.528680826368145e-08,6.20879703205901e-09,0.7071067094802856
34.21815191230413,-1.347949175904279,-2.6200430080934565,-0.9476950569173874,-2.715447163399749,1.793643524045722,0.0,-0.11579494923353195,0.9201581478118896,0.20525100827217102,0.7071067094802856,1.444997543842419e-08,1.4167216733085297e-08,0.7071067094802856
34.529396088795174,-1.3490074960962348,-2.625629845353988,-0.950648463847163,-2.706906932619051,1.792585232585921,0.0,-0.11424564570188522,0.9200761914253235,0.19541309773921967,0.7071067094802856,-4.2945828226947924e-08,-3.247689051022462e-08,0.7071068286895752
34.65573480134511,-1.351790860043827,-2.624980797082977,-0.9514789438210361,-2.7067255058852866,1.7898018573681975,0.0,-0.11021962761878967,0.9200646877288818,0.19577990472316742,0.7071067094802856,-2.5544943937916287e-08,-3.2905422386875216e-08,0.7071067094802856
34.90094236667441,-1.3558710688870685,-2.619643765510086,-0.9507134602272592,-2.7128280196756864,1.785721607182103,0.0,-0.10433337837457657,0.92009037733078,0.20381255447864532,0.7071068286895752,-2.493683659565704e-08,-4.615160520415884e-08,0.7071066498756409
35.10019514347599,-1.3599512777303102,-2.6143067339371955,-0.9499479766334822,-2.7189305334660867,1.7816413569960086,0.0,-0.09843910485506058,0.9200468063354492,0.21184435486793518,0.7071068286895752,2.4693484590443404e-08,-4.8765644855564005e-09,0.7071066498756409
35.2971165963559,-1.3651330369541195,-2.6099412671065028,-0.9495348423586746,-2.723709091339917,1.7764596147088159,0.0,-0.0909799188375473,0.9200679659843445,0.21827127039432526,0.7071067690849304,1.5848740986257326e-08,5.650518719590991e-09,0.7071067690849304
35.49631541232751,-1.370815692209405,-2.606017589350803,-0.9492819280598923,-2.727885621130276,1.7707770028909366,0.0,-0.08280954509973526,0.9200809001922607,0.22396734356880188,0.7071067094802856,1.334654342599606e-08,6.81076040009998e-09,0.7071067094802856
35.86291890507569,-1.3764983474646906,-2.6020939115951034,-0.9490290137611099,-2.732062150920636,1.7650943910730574,0.0,-0.07463746517896652,0.9200241565704346,0.2296617329120636,0.7071068286895752,-2.2974798952191122e-08,-4.933768593673449e-08,0.7071066498756409
36.19966867656617,-1.3777093365862236,-2.607234623160946,-0.9516478773757299,-2.7243026504144745,1.7638834044263496,0.0,-0.07291638106107712,0.9201085567474365,0.22067604959011078,0.7071067094802856,-3.393562053588539e-08,-3.094841005690796e-08,0.7071067094802856
36.398838453899906,-1.3786503006792126,-2.612923812325792,-0.9544406552198538,-2.7158207663653804,1.7629424403333607,0.0,-0.07157157361507416,0.9201340079307556,0.21080881357192993,0.7071067094802856,-2.90816259962412e-08,-3.871789289178196e-08,0.7071067094802856
36.60384282220538,-1.3795920706788936,-2.618617874105497,-0.9572358249919712,-2.707331617844486,1.7620006703336797,0.0,-0.07021192461252213,0.920087456703186,0.20094089210033417,0.7071067094802856,-2.6269804109801953e-08,-3.6027696381779606e-08,0.7071067094802856
36.783459503487556,-1.3821467288360816,-2.62088660196564,-0.9588501719663659,-2.7034485789798435,1.759445996563058,0.0,-0.06654171645641327,0.9200455546379089,0.19668082892894745,0.7071067690849304,-3.004543813744931e-08,-3.169441242789617e-08,0.7071067094802856
37.10157593152665,-1.3876716038953525,-2.616847400378965,-0.9582899727294586,-2.7080479291079964,1.753921077137408,0.0,-0.05863460153341293,0.9200735092163086,0.20273570716381073,0.7071067094802856,1.3893745709481209e-08,9.093705344298542e-09,0.7071067094802856
37.30080156958841,-1.3931964789546234,-2.6128081987922895,-0.9577297734925512,-2.7126472792361493,1.7483961577117584,0.0,-0.05072460696101189,0.9200318455696106,0.20879024267196655,0.7071067094802856,1.2034004015504252e-08,1.0452730236920615e-08,0.7071067690849304
37.49855726397775,-1.3973543158309056,-2.607954048397038,-0.9561040969024238,-2.7191271213380444,1.7442383772513652,0.0,-0.04478937014937401,0.9200633764266968,0.21669848263263702,0.7071067094802856,-2.82857826050531e-08,-3.654073665870783e-08,0.7071067094802856
37.757989719040616,-1.4012592526668606,-2.6029491336785076,-0.9542813085790982,-2.725954851671528,1.7403335154758695,0.0,-0.03921237215399742,0.9200506210327148,0.22495214641094208,0.7071067094802856,-7.402744017781515e-08,-8.044960964070924e-08,0.7071067094802856
37.90771428856544,-1.4052894312056343,-2.6028351940955274,-0.9547002808680807,-2.725649821513543,1.7363033611507757,0.0,-0.03346475213766098,0.9200589060783386,0.224833145737648,0.7071067094802856,-2.6540885045278628e-08,-3.0067219825014035e-08,0.7071067094802856
38.15296866875562,-1.4094377985089104,-2.6073367962647773,-0.9572347698828395,-2.718613709527369,1.7321549700778172,0.0,-0.027555497363209724,0.9200820922851562,0.2168152928352356,0.7071068286895752,-2.1808814310020352e-08,-3.954438554387707e-08,0.7071066498756409
38.3521639643279,-1.4135861658121864,-2.6118383984340268,-0.9597692588975983,-2.711577597541195,1.7280065790048589,0.0,-0.021639129146933556,0.9200334548950195,0.20880335569381714,0.7071067094802856,-2.7198661101124344e-08,-3.042259422159077e-08,0.7071067094802856
38.549912189510195,-1.4190872227987317,-2.6153322701306547,-0.9614792952516727,-2.70637370741014,1.7225054969646896,0.0,-0.0138145312666893,0.9200594425201416,0.20275886356830597,0.7071067094802856,1.2218831280108589e-08,1.5008382092673855e-08,0.7071067094802856
38.8611141079707,-1.424846041648249,-2.6186341136871936,-0.9630322279800017,-2.7015189564235578,1.7167466528168869,0.0,-0.005624006502330303,0.9200422763824463,0.1970912516117096,0.7071066498756409,-3.891846134251864e-08,-2.391572095916672e-08,0.7071068286895752
39.149924879351275,-1.4464730720355845,-2.615552669742682,-0.9718913391666475,-2.6957296574947125,1.7399709800804655,0.0,0.0030496716499328613,0.9172261357307434,0.19558092951774597,0.7069329619407654,-0.015855437144637108,-0.01585662178695202,0.7069249153137207
39.3602630751029,-1.4784901702955653,-2.6085663523127542,-0.9854806164021648,-2.689107641427452,1.7813767717009819,0.0,0.012267280369997025,0.9135700464248657,0.19643476605415344,0.7058814167976379,-0.04179023206233978,-0.04179350659251213,0.7058599591255188
39.58026120163148,-1.5119771316581407,-2.6012593021877564,-0.9996937595807234,-2.682181617264173,1.824683449055818,0.0,0.021827027201652527,0.9109616875648499,0.19731993973255157,0.7037638425827026,-0.06885480880737305,-0.06886039674282074,0.7037283182144165
39.804148274166344,-1.5460564925650946,-2.5938229870297818,-1.0141583397126683,-2.675133068590107,1.8687562411875605,0.0,0.03163599222898483,0.9095693230628967,0.19821247458457947,0.7005436420440674,-0.09629368036985397,-0.09630174934864044,0.700494110584259
40.02492789438599,-1.5796640282497962,-2.5864896268850113,-1.0284226592307426,-2.6681821063424356,1.9122188500767352,0.0,0.04155158996582031,0.9094133377075195,0.19908460974693298,0.6963205933570862,-0.12320873886346817,-0.12321936339139938,0.6962572932243347
40.23656474810804,-1.6118792925440555,-2.57946006847153,-1.0420960456867958,-2.6615191040917203,1.9538809179361214,0.0,0.051429376006126404,0.9103584289550781,0.1999129205942154,0.6913020014762878,-0.14883756637573242,-0.14885079860687256,0.6912252902984619
40.608086788347485,-1.6422243118286133,-2.5728386084186,-1.0549756288528442,-2.655242919921875,1.9931243101703089,0.0,0.06119048595428467,0.9121819734573364,0.2006865292787552,0.6857119798660278,-0.17279331386089325,-0.17280913889408112,0.6856227517127991
40.77430217597045,-1.6181968367980177,-2.5620427090753783,-1.0787438665353575,-2.6053783036349865,1.95000250808546,0.0,0.05854140222072601,0.9007134437561035,0.18313784897327423,0.703871488571167,-0.14750008285045624,-0.15182286500930786,0.678054928779602
40.94052153723639,-1.5990565226593794,-2.549880418959226,-1.101769114378576,-2.5555124952552024,1.9049608300598553,0.0,0.062108226120471954,0.890836238861084,0.16660210490226746,0.7215842604637146,-0.12325018644332886,-0.13143838942050934,0.6684679985046387
41.10674089850234,-1.5850906742472857,-2.53624547861501,-1.1239966640606027,-2.5056466868754184,1.8578986017568424,0.0,0.07195490598678589,0.8828742504119873,0.15123890340328217,0.7389525771141052,-0.1003383994102478,-0.11161037534475327,0.6568290591239929
41.27296025976828,-1.575570207430859,-2.5210040002408243,-1.145399390496014,-2.4557808784956343,1.809252210668975,0.0,0.08701637387275696,0.8771741390228271,0.13727901875972748,0.7560843229293823,-0.07887651771306992,-0.09213369339704514,0.6431378126144409
41.43917962103423,-1.568508132883163,-2.5044910648727425,-1.1661898742579182,-2.4059150701158503,1.7598998796611536,0.0,0.10495491325855255,0.8739447593688965,0.12456122785806656,0.7728486657142639,-0.05863506346940994,-0.07256824523210526,0.6276947855949402
41.6053682084517,-1.5634423695345108,-2.486620262059646,-1.1863424901679287,-2.3560584938906075,1.710131250070722,0.0,0.12509721517562866,0.8733071088790894,0.1133764460682869,0.7892558574676514,-0.03968529403209686,-0.05281960964202881,0.6105000376701355
41.771587569717646,-1.560015559147645,-2.467571571730687,-1.2058037242031878,-2.3063510339544666,1.660265441690938,0.0,0.1468709111213684,0.8752717971801758,0.10387559980154037,0.8051855564117432,-0.022138811647892,-0.032848816365003586,0.5916984677314758
41.93780693098359,-1.5581008011873327,-2.4477970141873815,-1.2245423321090116,-2.2568883712719634,1.6103996333111539,0.0,0.1700373739004135,0.8797062635421753,0.09596376121044159,0.820446789264679,-0.006109470967203379,-0.012619434855878353,0.5715508460998535
42.104026292249536,-1.5577503413603382,-2.427581447149943,-1.2425029435892845,-2.207713087800812,1.5605338249313698,0.0,0.19458657503128052,0.886443018913269,0.08968067169189453,0.8349303007125854,0.008269998244941235,0.007873770780861378,0.5502371191978455
42.27024565351548,-1.5589957124904696,-2.4071410908838278,-1.2596469339287328,-2.1588560248810102,1.5106680165515858,0.0,0.2205149382352829,0.895270824432373,0.08511854708194733,0.8485495448112488,0.020888302475214005,0.028637276962399483,0.5279273390769958
42.436465014781426,-1.5618237169867897,-2.386640541253145,-1.2759568642605426,-2.11032705883408,1.4608022081718017,0.0,0.2478005737066269,0.90594482421875,0.08239679038524628,0.8612338900566101,0.03166558966040611,0.04968558996915817,0.5047817826271057
42.60268437604737,-1.5660846072584653,-2.3661961099643825,-1.291455475128909,-2.0620785584938135,1.4109363997920177,0.0,0.2763144373893738,0.9182214736938477,0.08163498342037201,0.8729274868965149,0.040593221783638,0.07106272876262665,0.4809364974498749
42.768903737313316,-1.5714655394792059,-2.345882805842298,-1.3062089108881816,-2.0139940922022497,1.3610705914122336,0.0,0.30578193068504333,0.9318935871124268,0.08294184505939484,0.8835815787315369,0.047746315598487854,0.09284158051013947,0.45649129152297974
42.93512309857926,-1.5776869204988808,-2.3257640519896507,-1.320263217408226,-1.9659601768552133,1.3112047830324496,0.0,0.33595162630081177,0.946770429611206,0.08643136918544769,0.8931480050086975,0.053198061883449554,0.11507159471511841,0.43152645230293274
43.101342459845206,-1.5845466231872074,-2.305946787243711,-1.3335610400115603,-1.917848419043112,1.2613389746526655,0.0,0.3666342496871948,0.9627255797386169,0.09219631552696228,0.9015902280807495,0.056992944329977036,0.13777285814285278,0.406085342168808
43.26756182111115,-1.5917111357837537,-2.2864471725281024,-1.346243362914715,-1.869568100936006,1.2114731662728815,0.0,0.39749810099601746,0.9795335531234741,0.10033871233463287,0.9088341593742371,0.0592525452375412,0.1609732061624527,0.3802593946456909
43.433781182377096,-1.599032427556056,-2.2672995605537327,-1.3583321477675663,-1.8210617058815388,1.1616073578930974,0.0,0.42837005853652954,0.9969863891601562,0.11097070574760437,0.9148253798484802,0.060020606964826584,0.18464867770671844,0.3541144132614136
43.60000054364304,-1.6064454672395991,-2.248518869809562,-1.369835251249915,-1.7723146847832796,1.1117415495133134,0.0,0.4591453969478607,1.0148342847824097,0.12421353161334991,0.919512152671814,0.05930998921394348,0.2087501436471939,0.3277241587638855
43.766219904908986,-1.6139297849116272,-2.230110616266821,-1.3807517614414326,-1.7233341487873772,1.0618757411335293,0.0,0.4897533655166626,1.0327969789505005,0.1401766985654831,0.9228468537330627,0.05711899325251579,0.2332143932580948,0.30116772651672363
43.93243926617493,-1.6214924917895304,-2.212131470118808,-1.3909908360430958,-1.674106259444592,1.0120099327537453,0.0,0.5201468467712402,1.0506433248519897,0.1589306741952896,0.9247942566871643,0.05343026667833328,0.2579728662967682,0.27450063824653625
44.09865848491931,-1.6291348062070434,-2.194619713577237,-1.4004892734223988,-1.6246356556699721,0.962144167130432,0.0,0.5502651333808899,1.0681078433990479,0.18052811920642853,0.9253160357475281,0.04823554679751396,0.28295373916625977,0.24779143929481506
44.26487779002468,-1.6368431679970674,-2.1775139312481975,-1.4093423182555231,-1.574972205841197,0.9122783755988217,0.0,0.5800160765647888,1.0847939252853394,0.20500428974628448,0.9243654608726501,0.04155375808477402,0.30807796120643616,0.22115552425384521
44.43090700999404,-1.6446021939976152,-2.1608498314317677,-1.4175209384878447,-1.525174434265394,0.8624696096080128,0.0,0.6092771291732788,1.1003865003585815,0.2322993129491806,0.9219157695770264,0.03340508043766022,0.33323758840560913,0.19469986855983734
44.59712637125998,-1.6523840797794969,-2.1446752483078924,-1.4249960680396234,-1.4753086258856098,0.8127920446451647,0.0,0.6379007697105408,1.1145886182785034,0.26228564977645874,0.9179534912109375,0.023828400298953056,0.3583141565322876,0.1685362607240677
44.76334573252593,-1.6601194052976826,-2.129166459202552,-1.4316136838137823,-1.4254428175058258,0.7633877635405959,0.0,0.6656742691993713,1.1272399425506592,0.2946999669075012,0.9124913811683655,0.012889993377029896,0.38315925002098083,0.14276665449142456
44.92956509379187,-1.6677193862225481,-2.114427130701179,-1.4373367057206916,-1.3755770091260417,0.7143219900644898,0.0,0.6923888921737671,1.1381863355636597,0.32926464080810547,0.9055463075637817,0.0006792187923565507,0.4076598584651947,0.11746860295534134
45.09578445505782,-1.6751459371193127,-2.100395926844328,-1.442293512816521,-1.3257112007462577,0.6655814124862509,0.0,0.7179087996482849,1.1471614837646484,0.36576569080352783,0.8971322774887085,-0.01272549293935299,0.43173402547836304,0.09272192418575287
45.26200381632376,-1.6823569413425739,-2.0871117066184186,-1.4464802743669578,-1.2758453923664737,0.6171928892089754,0.0,0.7420883178710938,1.154029369354248,0.40392205119132996,0.8872823119163513,-0.027248648926615715,0.45528414845466614,0.06858465075492859
45.42822317758971,-1.6893139409651756,-2.0746093288325724,-1.449896467909537,-1.2259795839866896,0.56918027634234,0.0,0.764792799949646,1.1586875915527344,0.4434307813644409,0.8760378956794739,-0.04281257092952728,0.4782152473926544,0.04510900750756264
45.59444253885565,-1.6958505220822129,-2.063263660740188,-1.4522743928346162,-1.1761137756069056,0.5217268728909956,0.0,0.7857353687286377,1.1613985300064087,0.4836983382701874,0.8634946942329407,-0.059265054762363434,0.5003656148910522,0.022335216403007507
45.7606619001216,-1.7020277997841569,-2.0529331530638,-1.453926750522628,-1.1262479672271215,0.4747239936466937,0.0,0.8049360513687134,1.1618844270706177,0.5243973135948181,0.8496896028518677,-0.07652544975280762,0.5217003226280212,0.000381764693884179
45.92688126138754,-1.7078478440078906,-2.0436426387618676,-1.4549465580039702,-1.0763821588473375,0.42815612910188805,0.0,0.82234787940979,1.1601096391677856,0.565123438835144,-0.8346914649009705,0.09449952840805054,-0.5421553254127502,0.020677627995610237
46.09310060180954,-1.713293377991266,-2.035468857694766,-1.4553786219919669,-1.0265163567207378,0.38203341784071354,0.0,0.8379151821136475,1.1561414003372192,0.6054321527481079,-0.8185859322547913,0.11308080703020096,-0.5616641640663147,0.040780264884233475
46.259319810153315,-1.718241358215814,-2.0288240836880207,-1.4551553862123698,-0.976650594217604,0.3364841664112311,0.0,0.8514863848686218,1.1503783464431763,0.6445054411888123,-0.8015255331993103,0.13205213844776154,-0.5801209807395935,0.0598205141723156
46.425539146503226,-1.7226605101538812,-2.0238534143941163,-1.454379197301128,-0.9267847933126301,0.2915232947443894,0.0,0.8630445003509521,1.1430413722991943,0.6817774772644043,-0.7836400866508484,0.15125708281993866,-0.5974857211112976,0.07771845906972885
46.59175850776917,-1.7265874927630491,-2.0203971012091215,-1.4531876010293743,-0.876918984932846,0.2470836110330892,0.0,0.8726551532745361,1.1341761350631714,0.7170935869216919,-0.7650148272514343,0.1706468164920807,-0.6137625575065613,0.09448492527008057
46.75797782705217,-1.7299578917930558,-2.018474873228229,-1.451620524305007,-0.8270531891479457,0.203187116119075,0.0,0.8802857398986816,1.1240510940551758,0.7501420378684998,-0.7457743883132935,0.19011147320270538,-0.6289257407188416,0.11013913154602051
46.92419703178814,-1.7326887929401218,-2.0180512095317478,-1.449725162955796,-0.7771874277271547,0.15985356787611682,0.0,0.8858957290649414,1.1129385232925415,0.7807008624076843,-0.7260417938232422,0.20955413579940796,-0.6429558396339417,0.12473184615373611
47.09041655130218,-1.7343687229985458,-2.0194469576727547,-1.4475067779512731,-0.727321571872944,0.11730267848447945,0.0,0.8891299962997437,1.1016675233840942,0.8080859184265137,-0.7060826420783997,0.22865718603134155,-0.6557640433311462,0.13833506405353546
47.25663619069626,-1.7351286279646,-2.022027637754308,-1.44514315513663,-0.6774556800547177,0.07534694557773261,0.0,0.8901786804199219,1.0899289846420288,0.8328549265861511,-0.6858848333358765,0.247577503323555,-0.6674097776412964,0.15110091865062714
47.4228557114632,-1.7348655177410672,-2.025686705350237,-1.4426985979222728,-0.627589823824636,0.03400008042476423,0.0,0.8890155553817749,1.0779497623443604,0.8549410700798035,-0.6655641794204712,0.2662573456764221,-0.6778819561004639,0.16311770677566528
47.589075072729145,-1.7334898982646416,-2.0303172811390584,-1.4402321730150984,-0.577724015444852,-0.006727736442804992,0.0,0.885640025138855,1.0659313201904297,0.8743067979812622,-0.6452310681343079,0.28465408086776733,-0.687174379825592,0.17447151243686676
47.75529444244755,-1.7309391121123032,-2.035815609095378,-1.437791874204701,-0.5278582045293296,-0.046833092612332726,0.0,0.880088210105896,1.0540354251861572,0.8909448981285095,-0.6249865889549255,0.30274420976638794,-0.6952866911888123,0.18524041771888733
47.921514047304505,-1.727076538152908,-2.04231247369516,-1.435340374259734,-0.47799232307224193,-0.08621155279252789,0.0,0.8723589181900024,1.0426663160324097,0.904625415802002,-0.6049984097480774,0.3204288184642792,-0.7021995782852173,0.19549453258514404
48.0877336526197,-1.722317286798874,-2.0495907034218517,-1.432810660019202,-0.42812644147768397,-0.1250398891141274,0.0,0.8629645705223083,1.031412124633789,0.9156701564788818,-0.5851852893829346,0.33793023228645325,-0.7079969644546509,0.2051866501569748
48.25395296960616,-1.7168519117177645,-2.05757462080489,-1.4301558632877367,-0.37826064638174506,-0.16338675481042353,0.0,0.8521822690963745,1.0201667547225952,0.924178421497345,-0.5655454397201538,0.35533347725868225,-0.71272212266922,0.2142975926399231
48.420172146999064,-1.7108290270121531,-2.0662193312469173,-1.42732891272489,-0.32839489316387466,-0.2012980209899599,0.0,0.8402373790740967,1.0088790655136108,0.9302100539207458,-0.5460858345031738,0.37269577383995056,-0.7164106369018555,0.22280915081501007
48.586391450953776,-1.7043920861315274,-2.0754752785451553,-1.4242873649329155,-0.27852910197746195,-0.23882141038107327,0.0,0.8273373246192932,0.9974946975708008,0.9338319301605225,-0.5268046259880066,0.3900702893733978,-0.7190967798233032,0.23069851100444794
48.75261089316177,-1.6976529803503355,-2.085337322971484,-1.420969776840004,-0.22866326931506215,-0.27597689635603084,0.0,0.8136552572250366,0.9860267639160156,0.9350695013999939,-0.5077126026153564,0.40748661756515503,-0.7208075523376465,0.23794741928577423
48.918830260879936,-1.6906062086716782,-2.0957458377317533,-1.4173841436238679,-0.1787974589996124,-0.31280159385454,0.0,0.7992321252822876,0.9745339751243591,0.9339714050292969,-0.48883527517318726,0.4249400496482849,-0.7215620875358582,0.2445693016052246
49.08504951222109,-1.6832831712199434,-2.1065244612442693,-1.4136133931378017,-0.12893168359726534,-0.34939835075947057,0.0,0.7841159105300903,0.9629331827163696,0.9306825995445251,-0.47015759348869324,0.4424584209918976,-0.7213895916938782,0.2505580484867096
49.25126875375517,-1.6756723514765468,-2.1176050146065535,-1.4096883115368557,-0.07906591113704227,-0.38580568454875025,0.0,0.7683303356170654,0.9512746334075928,0.9252530336380005,-0.4517041742801666,0.4600331783294678,-0.7203047871589661,0.25591737031936646
49.417488095616555,-1.667763922806405,-2.1289222316672816,-1.4056385053867948,-0.02920010857862617,-0.4220605783486701,0.0,0.7518981695175171,0.9396088123321533,0.9177355170249939,-0.43349912762641907,0.4776562750339508,-0.7183213829994202,0.26064789295196533
49.58370764403097,-1.6595210058668344,-2.1404213901492173,-1.401487449878946,0.020665755945698937,-0.45819251003387146,0.0,0.7348159551620483,0.9280144572257996,0.9081801176071167,-0.4155765175819397,0.4953117370605469,-0.7154474854469299,0.26475876569747925
49.74992692631801,-1.6509031698821224,-2.151998410406551,-1.3972782234413088,0.07053154063180983,-0.4942456188772412,0.0,0.7170689105987549,0.9165302515029907,0.8966835737228394,-0.3979615569114685,0.5129969120025635,-0.711685836315155,0.2682608664035797
49.91614644685439,-1.642101411649041,-2.16348244467421,-1.3930914295332282,0.12039739679272418,-0.530286126094371,0.0,0.6988406181335449,0.9049769639968872,0.8833945393562317,-0.38060715794563293,0.530767023563385,-0.7070644497871399,0.2710800766944885
50.08236606107269,-1.6332031686955546,-2.17476580838236,-1.388974543925208,0.17026328105821462,-0.5663465879222939,0.0,0.6802239418029785,0.8933216333389282,0.8684139251708984,-0.36350488662719727,0.5486363172531128,-0.7015954852104187,0.2731776535511017
50.24858560763916,-1.6242909573800628,-2.1857484431764878,-1.3849716900778477,0.22012914502815378,-0.6024569310256218,0.0,0.661301851272583,0.8815510272979736,0.8518418669700623,-0.346646785736084,0.5666124820709229,-0.6952896118164062,0.2745150923728943
50.41480508306801,-1.6155144786603997,-2.1961443911837075,-1.3812032182899405,0.26999498765680896,-0.6386895424340477,0.0,0.6421905755996704,0.8694846630096436,0.8339225649833679,-0.329971581697464,0.5847532153129578,-0.6881403923034668,0.27503669261932373
50.58102435195606,-1.606998299639401,-2.2058564017786155,-1.3777151586884528,0.31986076832322363,-0.6750802991724042,0.0,0.6229933500289917,0.8571167588233948,0.8147562742233276,-0.3134526312351227,0.6030611395835876,-0.6801579594612122,0.2746812105178833
50.747243632169656,-1.59877613723396,-2.2148771605232533,-1.3745095107180325,0.3697265523873017,-0.7116402306129936,0.0,0.6037373542785645,0.8445777893066406,0.7943852543830872,-0.29710376262664795,0.6215007305145264,-0.671347975730896,0.273419052362442
50.913462983133215,-1.5908708670059735,-2.2231687271678213,-1.3715961362925597,0.4195923576763697,-0.7483882415377888,0.0,0.584431529045105,0.8319872617721558,0.772885262966156,-0.2809353768825531,0.6400411128997803,-0.6617087721824646,0.2712268829345703
51.07968226990489,-1.5833519220148258,-2.230503254145668,-1.3690406550777134,0.4694581437078729,-0.7854114762564791,0.0,0.5650920867919922,0.8193119764328003,0.7504803538322449,-0.26490235328674316,0.6587070226669312,-0.6512094736099243,0.26806315779685974
51.24590161662642,-1.5761403715297164,-2.2369419119716927,-1.3667833652390577,0.5193239477243314,-0.8227303852578131,0.0,0.5456346869468689,0.8068104982376099,0.7271934747695923,-0.2490556389093399,0.6774368286132812,-0.6398372054100037,0.26392996311187744
51.412120909418505,-1.5691511815340173,-2.242644280405449,-1.3647504797877128,0.5691897355619574,-0.86031385397992,0.0,0.5259885787963867,0.7948031425476074,0.7029852271080017,-0.2334795445203781,0.6961349248886108,-0.6276030540466309,0.25883933901786804
51.578340123192035,-1.5623627698715852,-2.247614853881504,-1.3629267873788533,0.6190554996940155,-0.8981745978074224,0.0,0.506117045879364,0.7834609746932983,0.6779412627220154,-0.218211829662323,0.7147512435913086,-0.6145035028457642,0.252783864736557
51.74455933740285,-1.5558004344298582,-2.251590636537023,-1.36135526796302,0.6689212639572588,-0.9364452116562179,0.0,0.4859720468521118,0.7727656364440918,0.65234375,-0.2032143622636795,0.7333167195320129,-0.6004768013954163,0.24571946263313293
51.91077866432591,-1.5494134073974577,-2.2546915839278223,-1.3599848461790072,0.7187870620341781,-0.975102038089741,0.0,0.4655030369758606,0.7629807591438293,0.6262149214744568,-0.18856456875801086,0.7517411112785339,-0.5855355858802795,0.23764804005622864
52.076998025591855,-1.5432181976808053,-2.257042400031975,-1.358802765217985,0.7686528704139621,-1.0140846137694517,0.0,0.44472622871398926,0.7543197870254517,0.5995883941650391,-0.17432980239391327,0.7699247598648071,-0.5697203278541565,0.22856870293617249
52.2432173868578,-1.537248773472541,-2.258631876480622,-1.3578239719410325,0.8185186787937462,-1.0533933207201742,0.0,0.42364728450775146,0.7468948364257812,0.5726093649864197,-0.16053831577301025,0.7878082394599915,-0.5530431270599365,0.21846912801265717
52.409436748123746,-1.5317296073548687,-2.259078515224404,-1.3571959691889255,0.8683844871735302,-1.0931709884846093,0.0,0.40235763788223267,0.7405376434326172,0.5456697940826416,-0.1470806747674942,0.8054236173629761,-0.5354515910148621,0.20724737644195557
52.5756562154317,-1.5266594835074994,-2.258617236791219,-1.3568844540721126,0.9182503273659164,-1.133304483956226,0.0,0.38088008761405945,0.735506534576416,0.5187782645225525,-0.1340484917163849,0.8226297497749329,-0.5170190334320068,0.194942444562912
52.741875725968065,-1.5220673242563727,-2.2572849702557063,-1.3568958925916799,0.9681161805268265,-1.173770689965608,0.0,0.35922935605049133,0.7319190502166748,0.49209064245224,-0.12147733569145203,0.8393438458442688,-0.49777236580848694,0.1815701723098755
52.908095229285884,-1.5180173582648397,-2.2550384404537396,-1.3572628639144069,1.017982031522172,-1.2145787734788684,0.0,0.3374389111995697,0.7298250198364258,0.4658241868019104,-0.10937361419200897,0.8555023074150085,-0.47772306203842163,0.16713391244411469
53.07431459055183,-1.5148293385412517,-2.251465771759339,-1.3581755701209044,1.067847839901956,-1.2558697377070434,0.0,0.3156811594963074,0.7290136218070984,0.4404301643371582,-0.09758860617876053,0.8711108565330505,-0.45681512355804443,0.1515333503484726
53.240533951817774,-1.5122746122484396,-2.246865613736537,-1.3594913656457785,1.11771364828174,-1.2975467031308474,0.0,0.2938302755355835,0.7297980785369873,0.41594088077545166,-0.08629361540079117,0.8860300779342651,-0.4350948631763458,0.13489468395709991
53.40675316200476,-1.5102717612600347,-2.241303231153854,-1.3611630642852282,1.1675794113378355,-1.3395971098456556,0.0,0.27184444665908813,0.7322914600372314,0.39253902435302734,-0.07556897401809692,0.9001758694648743,-0.4125745892524719,0.11728088557720184
53.572972276985375,-1.5087871500815144,-2.2347597039243867,-1.363174465811524,1.2174451458320186,-1.38204138454558,0.0,0.24971191585063934,0.7365310192108154,0.37046587467193604,-0.06546707451343536,0.9134819507598877,-0.38925114274024963,0.09873367100954056
53.73919164324218,-1.5077798669000575,-2.2272088384261908,-1.3655062238705997,1.2673109557090594,-1.4249063507058404,0.0,0.2274206578731537,0.7425327897071838,0.34997355937957764,-0.05604615807533264,0.9258829951286316,-0.36511874198913574,0.07929570227861404
53.90541134392665,-1.5072549561510187,-2.218419663602906,-1.3681770064189098,1.317176865914401,-1.4683188625519517,0.0,0.2049548327922821,0.750230073928833,0.3314569592475891,-0.04732781648635864,0.9373449683189392,-0.34010088443756104,0.05895647034049034
54.07163105646163,-1.507057434823238,-2.208603014925248,-1.3710984573418885,1.3670427796748925,-1.5122168264221467,0.0,0.18227174878120422,0.759689211845398,0.3150263726711273,-0.03945762664079666,0.9477590322494507,-0.3142693340778351,0.03782341629266739
54.23785025034355,-1.5071877757596315,-2.1978403676699387,-1.3742989357296151,1.4169085378394686,-1.5565985976821046,0.0,0.15942822396755219,0.7708102464675903,0.300851970911026,-0.03249410167336464,0.9570339918136597,-0.2877070903778076,0.015954742208123207
54.404068976528386,-1.5076689226786324,-2.1862455671240557,-1.3778343084639872,1.4667741556949194,-1.6014613147961583,0.0,0.13650919497013092,0.7834364175796509,0.28905802965164185,0.02647986263036728,-0.965079665184021,0.26053160429000854,0.00658497866243124
54.57028804721676,-1.508535430459559,-2.1739871597131435,-1.381783100778898,1.5166398769014338,-1.6467959409935522,0.0,0.113621786236763,0.7973601222038269,0.27969488501548767,0.021443292498588562,-0.9718092083930969,0.23290325701236725,0.029719026759266853
54.73650740848271,-1.5098333167999018,-2.161306387478696,-1.386253852332064,1.5665056852812178,-1.6925864577361038,0.0,0.09089691936969757,0.812321662902832,0.2727071940898895,0.017392005771398544,-0.9771438241004944,0.2050374299287796,0.053357429802417755
54.90272603192095,-1.511612891963698,-2.1485036713477212,-1.3913712017071482,1.6163712723126897,-1.7388065413506655,0.0,0.06848268955945969,0.8280226588249207,0.2679333984851837,0.014311609789729118,-0.9810243248939514,0.1771898865699768,0.0773962140083313
55.0689455710345,-1.5139313593899335,-2.1357274782506286,-1.3972424816489044,1.666237134046754,-1.7854708526921965,0.0,0.04651965945959091,0.8441543579101562,0.2652866244316101,0.012168307788670063,-0.9834319353103638,0.14953342080116272,0.1017506942152977
55.235165888717724,-1.516687212216729,-2.1229847684223295,-1.4037277002801867,1.7161032293517218,-1.832493348609115,0.0,0.025056660175323486,0.8605763912200928,0.26483839750289917,0.011025785468518734,-0.9843946695327759,0.12205761671066284,0.1262829601764679
55.4013852509108,-1.519761323928833,-2.1102659702301025,-1.4106594324111938,1.7659690380096436,-1.8797757625579834,0.0,0.004124440252780914,0.8771605491638184,0.266664057970047,0.010959778912365437,-0.9839449524879456,0.09473473578691483,0.15085601806640625
55.47143876331276,-1.5407773776494211,-2.119270584911259,-1.4085867852782572,1.7649163407585635,-1.899491328945248,0.0,0.013138987123966217,0.8784428834915161,0.26295745372772217,-0.0009539133170619607,-0.9821009635925293,0.09706569463014603,0.16141550242900848
55.66812308283872,-1.561669643690515,-2.1282220978752537,-1.4065264648520672,1.7638699625578569,-1.9190908862237992,0.0,0.02222171425819397,0.8797577619552612,0.25942376255989075,-0.01283300668001175,-0.9800190329551697,0.09914932399988174,0.17195135354995728
56.01225860833306,-1.5824167728424072,-2.1371114253997803,-1.4044804573059082,1.7628308534622192,-1.938554286956787,0.0,0.031370729207992554,0.881100594997406,0.25606095790863037,-0.024659425020217896,-0.9777048230171204,0.10098694264888763,0.18244676291942596
56.177607802677116,-1.6007554351621764,-2.139295556582687,-1.4069125776070062,1.719446764318991,-1.888949528653571,0.0,0.07022617757320404,0.8577960729598999,0.2564730942249298,-0.03488462045788765,-0.9788859486579895,0.12365442514419556,0.15898104012012482
56.342959778571256,-1.6152593818266376,-2.1412526867880475,-1.409651466420632,1.676296152518668,-1.8393439358853279,0.0,0.10542129725217819,0.8338284492492676,0.25917884707450867,-0.042028557509183884,-0.9788945317268372,0.1469816416501999,0.13562993705272675
56.508311754465396,-1.6250060049598714,-2.142928014781334,-1.4127704328873782,1.6334361455702524,-1.7897383431170848,0.0,0.13642093539237976,0.8099240064620972,0.2641572058200836,-0.04561794921755791,-0.9778276681900024,0.1708042323589325,0.11224009841680527
56.673663730359536,-1.6299167844525968,-2.1443143845401402,-1.4162789597972132,1.5908671260577836,-1.740132750348842,0.0,0.1634567677974701,0.7867496013641357,0.2713639438152313,-0.04561535641551018,-0.9757396578788757,0.19489891827106476,0.08868955820798874
56.839015706253676,-1.6315323958793428,-2.1454979048915064,-1.4200610150837947,1.5484862459877544,-1.690527157580599,0.0,0.1880025714635849,0.7646656036376953,0.28073737025260925,-0.04279123246669769,-0.9726099967956543,0.21902118623256683,0.06502658128738403
57.004367682147816,-1.6305206345926533,-2.1465136696702927,-1.4240684114821038,1.5062451907882384,-1.6409215648123558,0.0,0.21072925627231598,0.7440003156661987,0.2921990752220154,-0.03749469295144081,-0.9684226512908936,0.24299947917461395,0.04126729443669319
57.169719658041956,-1.6273604745033101,-2.147387044076204,-1.4282666358772638,1.464110110011715,-1.5913159720441128,0.0,0.23209521174430847,0.7250379323959351,0.3056509494781494,-0.029988713562488556,-0.963157594203949,0.26669102907180786,0.0174354687333107
57.335071633936096,-1.6223715715212235,-2.148136911694912,-1.4326299017514474,1.4220566264985763,-1.5417103792758697,0.0,0.2523864507675171,0.7080407738685608,0.3209756910800934,0.02046394906938076,0.9567940831184387,-0.28997358679771423,0.006443906109780073
57.500423609830236,-1.6159023150528495,-2.1487922592450333,-1.437117622994953,1.3800607999504375,-1.492104786507627,0.0,0.27186354994773865,0.6932312250137329,0.33803510665893555,0.009129034355282784,0.9493108987808228,-0.3127392828464508,0.030324367806315422
57.665775585724376,-1.6080363089476444,-2.149367068731837,-1.4417113100129826,1.3381110787166368,-1.4424991937393838,0.0,0.29056161642074585,0.6808522939682007,0.3566746711730957,-0.0039297109469771385,0.9406899213790894,-0.33488917350769043,0.05418578162789345
57.831127561618516,-1.5989353313005894,-2.1498768293108674,-1.4463880909636013,1.2961949441604828,-1.3928936009711408,0.0,0.3085397779941559,0.6711000204086304,0.3767241835594177,-0.018583912402391434,0.9309132099151611,-0.3563326597213745,0.07798802852630615
57.996479537512656,-1.588693669698251,-2.150333068499334,-1.4511322937170803,1.2543030674470281,-1.3432880082028977,0.0,0.3257811367511749,0.6641558408737183,0.39799946546554565,-0.034733034670352936,0.9199637770652771,-0.3769860565662384,0.10169430077075958
58.161831513406796,-1.5774369881640797,-2.150744580412994,-1.4559312638513282,1.212426124270839,-1.2936824154346547,0.0,0.3422639071941376,0.660158097743988,0.42030471563339233,-0.05225817486643791,0.9078269004821777,-0.3967752158641815,0.1252552568912506
58.327183489300936,-1.5654459640929785,-2.151120297331553,-1.4607728802162534,1.1705490179451914,-1.2440768226664116,0.0,0.3580436408519745,0.6591551899909973,0.4434356987476349,-0.07096926867961884,0.8944958448410034,-0.4156489968299866,0.14858171343803406
58.492535465195076,-1.5530355548826675,-2.1514690019466127,-1.4656461999186492,1.1286555963963156,-1.1944712298981686,0.0,0.37317997217178345,0.661138117313385,0.46717917919158936,-0.09066447615623474,0.8799753189086914,-0.4335770606994629,0.17156434059143066
58.657887441089215,-1.5404991417992997,-2.151798445715354,-1.4705415863640876,1.0867309097992282,-1.1448656371299255,0.0,0.38770943880081177,0.6660608649253845,0.49131420254707336,-0.11115708202123642,0.86428302526474,-0.45054349303245544,0.1940862387418747
58.823239416983355,-1.5281188803757897,-2.152114271212955,-1.4754506131202785,1.0447585839101172,-1.0952600443616824,0.0,0.40166178345680237,0.673837423324585,0.5156163573265076,-0.13227254152297974,0.8474500179290771,-0.4665474593639374,0.21602283418178558
58.988591392877495,-1.5163299860773318,-2.1524242570349146,-1.4803629739533473,1.0027082280956807,-1.0456544515934396,0.0,0.41518235206604004,0.6842771172523499,0.5398615002632141,-0.15378303825855255,0.8295301795005798,-0.4816274046897888,0.2372034788131714
59.153943368771635,-1.5052332203411516,-2.1527364178842654,-1.4852692302671702,0.9605817756258643,-0.9960488588251966,0.0,0.4282108247280121,0.6972886323928833,0.5638085007667542,-0.17560914158821106,0.8105780482292175,-0.4957846403121948,0.25753074884414673
59.31929542208716,-1.4947461218002347,-2.1530556971661583,-1.4901635176530907,0.9183798879945648,-0.9464432428305398,0.0,0.4405764937400818,0.712829053401947,0.5872181057929993,-0.19774885475635529,0.7906379699707031,-0.5090024471282959,0.27695396542549133
59.484647519242074,-1.4847492339988304,-2.1533866225534277,-1.495040779273825,0.8761048654940281,-0.8968376136840657,0.0,0.45209166407585144,0.7308527231216431,0.6098524332046509,-0.22021132707595825,0.7697508931159973,-0.521255373954773,0.29543736577033997
59.649999495136214,-1.475108064836192,-2.1537341745940854,-1.4998956468417635,0.8337575382096635,-0.8472320209158226,0.0,0.4625633955001831,0.751304030418396,0.6314780712127686,-0.24300725758075714,0.7479540705680847,-0.5325140357017517,0.31295526027679443
59.815351623221005,-1.4656554172541743,-2.1541118677314937,-1.5047116942886416,0.7913224546204991,-0.7976263824903842,0.0,0.47177523374557495,0.7741341590881348,0.6518718004226685,-0.2661552429199219,0.7252734303474426,-0.5427453517913818,0.32949551939964294
59.980703645606646,-1.4561577169830466,-2.1545181883125935,-1.509491803670859,0.7488245294827864,-0.748020775774692,0.0,0.47945553064346313,0.7992966175079346,0.6708084940910339,-0.28968462347984314,0.7017310857772827,-0.551888108253479,0.34507349133491516
60.14605562150079,-1.4465343647616988,-2.1549556002381567,-1.5142337482321142,0.7062674731665995,-0.6984151830064489,0.0,0.48544591665267944,0.8266587257385254,0.6880815029144287,-0.3135639727115631,0.6773592233657837,-0.5599125027656555,0.359666645526886
60.31140759739493,-1.4367602525443601,-2.1554244042047466,-1.5189378943866816,0.6636565876003222,-0.6488095902382058,0.0,0.4896359145641327,0.8560383915901184,0.7034978270530701,-0.3377387225627899,0.6521986722946167,-0.566798985004425,0.37324023246765137
60.47675957328907,-1.4269275142058582,-2.1559250465790134,-1.5236048211756275,0.6209945400895949,-0.5992039974699628,0.0,0.49202632904052734,0.8871760964393616,0.7168798446655273,-0.3621163070201874,0.6263116598129272,-0.5725551247596741,0.38572779297828674
60.64211141812404,-1.4172598244555066,-2.1564488925879286,-1.5282491772774134,0.5783008285545183,-0.5495984440194737,0.0,0.49276357889175415,0.9197174310684204,0.728064775466919,-0.3865673243999481,0.59979647397995,-0.5772162675857544,0.3970279395580292
60.807463412050765,-1.4078736496658155,-2.156985753313894,-1.5328835922302226,0.5355931007316246,-0.4999928458414552,0.0,0.4919355511665344,0.9533448219299316,0.736911416053772,-0.4110047519207001,0.5727432370185852,-0.5808034539222717,0.40707194805145264
60.97281550097151,-1.3988718951032293,-2.1575311224212346,-1.5375145921700053,0.49288038644725135,-0.45038721916523383,0.0,0.48964637517929077,0.98774254322052,0.7432998418807983,-0.43535342812538147,0.5452442765235901,-0.5833427309989929,0.4157969653606415
61.13816747686565,-1.3903934948794188,-2.1580804661555764,-1.542149416789024,0.4501726408184437,-0.4007816263969908,0.0,0.4860668182373047,1.022571086883545,0.7471301555633545,-0.4595355987548828,0.5174072980880737,-0.5848715305328369,0.4231334328651428
61.30351945275979,-1.3827750839547217,-2.1586286586002315,-1.5467966060603786,0.40748759504332444,-0.3511760336287477,0.0,0.4816112816333771,1.0573915243148804,0.7483251690864563,-0.48343250155448914,0.4893985092639923,-0.5854701995849609,0.4289601147174835
61.46887132956699,-1.3757276524715918,-2.159181142796416,-1.5514373627138738,0.36481793993762673,-0.3015704705865886,0.0,0.47606784105300903,1.0920850038528442,0.7468372583389282,-0.5070911645889282,0.4612395167350769,-0.5850908160209656,0.4333420395851135
61.634223231923386,-1.3691965242670794,-2.15974205246783,-1.5560596891977223,0.3221614305433984,-0.2519648998796698,0.0,0.46946024894714355,1.1264164447784424,0.7426398396492004,-0.5304931402206421,0.4330011010169983,-0.5837340354919434,0.43628162145614624
61.79957527734886,-1.363126218680005,-2.160315627036768,-1.560651455787384,0.27951570512071766,-0.20235928625202917,0.0,0.4618128538131714,1.1601533889770508,0.7357307076454163,-0.5536175966262817,0.40475183725357056,-0.5814006328582764,0.4377860724925995
61.964927139632344,-1.3575732025631069,-2.160918217947206,-1.5651714329468103,0.23687968291258527,-0.15275372756698263,0.0,0.4532809555530548,1.1930301189422607,0.7261350154876709,-0.5764182806015015,0.37659594416618347,-0.5781124234199524,0.4378393888473511
62.13027905655275,-1.352305863421938,-2.1615503900372635,-1.569614944839449,0.1942464635334173,-0.10314815249085943,0.0,0.4436838924884796,1.224902868270874,0.7138993144035339,-0.5989068746566772,0.3485456705093384,-0.5738356113433838,0.4365079700946808
62.29563096153163,-1.3472901374544504,-2.1622151430912053,-1.5739753229208446,0.1516146445396706,-0.05354258099719608,0.0,0.43306344747543335,1.2555452585220337,0.6990900039672852,-0.6210511922836304,0.32066449522972107,-0.5685796737670898,0.433804988861084
62.46098283219197,-1.342541521012922,-2.162916216576541,-1.5782459952565677,0.10898412473983726,-0.0039370197990940305,0.0,0.4215258061885834,1.2847191095352173,0.6817963123321533,-0.6428104043006897,0.2930312752723694,-0.5623663067817688,0.4297342896461487
62.6263348223081,-1.338369583911951,-2.163670414696289,-1.5824030049508724,0.06636121043373527,0.04566857723574773,0.0,0.40956515073776245,1.3120899200439453,0.6621246337890625,-0.6641054749488831,0.2658250629901886,-0.5552785396575928,0.424224853515625
62.791686988465074,-1.3350059747700727,-2.164475209928072,-1.5864695267667555,0.02375328618234323,0.09527422708283986,0.0,0.3976096510887146,1.33736252784729,0.6401928663253784,-0.6848879456520081,0.23920205235481262,-0.5473857522010803,0.4172286093235016
62.9570389873007,-1.3325325241434423,-2.165327148541379,-1.590462806552664,-0.018836390629878963,0.14487982673352684,0.0,0.3859015107154846,1.3603283166885376,0.6161415576934814,-0.7051376700401306,0.21327461302280426,-0.5387216210365295,0.408746600151062
63.12239076433615,-1.3310939743920827,-2.1662284460969943,-1.5943875118923165,-0.06140380700032116,0.1944853598441636,0.0,0.3747667074203491,1.3807828426361084,0.5901293754577637,-0.7248315215110779,0.1881813108921051,-0.5293279886245728,0.39877185225486755
63.28774258861414,-1.331135547542718,-2.167192542925073,-1.5982374403562847,-0.10393800982164447,0.24409090712755913,0.0,0.36494773626327515,1.3984431028366089,0.5623278617858887,-0.7439272403717041,0.16417784988880157,-0.5192986130714417,0.3872297704219818
63.453094347848115,-1.3329474371777053,-2.1682248514649114,-1.6020170201065114,-0.14643524251277656,0.29369643489775266,0.0,0.35698091983795166,1.4131097793579102,0.5329216718673706,-0.7624145150184631,0.1414712369441986,-0.5086864829063416,0.3740963637828827
63.618446345742846,-1.336094012979407,-2.1693098935453543,-1.6057373996784394,-0.18891776056261897,0.34330203426617245,0.0,0.350358247756958,1.4248507022857666,0.502124547958374,-0.7803370356559753,0.11998853087425232,-0.4974035322666168,0.35953646898269653
63.78379853071388,-1.3404915304666214,-2.170445861463395,-1.6093957675311439,-0.23139746536122807,0.39290768975748186,0.0,0.34502702951431274,1.4336252212524414,0.4701557755470276,-0.7976977825164795,0.09978093951940536,-0.48542898893356323,0.3436286151409149
63.94915065769056,-1.3461534994670754,-2.171635908358015,-1.6129804121381557,-0.2738912973668871,0.44251332785048475,0.0,0.34104612469673157,1.4393787384033203,0.43724244832992554,-0.8144888877868652,0.0809321328997612,-0.4727584421634674,0.32643115520477295
64.11450278443382,-1.353103577987574,-2.1728859273124392,-1.6164679689139136,-0.31643365503483506,0.4921189658734629,0.0,0.33846384286880493,1.4420750141143799,0.40362000465393066,-0.8307003378868103,0.06352416425943375,-0.4593871831893921,0.30800169706344604
64.2798547293628,-1.3608555887840976,-2.174177371324212,-1.619878259452406,-0.3590325130713631,0.5417245493521533,0.0,0.3365744948387146,1.4418435096740723,0.36953097581863403,-0.8463304042816162,0.047422245144844055,-0.4452328383922577,0.2885195016860962
64.44520663995254,-1.3693292315123256,-2.175508712949885,-1.6232094228131129,-0.4016987258738128,0.591330122529077,0.0,0.335234135389328,1.4387072324752808,0.33521708846092224,-0.8613523840904236,0.03264766186475754,-0.430285781621933,0.2680678069591522
64.61055876604159,-1.3784788048381011,-2.176880653305559,-1.6264550746687332,-0.44444824407068123,0.640935760355792,0.0,0.33433446288108826,1.4327003955841064,0.30091965198516846,-0.875734806060791,0.019229982048273087,-0.41454413533210754,0.24672220647335052
64.77591074785465,-1.3885407477939977,-2.1783109767986093,-1.629596887895071,-0.4873201887378018,0.690541354899711,0.0,0.3341572880744934,1.4237884283065796,0.26685982942581177,-0.8894448280334473,0.007313108071684837,-0.3980429172515869,0.22449104487895966
64.9412626292568,-1.3992769771136135,-2.1797857402043483,-1.6326749651877421,-0.5302819851612661,0.7401469193203545,0.0,0.33429640531539917,1.4120912551879883,0.23326916992664337,-0.9024478197097778,-0.003160487161949277,-0.3807547986507416,0.20150330662727356
65.10661445624685,-1.410699971365255,-2.1813066219211024,-1.635694945219214,-0.5733350589890671,0.7897524674173697,0.0,0.33469241857528687,1.3976836204528809,0.20037417113780975,-0.9147053956985474,-0.012147785164415836,-0.36268794536590576,0.17783088982105255
65.27196628375115,-1.422861556751303,-2.1828780702322685,-1.6386599521120444,-0.6164860502408057,0.8393580156686634,0.0,0.3353314697742462,1.3806495666503906,0.168392151594162,-0.9261779189109802,-0.01959248073399067,-0.3438549041748047,0.15353938937187195
65.43731811208875,-1.4360871528138193,-2.1845243475822675,-1.6415635858278832,-0.6597771728589085,0.8889635641699429,0.0,0.33656197786331177,1.3609964847564697,0.13750553131103516,-0.9368301630020142,-0.02532118372619152,-0.32428640127182007,0.12863291800022125
65.60266994105297,-1.4500295485852785,-2.186221366936795,-1.6444346788188924,-0.7031651665585682,0.9385691128592092,0.0,0.3377973735332489,1.338981032371521,0.10794290900230408,-0.9466124176979065,-0.029459388926625252,-0.3039582669734955,0.10327831655740738
65.76802184634475,-1.4646211040296677,-2.187963842292205,-1.6472785634586642,-0.7466472400221569,0.9881746844467438,0.0,0.33884406089782715,1.3147953748703003,0.07990628480911255,-0.9554769396781921,-0.032018352299928665,-0.2828790545463562,0.0775759145617485
65.93337396784032,-1.479860419747364,-2.1897507213154266,-1.6500985720080719,-0.7902346742106022,1.0377803208954166,0.0,0.3396013379096985,1.2886261940002441,0.05357488989830017,-0.9633759260177612,-0.032986681908369064,-0.2610654830932617,0.05160784721374512
66.09872595896134,-1.49564223440948,-2.1915708145843076,-1.6529037930393058,-0.8339421322239582,1.0873859182317207,0.0,0.3398410677909851,1.2607097625732422,0.029122650623321533,-0.9702585935592651,-0.03240818530321121,-0.23853559792041779,0.02547093667089939
66.26407778470477,-1.511665880589609,-2.193402961331979,-1.655707078398412,-0.8777294009804032,1.1369914659547478,0.0,0.3391115367412567,1.2313909530639648,0.006724119186401367,0.9760704636573792,0.030421782284975052,0.2153145670890808,0.0006913554389029741
66.42942955349734,-1.5278644591896966,-2.1952416903922067,-1.6585123018248407,-0.9215934866854671,1.1865969965925198,0.0,0.33728891611099243,1.2009408473968506,-0.013486027717590332,0.9807642102241516,0.027066688984632492,0.19144496321678162,0.026792092248797417
66.59478181523414,-1.544134080362615,-2.1970749137153742,-1.661330567542677,-0.9655592894116999,1.2362026751135613,0.0,0.3342284858226776,1.1696356534957886,-0.031394362449645996,0.9842932224273682,0.02240820787847042,0.16697658598423004,0.052759237587451935
66.76013364929776,-1.5603131592168014,-2.1988917864516093,-1.66416809854614,-1.0096079621248288,1.285808225332646,0.0,0.32974785566329956,1.1378040313720703,-0.046901315450668335,0.9866148233413696,0.016540274024009705,0.1419699788093567,0.07849931716918945
66.92548544106776,-1.5764207249345825,-2.2006979924018037,-1.6670176732680997,-1.0537206007336541,1.3354137628636464,0.0,0.3239016830921173,1.105727195739746,-0.05994129180908203,0.9876930713653564,0.009473224170506,0.11648708581924438,0.10393965244293213
67.0908374169619,-1.5924522325450712,-2.20249459612497,-1.6698775973379631,-1.097900117333354,1.3850193556318895,0.0,0.3167346119880676,1.0736814737319946,-0.07047390937805176,0.9874945282936096,0.0012345878640189767,0.09059331566095352,0.1290188878774643
67.25618939285604,-1.608422834065314,-2.204288900578178,-1.672739099255018,-1.1421708510818867,1.4346249484001325,0.0,0.30832943320274353,1.041930079460144,-0.07848404347896576,0.9859877824783325,-0.008154273964464664,0.06435434520244598,0.15368781983852386
67.42154121580904,-1.6243837627088256,-2.206088504222676,-1.6755940425830516,-1.1864950692679646,1.4842304952860315,0.0,0.29882144927978516,1.0107516050338745,-0.08397981524467468,0.9831488728523254,-0.01868894323706627,0.03783489763736725,0.1778692901134491
67.58689298519504,-1.6403447882335238,-2.2078956681728696,-1.6784398074770357,-1.2308716085351379,1.533836026101828,0.0,0.2883150577545166,0.9804099202156067,-0.08699281513690948,0.9789548516273499,-0.030339011922478676,0.01110286358743906,0.20150332152843475
67.75224524371893,-1.656341236974212,-2.209722021682715,-1.6812626004691327,-1.2753208474339408,1.5834417036589985,0.0,0.2769531011581421,0.9511484503746033,-0.08758004009723663,0.9733838438987732,-0.043083399534225464,-0.015776189044117928,0.22454112768173218
67.91759750285252,-1.672401236176684,-2.211571264308397,-1.6840585381111033,-1.31982268498463,1.6330473813990745,0.0,0.2648838758468628,0.9232150912284851,-0.08582030236721039,0.9664209485054016,-0.05689433217048645,-0.04273485019803047,0.24691568315029144
68.08294966969106,-1.6885207849414257,-2.213437592063842,-1.6868344213630657,-1.3643564732044584,1.682653031450637,0.0,0.2522374093532562,0.8968444466590881,-0.0818120539188385,0.9580559134483337,-0.07172445952892303,-0.06970158219337463,0.2685628831386566
68.2483016455852,-1.7047142763050758,-2.21532154776918,-1.6895896040446208,-1.4089156828066154,1.73225862421888,0.0,0.23917287588119507,0.8722453117370605,-0.07567699253559113,0.9482812881469727,-0.08753184229135513,-0.0966062843799591,0.2894269526004791
68.4136533544509,-1.7210254287915676,-2.217221721114394,-1.6923250935724414,-1.4534715061119317,1.781864136878591,0.0,0.22588586807250977,0.8496094942092896,-0.0675593763589859,0.9370949268341064,-0.10428416728973389,-0.12338284403085709,0.3094422519207001
68.57900520000919,-1.737423974062014,-2.219128138426522,-1.6950532279327484,-1.498002420966826,1.8314696905460766,0.0,0.21251487731933594,0.8291106224060059,-0.057618916034698486,0.9245015978813171,-0.12191076576709747,-0.14995454251766205,0.328554630279541
68.74435717590333,-1.7539161582251463,-2.2210388005444406,-1.697776332613893,-1.542497607632155,1.8810752833143196,0.0,0.19923873245716095,0.8108885884284973,-0.04603387415409088,0.9105076193809509,-0.14035575091838837,-0.17624972760677338,0.3467162847518921
68.90970915179747,-1.7705438850234436,-2.2229496485340743,-1.7004989008333162,-1.586919431212038,1.9306808760825627,0.0,0.18627238273620605,0.7950600385665894,-0.03300201892852783,0.8951258659362793,-0.1595749706029892,-0.2022031843662262,0.36386698484420776
69.07506088735212,-1.7872922535321958,-2.2248538442757866,-1.7032292971348229,-1.6312393116642192,1.9802863967489577,0.0,0.17378589510917664,0.7817155122756958,-0.018732041120529175,0.878376841545105,-0.1794954538345337,-0.2277410626411438,0.37995997071266174
69.24041270622146,-1.8040636056082373,-2.2267499131657686,-1.705970637482263,-1.6754738709181156,2.0298919424097592,0.0,0.16188475489616394,0.7709117531776428,-0.0034344494342803955,0.8602837920188904,-0.20001046359539032,-0.25277379155158997,0.3949846029281616
69.40576458987526,-1.8207970412462877,-2.228635615433168,-1.708726691375261,-1.7196192144173907,2.079497507505899,0.0,0.15070641040802002,0.7626739144325256,0.012669399380683899,0.8408789038658142,-0.22102993726730347,-0.2772171199321747,0.4089242219924927
69.5711159504925,-1.8373474054113497,-2.230504703607681,-1.711507712210862,-1.7636537209439647,2.1291029156910715,0.0,0.14032135903835297,0.757007360458374,0.02934993803501129,0.8202142715454102,-0.2424292415380478,-0.3009684383869171,0.4217754602432251
69.73646729702045,-1.8535234607804587,-2.232351858908705,-1.714323627464045,-1.8075753741834906,2.1787083196494597,0.0,0.1307571530342102,0.753881573677063,0.04637995362281799,0.7983541488647461,-0.2640734016895294,-0.32391420006752014,0.433561235666275
69.90181941162189,-1.8692283739181381,-2.2341758315805285,-1.7171775034383117,-1.851397945805173,2.2283139540298906,0.0,0.12209990620613098,0.7532201409339905,0.06353525817394257,0.7753579020500183,-0.28587451577186584,-0.34595951437950134,0.44430601596832275
70.0671720488776,-1.8843181737591232,-2.2359718098871677,-1.7200779416901026,-1.895114726492927,2.2779197452066025,0.0,0.11438393592834473,0.7549276947975159,0.08058977872133255,0.7513046860694885,-0.3077313303947449,-0.36700016260147095,0.45404115319252014
70.2325247074935,-1.8986681035243753,-2.2377351549970403,-1.7230338779487404,-1.9387191104521768,2.3275255427913737,0.0,0.10763540863990784,0.7588796615600586,0.09732213616371155,0.726280927658081,-0.3295581638813019,-0.38693752884864807,0.46280306577682495
70.39787733220905,-1.9122449660189276,-2.239463169199397,-1.7260525280383665,-1.9822067776683034,2.3771313302060397,0.0,0.10192558169364929,0.7649208307266235,0.11351676285266876,0.7003645896911621,-0.351310670375824,-0.4056970179080963,0.4706166982650757
70.56322931519209,-1.9250592825929589,-2.2411533768304244,-1.7291416672526359,-2.0255739416552445,2.426736925100951,0.0,0.097333163022995,0.772874116897583,0.12896651029586792,0.673629641532898,-0.37296363711357117,-0.4232187867164612,0.4775007665157318
70.72858207462606,-1.937124777262967,-2.2428023363875966,-1.7323121827917867,-2.068815467274394,2.4763427529311413,0.0,0.09391459822654724,0.7825472354888916,0.14347520470619202,0.6461519002914429,-0.3944946229457855,-0.43944883346557617,0.48347315192222595
70.89393409302461,-1.948481506264049,-2.2444068900123897,-1.7355769445070373,-2.1119271998458675,2.5259483584507048,0.0,0.09172379970550537,0.7937330603599548,0.15685831010341644,0.61800217628479,-0.4158918261528015,-0.45434436202049255,0.48854726552963257
71.05928682524282,-1.9591671167700795,-2.2459633542667805,-1.7389490916054775,-2.1549058890820008,2.5755541781161693,0.0,0.09079089760780334,0.8062160015106201,0.16894586384296417,0.5892522931098938,-0.43714243173599243,-0.4678671956062317,0.49273577332496643
71.22463880113696,-1.9692550477686965,-2.2474757036865127,-1.7424207584667155,-2.197763079251661,2.6251597708844123,0.0,0.09116140007972717,0.8197811245918274,0.1795859932899475,0.5599653124809265,-0.45824378728866577,-0.4799928069114685,0.49604254961013794
71.3899907770311,-1.978815617305853,-2.248948939177163,-1.7459800454388374,-2.240513152921757,2.6747653636526554,0.0,0.09286358952522278,0.8342116475105286,0.18864384293556213,0.530203640460968,-0.4791903793811798,-0.4907011389732361,0.49847057461738586
71.55534195819665,-1.988018274307251,-2.2503957748413086,-1.7495989799499512,-2.2831904888153076,2.7243707180023193,0.0,0.09600013494491577,0.8492830991744995,0.196005180478096,0.5,-0.5,-0.5,0.5
71.60534195819665,-1.991867296878085,-2.2420167726784257,-1.7618777997505,-2.2792907152999247,2.720521680237147,0.0,0.0960800051689148,0.8398709297180176,0.19866761565208435,0.5,-0.5,-0.5,0.5
71.80105651015211,-1.995711309155991,-2.233648936669619,-1.774140375412745,-2.275396075272098,2.716677708347279,0.0,0.09607797861099243,0.8304424285888672,0.20128750801086426,0.4999999701976776,-0.5000000596046448,-0.5,0.5
71.99647866407204,-1.999567963467395,-2.225407568666487,-1.786424127401058,-2.2713537809113387,2.71282109132422,0.0,0.09600609540939331,0.8209824562072754,0.20373256504535675,0.4999999403953552,-0.5,-0.4999999403953552,0.5000000596046448
72.19212096402217,-2.0037625851341847,-2.2194454920464164,-1.7994110186095105,-2.26432886247368,2.7086264472057957,0.0,0.09608322381973267,0.8112021088600159,0.2035633623600006,0.49999985098838806,-0.5,-0.4999999403953552,0.5000000596046448
72.38781450534034,-2.007948305798815,-2.2134960669742294,-1.8123703515884315,-2.2573188509380375,2.7044407041371734,0.0,0.09607166051864624,0.8014188408851624,0.2033977061510086,0.5000000596046448,-0.4999999403953552,-0.5,0.4999999403953552
72.58255612322856,-2.012146526417278,-2.208116638936683,-1.825260482137191,-2.249808094249633,2.7002424701000756,0.0,0.09602826833724976,0.7917059063911438,0.2027137726545334,0.5000001192092896,-0.4999999403953552,-0.5,0.4999999403953552
72.77828430974651,-2.016409313035852,-2.2048259207722,-1.8379502155812146,-2.2404092077979954,2.6959797032992845,0.0,0.096108078956604,0.7822693586349487,0.20012167096138,0.5,-0.5,-0.5,0.5
72.9740073739903,-2.020665720752042,-2.2015401268912465,-1.8506209599042371,-2.231024385991048,2.6917233153712203,0.0,0.09609848260879517,0.7728200554847717,0.19757620990276337,0.49999988079071045,-0.5,-0.49999988079071045,0.5000001192092896
73.38908207370467,-2.024915933609009,-2.198259115219116,-1.8632732629776,-2.2216532230377197,2.6874731222735804,0.0,0.09600001573562622,0.7633585333824158,0.19507776200771332,0.49999988079071045,-0.5,-0.4999999403953552,0.5
73.5555509203066,-1.9836881681003045,-2.1838336648117074,-1.8133326089970199,-2.202559709662217,2.6472784783028263,0.009597899041317876,0.0818837583065033,0.7835667729377747,0.21267138421535492,0.5451149344444275,-0.47183099389076233,-0.48606279492378235,0.493931382894516
73.72202413791582,-1.9404947526819134,-2.168630303050345,-1.7633906437142548,-2.183631360629786,2.60616125495636,0.019591535997717624,0.06542199850082397,0.8033673763275146,0.23130357265472412,0.5893945097923279,-0.4417613446712494,-0.4698832333087921,0.4864882230758667
73.88849735552505,-1.8950098047426478,-2.152546196726885,-1.7134486784314895,-2.164889581276128,2.56394768508345,0.030067284425253037,0.04636874794960022,0.82269287109375,0.2511485517024994,0.6326837539672852,-0.4097164571285248,-0.4514400064945221,0.4775412976741791
74.05497057313427,-1.847873077584633,-2.135948069180604,-1.6635067131487244,-2.146251974610767,2.520844353638952,0.04098563206879734,0.025218605995178223,0.841625452041626,0.2720527648925781,0.6744484901428223,-0.37604913115501404,-0.43109235167503357,0.4667608439922333
74.22144379074349,-1.7996697804907098,-2.1191417521953633,-1.6135647478659592,-2.127649566428733,2.477064883648906,0.05228711662898829,0.0024062395095825195,0.8602930307388306,0.2939530313014984,0.714241623878479,-0.3411529064178467,-0.4092433452606201,0.4538649320602417
74.38791700835272,-1.7506416976744774,-2.102265607235252,-1.5636227825831939,-2.1090448662727015,2.43266815108234,0.06398435491837531,-0.021921366453170776,0.8787647485733032,0.3169407248497009,0.7517887949943542,-0.305323988199234,-0.3861910104751587,0.4386880695819855
74.55439022596194,-1.7011196964991802,-2.0853184240983214,-1.5136808173004286,-2.0904235591940723,2.387859897658398,0.07598874540238036,-0.04760564863681793,0.8971312642097473,0.34128984808921814,0.7868547439575195,-0.268896222114563,-0.36236441135406494,0.4210064709186554
74.72083882265392,-1.6512494616444335,-2.0682624233147653,-1.463746238292834,-2.0717801098782265,2.34272906452741,0.08828120753645871,-0.07464642822742462,0.9153709411621094,0.3673175573348999,0.8192822337150574,-0.2321498990058899,-0.33811265230178833,0.40070289373397827
74.88731204026314,-1.6013074963616685,-2.0511129923501614,-1.4139953468625195,-2.0531705273136867,2.2974829167716546,0.1008266895555938,-0.10297346115112305,0.9333202242851257,0.395257830619812,0.848854124546051,-0.19548778235912323,-0.313851535320282,0.37779390811920166
75.05378525787236,-1.5513655310789032,-2.033868933015927,-1.3643329171994114,-2.034558758153121,2.25211809534934,0.11358868068548965,-0.13259923458099365,0.9508734941482544,0.425428569316864,0.8755338191986084,-0.1591367870569229,-0.2899014949798584,0.3522402346134186
75.22025847548159,-1.501423565796138,-2.0165378912380323,-1.314596949116496,-2.0158805885543516,2.206510332177914,0.12657828258434928,-0.16353854537010193,0.9678846001625061,0.45815277099609375,0.8993273377418518,-0.1232847347855568,-0.2665131092071533,0.3240092098712921
75.38658178689589,-1.45154656701309,-1.9991540579685854,-1.2646999556922056,-1.9970998978843681,2.160596897438251,0.13979068332789998,-0.19573438167572021,0.9841339588165283,0.49370843172073364,0.9202075004577637,-0.08817828446626663,-0.24396343529224396,0.2931289076805115
75.55305500450511,-1.4019858544311123,-1.9818141462094372,-1.2147579904094405,-1.9782575758826073,2.114499929274241,0.15317104183140662,-0.22895580530166626,0.9992955923080444,0.5322104096412659,0.9380925297737122,-0.05420069769024849,-0.22260476648807526,0.25979161262512207
75.71952822211433,-1.352886190512829,-1.9645814413216602,-1.1648160251266753,-1.959372165212026,2.068268496596654,0.16668349467694699,-0.26297321915626526,1.013037919998169,0.5737762451171875,0.9529792666435242,-0.021656382828950882,-0.20272167026996613,0.2241993248462677
75.88600143972356,-1.3042683867646299,-1.947491402575297,-1.1148740598439102,-1.9404634534136738,2.021874277558193,0.18029975382653465,-0.2975742816925049,1.0250015258789062,0.6185132265090942,0.9649130702018738,0.00923532247543335,-0.18452835083007812,0.18656592071056366
76.05247465733278,-1.2560881321708417,-1.9305629056385678,-1.064932094561145,-1.921558758311836,1.9752889593572809,0.19398507228895367,-0.3325367569923401,1.0347983837127686,0.6664932370185852,0.9739561080932617,0.038303907960653305,-0.16821156442165375,0.14712941646575928
76.218947874942,-1.2083141839436937,-1.9138129461337958,-1.0149901292783796,-1.9026806545896355,1.9284863545329956,0.207711555015322,-0.36755234003067017,1.0420526266098022,0.7177333831787109,0.9801843166351318,0.06538506597280502,-0.15393893420696259,0.10614283382892609
76.38542109255123,-1.1609275274814082,-1.8972599759381263,-0.9650481639956145,-1.8838491703799032,1.8814396013891528,0.22145558301702692,-0.40222904086112976,1.0464187860488892,0.7721894979476929,0.9836864471435547,0.09032144397497177,-0.1418551355600357,0.06387442350387573
76.55189431016045,-1.1139202200398828,-1.8809192571585631,-0.9151061987128493,-1.8650819992876482,1.8341248527919167,0.23519513091791988,-0.4360989034175873,1.047597885131836,0.8297586441040039,0.9845651388168335,0.11296544969081879,-0.1320820301771164,0.020603636279702187
76.71836754228589,-1.0673110303855828,-1.8647987731115396,-0.865164229075216,-1.846393217867974,1.7865256362570963,0.2489089958625781,-0.46861040592193604,1.045356035232544,0.8902829885482788,-0.9829360246658325,-0.13317258656024933,0.12471945583820343,0.023384012281894684
76.88484095246912,-1.0211230882689073,-1.8489050801979543,-0.8152222060202465,-1.8277959160456638,1.7386279267812463,0.26257742457163813,-0.4991617798805237,1.0395318269729614,0.9535431861877441,-0.978926956653595,-0.15081273019313812,0.1198389083147049,0.06779449433088303
77.05131436065706,-0.9753789311535283,-1.8332442371652522,-0.7652801835638664,-1.8093017477599531,1.690417678306108,0.27618168083366784,-0.5271188616752625,1.0300453901290894,1.0192557573318481,-0.9726765751838684,-0.16577289998531342,0.11748161166906357,0.11232814937829971
77.21778776692757,-0.9301271045359901,-1.8178358918622803,-0.7153381616827128,-1.7909288920607167,1.64186271313352,0.2896988192819301,-0.5518046021461487,1.0169352293014526,1.0870566368103027,-0.9643373489379883,-0.17794647812843323,0.11764365434646606,0.1566794216632843
77.38426099425298,-0.8853622013354814,-1.802671962207749,-0.6653961934850889,-1.7726789846727162,1.5929636359790662,0.3031171024285514,-0.572603166103363,1.0002827644348145,1.1565614938735962,-0.9540610909461975,-0.18726889789104462,0.12031807750463486,0.2005523294210434
77.5507342118622,-0.8410628827696294,-1.7877349425861397,-0.6154542282023236,-1.7545377007206027,1.5437145330718276,0.3164333404165522,-0.5889251828193665,0.9802497625350952,1.2273472547531128,-0.942000687122345,-0.1936957985162735,0.1254783570766449,0.24366328120231628
77.71720727978631,-0.797203321344928,-1.7730049433205903,-0.5655123078250938,-1.7364865540137817,1.4941091324945845,0.3296463897282566,-0.6002093553543091,0.9570802450180054,1.2989455461502075,-0.9283095598220825,-0.19719915091991425,0.13307848572731018,0.28573378920555115
77.88344550763004,-0.7538435096325861,-1.7584917309692445,-0.5156669439859881,-1.7185435140928076,1.4442376641414625,0.3427298218654499,-0.6059287786483765,0.9311586022377014,1.370699405670166,-0.9131741523742676,-0.19776678085327148,0.14302875101566315,0.3264106214046478
