Sungjin-Park-dev/lg_sgu_vision_v2/data/curved_structure/trajectory/100/ans_glns_trajectory_joined.csv
time,ur20-shoulder_pan_joint,ur20-shoulder_lift_joint,ur20-elbow_joint,ur20-wrist_1_joint,ur20-wrist_2_joint,ur20-wrist_3_joint,target-POS_X,target-POS_Y,target-POS_Z,target-ROT_X,target-ROT_Y,target-ROT_Z,target-ROT_W
0.0,-1.9093286991119385,-1.8163434267044067,-2.6056969165802,-1.8610289732562464,-2.9563426971435547,-0.5234849452972412,-0.10475704073905945,0.5779187083244324,0.2149548977613449,0.49994876980781555,-0.5000404715538025,-0.6830368041992188,0.18295195698738098
0.19890237599611282,-1.9047273964658105,-1.8384322671088045,-2.5605632218553627,-1.8840862719751175,-3.008083651605061,-0.5234971597334875,-0.10838133096694946,0.5871785879135132,0.21511150896549225,0.5138373970985413,-0.48576149344444275,-0.6776100397109985,0.2021176517009735
0.39734961465001106,-1.8995034251522154,-1.8635102672964812,-2.5093218355237075,-1.9102637865486776,-3.066826421344929,-0.5235110270813821,-0.11123792827129364,0.5966799259185791,0.21524456143379211,0.5291101932525635,-0.46908313035964966,-0.6707978248596191,0.22368182241916656
0.6245211198831665,-1.8934427434792567,-1.89260494776235,-2.4498732450942264,-1.9406340878569377,-3.1349778729148756,-0.5235271155275455,-0.11281225085258484,0.6064696907997131,0.21533909440040588,0.546149492263794,-0.44913291931152344,-0.6620360016822815,0.2484121024608612
0.8879199337929222,-1.8864155577303066,-1.926339391340244,-2.380944317623059,-1.9758475770419808,-3.2139975170878023,-0.5235457696172506,-0.11221480369567871,0.6163467764854431,0.215366929769516,0.56496262550354,-0.42522838711738586,-0.6507376432418823,0.27665606141090393
1.1729663970718507,-1.878810836908638,-1.9628463280641728,-2.306350409238955,-2.013955115959549,-3.299511456071481,-0.5235659568087463,-0.10854773223400116,0.6255140900611877,0.21529719233512878,0.5841417908668518,-0.3984733521938324,-0.6371555924415588,0.3066432476043701
1.4434018325360962,-1.871595921966931,-1.9974819773433585,-2.2355800658192035,-2.0501093231126433,-3.3806420867107545,-0.5235851092369509,-0.10210299491882324,0.6330230236053467,0.21513400971889496,0.6011672616004944,-0.37228959798812866,-0.6229937672615051,0.33448031544685364
1.7490580639730982,-1.8664794990925366,-2.024436145078516,-2.18640115202057,-2.072347755689967,-3.437276097517065,-0.5235985430158829,-0.09585553407669067,0.6379444599151611,0.21286389231681824,0.6123725175857544,-0.35355329513549805,-0.6123723387718201,0.35355344414711
2.070558246139448,-1.8661336271193065,-2.0373625105500888,-2.1877529947293777,-2.0580697716607887,-3.436930176098235,-0.5235987638750825,-0.0958361029624939,0.6388736367225647,0.2029792070388794,0.6123724579811096,-0.35355329513549805,-0.6123723387718201,0.3535534739494324
2.364252865007189,-1.8657871745611345,-2.050310574377486,-2.189107106657958,-2.043767820432276,-3.436583674011463,-0.523598985105019,-0.09585633873939514,0.6396757364273071,0.1930805742740631,0.6123723983764648,-0.35355332493782043,-0.6123723983764648,0.35355353355407715
2.613399879149506,-1.86265415655096,-2.0577855298795993,-2.17939269864413,-2.046007042006744,-3.433450715033459,-0.5235986847527264,-0.095802903175354,0.6477945446968079,0.19083146750926971,0.6123723983764648,-0.35355344414711,-0.6123723387718201,0.35355350375175476
2.8119858289876674,-1.8588355791356121,-2.0639278473549574,-2.1669579585182643,-2.0522991219513727,-3.4296322232945813,-0.5235982563703773,-0.095796138048172,0.6577165126800537,0.19045007228851318,0.6123725175857544,-0.3535533547401428,-0.6123723387718201,0.35355344414711
3.0104628699639533,-1.855017236926898,-2.070039856097799,-2.1544955707168914,-2.058649173000436,-3.425813963088234,-0.5235978453721329,-0.09586304426193237,0.6676338911056519,0.19009798765182495,0.6123726963996887,-0.35355329513549805,-0.6123722195625305,0.3535534143447876
3.209105015806267,-1.8514659570259644,-2.074346071840746,-2.141596368583774,-2.067242530126581,-3.4222625905033066,-0.5235982624501044,-0.09580641984939575,0.6774961352348328,0.1912725865840912,0.6123723983764648,-0.3535533845424652,-0.6123723387718201,0.3535535931587219
3.4896529439992654,-1.8479081519138787,-2.0786601999329797,-2.1286734651317065,-2.0758516769035893,-3.4187046925369273,-0.5235986802944255,-0.09582376480102539,0.6873530745506287,0.19248269498348236,0.6123723983764648,-0.3535533845424652,-0.6123723387718201,0.35355353355407715
3.768218382793576,-1.8460100012867997,-2.0808499833512806,-2.122732404113487,-2.0920739309424214,-3.4030679719921615,-0.4759591019599693,-0.09652173519134521,0.6969767808914185,0.19451545178890228,0.5980129837989807,-0.3751913905143738,-0.6050653457641602,0.3681136965751648
4.162317394750689,-1.8461275108770057,-2.080456696247721,-2.125296752999656,-2.1178584756021235,-3.372387981184328,-0.3691654230466806,-0.0976356565952301,0.7065114378929138,0.19704189896583557,0.5633382201194763,-0.4219329059123993,-0.5870392322540283,0.4000094532966614
4.5636348507413205,-1.846247041158712,-2.0800566461905508,-2.127905198354796,-2.1440864105429416,-3.3411804181455915,-0.26053532313237293,-0.09826746582984924,0.716246485710144,0.19887815415859222,0.5246941447257996,-0.4667706787586212,-0.5664331316947937,0.43124768137931824
5.258774423172403,-1.8463682949295892,-2.0796508278717196,-2.1305512544915537,-2.1706925221365325,-3.309522877944802,-0.15033890213069442,-0.09840220212936401,0.7261103987693787,0.19997575879096985,0.48222821950912476,-0.5092183351516724,-0.543289065361023,0.46150800585746765
5.646646239760644,-1.8448138739104334,-2.0768078406373864,-2.122255497195055,-2.16523856241977,-3.326247804599164,-0.08212521190335012,-0.09832125902175903,0.7248365879058838,0.20416271686553955,0.47406789660453796,-0.5175142288208008,-0.5264161229133606,0.4799216091632843
5.865134930557933,-1.8421565701998934,-2.072332350311794,-2.1068486819919756,-2.139869385013487,-3.3734419194508,-0.03631111988024374,-0.09741021692752838,0.7165583968162537,0.20952247083187103,0.488322377204895,-0.5073672533035278,-0.5122560858726501,0.4916434586048126
6.174958613986483,-1.8388200408118494,-2.066036597864217,-2.0942440294167475,-2.110631603008666,-3.409502991833762,0.012694172881414357,-0.09625321626663208,0.7123000025749207,0.21339097619056702,0.5005631446838379,-0.5010598301887512,-0.49900582432746887,0.49936842918395996
6.551551809943855,-1.8339697112719477,-2.0552015975546563,-2.092692439727865,-2.074637761008377,-3.4042057800325414,0.06273496719148139,-0.09780199825763702,0.7215662002563477,0.21660010516643524,0.5026126503944397,-0.5052214860916138,-0.4952722489833832,0.4968271851539612
6.926452546442837,-1.8303059111272044,-2.0456969221608667,-2.091634018834763,-2.0477076149125772,-3.4001956559354576,0.1015149445895347,-0.09902477264404297,0.7285667657852173,0.22034280002117157,0.5040168166160583,-0.5084253549575806,-0.49257975816726685,0.49480876326560974
7.3899353001008885,-1.8344119902021767,-2.043565259233662,-2.093920246592432,-2.080392403378534,-3.4046050248002184,0.067548657401327,-0.09793601930141449,0.7197312116622925,0.2247411459684372,0.5028051733970642,-0.5056387186050415,-0.49491086602211,0.4965677857398987
7.588530265141572,-1.838502326428016,-2.0414417691758193,-2.0961977088738357,-2.112951877235504,-3.4089974879923077,0.033712598132512005,-0.09688453376293182,0.7110458612442017,0.22943784296512604,0.5014665126800537,-0.5028286576271057,-0.4973844885826111,0.4983004331588745
7.967679544727778,-1.8425774960534056,-2.0393261528289592,-2.098466726529039,-2.145390623478998,-3.41337366432421,1.99994156629274e-06,-0.09586498141288757,0.7025203108787537,0.23442532122135162,0.5,-0.5000001192092896,-0.49999985098838806,0.49999985098838806
8.34682434363644,-1.8446324972486379,-2.044614939252367,-2.1083244865255857,-2.1302461181542376,-3.415428656425487,-1.8850506548834054e-07,-0.0958414077758789,0.6966351270675659,0.22642774879932404,0.49999985098838806,-0.5,-0.5000000596046448,0.5
8.544894303515361,-1.8467440605087204,-2.04971201735723,-2.1183358566559325,-2.1151376117079947,-3.417540199527022,-2.0067036203558915e-07,-0.09586179256439209,0.6905160546302795,0.21864084899425507,0.4999999403953552,-0.4999999403953552,-0.4999999403953552,0.5
8.743491224333452,-1.8496944451795836,-2.0511396524704115,-2.1303224500995994,-2.1017234505607725,-3.42049071060141,-2.5241429758025817e-07,-0.09583699703216553,0.6822980642318726,0.2130671739578247,0.49999991059303284,-0.49999991059303284,-0.5,0.4999999701976776
8.993150498683768,-1.852646952235644,-2.0502908589811537,-2.1417313443194206,-2.091163330136927,-3.423443317740113,-2.250499349123334e-07,-0.09585613012313843,0.6740838885307312,0.20954382419586182,0.4999999701976776,-0.49999988079071045,-0.5,0.49999991059303284
9.270523351632125,-1.8555950067052573,-2.0382820032426063,-2.150249589934809,-2.0946534934853824,-3.426391342702573,1.901491097165038e-07,-0.09583964943885803,0.6661629676818848,0.21553264558315277,0.5,-0.5,-0.5,0.5
9.482581184554224,-1.8583996660288251,-2.0291689782431,-2.1585514285541985,-2.102698208355618,-3.4291312798781903,-0.007561587264553012,-0.09614723920822144,0.6577077507972717,0.22036683559417725,0.4996250569820404,-0.4993486702442169,-0.5006869435310364,0.5003381967544556
9.698627037392315,-1.860838008945562,-2.0273604781288284,-2.166292459961392,-2.1221875938718506,-3.4313422439673302,-0.03413698996900926,-0.09715378284454346,0.6480922102928162,0.22262249886989594,0.4982602000236511,-0.49706390500068665,-0.5031498670578003,0.5015020966529846
9.897263278649506,-1.8632879173332582,-2.0255433999940466,-2.174070208383785,-2.1417694208247062,-3.4335636950313697,-0.06083844428257203,-0.09818629920482635,0.6385205388069153,0.22506338357925415,0.49681487679481506,-0.49477654695510864,-0.5056999325752258,0.502631664276123
10.11952731379519,-1.8657479162856847,-2.023718837765316,-2.1818799914219644,-2.161431900463761,-3.4357942957011134,-0.08764987526077428,-0.09924225509166718,0.629004180431366,0.22768794000148773,0.4952887296676636,-0.4924902617931366,-0.5083360075950623,0.5037229061126709
10.232142496091885,-1.8656852379815603,-2.0237421330658383,-2.1812739339109948,-2.1773659938957675,-3.435592319277562,-0.10365020341258088,-0.0998172014951706,0.6273357272148132,0.23031717538833618,0.4943549633026123,-0.4911862313747406,-0.5098894238471985,0.5043432116508484
10.585252660127102,-1.8619544520810145,-2.026452428106726,-2.1684328321477864,-2.1877965394915924,-3.431853972306201,-0.10384709169367294,-0.09972414374351501,0.6369535326957703,0.23278149962425232,0.49437496066093445,-0.49130308628082275,-0.5097731351852417,0.5043272972106934
10.871317382489101,-1.858308979839595,-2.0288165247246495,-2.1562498324320587,-2.1984248436437936,-3.4271347593903125,-0.10452978567978043,-0.09980575740337372,0.6465240716934204,0.23535437881946564,0.4941115081310272,-0.491681307554245,-0.5099319815635681,0.5040560960769653
11.157827646491087,-1.8576852138127726,-2.0192857272353493,-2.1669053581569915,-2.2154941192376407,-3.3890515192323054,-0.12178595973414823,-0.10288357734680176,0.6551275253295898,0.2392319291830063,0.4842022955417633,-0.5010681748390198,-0.5192030668258667,0.4948807954788208
11.356327299979485,-1.8570243885052218,-2.0091886845763307,-2.1781939515742477,-2.2335775171928596,-3.348705671898887,-0.140067360189252,-0.10538643598556519,0.6641348600387573,0.24256493151187897,0.4738534390926361,-0.5112161636352539,-0.5283915996551514,0.4846888780593872
11.554967899826325,-1.8563221123282756,-1.9984582957186212,-2.190190632296949,-2.2527952127578965,-3.305829094538417,-0.15949547814134998,-0.10720005631446838,0.6735299229621887,0.2452274113893509,0.46304160356521606,-0.5222152471542358,-0.5374293327331543,0.4733427166938782
11.75355176350192,-1.8555763620781294,-1.9870636472348866,-2.2029299618421736,-2.2732025706397767,-3.260298263019932,-0.18012628450822557,-0.10818304121494293,0.6832388043403625,0.24706050753593445,0.4517918527126312,-0.5341184735298157,-0.5461910367012024,0.4607352614402771
11.9518496366413,-1.8547883313063043,-1.9750229759276337,-2.2163915512846026,-2.2947669294575106,-3.212186048111103,-0.2019267602861076,-0.10818222165107727,0.6931191682815552,0.2478872686624527,0.4401876926422119,-0.5469229817390442,-0.5544983744621277,0.4468127489089966
12.150214807149924,-1.8539622544717516,-1.9624009819712924,-2.2305030651902054,-2.3173724137967313,-3.1617509793089495,-0.22477976129345462,-0.10705487430095673,0.7029669880867004,0.24753886461257935,0.42836329340934753,-0.560567319393158,-0.5621402859687805,0.4315871000289917
12.348463357445754,-1.853111937303811,-1.9494086092212064,-2.245028666245298,-2.340641231682976,-3.1098359478313267,-0.248303358957386,-0.10471603274345398,0.7124590277671814,0.24589958786964417,0.4165845215320587,-0.5748166441917419,-0.5688486695289612,0.4152761995792389
12.546724070814408,-1.8522564668066042,-1.9363374964700333,-2.25964229939929,-2.364051069749361,-3.0576062864001443,-0.2719695208889275,-0.10118594765663147,0.7212457060813904,0.24296683073043823,0.4051657021045685,-0.5893257856369019,-0.5743966102600098,0.398251473903656
12.745072514769591,-1.851416723618791,-1.9235066882472205,-2.2739872697171832,-2.3870305320548884,-3.006336835809123,-0.29520059469986903,-0.0966036319732666,0.7290288209915161,0.23887039721012115,0.3944045305252075,-0.6037017107009888,-0.5786572694778442,0.38097891211509705
13.09427687363518,-1.8506099072905955,-1.9111789841010607,-2.287769764708419,-2.4091089551612908,-2.9570776926868274,-0.3175207634659876,-0.09118928015232086,0.7356346249580383,0.23383761942386627,0.384506493806839,-0.6176044940948486,-0.5816343426704407,0.3638967275619507
13.839995923161707,-1.852844088839822,-1.8935508977657964,-2.32378608899142,-2.2820863665122166,-2.9268859688643536,-0.21395857544774308,-0.08452795445919037,0.7423909306526184,0.23411501944065094,0.3722098767757416,-0.6199327707290649,-0.5931128263473511,0.3540627062320709
14.366661644597507,-1.855228327864558,-1.877855805102964,-2.3577630743036617,-2.1507737781489014,-2.90427957594216,-0.10620558742529862,-0.07864074409008026,0.7476403713226318,0.23997487127780914,0.3605763614177704,-0.6181381344795227,-0.6053997278213501,0.3483979403972626
14.605633935345987,-1.856936931063754,-1.8878917108417193,-2.35263969880119,-2.1172575865778187,-2.905485702965649,-0.07677445371134885,-0.0748738944530487,0.7567360401153564,0.23867376148700714,0.3585405647754669,-0.6165761351585388,-0.607404351234436,0.3497748374938965
14.804237356795648,-1.8586673443352981,-1.8980557234635378,-2.3474509241525463,-2.083313565676121,-2.906707226025887,-0.04696763583861331,-0.07106252014636993,0.7658158540725708,0.23739364743232727,0.3565519154071808,-0.6149627566337585,-0.6093776226043701,0.351212739944458
15.047115093685498,-1.8604209300755146,-1.9083558453419927,-2.342192665109642,-2.048914990493149,-2.907945106857595,-0.016761666176687895,-0.06720545887947083,0.774878978729248,0.23613236844539642,0.3546123206615448,-0.6132979989051819,-0.6113178730010986,0.3527125418186188
15.182749045806624,-1.8600051342099466,-1.915396604500732,-2.3451744193119746,-2.022392205172712,-2.907239472038189,0.00021595500777678138,-0.06683532893657684,0.7768905162811279,0.2327708899974823,0.3535555601119995,-0.6123501062393188,-0.6123816967010498,0.3535737097263336
15.487408614665137,-1.856841989754633,-1.918220122066398,-2.358575114526404,-2.006170846069203,-2.9040764201857288,0.00021305162403600288,-0.0708702951669693,0.7699992656707764,0.22687014937400818,0.3535555601119995,-0.6123501062393188,-0.6123817563056946,0.3535737991333008
15.685986499249802,-1.853666769477967,-1.9210544188722125,-2.3720269690867606,-1.9898875592739953,-2.9009012928654423,0.0002101371561528886,-0.07489649951457977,0.7629810571670532,0.221115380525589,0.3535556495189667,-0.6123501062393188,-0.6123816967010498,0.35357385873794556
15.884556653857098,-1.8504005040228566,-1.9239400625483627,-2.3855192190963765,-1.9735308357546082,-2.8976316624045513,0.00018950799632648613,-0.07894836366176605,0.7558764219284058,0.21548672020435333,0.3535553216934204,-0.6123520135879517,-0.6123809218406677,0.3535721004009247
16.083163428068026,-1.8467865765932754,-1.9270093854347867,-2.399022712140954,-1.9570566381389016,-2.8939997323353865,9.393239954045657e-05,-0.08313991129398346,0.7488070726394653,0.2099129557609558,0.3535538911819458,-0.6123624444007874,-0.6123768091201782,0.35356247425079346
16.281760609656438,-1.8431574285800172,-1.9300916352232405,-2.412583077120518,-1.9405130570316302,-2.890352505861796,-2.0457278433043017e-06,-0.08731415867805481,0.7416086792945862,0.2044943869113922,0.3535527288913727,-0.6123731136322021,-0.612372636795044,0.35355260968208313
16.48803562360709,-1.8395129806459407,-1.9331868792950724,-2.4262006104794627,-1.9238997307720358,-2.8866899032514244,-9.842848401152594e-05,-0.09146898984909058,0.734282374382019,0.19923418760299683,0.35355156660079956,-0.6123839616775513,-0.6123681664466858,0.3535425662994385
16.59189985013294,-1.8392385522276633,-1.9355359214789252,-2.427796477149757,-1.919978173567535,-2.886411806893774,-0.00012114069832205293,-0.09181594848632812,0.7335962653160095,0.19752267003059387,0.35355162620544434,-0.6123863458633423,-0.6123670935630798,0.3535403609275818
17.004433533142645,-1.8434612458877462,-1.9368812600463021,-2.4133478932100547,-1.933003160109526,-2.8906501730665926,-4.548531563069338e-05,-0.08707597851753235,0.7418184876441956,0.20044250786304474,0.35355281829833984,-0.6123775243759155,-0.6123703718185425,0.35354873538017273
17.19954486746653,-1.8482206992916574,-1.940005200382801,-2.396167318686567,-1.957995442850389,-2.8955972843213513,-0.011266200991062562,-0.08196131885051727,0.7500059604644775,0.20184843242168427,0.35427340865135193,-0.6130477786064148,-0.6116272807121277,0.3529515266418457
17.39814130399688,-1.8537287879091906,-1.9454791468692434,-2.3752491298700504,-1.998840754551185,-2.9015190870538605,-0.0373233666197406,-0.07632534205913544,0.7581719160079956,0.20145562291145325,0.3559175729751587,-0.6145301461219788,-0.6099359393119812,0.35164400935173035
17.596742154996235,-1.8593073542823282,-1.9510231342518032,-2.3540632861370154,-2.040208695079426,-2.9075166611464005,-0.06371394201693273,-0.0705542266368866,0.7662527561187744,0.20145386457443237,0.3575502634048462,-0.6159189343452454,-0.6082722544670105,0.3504375219345093
17.79689408420068,-1.8649450638501182,-1.956625898227305,-2.3326528329979146,-2.082015212832597,-2.9135778206958967,-0.09038430667059297,-0.0646587461233139,0.7742313146591187,0.20185744762420654,0.3591634929180145,-0.6172089576721191,-0.6066458821296692,0.3493356704711914
18.150870615894096,-1.8689774339820429,-1.9645582611777372,-2.317731773052853,-2.0938081989230364,-2.9176884201143896,-0.0953126865241132,-0.059581056237220764,0.7824153304100037,0.20108047127723694,0.35938698053359985,-0.617366373538971,-0.6064267754554749,0.3492080569267273
18.514619317966318,-1.8703369291422443,-1.9763566172918963,-2.3136142138161913,-2.055687843577935,-2.9185520860830403,-0.06408688627800985,-0.055968284606933594,0.7910740971565247,0.19783015549182892,0.3574022352695465,-0.6157666444778442,-0.608430802822113,0.35058096051216125
18.713191018569088,-1.8717198874426608,-1.9883585978777878,-2.3094255907960424,-2.016909579864558,-2.9194306578169456,-0.032322168828694944,-0.05231736600399017,0.7997168898582458,0.19458211958408356,0.3554564118385315,-0.6141021251678467,-0.6104137301445007,0.3520289361476898
19.104921015591582,-1.8731344827089815,-2.0005864378617537,-2.305088464290628,-1.9775658162950562,-2.920413510111996,-5.537853054083917e-05,-0.04863288998603821,0.8083387017250061,0.19134101271629333,0.35358089208602905,-0.612361490726471,-0.6123545169830322,0.35357579588890076
19.85915200999259,-1.8808541891881414,-2.017447386629187,-2.227474106288806,-2.092170188153736,-3.0119766452728807,-0.05393810259048819,-0.050152361392974854,0.8106565475463867,0.20066437125205994,0.3804488778114319,-0.5989497303962708,-0.5949752926826477,0.377521276473999
20.102407901667103,-1.8857698762232815,-2.028183953813442,-2.1780515156242206,-2.16514695565609,-3.0702814160076493,-0.08824907138114758,-0.049342215061187744,0.8105897903442383,0.21054114401340485,0.3961299955844879,-0.5884037613868713,-0.5848307013511658,0.39349085092544556
20.401637942487653,-1.8885357365907292,-2.0389212003482227,-2.138055534307824,-2.2188462701636973,-3.1164177368412966,-0.11257023352426662,-0.04818612337112427,0.8109831213951111,0.21913203597068787,0.4079720973968506,-0.578768789768219,-0.5771206021308899,0.40683794021606445
20.733176506157676,-1.8821443549945855,-2.0695053911829566,-2.0867120438212394,-2.2438361066654706,-3.1670511251721236,-0.11553385281064238,-0.05016711354255676,0.8205946087837219,0.21770848333835602,0.4226261079311371,-0.5655997395515442,-0.5667307376861572,0.4246179163455963
20.931698790784637,-1.8750398871706269,-2.1035018591513666,-2.029640161843208,-2.271614058377814,-3.2233336789209743,-0.11882812300024022,-0.05125340819358826,0.8302857875823975,0.21585679054260254,0.4383983910083771,-0.5503235459327698,-0.554762065410614,0.4440607726573944
21.142853295160403,-1.8671543558184331,-2.1412358908440274,-1.9662938105304781,-2.302445911594,-3.285803923443919,-0.12248456448274894,-0.05104526877403259,0.8399106860160828,0.21346892416477203,0.4552471339702606,-0.5326009392738342,-0.5409744381904602,0.4652235209941864
21.372484511756348,-1.8585788145896873,-2.182271774166866,-1.8974044455516954,-2.335975653168165,-3.3537405194131042,-0.12646095659677253,-0.049090415239334106,0.8491527438163757,0.2104736864566803,0.4727591276168823,-0.5124386548995972,-0.525399386882782,0.48770976066589355
21.609930183030254,-1.8497114437949775,-2.2247041272517434,-1.826170744169523,-2.3706464270887997,-3.4239890286232075,-0.13057266714187654,-0.04514232277870178,0.8575174808502197,0.20693647861480713,0.48994961380958557,-0.49064910411834717,-0.5086815357208252,0.5103487372398376
21.840414618572417,-1.8411040392405096,-2.2658924837167134,-1.7570254135068737,-2.4043007519456605,-3.4921780501627566,-0.13456383395918126,-0.039418041706085205,0.8646320700645447,0.20306982100009918,0.5057163834571838,-0.4686175286769867,-0.4918827414512634,0.5316952466964722
22.190917388674336,-1.8331371901496791,-2.304015638981375,-1.6930258174336374,-2.4354505515968468,-3.5552925047953057,-0.13825798165824468,-0.032456427812576294,0.8704667687416077,0.19910550117492676,0.5194802284240723,-0.44748300313949585,-0.47585439682006836,0.5508736968040466
22.64417793473571,-1.8108596618528388,-2.3306683663736636,-1.6323604354801124,-2.4561035845691475,-3.61614890787563,-0.17578801034669325,-0.03680771589279175,0.8759202361106873,0.20083799958229065,0.5482280850410461,-0.410464882850647,-0.4679647982120514,0.5585457682609558
22.996914551760653,-1.7806588246333939,-2.3582782974945604,-1.5627281326109714,-2.4770189381661183,-3.6863243635484984,-0.22956548003306002,-0.04413884878158569,0.8818861246109009,0.20383480191230774,0.5832846164703369,-0.36067995429039,-0.4604809880256653,0.5636010766029358
23.418865708654526,-1.744452583767604,-2.3913784334009724,-1.4792495220214439,-2.5020932870864034,-3.770454132286251,-0.2940365410989985,-0.05077451467514038,0.88885498046875,0.20623625814914703,0.6203483939170837,-0.2981097102165222,-0.4502362310886383,0.5688459873199463
23.90574219911451,-1.7025624500648773,-2.4296748454432437,-1.3826658923683224,-2.5311039715336814,-3.8677911431587004,-0.36862869160752126,-0.05566076934337616,0.8973473310470581,0.20748983323574066,0.6561427116394043,-0.22244474291801453,-0.43663766980171204,0.5738837122917175
24.387896118018386,-1.6609536577409134,-2.467714052162608,-1.2867309350666754,-2.559919815209641,-3.964474421841183,-0.4427198683397872,-0.057833924889564514,0.9069859981536865,0.20726747810840607,0.6838559508323669,-0.14461649954319,-0.4212711751461029,0.5778906941413879
25.02157921377122,-1.6249666453764953,-2.50061376700855,-1.2037577868023854,-2.5848423391460225,-4.048094785496273,-0.5068005576421472,-0.05788087844848633,0.9168323278427124,0.2060472071170807,0.7013397812843323,-0.07582394778728485,-0.40649089217185974,0.580636203289032
25.453937236475124,-1.5904208899552545,-2.522445428713829,-1.1555503326785146,-2.6047763107524777,-4.1103337875176145,-0.5233512313672244,-0.0643463134765625,0.9175171852111816,0.2046830654144287,0.7063766121864319,-0.03467358648777008,-0.38307803869247437,0.5942062139511108
25.755553832993638,-1.5500801020007575,-2.543757331737893,-1.1127420093680267,-2.6263426858522254,-4.175279162572658,-0.5233931673848622,-0.0739627480506897,0.9155726432800293,0.20318211615085602,0.7072063684463501,0.0025371250230818987,-0.3512839674949646,0.6135570406913757
26.098644799675345,-1.5041922525660274,-2.5679997287440917,-1.0640473260405552,-2.650874546125912,-4.249154853730934,-0.5234408698160946,-0.08369036763906479,0.9157706499099731,0.20141199231147766,0.7057663798332214,0.044851258397102356,-0.31394141912460327,0.6335005760192871
26.451520157410464,-1.4569969208379239,-2.5929328642622274,-1.0139651853138727,-2.6761053925871505,-4.3251354846344805,-0.5234899314324915,-0.09287978708744049,0.9188801646232605,0.1995222568511963,0.7016440629959106,0.08820247650146484,-0.27436408400535583,0.6516442894935608
26.769792481480028,-1.4144294066541103,-2.615421139287598,-0.9687939330378912,-2.6988621860089217,-4.393665707121633,-0.5235341822296654,-0.1009521484375,0.9243492484092712,0.19775788486003876,0.6956413984298706,0.12702102959156036,-0.2377724051475525,0.6658926010131836
27.042484617783334,-1.3779583926371386,-2.634688653714825,-0.9300920871230095,-2.718359761749023,-4.452381062078053,-0.5235720954476425,-0.1080637276172638,0.9310941100120544,0.19620124995708466,0.6887889504432678,0.15997308492660522,-0.2058345526456833,0.6764691472053528
27.341774469444747,-1.3509518454886493,-2.64822053688625,-0.9021685163921261,-2.7327960973549974,-4.4925449475452925,-0.5235988573368139,-0.11522075533866882,0.9370207786560059,0.19557985663414001,0.6830126047134399,0.1830129772424698,-0.1830124706029892,0.6830127239227295
27.650647453322083,-1.344416185888315,-2.6478876814415795,-0.8990151480302377,-2.736282415337497,-4.4860093055261325,-0.5235988962612044,-0.12480746954679489,0.9370847344398499,0.19816529750823975,0.6830126643180847,0.18301284313201904,-0.18301263451576233,0.6830127239227295
27.849234911902816,-1.337883316570323,-2.647554968103556,-0.8958631259422677,-2.739767244899225,-4.479476453781809,-0.5235989351689768,-0.1343936175107956,0.93707674741745,0.2007533758878708,0.6830126047134399,0.18301287293434143,-0.18301260471343994,0.6830126643180847
28.047427154435784,-1.3313489126703577,-2.647300036450423,-0.8927118652306072,-2.7431735274238886,-4.472942066058255,-0.5235989723249054,-0.1439877599477768,0.937005877494812,0.20323285460472107,0.6830126047134399,0.18301285803318024,-0.18301264941692352,0.6830127239227295
28.24590555514303,-1.324702590963403,-2.649677365278183,-0.8895574877033499,-2.743950532440988,-4.466295713348628,-0.523598950483706,-0.1538269966840744,0.9371709227561951,0.20194974541664124,0.6830126047134399,0.1830129325389862,-0.18301260471343994,0.6830126643180847
28.444519630922944,-1.3180562692564481,-2.652054694105942,-0.8864031101760925,-2.744727537458087,-4.459649360639,-0.5235989286425066,-0.16367371380329132,0.9372639656066895,0.20066429674625397,0.6830125451087952,0.1830129623413086,-0.18301250040531158,0.6830127835273743
28.643186866595418,-1.311412542599986,-2.654431094707742,-0.8832499642727797,-2.7455042390942572,-4.453005602991971,-0.5235989068098351,-0.17352333664894104,0.9372849464416504,0.1993773728609085,0.6830126643180847,0.1830129772424698,-0.18301254510879517,0.6830127239227295
28.841695274516017,-1.304778647962793,-2.656803978485669,-0.8801014846949918,-2.746279791293395,-4.446371677410074,-0.5235988850094736,-0.18336480855941772,0.9372341632843018,0.19809019565582275,0.6830126643180847,0.18301282823085785,-0.1830126792192459,0.6830126643180847
29.14409673892418,-1.2981447533255996,-2.659176862263596,-0.8769530051172041,-2.747055343492533,-4.439737751828176,-0.5235988632091122,-0.1932118684053421,0.9371114373207092,0.1968010514974594,0.6830126643180847,0.18301290273666382,-0.18301258981227875,0.6830126643180847
29.556496154567025,-1.300976654903056,-2.665048986636971,-0.8754868147890437,-2.75695432106195,-4.4292522194317225,-0.4700417905100848,-0.1955004334449768,0.9366030693054199,0.19623667001724243,0.6843213438987732,0.15759703516960144,-0.16902045905590057,0.6915919780731201
30.650492416702924,-1.3193348505484315,-2.676746862521587,-0.8767448547825013,-2.781945969041056,-4.412282513952757,-0.3279677838038797,-0.18561528623104095,0.9359305500984192,0.19686590135097504,0.6832684874534607,0.09053715318441391,-0.1302611529827118,0.7127264738082886
31.134411778529465,-1.3380938477646522,-2.688700129901134,-0.8780303606781262,-2.807483242089289,-4.39494232083197,-0.18279197525591778,-0.17570760846138,0.935818076133728,0.19749997556209564,0.6754898428916931,0.023087281733751297,-0.0883326530456543,0.7316951155662537
32.13462202406674,-1.357134461402893,-2.7008328437805176,-0.8793351650238037,-2.8334038893329065,-4.377341810856954,-0.03543673828244209,-0.16580910980701447,0.9363012313842773,0.19809265434741974,0.6608381867408752,-0.043577685952186584,-0.04357769340276718,0.7479938864707947
32.29825279215402,-1.356081338468454,-2.6933536443043042,-0.8851077482236756,-2.869716127656802,-4.328252580430773,0.010088454309279427,-0.18994198739528656,0.9343866109848022,0.22060322761535645,0.6461045145988464,-0.08007168769836426,-0.03861386328935623,0.758054256439209
32.46188732197421,-1.355028472878349,-2.685876490534238,-0.890878507275731,-2.9060202944867664,-4.2791622214847145,0.055610068357343334,-0.21395829319953918,0.9340157508850098,0.24237363040447235,0.6296700239181519,-0.11636214703321457,-0.03256632015109062,0.7674078345298767
32.62552185179441,-1.3539758351873288,-2.6784003330221173,-0.8966480031737304,-2.9423178717138376,-4.230071862538655,0.10112809534397788,-0.23779289424419403,0.9351264834403992,0.2632836103439331,0.61155766248703,-0.1523473709821701,-0.02547161467373371,0.7759760022163391
32.7891563816146,-1.3529231867115918,-2.6709247867172525,-0.9024169651048336,-2.9786126817407803,-4.180981503592597,0.14664473935547928,-0.2613806128501892,0.9376474618911743,0.28321945667266846,0.5917942523956299,-0.1879284679889679,-0.017370419576764107,0.7836840748786926
32.952790911434796,-1.3518706991578264,-2.663449417582382,-0.9081857145383323,-3.014906506495084,-4.131891144646539,0.19216066798364678,-0.284654438495636,0.941497802734375,0.3020752966403961,0.5704139471054077,-0.22300772368907928,-0.008309781551361084,0.7904595136642456
33.11642544125499,-1.3508181690535843,-2.6559740846675424,-0.9139542724757336,-3.051199449535184,-4.08280078570048,0.23767588960554098,-0.30754750967025757,0.9465895295143127,0.31975242495536804,0.5474573969841003,-0.2574891448020935,0.0016579801449552178,0.7962328791618347
33.28005997107519,-1.3497656720700728,-2.6484987821287014,-0.9197226849427378,-3.087491615124768,-4.033710426754421,0.28319048901810756,-0.3299919366836548,0.9528259038925171,0.33616095781326294,0.5229707360267639,-0.2912791073322296,0.012475843541324139,0.8009383678436279
33.44369450089538,-1.34871321953298,-2.641023458601911,-0.9254910173608238,-3.123783475894228,-3.984620067808363,0.3287049896915066,-0.3519195318222046,0.9601041078567505,0.3512214720249176,0.49700525403022766,-0.32428714632987976,0.024082450196146965,0.8045145869255066
33.607329030715576,-1.3476607626978496,-2.6335481453023477,-0.9312593078780291,-3.1600751468810557,-3.9355297088623047,0.37421941403868825,-0.37326252460479736,0.9683142304420471,0.36486414074897766,0.4696175456047058,-0.35642555356025696,0.03641203045845032,0.8069040775299072
33.77096356053577,-1.3466082426151957,-2.6260726529183795,-0.9370275149013145,-3.1963665131074817,-3.8864393499162464,0.41973341993320795,-0.39395278692245483,0.9773422479629517,0.3770313262939453,0.44087034463882446,-0.3876103162765503,0.049394361674785614,0.8080543279647827
33.93459809035596,-1.345555654936029,-2.6185970623178916,-0.9427958515054045,-3.232658274066936,-3.8373489909701877,0.46524769863011983,-0.41392332315444946,0.9870688915252686,0.3876754343509674,0.4108295142650604,-0.41776108741760254,0.06295672804117203,0.8079177141189575
34.098232620176155,-1.3445031271029377,-2.6111212475961656,-0.9485642604187318,-3.2689497777507195,-3.7882586320241294,0.5107617151725244,-0.4331072270870209,0.9973719716072083,0.3967607915401459,0.3795672059059143,-0.4468018412590027,0.07702166587114334,0.806451678276062
34.26186714999635,-1.343450552611018,-2.603645155208745,-0.9543327117685817,-3.305241334734915,-3.7391682730780706,0.5562757206841111,-0.4514395296573639,1.0081262588500977,0.40426385402679443,0.3471587896347046,-0.47466060519218445,0.09150974452495575,0.8036192655563354
34.42550167981654,-1.3423979006235136,-2.5961688316976548,-0.9601011881682794,-3.3415330837446255,-3.6900779141320124,0.6017897963112104,-0.46885591745376587,1.0192054510116577,0.4101729989051819,0.3136841952800751,-0.5012702345848083,0.10633866488933563,0.7993887066841125
34.589136209636735,-1.341345235429785,-2.5886925618395025,-0.9658696804270432,-3.3778250853716534,-3.640987555185954,0.6473037882824066,-0.4852945804595947,1.030482292175293,0.4144875705242157,0.279226690530777,-0.5265685319900513,0.12142372131347656,0.7937344312667847
34.75277073945693,-1.340292519088321,-2.581216199871416,-0.9716382953497286,-3.4141172127355537,-3.5918971962398953,0.6928178119026394,-0.5006948709487915,1.04183030128479,0.4172207713127136,0.24387316405773163,-0.5504982471466064,0.13667848706245422,0.786636233329773
34.91640526927712,-1.3392397920801118,-2.5737397710365513,-0.9774069137359975,-3.450409437328897,-3.5428068372938366,0.7383318483483811,-0.5149993300437927,1.0531235933303833,0.41839608550071716,0.20771366357803345,-0.5730074048042297,0.15201511979103088,0.7780802845954895
35.080039799097314,-1.3381870755858036,-2.5662632742646196,-0.983175466590867,-3.486701765509619,-3.4937164783477783,0.7838458896357565,-0.5281524062156677,1.064239501953125,0.41804975271224976,0.1708410233259201,-0.5940497517585754,0.16734428703784943,0.7680586576461792
35.24367432891751,-1.3371342458860622,-2.558786878691953,-0.988944083238493,-3.522994554749882,-3.44462611940172,0.829359882586577,-0.540101945400238,1.0750575065612793,0.4162290692329407,0.13335007429122925,-0.6135842800140381,0.18257668614387512,0.7565698027610779
35.4073088587377,-1.3360814004750659,-2.551310372641229,-0.9947127035236731,-3.5592873884044063,-3.3955357604556613,0.8748738714893987,-0.550798773765564,1.0854616165161133,0.4129926860332489,0.09533818066120148,-0.6315762400627136,0.19762204587459564,0.7436178922653198
35.57094338855789,-1.335028547809164,-2.5438337337364025,-1.000481322056262,-3.5955802297004364,-3.346445401509603,0.9203878602698734,-0.5601972341537476,1.0953413248062134,0.4084097146987915,0.0569038949906826,-0.6479964852333069,0.21239060163497925,0.7292137145996094
35.734577918378086,-1.3339756598722152,-2.5363572193042736,-1.0062499198219763,-3.6318731983252963,-3.2973550425635443,0.9659018152619885,-0.5682554244995117,1.1045907735824585,0.4025592803955078,0.01814747229218483,-0.6628217697143555,0.22679291665554047,0.7133743166923523
35.89821244819828,-1.3329227447328078,-2.5288806421951904,-1.0120186110253644,-3.6681664734903543,-3.248264683617486,1.0114159053011798,-0.5749356150627136,1.1131112575531006,0.3955305814743042,-0.02083052136003971,-0.6760349869728088,0.24074096977710724,0.6961224675178528
36.06184697801847,-1.3318698047424178,-2.521404008584505,-1.0177873895556442,-3.704460042238871,-3.1991743246714277,1.0569301182976345,-0.5802040100097656,1.120812177658081,0.3874211013317108,-0.05992887169122696,-0.6876253485679626,0.25414758920669556,0.6774871349334717
36.225481507838666,-1.3308169298966657,-2.5139275760470063,-1.0235560766663139,-3.7407537883314403,-3.150083965725369,1.1024439798915568,-0.5840316414833069,1.127609133720398,0.3783373534679413,-0.09904564172029495,-0.6975878477096558,0.26692721247673035,0.6575036644935608
36.38911603765886,-1.3297640281294143,-2.5064511705510797,-1.029324779318796,-3.777047658467847,-3.1009936067793102,1.1479579305404208,-0.5863943099975586,1.1334277391433716,0.3683922290802002,-0.13807977735996246,-0.7059235572814941,0.278997004032135,0.6362125873565674
36.55275056747905,-1.3287111003578895,-2.498974791175408,-1.0350934969835746,-3.813341648421867,-3.051903247833252,1.1934719672100889,-0.5872721672058105,1.1382020711898804,0.35770636796951294,-0.1769309639930725,-0.7126399278640747,0.29027625918388367,0.6136606335639954
36.716385097299245,-1.3276583235687098,-2.4914982060003896,-1.0408621728486196,-3.8496363448819375,-3.0028128888871937,1.2389864541433102,-0.5866509675979614,1.1418757438659668,0.34640610218048096,-0.21549971401691437,-0.7177499532699585,0.30068740248680115,0.5898998975753784
36.88001962711944,-1.3266055309745717,-2.4840215707535007,-1.046630813149194,-3.8859311156446616,-2.9537225299411354,1.2845007677448796,-0.5845213532447815,1.144403100013733,0.334621787071228,-0.25368764996528625,-0.721272885799408,0.3101554811000824,0.5649880170822144
37.04365415693963,-1.3255527217052594,-2.476544883452366,-1.0523994163591086,-3.9222259631975835,-2.9046321709950766,1.3300148998361265,-0.580879807472229,1.1457480192184448,0.3224884569644928,-0.2913985550403595,-0.7232337594032288,0.3186097741127014,0.5389875769615173
37.207288686759824,-1.3244999159153215,-2.469068235658478,-1.0581681655286765,-3.9585214556123787,-2.855541812049018,1.3755294670636014,-0.5757274627685547,1.1458853483200073,0.31014284491539,-0.3285386860370636,-0.7236630320549011,0.3259836435317993,0.5119656324386597
37.37092321658002,-1.323447094190222,-2.461591546315654,-1.063936924788216,-3.9948173356266654,-2.8064514531029596,1.4210441178628455,-0.5690720081329346,1.1448005437850952,0.2977253794670105,-0.3650161623954773,-0.7225968241691589,0.3322141170501709,0.48399460315704346
37.53455774640021,-1.3223942554709993,-2.45411481211101,-1.0697056921221493,-4.031113615772892,-2.7573610941569013,1.4665588495680015,-0.5609257221221924,1.1424905061721802,0.2853757441043854,-0.4007422626018524,-0.720076858997345,0.33724284172058105,0.45515066385269165
37.698192276220404,-1.3213414489929292,-2.446637603504004,-1.0754746625740763,-4.067410569156704,-2.7082707352108426,1.512073570830737,-0.551306962966919,1.1389621496200562,0.273235559463501,-0.4356313943862915,-0.7161496877670288,0.34101638197898865,0.42551466822624207
37.8618268060406,-1.3202885995491809,-2.4391602969904254,-1.0812436782363093,-4.103707800243587,-2.659180376264784,1.5575883368625565,-0.5402395129203796,1.134234070777893,0.2614429295063019,-0.4696016013622284,-0.7108668684959412,0.3434865176677704,0.3951704502105713
38.02546133586079,-1.3192357138848698,-2.431682892103278,-1.0870127494917958,-4.140005343877664,-2.6100900173187256,1.6031031655358077,-0.5277532339096069,1.1283352375030518,0.250135600566864,-0.5025743246078491,-0.7042847871780396,0.3446100354194641,0.36420586705207825
38.18909586568098,-1.318182860356667,-2.4242053472291296,-1.0927820132492987,-4.1763036908927536,-2.5609996583726673,1.648618275390967,-0.5138826966285706,1.1213048696517944,0.2394469976425171,-0.5344759225845337,-0.696463942527771,0.3443498909473419,0.3327108323574066
38.352730395501176,-1.3171299328688628,-2.41672747867528,-1.0985513624197478,-4.212602471178949,-2.511909299426609,1.6941334518837683,-0.49866846203804016,1.113193154335022,0.22950761020183563,-0.5652362108230591,-0.6874697208404541,0.3426736891269684,0.3007793128490448
38.51636492532137,-1.316076955811191,-2.409249306300984,-1.104320822513045,-4.248901791543579,-2.4628189404805503,1.7396487468724886,-0.48215630650520325,1.1040592193603516,0.2204422950744629,-0.594789981842041,-0.6773706078529358,0.3395557403564453,0.26850664615631104
38.67999945514156,-1.3150239515294244,-2.4017707417544787,-1.1100904827277607,-4.2852020560483135,-2.4137285815344915,1.7851642984153597,-0.464397132396698,1.0939717292785645,0.21237000823020935,-0.6230770945549011,-0.6662390828132629,0.3349763751029968,0.23598986864089966
38.843633984961755,-1.3139710269389693,-2.3942920472233697,-1.1158602498633616,-4.321502839094594,-2.3646382225884333,1.830680152117797,-0.44544652104377747,1.083008885383606,0.20540276169776917,-0.6500422358512878,-0.6541507840156555,0.3289215862751007,0.2033284455537796
39.00726851478195,-1.3129180786220793,-2.3868131780772197,-1.1216301761407788,-4.357804476511652,-2.315547863642375,1.8761961171056611,-0.4253653287887573,1.0712559223175049,0.19964510202407837,-0.6756353378295898,-0.6411843299865723,0.3213840425014496,0.1706218719482422
39.17090304460214,-1.3118650992183438,-2.379334081604739,-1.12740027488796,-4.394106918135108,-2.2664575046963162,1.9217121883570711,-0.404218852519989,1.0588072538375854,0.19519296288490295,-0.6998117566108704,-0.6274210810661316,0.312362402677536,0.13797101378440857
39.334537574422335,-1.3108121197683913,-2.3718546905027256,-1.1331705261088207,-4.4304097651606495,-2.217367145750258,1.9672284151574995,-0.38207656145095825,1.0457627773284912,0.19213318824768066,-0.7225325107574463,-0.6129444241523743,0.30186182260513306,0.10547693073749542
39.49817210424253,-1.3097588867437975,-2.3643751568891753,-1.1389412812169804,-4.466714459621083,-2.168276786804199,2.012745307587811,-0.3590123653411865,1.032228708267212,0.19054338335990906,-0.743764340877533,-0.5978394746780396,0.2898939847946167,0.07324005663394928
39.66180663406272,-1.3087056863350341,-2.356895165832256,-1.144712140241071,-4.50301948781024,-2.119186427858141,2.05826249291361,-0.3351036310195923,1.0183180570602417,0.1904905140399933,-0.7634794116020203,-0.5821934938430786,0.2764763832092285,0.04136126488447189
39.825441163882914,-1.3076523860197145,-2.349415080996798,-1.1504831123766375,-4.5393251169649975,-2.070096068912082,2.103779780758308,-0.31043118238449097,1.0041464567184448,0.1920304298400879,-0.78165602684021,-0.5660943984985352,0.2616332471370697,0.009939604438841343
39.98907569370311,-1.3065990799749077,-2.3419350406443846,-1.1562541985064052,-4.575632001654664,-2.021005709966024,2.149297531683219,-0.28507912158966064,0.9898347854614258,0.1952076256275177,0.79827880859375,0.5496309995651245,-0.24539507925510406,0.02092703990638256
40.1527102235233,-1.3055458008013008,-2.334454682557383,-1.162025334832401,-4.611940262543945,-1.9719153510199656,2.194815923659856,-0.2591340243816376,0.9755054116249084,0.20005610585212708,0.8133376836776733,0.5328921675682068,-0.2277982085943222,0.05114240571856499
40.31634499980806,-1.3044924373212194,-2.326974109750516,-1.1677966371394115,-4.6482498526439056,-1.9228249181345378,2.240334837112649,-0.23268523812294006,0.9612832069396973,0.20659682154655457,0.8268289566040039,0.5159675478935242,-0.20888502895832062,0.08061247318983078
40.47997968052799,-1.3034390691600353,-2.319493561287317,-1.1735681093758001,-4.684560649607127,-1.873734513918559,2.2858545473616734,-0.20582404732704163,0.9472929239273071,0.21483901143074036,0.8387545347213745,0.49894553422927856,-0.18870411813259125,0.10924630612134933
40.64361421034818,-1.3023856331250312,-2.3120123261626735,-1.179340009766569,-4.720874973156672,-1.8246441549725003,2.331375643028313,-0.17864304780960083,0.9336597323417664,0.22478044033050537,0.8491227030754089,0.48191407322883606,-0.16730959713459015,0.13695576786994934
40.80724910831019,-1.3013320367314127,-2.3045301618862677,-1.1851124231759014,-4.75719424569744,-1.7755536855838991,2.3768992979170083,-0.15123629570007324,0.9205071330070496,0.23640742897987366,0.8579471111297607,0.4649598002433777,-0.1447608321905136,0.16365672647953033
40.970880091074186,-1.3002783060073853,-2.297046661376953,-1.190885305404663,-4.793521404266357,-1.7264643907546997,2.4224250316619873,-0.1236988827586174,0.9079563021659851,0.24969404935836792,0.8652468323707581,0.4481677711009979,-0.12112341076135635,0.18926860392093658
41.02866167024448,-1.287324468440882,-2.2814349657813104,-1.2082197791557525,-4.781673994826539,-1.7181715434519274,2.413687817095406,-0.12957973778247833,0.9007916450500488,0.25327616930007935,0.8609282970428467,0.45927268266677856,-0.11578597128391266,0.1856466680765152
41.24576704985582,-1.2742492044651932,-2.2656769296029844,-1.2257167424310393,-4.76971546622122,-1.7098009608321316,2.4048687018113224,-0.13532127439975739,0.8934863209724426,0.2567979395389557,0.8564121127128601,0.4703836739063263,-0.1104002371430397,0.18195968866348267
41.40787581992984,-1.2720562222621987,-2.255005065413525,-1.2380860918345988,-4.759734568411152,-1.7088991292427635,2.4101378015512873,-0.13559100031852722,0.889220118522644,0.2586078345775604,0.8576980829238892,0.46981099247932434,-0.10847848653793335,0.1785050928592682
41.75475898720483,-1.2903534479578607,-2.254028223030703,-1.2406616770096457,-4.753594840409612,-1.7220527842041455,2.441834129439731,-0.1258627027273178,0.8908125162124634,0.25738584995269775,0.8696874976158142,0.44721925258636475,-0.113120436668396,0.1756194531917572
41.95342404358248,-1.308641768825459,-2.2530518560540225,-1.243236008708153,-4.747458100468838,-1.7352000375919887,2.4735150314731955,-0.1161189004778862,0.8923775553703308,0.2562551498413086,0.8810218572616577,0.4243389368057251,-0.1178041398525238,0.17279793322086334
42.160827538250075,-1.3266723116289836,-2.2513935070430464,-1.2467219333550401,-4.74093942028652,-1.7482704466809638,2.5052077137007407,-0.10643398761749268,0.8934528827667236,0.2553713619709015,0.8916603922843933,0.4013085961341858,-0.12245801836252213,0.16999153792858124
42.37137262203958,-1.3417853533794504,-2.241390983682966,-1.2613774498252917,-4.729676785837834,-1.7605686722445715,2.5374458335958208,-0.09770417213439941,0.8888377547264099,0.2564428448677063,0.9013252854347229,0.3793259859085083,-0.12633854150772095,0.1666223406791687
42.570068691458964,-1.3570161699829806,-2.231310511373995,-1.2761471756868326,-4.718326382484701,-1.772962737000091,2.5699351828526917,-0.08904796838760376,0.8840903639793396,0.2575531303882599,0.9104570150375366,0.35695621371269226,-0.13031849265098572,0.16330157220363617
42.76739165612724,-1.3653308431574989,-2.2125094944603356,-1.2993719053325226,-4.6976066142253226,-1.777366486522551,2.6001702901536015,-0.08230578154325485,0.8771610260009766,0.25951987504959106,0.9181729555130005,0.3401883840560913,-0.1294533908367157,0.15643484890460968
43.08737333343982,-1.3725994535498691,-2.192521260934611,-1.3237252215626538,-4.675613638138219,-1.7805851119424396,2.6299406022155107,-0.0759391263127327,0.8697905540466309,0.26147162914276123,0.9253610372543335,0.3241821825504303,-0.1280462145805359,0.14905312657356262
43.304771140613944,-1.3609304356382816,-2.180992768797282,-1.3345366556444396,-4.665599672968999,-1.7719156153379239,2.6256268986867504,-0.08113889396190643,0.8660139441490173,0.26353171467781067,0.9235304594039917,0.3332102298736572,-0.12259326875209808,0.1450282335281372
43.50858556314443,-1.3422745675261432,-2.1724948838445903,-1.3404555336437025,-4.65991117808529,-1.7588528447363574,2.6088284795162293,-0.09051206707954407,0.8635543584823608,0.26571860909461975,0.9181389212608337,0.351345419883728,-0.11558064818382263,0.14219149947166443
43.699251098773225,-1.323950124628675,-2.16937241071353,-1.340662551556023,-4.659608392738724,-1.7456827342536319,2.583932328679052,-0.09991857409477234,0.8628696203231812,0.26710861921310425,0.9106456637382507,0.3725185990333557,-0.10944210737943649,0.1413394957780838
43.89791824131344,-1.3065055487116675,-2.1767546299680443,-1.3297472231049283,-4.66979423901983,-1.7324723098525125,2.543590544579584,-0.10945871472358704,0.8656282424926758,0.26689115166664124,0.8992019295692444,0.3993789553642273,-0.10515935719013214,0.14447788894176483
44.16421988652614,-1.2934787810304877,-2.1771158608992858,-1.3275600874722708,-4.672635999509192,-1.7229775837162131,2.5197726736841646,-0.11623195558786392,0.8654802441596985,0.26756590604782104,0.8916362524032593,0.4166495203971863,-0.10142490267753601,0.14526157081127167
44.55281322647403,-1.294076229126272,-2.1554181654408713,-1.3527609182277782,-4.652452968501638,-1.7249710387191355,2.5474113523933477,-0.11411414295434952,0.8563055992126465,0.27073508501052856,0.8983436226844788,0.40496861934661865,-0.09921961277723312,0.13832740485668182
44.84800895378959,-1.2946689049685225,-2.133893785295638,-1.3777604515743884,-4.632431154077972,-1.726948570543543,2.5748292608246186,-0.11198269575834274,0.8470572233200073,0.2736673653125763,0.9047772288322449,0.39326322078704834,-0.09723147749900818,0.13140858709812164
45.13245102322763,-1.2738825035233252,-2.115642051450871,-1.3958039804563123,-4.614814329013717,-1.70922774356834,2.5495116860787648,-0.11942331492900848,0.8413753509521484,0.27565962076187134,0.8963676691055298,0.41653111577033997,-0.08768520504236221,0.12384652346372604
45.330966360188185,-1.251212406349495,-2.097281274757782,-1.4136945523699511,-4.597039424996543,-1.6897978477792546,2.5200288642313495,-0.12748251855373383,0.8359493613243103,0.2776915431022644,0.8859788179397583,0.44223544001579285,-0.0773359164595604,0.1161399707198143
45.52659536085194,-1.2307445778633952,-2.0796983466808743,-1.4317590119205454,-4.581562439212688,-1.673147787647049,2.4900665520838516,-0.1344670057296753,0.8294460773468018,0.2798365354537964,0.875076949596405,0.46634867787361145,-0.06864391267299652,0.10975978523492813
45.725292268461644,-1.2135340745343879,-2.0633818961770256,-1.4498602063623478,-4.56941838704791,-1.6605064225471098,2.4597805889906916,-0.13991636037826538,0.8214219808578491,0.2819858491420746,0.86405348777771,0.4882996380329132,-0.06237626448273659,0.10528111457824707
45.98937939349711,-1.201431119424769,-2.0458141146167215,-1.4694537534766186,-4.5552065428288335,-1.6518024335360735,2.4484392970369364,-0.14272227883338928,0.8132811784744263,0.284058541059494,0.858636736869812,0.499469518661499,-0.05712827295064926,0.10004645586013794
46.28555806440328,-1.2067049297071772,-2.024984120129303,-1.4930036646770375,-4.534885870329041,-1.656463740236389,2.4999252029255232,-0.1374943107366562,0.8050376772880554,0.285896360874176,0.8731186389923096,0.47540444135665894,-0.05592171847820282,0.09234263747930527
46.58449827550876,-1.2111350210140706,-2.0041669324976734,-1.516492321072477,-4.514605377734129,-1.660440616279751,2.5488342080446436,-0.13268332183361053,0.7967012524604797,0.2875497043132782,0.8860606551170349,0.4524690806865692,-0.05483568459749222,0.08462410420179367
46.888814327094316,-1.1917946003965445,-1.981317357022444,-1.5409271925413008,-4.493142168438197,-1.6451788803247203,2.529223310016283,-0.13756389915943146,0.7881829738616943,0.28911659121513367,0.8775992393493652,0.47112226486206055,-0.04618833586573601,0.07569671422243118
47.08741592315173,-1.1720244231440542,-1.957960049225318,-1.565905022632685,-4.471202032772101,-1.6295780187416873,2.5091766451702324,-0.14224077761173248,0.7795494198799133,0.29059815406799316,0.8684826493263245,0.489810973405838,-0.03732554614543915,0.06655678898096085
47.27443235066867,-1.1591740450126162,-1.9339027646932745,-1.5919744059059886,-4.4488359681418945,-1.6191348758764983,2.502768933919368,-0.14337517321109772,0.7703767418861389,0.2920169532299042,0.8641149401664734,0.49908503890037537,-0.030804118141531944,0.057188134640455246
47.47308868986702,-1.1532146998246862,-1.9095903994691614,-1.618641071808603,-4.426449382004623,-1.6138430884547528,2.509613686801542,-0.14119042456150055,0.760763943195343,0.293234258890152,0.864679753780365,0.4993346631526947,-0.026754604652523994,0.04772798344492912
47.80119645332244,-1.1472692566073779,-1.8853347501721232,-1.645245529667503,-4.404115019333688,-1.6085636457237333,2.5164424722325145,-0.13886712491512299,0.7511513233184814,0.29417693614959717,0.8651775121688843,0.49948424100875854,-0.022831102833151817,0.038235150277614594
48.10509178088633,-1.1246413398589161,-1.8899485295986926,-1.6418345330508846,-4.413319327016436,-1.5926806356337808,2.5387457813338963,-0.1479644775390625,0.7497860789299011,0.29398930072784424,0.8648735880851746,0.4998001456260681,-0.014461442828178406,0.04454653337597847
48.30370473907916,-1.1009766115406505,-1.8965326941831457,-1.636367865658827,-4.4246549660954315,-1.576146267958323,2.56200412835204,-0.15786172449588776,0.7489765882492065,0.29390567541122437,0.864378035068512,0.500163733959198,-0.005506937857717276,0.05153911933302879
48.49226565332739,-1.0755421761941273,-1.8930495218058787,-1.6422296019389875,-4.424806632146632,-1.5575045036080366,2.587782301298421,-0.16640852391719818,0.7449973225593567,0.29383012652397156,0.8641449809074402,0.5003975033760071,0.005081377923488617,0.0531974695622921
48.69102250085799,-1.0479930715203516,-1.8807914954580773,-1.658010128311871,-4.41530285657667,-1.5366130021268902,2.6163309003476964,-0.1737549602985382,0.738305389881134,0.2937373220920563,0.8641694784164429,0.5004162192344666,0.01700790412724018,0.05005410313606262
49.01045084388347,-1.019710824458406,-1.8682072560148852,-1.6742106092687088,-4.40554616459434,-1.5151655317505761,2.6456392405331624,-0.1810494065284729,0.7315793633460999,0.29376181960105896,0.8641212582588196,0.5003177523612976,0.029064763337373734,0.046172186732292175
49.32354202386067,-1.0275120841079513,-1.84361101844296,-1.6985950232362321,-4.379787098263909,-1.5221806286769723,2.637944646790274,-0.17435531318187714,0.7245644927024841,0.2945115864276886,0.8649222254753113,0.5001642107963562,0.024960171431303024,0.0335010290145874
49.5221913036339,-1.0361293887746366,-1.818622848569945,-1.723288162821514,-4.353544214676647,-1.5298441295494092,2.629414884715331,-0.16746337711811066,0.7174394726753235,0.29513540863990784,0.8655335903167725,0.5000027418136597,0.020702052861452103,0.020499492064118385
49.710696730690586,-1.0529478399602665,-1.8045070469840976,-1.7366770615106033,-4.338112149233443,-1.54242425488361,2.612530589220279,-0.15904277563095093,0.7138875722885132,0.2954644560813904,0.8658508658409119,0.49994078278541565,0.014113275334239006,0.012735101394355297
49.94607310978932,-1.077683081334466,-1.8007818530953785,-1.7392589109709307,-4.333007850808666,-1.5597577186510676,2.5875821507174663,-0.14911559224128723,0.7137601971626282,0.2957346439361572,0.865964949131012,0.4999832510948181,0.00522624421864748,0.009696760214865208
50.12352192449192,-1.0868013929672231,-1.7872173128577236,-1.7529494854815824,-4.319500061090931,-1.566606843334286,2.578263713234648,-0.14341427385807037,0.7092729806900024,0.2959977984428406,0.8659853935241699,0.5000566840171814,0.0019803380127996206,0.0029233621899038553
50.36628629039521,-1.0759968243631322,-1.7612312841977311,-1.7806750503338686,-4.295396473524114,-1.5600759245326838,2.58888613519652,-0.14286433160305023,0.6993564963340759,0.2958785593509674,-0.8659279942512512,-0.500070333480835,-0.005599185358732939,0.008180583827197552
50.632096150883186,-1.0651478743694864,-1.7351385140191087,-1.808514502111161,-4.271193876848404,-1.5535181790004546,2.5995521903532364,-0.14209577441215515,0.6894615292549133,0.29545921087265015,-0.8657889366149902,-0.4999519884586334,-0.008991877548396587,0.0194049421697855
50.85965375052835,-1.0378752141190484,-1.7297886062146712,-1.8165776892942114,-4.269728642953773,-1.533988144122826,2.627133386760441,-0.14939874410629272,0.6851511001586914,0.29482167959213257,-0.8658519387245178,-0.49960294365882874,-0.018224159255623817,0.01910802535712719
51.081067998564,-1.0060550612327506,-1.7300207063419182,-1.819331000243468,-4.27439998849615,-1.5108744234757263,2.659396087730854,-0.15893113613128662,0.6823922991752625,0.2944389581680298,-0.8658291101455688,-0.499213844537735,-0.029304197058081627,0.01633067987859249
51.232709819521084,-0.9898566919519132,-1.720880311674987,-1.8301169786984166,-4.268048436903577,-1.4986499594381988,2.6754156572480143,-0.16162298619747162,0.6781437397003174,0.294283002614975,-0.8656651377677917,-0.4990178048610687,-0.03499941900372505,0.019495107233524323
51.53200181884191,-0.9969405860974667,-1.6978078477797716,-1.8528376906460802,-4.245303021665263,-1.502656337685573,2.6672285141420504,-0.15420351922512054,0.6715485453605652,0.2939847409725189,-0.8653976321220398,-0.49908608198165894,-0.032565128058195114,0.030652834102511406
51.79307441143498,-1.0040546260685004,-1.6746371979919252,-1.8756550915903727,-4.222460812304373,-1.5066797652531334,2.6590065302857613,-0.1468646079301834,0.6648685336112976,0.2935081422328949,-0.8649862408638,-0.4991254210472107,-0.030290892347693443,0.041893571615219116
51.98289037985287,-0.9835406833050708,-1.6584006693019215,-1.8946245258599868,-4.209889861346774,-1.4910226353132887,2.6324677876922404,-0.14856648445129395,0.6579298377037048,0.2924414873123169,-0.8528521656990051,-0.5186402201652527,-0.0380282886326313,0.047002460807561874
52.212754812161116,-0.9456224674408555,-1.6457102763247031,-1.912008917797645,-4.203012933884877,-1.4629275823484842,2.5938930476946647,-0.1554499864578247,0.6508640050888062,0.29126250743865967,-0.8321932554244995,-0.5498986840248108,-0.05200687050819397,0.04859067127108574
52.507229117482794,-0.9057133341390005,-1.6323535670640572,-1.9303060870973867,-4.195774929444825,-1.4333573826874493,2.553292919087334,-0.16236674785614014,0.6438009738922119,0.29030320048332214,-0.8090617656707764,-0.5817602276802063,-0.06670789420604706,0.05024004355072975
52.74629753895244,-0.8737859110168062,-1.6152223566552366,-1.9524711280178273,-4.184915725055126,-1.4116980263514096,2.5658586432134527,-0.16598299145698547,0.6348551511764526,0.2886941730976105,-0.8030766248703003,-0.588403582572937,-0.07615677267313004,0.0552210696041584
52.94462484188518,-0.8425458543758018,-1.596712010290448,-1.9762001953292276,-4.172915771928391,-1.3910464856872535,2.5903692674719974,-0.1686331182718277,0.6254881620407104,0.28680455684661865,-0.800743043422699,-0.5898138880729675,-0.08451324701309204,0.061543986201286316
53.19060143970709,-0.8096585061489601,-1.577225611347777,-2.0011804989418622,-4.160283059967597,-1.369305987036831,2.616172339614638,-0.17096355557441711,0.6160405874252319,0.28475287556648254,-0.7982293963432312,-0.5911532044410706,-0.09297091513872147,0.06873113662004471
53.48509207008485,-0.8087976570038005,-1.555521070749613,-2.0220390788073592,-4.143600587263572,-1.3693652921465909,2.687608893044705,-0.1649039089679718,0.6089452505111694,0.2835150957107544,-0.8186489343643188,-0.5615956783294678,-0.08900799602270126,0.08063353598117828
53.74422753981008,-0.812343097965023,-1.5335036508097308,-2.0423379229741774,-4.1263549959500585,-1.3724241000193351,2.765349533962275,-0.15780195593833923,0.6021298170089722,0.282179594039917,-0.840803325176239,-0.5268853306770325,-0.08261026442050934,0.09282826632261276
54.00406319111195,-0.8158981186740305,-1.5114267400104024,-2.0626916144250353,-4.1090628072127,-1.3754911727618837,2.843300229352837,-0.15076957643032074,0.5952921509742737,0.280612051486969,-0.8614484667778015,-0.49118584394454956,-0.07540874183177948,0.10467308759689331
54.29574876056386,-0.8107959968642653,-1.502161242841739,-2.0728448223867613,-4.102648572862913,-1.3729851388392318,2.8862662216070714,-0.14915114641189575,0.5914038419723511,0.27935633063316345,-0.870461106300354,-0.4742840528488159,-0.07337035983800888,0.10940170288085938
54.700369241980276,-0.7877757901454752,-1.5196953891306404,-2.061613316032094,-4.118964986459295,-1.35893107625476,2.8557516591024363,-0.1588255912065506,0.5936552286148071,0.2792435884475708,-0.8573436737060547,-0.49801474809646606,-0.08339741080999374,0.09993883222341537
54.8991463550901,-0.765258808522024,-1.536846236409863,-2.05062733205371,-4.1349247208612665,-1.3451842375397507,2.825904149409846,-0.16853761672973633,0.5957664847373962,0.27924275398254395,-0.8436606526374817,-0.5209152102470398,-0.0931306779384613,0.0906132310628891
55.114109774881626,-0.7432657469241513,-1.553598021661346,-2.039896967460873,-4.150513107779995,-1.3317572571526304,2.79675112480869,-0.17826902866363525,0.5977345108985901,0.27934396266937256,-0.8294884562492371,-0.5429521799087524,-0.10256247967481613,0.08144060522317886
55.38572182155688,-0.7263882100823223,-1.571769206489596,-2.0268537871972843,-4.16640561249413,-1.3209802078450825,2.7957130940907047,-0.18740397691726685,0.600814700126648,0.2797306180000305,-0.8239094614982605,-0.5511231422424316,-0.10973087698221207,0.07345521450042725
55.757874828221496,-0.7232987490948335,-1.5949060622257245,-2.0065456278946385,-4.183960540310145,-1.3172441622422617,2.8750293293512295,-0.19472689926624298,0.6074751615524292,0.28055596351623535,-0.8438130021095276,-0.5204380750656128,-0.11133069545030594,0.06876877695322037
56.27227130364287,-0.7202222227243837,-1.6179460511071988,-1.986322492570095,-4.201441971076232,-1.3135237583061616,2.954013492081229,-0.20210333168506622,0.6141025424003601,0.2811340391635895,-0.8623886108398438,-0.48914843797683716,-0.11347278207540512,0.06436921656131744
56.76932616105367,-0.7405827829942949,-1.643659010533598,-1.956792253889273,-4.221843823345657,-1.3282359799046017,2.8776920870573868,-0.2056598663330078,0.623146116733551,0.28279587626457214,-0.8486762046813965,-0.5146534442901611,-0.11175701022148132,0.04889699071645737
57.052714160937654,-0.7621093374194869,-1.6691183268642475,-1.9271534452454062,-4.242095682688075,-1.3438867246019213,2.7926756870921903,-0.20857734978199005,0.6325340270996094,0.28420737385749817,-0.8321947455406189,-0.5427480936050415,-0.10846235603094101,0.03334909677505493
57.35822913374767,-0.7832570712465183,-1.6941296145298983,-1.8980362152526078,-4.261991153296912,-1.3592620501889279,2.7091553910947797,-0.21109548211097717,0.6420800685882568,0.2852964699268341,-0.8150690793991089,-0.5696642994880676,-0.10392574965953827,0.01855999231338501
57.71670080207985,-0.8059327531029307,-1.70400063093547,-1.8829815989005605,-4.26884994071037,-1.3741371605741923,2.622119769104909,-0.20814773440361023,0.6483310461044312,0.2863720655441284,-0.7968760132789612,-0.5961126089096069,-0.09754583239555359,0.011101100593805313
58.10227199868721,-0.8311135846314087,-1.694538777633951,-1.8857459946971862,-4.259023560741816,-1.3887140855327689,2.5285044798569927,-0.19849330186843872,0.6501215696334839,0.2878755033016205,-0.7770073413848877,-0.6228490471839905,-0.09026875346899033,0.013042189180850983
58.565154627506736,-0.8552367779854466,-1.6890869521222729,-1.8849172625482484,-4.252797687628432,-1.4028043293836499,2.43811203744038,-0.19028468430042267,0.6528025269508362,0.28950202465057373,-0.7566726803779602,-0.648248016834259,-0.08380617946386337,0.014047997072339058
58.88449203243173,-0.87041192171587,-1.7136637909420407,-1.8574407091226988,-4.273594134078669,-1.412641564882114,2.3757513304512927,-0.1924590766429901,0.6624373197555542,0.2905538082122803,-0.7410101294517517,-0.6668152213096619,-0.07910327613353729,0.00203970936127007
59.090799677289475,-0.8854730795245009,-1.7380560243519765,-1.8301705418985275,-4.294234370995688,-1.4224049093930462,2.313859036993969,-0.1943379044532776,0.6721625328063965,0.291294664144516,0.725000262260437,0.6847349405288696,0.07363837212324142,0.009490984492003918
59.39822812741055,-0.9004137342448472,-1.7622530975030926,-1.8031185610455707,-4.314709467070082,-1.4320901381853526,2.252461938700084,-0.19591853022575378,0.6819582581520081,0.2917332351207733,0.7086790204048157,0.7019994258880615,0.06745655089616776,0.020503917708992958
59.92188158604694,-0.8808475732366802,-1.7735261046945714,-1.7968116584937914,-4.325594235489754,-1.4196726068060654,2.1538047916716296,-0.20467756688594818,0.682144284248352,0.29022252559661865,0.665073812007904,0.7426595687866211,0.07153505086898804,0.03188037872314453
60.295173854533644,-0.856965178460069,-1.783047000058566,-1.793231275749904,-4.335160488717438,-1.4044895448765673,2.051051890585436,-0.2144220918416977,0.681029200553894,0.2886469066143036,0.6156272888183594,0.7831287980079651,0.07619508355855942,0.04366448521614075
61.04624511779965,-0.8348606634751923,-1.7930450973186391,-1.7887309055341531,-4.345095423818099,-1.3904174051740552,1.957358891028897,-0.22385859489440918,0.6803107261657715,0.2873205542564392,0.5680520534515381,0.817250669002533,0.07968959212303162,0.055387530475854874
61.77698571303247,-0.8499597320982336,-1.8165152340750272,-1.7614912143670995,-4.365922454819615,-1.3995353319794948,2.0573983981089436,-0.22526966035366058,0.6901350617408752,0.28771331906318665,0.613724946975708,0.7836040258407593,0.0759398564696312,0.05949375033378601
62.134645441396685,-0.864941256356416,-1.8398026587458516,-1.734463580796254,-4.386587349984007,-1.4085822768626761,2.1566591101113533,-0.22637292742729187,0.7000055909156799,0.28783202171325684,0.6570737361907959,0.7475793957710266,0.07271183282136917,0.06396987289190292
62.46605005939307,-0.8837562554716607,-1.8492179850851527,-1.720678571007714,-4.394205638989216,-1.4209292276176546,2.209051798667664,-0.22263672947883606,0.7060677409172058,0.2882659137248993,0.6836893558502197,0.723857581615448,0.06746818870306015,0.06361763924360275
62.7847478138688,-0.9079258970120886,-1.840356780950171,-1.7242726613218065,-4.384617429245505,-1.4378310152415212,2.199987907813531,-0.21283620595932007,0.7070249319076538,0.2895345389842987,0.6905034780502319,0.7187101244926453,0.05911508575081825,0.05626697093248367
62.98340657450584,-0.9323599131492264,-1.831398650376887,-1.7279060648452298,-4.374924340863859,-1.4549176795537433,2.190824873474578,-0.20305821299552917,0.707966685295105,0.2910066843032837,0.6971728205680847,0.7134413719177246,0.050927843898534775,0.04855732619762421
63.34084629935555,-0.9570196050543393,-1.8223577813382852,-1.7315730269586902,-4.365141725850475,-1.472162158531764,2.1815772081523344,-0.19331035017967224,0.7088939547538757,0.2926878333091736,0.7036789655685425,0.7080621123313904,0.042936164885759354,0.04050160199403763
63.652073237611674,-0.9596960894585101,-1.833645822002785,-1.7194287197281535,-4.376424126962521,-1.4732845076576768,2.2334810359425656,-0.19450613856315613,0.7128511071205139,0.29275092482566833,0.72246253490448,0.6886612176895142,0.04258699342608452,0.04449573904275894
63.973556481733226,-0.9487656140796086,-1.8573621497715076,-1.697655854505514,-4.400589499389785,-1.464437180434275,2.322568699574847,-0.20253798365592957,0.7185906171798706,0.291648805141449,0.7476457953453064,0.6600267291069031,0.04784101992845535,0.05569373071193695
64.26727653478578,-0.9379543535393201,-1.8808198119205355,-1.6761204582422455,-4.42449130862569,-1.4556863478875026,2.4106847154906137,-0.21064986288547516,0.7242000699043274,0.29045888781547546,0.771224856376648,0.6307731866836548,0.05422138422727585,0.06631366908550262
64.49437187617255,-0.9394060984487888,-1.902561994575536,-1.6529198712303947,-4.442897803952072,-1.458748519927541,2.4788133179066434,-0.21685272455215454,0.7318468689918518,0.28916460275650024,0.7920824885368347,0.6035717129707336,0.054711487144231796,0.07289072126150131
64.72190621857285,-0.9409360670820031,-1.9243739232983117,-1.629624082639612,-4.461339314944239,-1.4618921623369616,2.5470736206267346,-0.22300022840499878,0.7394946217536926,0.2876201272010803,0.8120000958442688,0.5755323171615601,0.05566159263253212,0.07949985563755035
65.06163844539276,-0.9490917818495332,-1.939477796577761,-1.6121276727269094,-4.4740398799640735,-1.4687879000900184,2.6131800677029173,-0.2244282066822052,0.7458189725875854,0.28672921657562256,0.8326069116592407,0.5448445677757263,0.05473131686449051,0.08315346390008926
65.44233708606727,-0.9723880001340655,-1.9390563370620928,-1.6080909066670768,-4.473455321877032,-1.4842383784095228,2.6737856627851255,-0.21513670682907104,0.7491264939308167,0.28791043162345886,0.8556114435195923,0.5090759992599487,0.04844849929213524,0.08014561980962753
65.75176428424801,-0.9956197002961746,-1.9386360447649102,-1.6040653203001738,-4.47287238270469,-1.4996460671294645,2.734223412633602,-0.2058533877134323,0.7524082064628601,0.2892213761806488,0.8769462704658508,0.47244325280189514,0.042086366564035416,0.0774022787809372
66.00206690567231,-1.0085936071800028,-1.9512050718697909,-1.5880636446208005,-4.483634713589471,-1.5089256519951812,2.7900110747838145,-0.20403975248336792,0.7589677572250366,0.28901565074920654,0.8926498293876648,0.44171983003616333,0.039512794464826584,0.08061337471008301
66.21743049498066,-1.0138647454898317,-1.9736651114068133,-1.5629216402115877,-4.50303513775192,-1.5136107570087591,2.84254283660684,-0.20777103304862976,0.7680280208587646,0.2873852252960205,0.9044150114059448,0.415498822927475,0.04014270752668381,0.08821961283683777
66.41416238646373,-1.0156676061450336,-1.9975710492430931,-1.5371371911103817,-4.5252484115196125,-1.5152794451962708,2.8804151811485896,-0.21238723397254944,0.7764962911605835,0.2854519188404083,0.9115078449249268,0.3972786068916321,0.04235994443297386,0.09761490672826767
66.61283176417813,-1.0125058847746446,-2.023458608787128,-1.5105264225725337,-4.551403504305216,-1.5126299968631665,2.8971956000859698,-0.21842746436595917,0.7840609550476074,0.28322362899780273,0.9126838445663452,0.3909698724746704,0.046566493809223175,0.10946361720561981
66.98395344905317,-1.0093408090876521,-2.049373632823014,-1.4838874222797986,-4.5775863454126124,-1.5099777376914416,2.913993821616074,-0.22448474168777466,0.7915401458740234,0.28076696395874023,0.9136548638343811,0.38462480902671814,0.0510062538087368,0.12123103439807892
67.37518502930895,-1.029261217567708,-2.045708709554821,-1.4843437269129829,-4.572612332971395,-1.5242973297386162,2.964444683456278,-0.21563750505447388,0.7935536503791809,0.2817228436470032,0.9276363253593445,0.3515476882457733,0.04515111818909645,0.11775608360767365
67.59600010628498,-1.0506095771008939,-2.0402947009230896,-1.4863915050183008,-4.565791886021438,-1.53966551505859,3.017056057872222,-0.20593532919883728,0.795240044593811,0.2830248475074768,0.9410533308982849,0.31627583503723145,0.03853125125169754,0.11359412968158722
67.78041434402263,-1.0666194753396967,-2.0277989568928585,-1.497364117345601,-4.5524154942878825,-1.5513376664018643,3.0602454795296956,-0.1970604509115219,0.7933878302574158,0.28470632433891296,0.9511147737503052,0.2878217399120331,0.032863352447748184,0.10704761743545532
67.97909085566795,-1.0771006162137642,-2.0079111344773164,-1.5176444799803972,-4.5321927522809435,-1.5591830431288463,3.093702724999528,-0.18908414244651794,0.787778377532959,0.2866019606590271,0.9583883285522461,0.26667284965515137,0.028116794303059578,0.09791233390569687
68.19227406621778,-1.0876384808847877,-1.987915679427679,-1.5380345996718074,-4.511860565059473,-1.5670708789317869,3.1273410406430706,-0.18118886649608612,0.7820271849632263,0.2884082794189453,0.9650969505310059,0.24527499079704285,0.023126790300011635,0.08884292095899582
68.41620146943025,-1.1006906417647362,-1.984550270582722,-1.5404437035926883,-4.507602240476809,-1.5767472589677336,3.168150392112247,-0.17529352009296417,0.7821539044380188,0.28894326090812683,0.9716752171516418,0.21882407367229462,0.019048599526286125,0.08718062937259674
68.70655997890465,-1.1173857822341822,-2.006829547250082,-1.515146073845779,-4.528148295298436,-1.5890083056579811,3.219288009230147,-0.17220903933048248,0.7914859056472778,0.2875172197818756,0.9778119921684265,0.1849735975265503,0.01695127785205841,0.09685616195201874
68.90902805857938,-1.1338293895670302,-2.028773158796712,-1.4902295844774354,-4.548384798150528,-1.6010846243707904,3.269655174296125,-0.1688728630542755,0.800708532333374,0.28594544529914856,0.9826117753982544,0.15135277807712555,0.015225397422909737,0.10646439343690872
69.29186886158494,-1.150033244749248,-2.0503968266743886,-1.4656763841241658,-4.568326247430626,-1.6129848671578924,3.319287972753774,-0.16529372334480286,0.8098176121711731,0.2842353582382202,0.9861180186271667,0.11799760162830353,0.013857319951057434,0.11599840968847275
69.697323038807,-1.1331458709493376,-2.0638048055246103,-1.4524101234065927,-4.584513799962685,-1.6010728176473275,3.2649184982546986,-0.174742192029953,0.811981201171875,0.2829848527908325,0.9803473949432373,0.15346869826316833,0.019626837223768234,0.12239664793014526
69.91287250208134,-1.115959951514236,-2.0769665935853197,-1.4394316993532497,-4.600490501985824,-1.5889435895459667,3.209623378779201,-0.18440701067447662,0.8139489889144897,0.28181174397468567,0.9730775952339172,0.1893661767244339,0.025187483057379723,0.12894117832183838
70.10949693756575,-1.1049965817675973,-2.093265772104389,-1.4221752003847086,-4.615698022854977,-1.5804989532707636,3.1775996516851372,-0.19233274459838867,0.8193215131759644,0.27958202362060547,0.9677638411521912,0.2105446457862854,0.029641421511769295,0.13500158488750458
70.45258656441396,-1.0948312435737322,-2.109904782051518,-1.4044410797171394,-4.630767210874457,-1.5725324545581363,3.1485347208905665,-0.2001177966594696,0.8249873518943787,0.27713945508003235,0.9623702764511108,0.22978781163692474,0.03385011479258537,0.1410498172044754
70.62765482013506,-1.1032717498038247,-2.118710332045098,-1.3938109462929906,-4.637772642142811,-1.5787467232198895,3.1676956644989294,-0.19805990159511566,0.8294791579246521,0.2760075330734253,0.9651735424995422,0.21595057845115662,0.03225181624293327,0.14410075545310974
70.88389836545082,-1.1250334768639008,-2.121872408303346,-1.3883062305580862,-4.638974509705213,-1.5951146104580674,3.221392555960956,-0.1888483464717865,0.8331958055496216,0.2759619355201721,0.9728693962097168,0.1782124787569046,0.026582369580864906,0.14511622488498688
71.1055097204171,-1.1466520759211567,-2.1250136874227294,-1.3828377196228767,-4.640168472522584,-1.611374845256514,3.2747362801945092,-0.17963561415672302,0.8369091749191284,0.27603861689567566,0.9789890050888062,0.1404533088207245,0.0209891889244318,0.14633095264434814
71.29918745127543,-1.1663531497335824,-2.141181080377618,-1.3643239424525917,-4.655675768639126,-1.6265839440096008,3.3114795516302182,-0.17279581725597382,0.8435909152030945,0.2745059132575989,0.9815559387207031,0.11134913563728333,0.016883796080946922,0.15448062121868134
71.49786366489752,-1.1852471759492371,-2.1606458471605308,-1.3425417767470296,-4.674839168054417,-1.641286407824836,3.3431852848230044,-0.16649264097213745,0.850999653339386,0.2724906802177429,0.9826431274414062,0.08492910861968994,0.013362591154873371,0.16438041627407074
71.80323742468931,-1.2038034550221075,-2.179762664316887,-1.3211489861882326,-4.6936600050468185,-1.655726052318831,3.3743242504738427,-0.160063236951828,0.8582960367202759,0.27046000957489014,0.9829110503196716,0.05887201055884361,0.010044155642390251,0.1741231083869934
71.9386699141677,-1.200196082412888,-2.1890104352533886,-1.3110241134633556,-4.702942319673549,-1.6530061460746328,3.3635576051644582,-0.1630578339099884,0.861198365688324,0.2690381109714508,0.981795608997345,0.06594531983137131,0.011940529569983482,0.1777241975069046
72.17798110730766,-1.1807771573980999,-2.1912680340665385,-1.308882237400787,-4.7054701685333375,-1.6380449527760355,3.32287716504467,-0.17294824123382568,0.8609564900398254,0.26815271377563477,0.9792851805686951,0.0966656282544136,0.017501721158623695,0.1770591139793396
72.37664178646921,-1.161461883672656,-2.1935135826231664,-1.3067517939080096,-4.7079845246383325,-1.623163616986252,3.282413862591684,-0.18284732103347778,0.8606911897659302,0.267376184463501,0.9757776856422424,0.12714225053787231,0.023043809458613396,0.17652639746665955
72.57826077474986,-1.1422607642633502,-2.1957458598659376,-1.3046339414519137,-4.7104840207622685,-1.6083702306987357,3.2421897004525175,-0.19275376200675964,0.860400915145874,0.2667074501514435,0.9712945818901062,0.15732556581497192,0.02856099233031273,0.17612400650978088
73.13566600041018,-1.1353579062874073,-2.203432504481939,-1.2958136105791958,-4.717888307232847,-1.602750695994332,3.1389587881110588,-0.19741955399513245,0.8629836440086365,0.26553183794021606,0.9605646729469299,0.21087341010570526,0.02342142164707184,0.17972002923488617
74.3302195898625,-1.1514730663662938,-2.22133345113947,-1.2744419895141892,-4.734477970591645,-1.6143011364162159,2.9177286108484686,-0.1920032650232315,0.8709737062454224,0.2631896436214447,0.933057427406311,0.3065686821937561,-0.003020122181624174,0.18817642331123352
75.36704421244049,-1.1682205849372953,-2.2381092216708085,-1.2545629106047498,-4.750262580603075,-1.6265865552228567,2.7526762512759415,-0.1858607679605484,0.8782899379730225,0.260981023311615,0.9070407748222351,0.37310901284217834,-0.026045750826597214,0.19336014986038208
75.74156523853378,-1.187857700122974,-2.2514774601212175,-1.2392922934680028,-4.76374992707467,-1.641963185623382,2.7827938690975214,-0.17758244276046753,0.8835741281509399,0.2594696283340454,0.9153714776039124,0.3483605682849884,-0.03246283903717995,0.199213445186615
76.15231741975849,-1.2072396823547888,-2.2646720132756166,-1.224220078062905,-4.777062040753028,-1.6571400369271578,2.812520187243691,-0.16926878690719604,0.8888086080551147,0.25801539421081543,0.9228832721710205,0.3236449360847473,-0.03871665149927139,0.20504002273082733
76.46955115808841,-1.1942545540959795,-2.2733838674773024,-1.2152235053355644,-4.787962334004156,-1.647260181028781,2.787919505000656,-0.17676793038845062,0.8897477984428406,0.2567066252231598,0.9155064225196838,0.3413660526275635,-0.03497384488582611,0.20998577773571014
76.66823685257431,-1.1765906074755188,-2.2814009643993445,-1.2071560674825523,-4.798461184838088,-1.6337574926907679,2.7554780815666424,-0.18662549555301666,0.8900162577629089,0.25550398230552673,0.9053784608840942,0.36501845717430115,-0.029871521517634392,0.21484656631946564
76.86691071926352,-1.1590377604358333,-2.289367636797003,-1.1991393707794464,-4.808894001848925,-1.6203397311839962,2.7232407024847043,-0.196494460105896,0.8902435302734375,0.25439485907554626,0.8946176171302795,0.3882654905319214,-0.024887481704354286,0.2197495698928833
77.07514159355227,-1.1415661447364824,-2.291129527353133,-1.198349021609454,-4.811936869397545,-1.607560032870352,2.693851694088036,-0.20589622855186462,0.8886488676071167,0.2539209723472595,0.8844150304794312,0.4102262854576111,-0.019974974915385246,0.22164255380630493
77.29168339161978,-1.1239961010190826,-2.2802527162389565,-1.212297311829063,-4.799941216318781,-1.5958894851642955,2.669832370636663,-0.21426913142204285,0.8833563327789307,0.25460389256477356,0.8760533928871155,0.430210143327713,-0.014959071762859821,0.21731539070606232
77.49043507962332,-1.1062495034749997,-2.269266608719193,-1.2263857624292362,-4.787825024071834,-1.5841016651343827,2.645571687315168,-0.22259677946567535,0.8779798150062561,0.2553102374076843,0.8671284914016724,0.45015087723731995,-0.009852373972535133,0.21296773850917816
77.75344536725004,-1.0883545325247488,-2.2581886500043375,-1.2405920018843146,-4.775607532366837,-1.5722152910574312,2.6211081684804745,-0.23086364567279816,0.8725285530090332,0.25603950023651123,0.8576496243476868,0.46999800205230713,-0.004662502557039261,0.20860779285430908
78.01238236963512,-1.0797634581378481,-2.2325975365335715,-1.2703788132245757,-4.750612934124059,-1.564134254522231,2.5998681333904194,-0.23003487288951874,0.8635344505310059,0.2597782611846924,0.8519811630249023,0.4844840168952942,-0.0017662812024354935,0.19849486649036407
78.21104738875987,-1.071473815241018,-2.2066517366865694,-1.3005395435914702,-4.725313378416855,-1.556190035591699,2.578786640684123,-0.22871127724647522,0.8543612957000732,0.2633518874645233,0.8461529016494751,0.49857932329177856,0.001198525307700038,0.18826134502887726
78.64720386511372,-1.063209891319275,-2.180786434804098,-1.3306066989898682,-4.700092315673828,-1.5482704639434814,2.557770554219381,-0.22716079652309418,0.8451244235038757,0.266664057970047,0.8400497436523438,0.5124296545982361,0.004299833904951811,0.17808344960212708
78.81358937125238,-1.0603490023542192,-2.1844619024914045,-1.3291318514251302,-4.663321554843781,-1.4983548121018844,2.559306437136564,-0.216047465801239,0.8713591694831848,0.25351300835609436,0.8397260308265686,0.5174657702445984,0.029949136078357697,0.1618405431509018
78.97997964576261,-1.0572247353104278,-2.1887067605398713,-1.3270046714746715,-4.626084819984975,-1.4484377297488127,2.5607270413826293,-0.20603635907173157,0.898693323135376,0.24168714880943298,0.8390041589736938,0.5214601159095764,0.05565948039293289,0.14509743452072144
79.14636992027285,-1.0539533774845045,-2.193421033341256,-1.3244358407880037,-4.58852081416387,-1.3985206473957408,2.5620372298413763,-0.19693535566329956,0.9268185496330261,0.2312898337841034,0.8378950357437134,0.5243313908576965,0.08137394487857819,0.12801091372966766
79.31276019478308,-1.0506838881371963,-2.198457507311685,-1.3217054063063716,-4.55081468153679,-1.348603565042669,2.5632480092907524,-0.18846291303634644,0.9553582072257996,0.2224237620830536,0.8364176154136658,0.5260002017021179,0.10703634470701218,0.11078068614006042
79.47915046929332,-1.0474004649663429,-2.203721446375308,-1.3188459260351564,-4.513014157531086,-1.2986864826895974,2.564387267581778,-0.18059121072292328,0.9841011762619019,0.21518436074256897,0.8345800042152405,0.5264596343040466,0.13261115550994873,0.09343863278627396
79.64554074380355,-1.043992705010187,-2.209246942573109,-1.3157020024567394,-4.475055005614679,-1.2487694003365257,2.5654598084961124,-0.1734793782234192,1.0129797458648682,0.20959091186523438,0.8323718309402466,0.525744616985321,0.15806716680526733,0.07592418789863586
79.81193101831379,-1.0404174234068413,-2.2149950404225622,-1.312238294243865,-4.436929960104084,-1.1988523179834538,2.5664849724595107,-0.16717272996902466,1.0418460369110107,0.2056882679462433,0.8297976851463318,0.5238533616065979,0.1833650767803192,0.05822877958416939
79.97832129282402,-1.0366962138899096,-2.220943726033524,-1.308502136951662,-4.39864600942988,-1.1489352356303821,2.5674717137804777,-0.16161592304706573,1.070507287979126,0.20346152782440186,0.8268694281578064,0.5207675695419312,0.20845945179462433,0.040404632687568665
80.14471156733426,-1.0328994097930337,-2.2270621817803344,-1.3046135712944356,-4.360229099549074,-1.0990181532773105,2.5684294911732635,-0.15666264295578003,1.098726749420166,0.20285481214523315,0.8236068487167358,0.5164612531661987,0.23330417275428772,0.022552553564310074
80.31110184184449,-1.0290956988300721,-2.23331260437789,-1.3006906597157517,-4.321709738002256,-1.0491010709242388,2.5693678088293925,-0.15215840935707092,1.126272201538086,0.20380261540412903,0.8200305700302124,0.5109178423881531,0.25785666704177856,0.004772163927555084
80.47749211635472,-1.025308768508988,-2.239664664623463,-1.2967793847946194,-4.283108555625966,-0.999183988571167,2.5702954507363347,-0.14801983535289764,1.1529582738876343,0.20624861121177673,-0.8161547780036926,-0.50413978099823,-0.2820788323879242,0.012876312248408794
80.64388239086496,-1.0215054419078864,-2.2461082915066957,-1.2928339537952243,-4.244424776124368,-0.9492669062180953,2.5712190794170047,-0.14426635205745697,1.1786609888076782,0.21014782786369324,-0.8119857907295227,-0.49614545702934265,-0.30593347549438477,0.03038586489856243
80.8102726653752,-1.0176473748895547,-2.2526361028597774,-1.2887989124044743,-4.205653717092974,-0.8993498238650235,2.5721444641574522,-0.14093130826950073,1.2032703161239624,0.2154497504234314,-0.8075295090675354,-0.4869527518749237,-0.3293817937374115,0.047755882143974304
80.97666293988543,-1.0137057723216378,-2.259239472704212,-1.284634541201847,-4.166794551461451,-0.8494327415119518,2.573076993153462,-0.13803286850452423,1.226671814918518,0.22208932042121887,-0.8027938604354858,-0.47657710313796997,-0.3523835241794586,0.06497649103403091
81.14305321439566,-1.0096810462937549,-2.2658997760192294,-1.280353186565831,-4.127859510571979,-0.79951565915888,2.5740209009228496,-0.1355338841676712,1.248729944229126,0.22997528314590454,-0.7977911233901978,-0.46503186225891113,-0.3748989999294281,0.08200745284557343
81.3094434889059,-1.0056095906247702,-2.2725835775551095,-1.2760307408730098,-4.088877638733995,-0.7495985768058083,2.5749791662644994,-0.13332699239253998,1.2692822217941284,0.23898756504058838,-0.7925373315811157,-0.4523327648639679,-0.3968929350376129,0.09877093881368637
81.47583376341613,-1.001531626329229,-2.279258053970034,-1.271748857741673,-4.0498788761087114,-0.6996814944527366,2.5759546990764917,-0.13129718601703644,1.2881779670715332,0.24899110198020935,-0.7870488166809082,-0.4385012090206146,-0.41833385825157166,0.11518546938896179
81.64222403792637,-0.9974813335427026,-2.2858948895746356,-1.2675774378137223,-4.010889900667145,-0.6497644120996648,2.5769496356227948,-0.1293436884880066,1.3052889108657837,0.2598431706428528,-0.7813402414321899,-0.42356646060943604,-0.4391942620277405,0.13117653131484985
81.8086143124366,-0.993480006660241,-2.292475084884977,-1.263559273057255,-3.9719306963708765,-0.5998473297465932,2.577966157739011,-0.12739604711532593,1.3205162286758423,0.2713991105556488,-0.7754244208335876,-0.40756264328956604,-0.45944899320602417,0.1466839611530304
81.97500458532589,-0.9895216849022535,-2.2989995168361355,-1.2596793541541467,-3.933012101477954,-0.5499302478798064,2.579004119881939,-0.1254459023475647,1.3338063955307007,0.28352054953575134,-0.7693105936050415,-0.3905285596847534,-0.47907179594039917,0.1616753190755844
82.14139477003951,-0.9855958123316111,-2.305469615170932,-1.255917162873401,-3.8941466849934687,-0.5000131924657224,2.580064653953804,-0.12349732220172882,1.3451192378997803,0.29606980085372925,-0.7630077004432678,-0.3725041151046753,-0.49803707003593445,0.17612235248088837
82.30778503662626,-0.9816869700161543,-2.311895256239104,-1.2522351324213659,-3.8553395636293346,-0.4500961124897003,2.5811463714007092,-0.12157341837882996,1.3544371128082275,0.3089068830013275,-0.7565246820449829,-0.35352933406829834,-0.5163190960884094,0.19000530242919922
82.47417517129853,-0.9777882174754752,-2.31828131395761,-1.2486164391501384,-3.8165950271208873,-0.4001790720880189,2.582248100555748,-0.11968447268009186,1.3617445230484009,0.3218854069709778,-0.7498716115951538,-0.33364570140838623,-0.5338944792747498,0.20329715311527252
82.64056550335398,-0.9739080674114955,-2.324627497836838,-1.2450800406242986,-3.7779115771127,-0.3502619724713835,2.583368890296716,-0.11781443655490875,1.36702561378479,0.3348429799079895,-0.7430597543716431,-0.312896728515625,-0.5507449507713318,0.21595805883407593
82.8069559521091,-0.9700594496329662,-2.3309329504470306,-1.241654962340378,-3.739286420840954,-0.300344837844846,2.5845079623118847,-0.11594362556934357,1.3702740669250488,0.34761321544647217,-0.7361000180244446,-0.29132890701293945,-0.5668555498123169,0.22794504463672638
82.97334635003642,-0.9662559559575855,-2.3371963540762066,-1.2383719746042172,-3.7007167043469935,-0.2504277184666532,2.5856645319661076,-0.11405739188194275,1.3714957237243652,0.36003366112709045,-0.7290027141571045,-0.2689916491508484,-0.5822146534919739,0.23921643197536469
83.1397366267935,-0.9625099499572466,-2.343415753335803,-1.2352582988183274,-3.6622008370193218,-0.20051063543952685,2.5868377095811135,-0.1121494472026825,1.370711326599121,0.37194961309432983,-0.7217773199081421,-0.24593579769134521,-0.5968130230903625,0.24973426759243011
83.30612679229901,-0.9588305023065163,-2.3495883425021575,-1.232330402291005,-3.6237406990791525,-0.1505935857878751,2.5880263119002134,-0.11022680997848511,1.3679567575454712,0.3832206726074219,-0.7144324779510498,-0.2222128063440323,-0.6106430292129517,0.2594662606716156
83.47251717447054,-0.9552222296661566,-2.355704262047884,-1.229584574147372,-3.5853528495872333,-0.10067647113641465,2.5892283287372835,-0.10831183195114136,1.363283395767212,0.393734872341156,-0.7069766521453857,-0.19787316024303436,-0.6236972212791443,0.26838770508766174
83.63890760671384,-0.9516823543942068,-2.3617547214211845,-1.2269920844770998,-3.547056770113597,-0.05075934146342343,2.590440309374654,-0.1064489483833313,1.3567606210708618,0.4034009277820587,-0.6994184851646423,-0.17296409606933594,-0.6359665393829346,0.2764846086502075
83.80529792955635,-0.9482011373910308,-2.3677387138021238,-1.2245121393631373,-3.508859049924781,-0.0008422446106744128,2.59165824225001,-0.10470068454742432,1.348472237586975,0.4121311902999878,-0.6917675137519836,-0.1475294530391693,-0.6474393606185913,0.2837514877319336
83.97168831422552,-0.9447749465090415,-2.3736548508900097,-1.222124288404036,-3.470767460339995,0.049074870790075775,2.5928797240739168,-0.10312002897262573,1.3385026454925537,0.4198349118232727,-0.6840329170227051,-0.12161711603403091,-0.6581082940101624,0.2901752293109894
84.13807870759986,-0.9413974108723526,-2.3795163711540144,-1.2198180909763048,-3.4327719992567918,0.09899198880238025,2.5941031555234906,-0.10176697373390198,1.3269438743591309,0.4264059066772461,-0.6762231588363647,-0.09527821838855743,-0.6679673790931702,0.29574277997016907
84.30446901221292,-0.9380606473354876,-2.38534597811622,-1.2175894822374924,-3.3948517744477957,0.14890908018629978,2.595327789867078,-0.10070720314979553,1.3138936758041382,0.43173202872276306,-0.6683468818664551,-0.06856591254472733,-0.6770123243331909,0.3004421591758728
84.47085923547887,-0.9347564080492263,-2.391169868050792,-1.2154367112030415,-3.3569822490370442,0.19882614716608593,2.5965533169690125,-0.10000857710838318,1.2994565963745117,0.43570518493652344,-0.6604125499725342,-0.04153461754322052,-0.6852404475212097,0.3042624592781067
84.63724942427156,-0.9314763666309473,-2.397014244300113,-1.2133584836442501,-3.31913833081928,0.24874320380389123,2.5977789703142995,-0.09974145889282227,1.2837421894073486,0.4382278323173523,-0.6524289846420288,-0.014238440431654453,-0.6926506757736206,0.30719485878944397
84.80363965455926,-0.9282133807556349,-2.4029074447201166,-1.2113574318717697,-3.281296652381238,0.298660272890204,2.599003969760463,-0.09997433423995972,1.2668631076812744,0.43921029567718506,-0.6444047093391418,0.013265537098050117,-0.6992449760437012,0.3092297315597534
84.97002984323053,-0.9249620685498803,-2.408835131536016,-1.2094112826196297,-3.243455835334354,0.3485773294915851,2.6002255938597565,-0.10077470541000366,1.2489351034164429,0.4386350214481354,-0.6363523006439209,0.040937576442956924,-0.705018162727356,0.31036943197250366
85.13642002726272,-0.9217189147414879,-2.414777585346036,-1.207497942857219,-3.2056210980124016,0.3984943847012381,2.6014417964182392,-0.10220706462860107,1.2300769090652466,0.43650123476982117,-0.6282846927642822,0.06873872131109238,-0.7099656462669373,0.31061556935310364
85.30281027583378,-0.9184811111306737,-2.4207153055334403,-1.205597462138188,-3.167797759606462,0.4484114592725581,2.6026494809539575,-0.1043347716331482,1.2104084491729736,0.4328155815601349,-0.6202152967453003,0.09662875533103943,-0.7140837907791138,0.3099680244922638
85.46920066936337,-0.9152454154681527,-2.4266336618043622,-1.2036878462739449,-3.129989466496128,0.4983285773314383,2.6038461045360415,-0.10722339153289795,1.1900538206100464,0.42759057879447937,-0.6121577024459839,0.12456823885440826,-0.717369019985199,0.3084273934364319
85.6355911333709,-0.9120086432053159,-2.4325421528979643,-1.2017451669815833,-3.0921902484286754,0.5482457165336965,2.6050294876363087,-0.11094087362289429,1.1691430807113647,0.42082130908966064,-0.6041246056556702,0.1525121033191681,-0.7198212742805481,0.30599138140678406
85.80198160134246,-0.9087673853489214,-2.438469986005033,-1.1997425600828173,-3.054386365684392,0.5981628569251648,2.606197907759824,-0.11555874347686768,1.1478105783462524,0.4124927222728729,-0.5961286425590515,0.1804124116897583,-0.7214432954788208,0.3026573359966278
85.96837186576938,-0.9055177141182378,-2.4444551230202864,-1.197648774990987,-3.0165605717959223,0.6480799362532433,2.607349239054831,-0.12114888429641724,1.1261932849884033,0.40259239077568054,-0.5881820321083069,0.20822058618068695,-0.7222390174865723,0.298423707485199
86.13476182695511,-0.9022545160525756,-2.4505369228741727,-1.195432451946453,-2.978694086022147,0.6979969246089612,2.608481162908147,-0.1277829110622406,1.1044259071350098,0.39111727476119995,-0.5802979469299316,0.23588784039020538,-0.7222132682800293,0.29329028725624084
86.3011519228952,-0.8989687459439186,-2.456734534267559,-1.1930851679721333,-2.94077086677246,0.7479139533909884,2.609591212831265,-0.1355263888835907,1.0826321840286255,0.3780885338783264,-0.5724895000457764,0.2633620500564575,-0.7213727235794067,0.28725868463516235
86.46754248055476,-0.8956466993821129,-2.4630437339813462,-1.1906256394846166,-2.902778887888406,0.7978311206888535,2.6106773204468356,-0.14443722367286682,1.0609194040298462,0.3635544776916504,-0.5647699236869812,0.2905871272087097,-0.7197273969650269,0.2803327143192291
86.63393252653917,-0.8922709427657413,-2.4694541751159167,-1.188081962588667,-2.864704768081152,0.8477481344841769,2.6117366546259495,-0.15456998348236084,1.0393884181976318,0.3475784659385681,-0.5571537017822266,0.3175056576728821,-0.7172888517379761,0.27251899242401123
86.80032271659955,-0.8888216190522196,-2.4759644838374024,-1.1854786985512493,-2.8265298187560073,0.8976651915022912,2.612764352167437,-0.16597774624824524,1.0181361436843872,0.3302258849143982,-0.5496564507484436,0.3440598249435425,-0.7140703201293945,0.26382607221603394
86.96671277210562,-0.8853050283181604,-2.4826108835385483,-1.18280334013138,-2.788252562345679,0.9475822081541113,2.6137548115894917,-0.17869266867637634,0.9972721934318542,0.3115544021129608,-0.5422878861427307,0.3701924979686737,-0.7100962996482849,0.2542528808116913
87.13310344947585,-0.881756755136035,-2.4894334488805145,-1.180031671732231,-2.7498993024643354,0.9974994113651808,2.6147073141852335,-0.19271525740623474,0.9769070744514465,0.29164305329322815,-0.5350473523139954,0.3958505690097809,-0.7054023742675781,0.24379107356071472
87.29949363476626,-0.8782097318435743,-2.4965307083829034,-1.1771106050519993,-2.7114785684436646,1.047416466952305,2.615610936311563,-0.20805543661117554,0.9571578502655029,0.2705276906490326,-0.5279327034950256,0.4209738075733185,-0.7000305652618408,0.23243333399295807
87.46588369699741,-0.8746614166680751,-2.503936238610624,-1.1740546194694992,-2.672974852895109,1.0973334856216488,2.616459348506929,-0.22472894191741943,0.9380996823310852,0.24828626215457916,-0.5209486484527588,0.4455036222934723,-0.6940133571624756,0.22019170224666595
87.6322748602179,-0.8710629623767254,-2.511689373016938,-1.170939299883505,-2.634314022797869,1.1472508345877992,2.617238138894034,-0.24277067184448242,0.9197689294815063,0.224961519241333,-0.5141111612319946,0.4693669080734253,-0.6873835921287537,0.20709416270256042
87.7986634000766,-0.8673842549324036,-2.519757032394409,-1.1678359508514404,-2.5954670906066895,1.1971673965454102,2.617948055267334,-0.2621821463108063,0.902190625667572,0.200686514377594,-0.5074344873428345,0.49251243472099304,-0.6801662445068359,0.19317235052585602
87.98658437385856,-0.8372525529442295,-2.4939059255866334,-1.2242122429860274,-2.5649592848477765,1.1588073752315005,2.617954468749081,-0.26421791315078735,0.8925971984863281,0.19980747997760773,-0.523994505405426,0.4748463034629822,-0.6731590032577515,0.21635065972805023
88.18904278702655,-0.8061586397816464,-2.467229305570602,-1.2823888206610232,-2.5334772617450514,1.1192223887933086,2.6179610214318547,-0.2659529745578766,0.882946789264679,0.19892404973506927,-0.5404393076896667,0.45603257417678833,-0.6651002168655396,0.24000272154808044
88.3981491501174,-0.7740450880659469,-2.439677899866035,-1.3424731376795886,-2.5009628731012694,1.078339322628518,2.6179677889916677,-0.2673855125904083,0.8732473850250244,0.1980428546667099,-0.5567147731781006,0.4360044598579407,-0.6559052467346191,0.2641153335571289
88.61434232527448,-0.7408451086585939,-2.4111944075966925,-1.4045901562324148,-2.4673484961250693,1.0360731489334751,2.6179747855035584,-0.26851484179496765,0.8635037541389465,0.1971721649169922,-0.5727612972259521,0.4146888852119446,-0.6454805731773376,0.2886732816696167
88.83784442246916,-0.7065211089917639,-2.3817465767059742,-1.4688102118520716,-2.4325960690233748,0.9923760094254452,2.6179820188897254,-0.26933959126472473,0.8537294864654541,0.1963219791650772,-0.5884938836097717,0.39203140139579773,-0.6337369084358215,0.31363004446029663
89.06890732101101,-0.6710358854825726,-2.351302488861869,-1.535202912281983,-2.3966679238433057,0.9472005410299821,2.6179894969903947,-0.2698591351509094,0.8439357876777649,0.19550439715385437,-0.6038170456886292,0.3679807186126709,-0.6205821633338928,0.3389289081096649
89.29405253513603,-0.647684816044302,-2.3293232810002857,-1.5783398083632931,-2.375522252110473,0.9231112889229478,2.6179938952075403,-0.2700619697570801,0.834866464138031,0.19746851921081543,-0.6123724579811096,0.35355329513549805,-0.6123723983764648,0.3535534739494324
89.53285527981262,-0.6418752954319075,-2.319782784278731,-1.5879146043082573,-2.375487902904274,0.928920727430903,2.6179938952075403,-0.2700824737548828,0.8267766833305359,0.20307883620262146,-0.6123725175857544,0.35355332493782043,-0.6123723387718201,0.35355344414711
89.72791866965036,-0.6363663755975443,-2.3101433771956708,-1.5967353596694676,-2.3763065318986607,0.9344295902548447,2.6179938952075403,-0.270041823387146,0.8191333413124084,0.20913705229759216,-0.6123725175857544,0.35355329513549805,-0.6123723387718201,0.3535534739494324
89.9248131141756,-0.6320927102552244,-2.3001999911825197,-1.6025022690195836,-2.3804830935681216,0.9387032981003776,2.6179938952075403,-0.2700998783111572,0.8133177161216736,0.21708020567893982,-0.6123724579811096,0.35355329513549805,-0.6123722791671753,0.3535534739494324
90.17025831123799,-0.6278040725794523,-2.290221769570625,-1.6082893821252262,-2.384674287378611,0.9429919784282682,2.6179938952075403,-0.2700687050819397,0.807457447052002,0.22499604523181915,-0.6123724579811096,0.35355326533317566,-0.6123723983764648,0.3535533845424652
90.31207829169459,-0.6236074234035276,-2.2867964353623704,-1.6155963601280456,-2.380792649754215,0.9471886616179696,2.6179938952075403,-0.270065039396286,0.8017817735671997,0.22488543391227722,-0.6123725175857544,0.3535533547401428,-0.6123723983764648,0.35355344414711
90.55801132011942,-0.6195010159755,-2.2900187645027468,-1.624451194446095,-2.3687154121612495,0.951295094318374,2.6179938952075403,-0.27008315920829773,0.7962811589241028,0.21672144532203674,-0.6123724579811096,0.35355326533317566,-0.6123724579811096,0.35355350375175476
90.75372097331814,-0.615127961118134,-2.2928510513171965,-1.6336193265082057,-2.356714919712696,0.9556681613280856,2.6179938952075403,-0.27003908157348633,0.7904183268547058,0.20888684689998627,-0.6123724579811096,0.3535533845424652,-0.6123724579811096,0.3535534739494324
90.95062666822008,-0.6091950262984733,-2.2932325185535687,-1.6445464087951933,-2.345406301425144,0.9616010273835539,2.6179938952075403,-0.27011415362358093,0.7826240062713623,0.20287248492240906,-0.6123724579811096,0.3535533547401428,-0.6123723387718201,0.3535534143447876
91.24545696607376,-0.6032401943316886,-2.2936153937009407,-1.655513820520435,-2.334055945534544,0.9675557903323528,2.6179938952075403,-0.27007004618644714,0.7747908234596252,0.19690285623073578,-0.6123725771903992,0.35355332493782043,-0.6123722791671753,0.3535534739494324
91.40242122303093,-0.6002531816410444,-2.2884058626112918,-1.6595891568956906,-2.335190172179824,0.970542805936094,2.6179938846568094,-0.2700880169868469,0.7709168791770935,0.20043624937534332,-0.6123724579811096,0.35355329513549805,-0.6123722791671753,0.3535534739494324
91.64579054078258,-0.5992230569880508,-2.2795128337597004,-1.6591211182894965,-2.344551338082244,0.9715729809037835,2.6179938671569913,-0.2701418101787567,0.7696173787117004,0.21019554138183594,-0.6123724579811096,0.35355329513549805,-0.6123724579811096,0.3535534739494324
