Sungjin-Park-dev/lg_sgu_vision_v2/data/curved_structure/trajectory/100/glns_trajectory_comp000.csv
time,ur20-shoulder_pan_joint,ur20-shoulder_lift_joint,ur20-elbow_joint,ur20-wrist_1_joint,ur20-wrist_2_joint,ur20-wrist_3_joint,target-POS_X,target-POS_Y,target-POS_Z,target-ROT_X,target-ROT_Y,target-ROT_Z,target-ROT_W
0.0,0.33615333238710576,-1.3252339363098145,2.605666399002075,-1.2804001013385218,-0.7108610312091272,-2.467884769430384e-05,-0.1047571450471878,0.577918291091919,0.21495473384857178,0.35349366068840027,-0.6123983263969421,-0.6124112606048584,0.35350093245506287
0.4601956991803394,0.4465495158408203,-1.2740703261789734,2.4893822792529248,-1.2152888804159785,-0.7510651114319647,-1.7600732335322654e-05,-0.09659463167190552,0.5820609331130981,0.21819725632667542,0.39856329560279846,-0.5840714573860168,-0.5840809345245361,0.39856910705566406
0.8231432763940298,0.5336163380780459,-1.233718813935397,2.397671782870988,-1.163937222049196,-0.7827731052815942,-1.2018392507484567e-05,-0.09271650016307831,0.5906487107276917,0.22127722203731537,0.4325278103351593,-0.5593873262405396,-0.5593939423561096,0.43253204226493835
1.0873924261510712,0.6012325849855453,-1.202381758730618,2.3264492504754157,-1.1240574340654632,-0.8073975889366477,-7.68313760301321e-06,-0.09182997047901154,0.600206196308136,0.22397397458553314,0.45785871148109436,-0.5388522744178772,-0.5388565063476562,0.45786166191101074
1.3070522303942211,0.6574416371056546,-1.1763314195021504,2.267242311039312,-1.0909055632675597,-0.8278678005869807,-4.07926161130443e-06,-0.09277749061584473,0.6098490357398987,0.22641068696975708,0.4781773090362549,-0.5209072828292847,-0.5209096074104309,0.4781789183616638
1.5070508103135594,0.7063286681474158,-1.1536745040325709,2.215747909747586,-1.0620721907828858,-0.8456714787248518,-9.44841249600913e-07,-0.09499165415763855,0.6193357110023499,0.22866879403591156,0.4952787756919861,-0.5046765804290771,-0.5046771168708801,0.49527910351753235
1.7052117790344723,0.7270622591885484,-1.145182688743185,2.1923405272268006,-1.047157818000975,-0.8437339136490697,-4.810030408873483e-08,-0.09575921297073364,0.6289254426956177,0.2310388833284378,0.4999999701976776,-0.4999999701976776,-0.5,0.4999999701976776
1.9052065032783516,0.7370070058166558,-1.1421712076939743,2.1796234973808035,-1.0374523194667447,-0.8337892139371244,-2.902484159230947e-08,-0.09576153755187988,0.6386100053787231,0.23352965712547302,0.5,-0.5,-0.5000000596046448,0.4999999701976776
2.0999507577678704,0.7425674898292833,-1.1371019272663767,2.1733353801428748,-1.0362335343769762,-0.8282287614677137,-1.492514226905692e-08,-0.09583073854446411,0.6440508365631104,0.2321554273366928,0.5,-0.4999999701976776,-0.4999999701976776,0.49999988079071045
2.446902609852082,0.7391059111044405,-1.1277396057536773,2.180291063455306,-1.0525515943306878,-0.8316903401925566,-1.1005434636189944e-08,-0.0958017110824585,0.6406434774398804,0.2227555513381958,0.4999999701976776,-0.5,-0.5,0.5
2.6439128922791544,0.7363561723741251,-1.1177226502657616,2.186342181604259,-1.0686197141208058,-0.8344400747555277,-9.762884890975795e-09,-0.09584590792655945,0.6378934383392334,0.2132968008518219,0.5,-0.4999999701976776,-0.4999999701976776,0.49999988079071045
2.843891895797974,0.73724215557467,-1.1047027636911386,2.18770381519165,-1.08300123428282,-0.8335540666531249,-2.194688334951893e-08,-0.09579187631607056,0.6388139128684998,0.20334045588970184,0.4999999701976776,-0.5,-0.4999999701976776,0.49999988079071045
3.239794272807443,0.7381292392457334,-1.0916667052508182,2.1890671400499584,-1.0974006175814486,-0.8326669580492734,-3.414601542582465e-08,-0.09584003686904907,0.6396442651748657,0.19337435066699982,0.5000000596046448,-0.5,-0.5,0.49999991059303284
3.4863476446857047,0.7428653261975404,-1.0938731760077165,2.182053912732282,-1.0881809459284904,-0.8279308522840035,-2.190780663963333e-08,-0.09572413563728333,0.6444453597068787,0.19733986258506775,0.5,-0.5,-0.5,0.49999991059303284
3.6863141684820246,0.7486851871149255,-1.1004615232131747,2.172664164733125,-1.072202884618212,-0.8221109744194502,-2.6917411626461105e-09,-0.0956605076789856,0.6503393650054932,0.20541594922542572,0.5000000596046448,-0.5,-0.5,0.49999988079071045
3.88632781720062,0.7544625790852801,-1.1070017936394005,2.163342936019234,-1.0563414191250964,-0.8163335656255951,1.6384099989660013e-08,-0.09572812914848328,0.6561406254768372,0.2135617733001709,0.5,-0.5,-0.4999999701976776,0.49999985098838806
4.112787161534191,0.7606807011880808,-1.1089256518806803,2.154232597597063,-1.0453072162928054,-0.8101154544610082,4.398253936192206e-08,-0.09583616256713867,0.6624313592910767,0.21829713881015778,0.5,-0.5000000596046448,-0.5,0.49999985098838806
4.400337019016601,0.7683259122619439,-1.0968134035906336,2.145640770382621,-1.0488275098307844,-0.8024703390403642,9.791737525745691e-08,-0.09580928087234497,0.670435905456543,0.2123052179813385,0.5000000596046448,-0.5,-0.5,0.4999999403953552
4.597635210313584,0.7716815020758944,-1.0859949592791818,2.142976209750876,-1.0569813140447135,-0.7991147771018534,1.1595575822592795e-07,-0.09583097696304321,0.6739593148231506,0.20506247878074646,0.4999999403953552,-0.5,-0.4999999403953552,0.5
4.8425848104841105,0.7679128738936004,-1.0772380982661391,2.150173204543309,-1.0729351698501888,-0.8028833203705009,7.428792192086974e-08,-0.09581637382507324,0.669994592666626,0.19588245451450348,0.5000000596046448,-0.5,-0.5,0.5
5.020913700385305,0.768878176405225,-1.0700606725786044,2.1500258320545518,-1.0799652060036047,-0.8019179795297414,3.8272088475609915e-08,-0.09579598903656006,0.6710303425788879,0.19050124287605286,0.5,-0.5000000596046448,-0.5,0.4999999403953552
5.346458342153511,0.7781413289631214,-1.0657103731535116,2.1369943629100554,-1.0712839894670187,-0.7926548706720206,1.2453870660976448e-08,-0.09572476148605347,0.6809619665145874,0.19169981777668,0.5,-0.5,-0.5,0.5
5.553607544941796,0.7873636410477193,-1.0613792538386893,2.1240203484349403,-1.0626410476959565,-0.7834326020949279,-1.3250516767221654e-08,-0.09582656621932983,0.6908838748931885,0.19292686879634857,0.4999999403953552,-0.4999999403953552,-0.5,0.4999999403953552
5.752753726892253,0.7939059832612678,-1.0644039764765045,2.113141258368237,-1.0487373383490641,-0.7768902680357292,4.289104209204187e-08,-0.09577113389968872,0.6981780529022217,0.1991860717535019,0.4999999701976776,-0.5,-0.4999999701976776,0.4999999701976776
5.952742527924558,0.7998037267898332,-1.0691042722989326,2.102791790813418,-1.0336877123043011,-0.7709925245071638,1.1757572615256443e-07,-0.09577274322509766,0.704795241355896,0.20668284595012665,0.5000000596046448,-0.5,-0.49999991059303284,0.49999991059303284
6.148875858388921,0.8061289329763506,-1.0724083591893874,2.091883288550864,-1.0194751941023443,-0.7646673307375564,1.4766606512272922e-07,-0.09583497047424316,0.7119300961494446,0.21341045200824738,0.5,-0.5,-0.49999991059303284,0.49999991059303284
6.348868608228942,0.8141618684478776,-1.0704978948169415,2.0787014468753933,-1.0082036385233824,-0.756634454691342,1.0061878892649501e-08,-0.09578835964202881,0.7212770581245422,0.21696360409259796,0.5,-0.4999999701976776,-0.4999999701976776,0.49999991059303284
6.615009158001263,0.819052549714561,-1.0711933863292533,2.070211515400612,-0.999018089321473,-0.7517438168201295,-9.029180556693234e-08,-0.0958247184753418,0.7269863486289978,0.22084708511829376,0.5,-0.4999999403953552,-0.5000000596046448,0.4999999403953552
7.000536189295469,0.8115146631334906,-1.0822505423166027,2.080265937358042,-0.9980154344776887,-0.759281683604666,-4.379291043649522e-08,-0.0957101583480835,0.7182758450508118,0.22576266527175903,0.49999991059303284,-0.4999999701976776,-0.4999999701976776,0.4999999701976776
7.200631608136116,0.8039376979853048,-1.0933650217735624,2.0903724843241256,-0.9970075815834715,-0.7668586288536872,2.9470483096659962e-09,-0.09573858976364136,0.7095241546630859,0.23061060905456543,0.4999999403953552,-0.5,-0.5,0.49999991059303284
7.435384246385467,0.7967913660403717,-1.1011979780816121,2.100458734485572,-0.9992609021076881,-0.7740049510410334,3.952692400100986e-08,-0.09584340453147888,0.7013309001922607,0.23279987275600433,0.5000000596046448,-0.4999999403953552,-0.5,0.49999988079071045
7.712178784856971,0.7914179933369505,-1.095870506890185,2.110388248140612,-1.014517702115852,-0.7793783545508386,3.526763682424473e-08,-0.09581059217453003,0.6953725814819336,0.2247685045003891,0.5,-0.5000000596046448,-0.5,0.5
7.9305109757249665,0.7864481599529047,-1.0914535456041274,2.1198433075099614,-1.028396624810032,-0.7769060818654829,5.477374115000332e-06,-0.09604570269584656,0.6933693885803223,0.21773982048034668,0.49813711643218994,-0.5018584132194519,-0.5018556118011475,0.498134970664978
8.229043610543014,0.782636086132937,-1.0895730245459168,2.127896856049092,-1.0383568780676988,-0.7530300200801621,2.5736143569689305e-05,-0.09651167690753937,0.7023038864135742,0.2132759839296341,0.49114590883255005,-0.5087110996246338,-0.5086987614631653,0.4911355674266815
8.429023172855379,0.7788014398857438,-1.0876813683610695,2.1359980920536006,-1.04837610895865,-0.7290125810045435,4.611487124680298e-05,-0.0966527909040451,0.7112669348716736,0.20884615182876587,0.4840182960033417,-0.5155057311058044,-0.5154843926429749,0.484000027179718
8.629037249982359,0.7749440821847745,-1.0857785084668754,2.1441473092368626,-1.0584546807338922,-0.7048528938772868,6.661429598482345e-05,-0.0964636504650116,0.7202482223510742,0.2044512927532196,0.47675344347953796,-0.5222393274307251,-0.5222097039222717,0.4767276644706726
8.828489236682655,0.7707221122892135,-1.0842207818195335,2.1528451040602032,-1.0687359520301947,-0.6800876967595358,8.653815603157114e-05,-0.09592260420322418,0.7292466163635254,0.20018644630908966,0.46913835406303406,-0.5290975570678711,-0.5290604829788208,0.4691052734851837
9.031883162889399,0.7489311446779733,-1.1007748408371647,2.187350731414352,-1.0866682097848277,-0.6308809902927922,7.163654489610044e-05,-0.09365297853946686,0.7389671802520752,0.2005690485239029,0.450061559677124,-0.5454097390174866,-0.5453813076019287,0.45003542304039
9.231750128302492,0.7276864471849581,-1.1169139119599027,2.2209913493081386,-1.1041509300641899,-0.5829078294784773,5.710849701958841e-05,-0.09008586406707764,0.7482948899269104,0.20093855261802673,0.4309171140193939,-0.5606520175933838,-0.5606310963630676,0.43089738488197327
9.431622588518776,0.7070561908792922,-1.132586207312987,2.253659010010672,-1.121128013423559,-0.5363221530423856,4.3000630743216576e-05,-0.08536389470100403,0.7570953965187073,0.20129434764385223,0.4118324816226959,-0.5748112797737122,-0.5747969150543213,0.41181832551956177
9.631557763997234,0.6870596350670823,-1.147777096078015,2.2853232167376207,-1.1375836109640964,-0.4911674508854372,2.932611641790582e-05,-0.07963225245475769,0.765278697013855,0.20163647830486298,0.39289018511772156,-0.5879167318344116,-0.5879077911376953,0.39288103580474854
9.831386712822832,0.6677135370681235,-1.1624738481336896,2.315957434557512,-1.1535039327255205,-0.4474815631132676,1.609641342754903e-05,-0.07303810119628906,0.7727779150009155,0.20196498930454254,0.37416720390319824,-0.6000027060508728,-0.5999982357025146,0.3741627335548401
10.250697155250728,0.6489797901818065,-1.1767054121977603,2.3456220047839738,-1.1689203375345574,-0.40517844007150927,3.2854627533700865e-06,-0.06570512056350708,0.7795666456222534,0.20228102803230286,0.35568270087242126,-0.6111387014389038,-0.6111378073692322,0.35568225383758545
10.584368390526377,0.6416862399597835,-1.1899576037032573,2.358880010697519,-1.168886710811838,-0.4055220844844894,-3.2512211235258184e-05,-0.0685843974351883,0.7735396027565002,0.20660334825515747,0.3535540997982025,-0.612366259098053,-0.6123747229576111,0.35355931520462036
10.784308651026093,0.6358429969747996,-1.2031339716720522,2.3700688188827796,-1.166856607731843,-0.4113775685151909,-7.141709250978598e-05,-0.07297444343566895,0.7659035921096802,0.21133188903331757,0.3535548448562622,-0.6123588681221008,-0.6123778223991394,0.3535660207271576
11.07832315276417,0.6299783256336949,-1.2163586600522938,2.3812986586949947,-1.1648190598524666,-0.4172545257924086,-0.00011046464586776761,-0.07750225067138672,0.7582767009735107,0.21594032645225525,0.3535555303096771,-0.6123511791229248,-0.6123811602592468,0.35357287526130676
11.343897348513357,0.6251882231895343,-1.2118033100255627,2.3929014026585103,-1.1810290236879846,-0.422029676878138,-6.300926706868639e-05,-0.08088018000125885,0.7523784041404724,0.2099977433681488,0.3535546362400055,-0.6123601794242859,-0.612377405166626,0.353564590215683
11.543849399556867,0.620535810724254,-1.2043073489815126,2.404656760290128,-1.2003480712846557,-0.4266625702446568,-1.0474267211419002e-06,-0.08421729505062103,0.7466861009597778,0.20248685777187347,0.35355350375175476,-0.612372100353241,-0.6123724579811096,0.35355377197265625
11.742562642564527,0.6135119513734754,-1.2052549198059321,2.4190838061434796,-1.2138753526388422,-0.4336707146854219,4.202599386608152e-05,-0.08885768055915833,0.7385088801383972,0.19927480816841125,0.35355231165885925,-0.6123809814453125,-0.6123690605163574,0.3535453677177429
12.132606413448933,0.6063540883639955,-1.2066232687047405,2.433677074627764,-1.2271472028998283,-0.44081301456600513,8.42639477280218e-05,-0.09370414912700653,0.7302560210227966,0.1963779479265213,0.3535512387752533,-0.6123899817466736,-0.6123656034469604,0.3535368740558624
12.508375903507224,0.6071899942650806,-1.2217092889493752,2.428937976388136,-1.207297823980642,-0.43998085412080123,6.232922983282762e-05,-0.09298749268054962,0.7313154935836792,0.20592619478702545,0.3535504937171936,-0.6123861074447632,-0.6123681664466858,0.35353994369506836
12.708321938206902,0.6082282676703364,-1.2370470699309037,2.423728479307784,-1.1867246008847738,-0.4389468029026801,3.887645245999867e-05,-0.09227679669857025,0.7325103282928467,0.2158263623714447,0.3535498082637787,-0.6123819947242737,-0.6123708486557007,0.3535431921482086
12.908297570338002,0.6092593394804604,-1.2522784661314195,2.4185551159554297,-1.1662940762559408,-0.4379199239940691,1.558634650541212e-05,-0.09172040224075317,0.7335959672927856,0.22575044631958008,0.35354921221733093,-0.6123778223991394,-0.612373411655426,0.3535463809967041
13.086581470360509,0.6133049563009189,-1.2596588350476368,2.408351859671451,-1.148686536318199,-0.4338877647200922,-6.096370203792025e-06,-0.0890367329120636,0.738237738609314,0.232871875166893,0.3535514771938324,-0.6123723983764648,-0.6123741865158081,0.3535524010658264
13.286574015309563,0.6197013800111892,-1.2609226976922014,2.394225049163212,-1.1332733826784593,-0.42751202366211705,-2.6533451863875017e-05,-0.08471907675266266,0.7457373142242432,0.23788253962993622,0.35355615615844727,-0.6123659014701843,-0.6123732924461365,0.3535604178905487
13.476399721493474,0.6262742553169244,-1.2559007862982168,2.380402392533107,-1.12444811039449,-0.4209497057789222,-4.9040037259795636e-05,-0.07995519042015076,0.7538232207298279,0.23929958045482635,0.35355761647224426,-0.6123610138893127,-0.6123744249343872,0.3535652458667755
13.676392825236073,0.632975933397735,-1.246489118235432,2.3667799533827596,-1.1202113631716406,-0.41425153019097233,-7.300996523892684e-05,-0.07490378618240356,0.7623674273490906,0.23808592557907104,0.35355690121650696,-0.6123572587966919,-0.6123769879341125,0.3535681664943695
13.876398390074721,0.6396724468993922,-1.2370847031776546,2.3531680122247667,-1.1159778809543794,-0.40755851648301583,-9.696142104006673e-05,-0.06997890770435333,0.770977258682251,0.23681236803531647,0.3535563051700592,-0.6123536825180054,-0.6123793721199036,0.35357093811035156
14.07640933795785,0.6463635746198702,-1.2276878517754428,2.339567018694443,-1.111747803584856,-0.4008708857414718,-0.00012089361348874193,-0.06518198549747467,0.7796503901481628,0.2354792207479477,0.3535556197166443,-0.6123502254486084,-0.612381637096405,0.353573739528656
14.275923555632582,0.6516260992409559,-1.2140985328903686,2.328957432627936,-1.1147184439645386,-0.39557553107685145,-0.00012956163709818239,-0.06076619029045105,0.787085771560669,0.23050622642040253,0.35354509949684143,-0.61235511302948,-0.6123882532119751,0.35356420278549194
14.475901180793992,0.6568231652846838,-1.2004360858768446,2.3184832334759973,-1.117898154142771,-0.39034465336797347,-0.00013772514801228727,-0.05649058520793915,0.7944746017456055,0.22530026733875275,0.3535342216491699,-0.6123603582382202,-0.6123949885368347,0.3535543978214264
14.73321919831263,0.6619983405120122,-1.1868311871254793,2.3080531532112603,-1.1210644709080415,-0.38513580889526555,-0.00014585427300227815,-0.05234749615192413,0.8018531203269958,0.2199738323688507,0.3535234332084656,-0.6123654842376709,-0.6124017238616943,0.3535445034503937
14.983831873129207,0.669556663605873,-1.149701091652045,2.285485224869725,-1.0943323043270028,-0.3958017308150297,-0.03832986631227287,-0.050472527742385864,0.8051242828369141,0.21099497377872467,0.35615074634552,-0.6042913794517517,-0.6140533685684204,0.3618384301662445
15.183808026800948,0.6773538553741026,-1.109651598692977,2.261462115605975,-1.0635834278254026,-0.40865318552292285,-0.08158193758656289,-0.04906025528907776,0.8076599836349487,0.201426699757576,0.35866791009902954,-0.5948533415794373,-0.6162768006324768,0.37109267711639404
15.441207893610112,0.6850220073949689,-1.070264905445278,2.237836577165468,-1.033343430337352,-0.4212919548797238,-0.1241182080294665,-0.047776758670806885,0.8100754022598267,0.1918104887008667,0.36064496636390686,-0.5852964520454407,-0.6188264489173889,0.3800225555896759
15.691153755271095,0.7107530267420434,-1.0402269770345045,2.1795877672364496,-1.0054991809801197,-0.46207770268023346,-0.1237678622340166,-0.04541650414466858,0.8170294761657715,0.18975715339183807,0.37954312562942505,-0.5711371898651123,-0.6077203750610352,0.40053126215934753
15.956474805415098,0.7462649081121961,-1.014624496364428,2.1024617383241155,-0.9785003042454743,-0.5181147285309918,-0.10107303504537186,-0.04252594709396362,0.8263993263244629,0.19171446561813354,0.40733975172042847,-0.5541245341300964,-0.5874909162521362,0.42646774649620056
16.22331863015451,0.7819169527193632,-0.9889209642595118,2.0250312976641265,-0.9513948645856087,-0.5743729291163138,-0.07828863275342342,-0.039706408977508545,0.8357803225517273,0.19372022151947021,0.4347584843635559,-0.5366555452346802,-0.5651462078094482,0.4512156546115875
16.489339619675413,0.8174041552636673,-0.963336275920829,1.9479588671465413,-0.9244147506016637,-0.6303710122822946,-0.055609577235167476,-0.03695067763328552,0.8451712727546692,0.19576841592788696,0.4615205228328705,-0.5189074873924255,-0.5409619212150574,0.4744407832622528
16.75230416916584,0.8524352231331694,-0.9380804403137952,1.871877086934131,-0.8977814254496312,-0.6856493242174337,-0.0332220269039073,-0.034264326095581055,0.854573667049408,0.1978573203086853,0.48737749457359314,-0.5010625123977661,-0.5152753591537476,0.49587365984916687
17.01027129865394,0.8867614757095461,-0.9133327450592853,1.7973260508720752,-0.8716839553547115,-0.7398154519686599,-0.011284907827208538,-0.03166323900222778,0.8639915585517883,0.1999882608652115,0.5121340155601501,-0.483290433883667,-0.48844897747039795,0.5153315663337708
17.326470119626617,0.931040810497599,-0.8775045828364032,1.7094391196314607,-0.8315171832785043,-0.805556206116487,-0.00031995183853536854,-0.03288227319717407,0.8730050921440125,0.20147396624088287,0.5396113395690918,-0.4568030834197998,-0.45695722103118896,0.5397597551345825
17.70349945881862,0.9852881440139651,-0.8306080970355277,1.6081353393411615,-0.7773078976681743,-0.8829193497450624,-0.00021598508899179763,-0.03762263059616089,0.8817654252052307,0.2023381143808365,0.5685288310050964,-0.42034536600112915,-0.4204602539539337,0.5685929656028748
18.064211229637248,1.0371873242580547,-0.7857415752799518,1.5112166004485357,-0.7254451183862204,-0.9569337477839537,-0.0001165186502897734,-0.04195761680603027,0.8907269835472107,0.20326177775859833,0.5938960313796997,-0.3837645947933197,-0.3838329315185547,0.5938725471496582
18.40311082361092,1.0859492816154297,-0.7435871633927181,1.4201564451477011,-0.6767173616107247,-1.0264740932003964,-2.3064799580244607e-05,-0.0459897518157959,0.8998274803161621,0.20419760048389435,0.6155907511711121,-0.34801042079925537,-0.34802770614624023,0.6154782176017761
18.73844107105128,1.131350478645107,-0.7043381081151413,1.3353723167734761,-0.6313480079983466,-1.0912215950413209,6.394804648229385e-05,-0.049849510192871094,0.9090071320533752,0.20511272549629211,0.6338593363761902,-0.31362640857696533,-0.3135903477668762,0.6336575150489807
19.038574909358903,1.1702113896115527,-0.6762950138014746,1.2752464976913709,-0.5993344521066986,-1.1445833243734322,0.00010440550550642108,-0.05631396174430847,0.9128725528717041,0.205533966422081,0.6476610898971558,-0.28409403562545776,-0.28402987122535706,0.6474199891090393
19.308465236900016,1.206383409897292,-0.658046711959,1.2368867070931426,-0.5791845275027748,-1.1913405451388999,9.393382590643543e-05,-0.06608551740646362,0.9106960296630859,0.2053777575492859,0.6588687896728516,-0.2570054829120636,-0.2569454312324524,0.6586494445800781
19.56542122758194,1.2455092769984635,-0.6383082337907732,1.195394413958309,-0.5573891379745167,-1.2419160117907049,8.260701747498567e-05,-0.07597039639949799,0.9093230962753296,0.20519384741783142,0.6697160601615906,-0.22720862925052643,-0.2271537035703659,0.6695205569267273
19.840777832398867,1.2874347156596333,-0.6171574091057389,1.1509332244787884,-0.5340342238354785,-1.296110302728395,7.046974238555133e-05,-0.08596102148294449,0.9091008901596069,0.2049780935049057,0.6798436641693115,-0.19477379322052002,-0.1947251409292221,0.6796747446060181
20.12542542714406,1.3307738782940266,-0.5952933795296996,1.1049728056184323,-0.5098917830046439,-1.352132022805936,5.7923198906531004e-05,-0.09586638957262039,0.9103389978408813,0.20473334193229675,0.6886622309684753,-0.16077308356761932,-0.16073159873485565,0.6885213851928711
20.40583276528926,1.3734679072206528,-0.5737548113056966,1.059696539695687,-0.48610871926881993,-1.4073198204495345,4.556341949082591e-05,-0.1054563820362091,0.9131008386611938,0.20446906983852386,0.6956875920295715,-0.12688985466957092,-0.12685616314411163,0.6955754160881042
20.670348447091534,1.4137430519057734,-0.5534365379231849,1.0169854579194872,-0.4636731151082959,-1.4593808835731157,3.390389902019529e-05,-0.11458513140678406,0.9171565771102905,0.20419718325138092,0.7007879614830017,-0.09464612603187561,-0.09462036192417145,0.7007033824920654
20.91337563358919,1.4507458939380224,-0.5347690975894722,0.9777445954881462,-0.4430603743437259,-1.5072120536372793,2.3191699287095113e-05,-0.12323926389217377,0.9221400022506714,0.20392699539661407,0.7041574716567993,-0.06484248489141464,-0.06482446193695068,0.7040990591049194
21.135533876144056,1.4845720648722083,-0.5177042454605044,0.9418725368216635,-0.4242172246225035,-1.5509369473403751,1.3399135274385316e-05,-0.1315285861492157,0.92774498462677,0.20366181433200836,0.706129252910614,-0.03749395161867142,-0.037483345717191696,0.7060953378677368
21.33860038093671,1.515491877318366,-0.5021056124294201,0.9090826201567458,-0.40699308605805706,-1.5909049802329651,4.447952380255871e-06,-0.13954053819179535,0.9337297677993774,0.20340363681316376,0.7070028781890869,-0.012444758787751198,-0.012441188097000122,0.7069917321205139
21.609555133594796,1.5341271860655057,-0.49369281323442876,0.8912607406970422,-0.3975677990886394,-1.6074661509935153,2.7261905321733676e-09,-0.1484052985906601,0.9370400309562683,0.2033495008945465,0.7071066498756409,2.4272358700727636e-07,2.435073724882386e-07,0.7071068286895752
21.89578926413413,1.5411063811413594,-0.4922730282114517,0.8879843186765523,-0.39571138757142593,-1.6004869559176615,8.556230632472042e-10,-0.15840023756027222,0.9370705485343933,0.20351913571357727,0.7071067094802856,2.4031589873629855e-07,2.420549378712167e-07,0.7071067094802856
22.09587723239418,1.548085576217213,-0.4908532431884746,0.8847078966560622,-0.39385497605421255,-1.593507760841808,-1.014944405678939e-09,-0.16840310394763947,0.9370278716087341,0.20368893444538116,0.7071068286895752,2.399146126208507e-07,2.4319191993527056e-07,0.7071067094802856
22.294030228993854,1.5548793072039064,-0.4881425160976861,0.8816160816358557,-0.3934738135456259,-1.5867140011768928,-1.2551670579565e-09,-0.17814476788043976,0.9370555877685547,0.20188318192958832,0.7071068286895752,2.39981659433397e-07,2.4130258680088446e-07,0.7071066498756409
22.49398183300253,1.5615915785782477,-0.4848647809090554,0.8786053497770776,-0.39374061050406883,-1.5800016885282695,-7.793089995929153e-10,-0.18777720630168915,0.9370737671852112,0.19920597970485687,0.7071067690849304,2.4188176439565723e-07,2.4174184432013135e-07,0.7071067094802856
22.949354036085115,1.5683038499525892,-0.48158704572042466,0.8755946179182995,-0.3940074074625118,-1.573289375879646,-3.0345094122933067e-10,-0.19741782546043396,0.9370189905166626,0.19652456045150757,0.7071066498756409,1.9960224051374098e-07,1.9947300700096093e-07,0.7071068286895752
23.23349110303291,1.5702424027983308,-0.48189177703682723,0.8771588317976617,-0.39526690510409257,-1.589242348064564,-3.284825414475948e-10,-0.1912534087896347,0.9362391233444214,0.19591006636619568,0.7070783972740173,0.0063257236033678055,0.006325723137706518,0.7070785164833069
23.433481412807787,1.5710379453317034,-0.48305784103062305,0.8798253733547595,-0.3967674509816721,-1.610673061176839,-4.739075835851812e-10,-0.1812809407711029,0.9355137348175049,0.19579170644283295,0.7069644927978516,0.014183010905981064,0.014183010905981064,0.7069644927978516
23.6334902931548,1.5718354147627644,-0.4842267293687125,0.8824983735894861,-0.39827163135805194,-1.632155681999676,-6.196848622982047e-10,-0.17129285633563995,0.9350310564041138,0.1956731230020523,0.7067626714706421,0.022057589143514633,0.022057589143514633,0.7067626714706421
23.833492672870243,1.5726346744842699,-0.4853982418194519,0.8851773746144512,-0.39977918856575506,-1.6536865305404376,-7.657894058051975e-10,-0.1612962931394577,0.9347923398017883,0.19555428624153137,0.7064723372459412,0.02994711510837078,0.029947109520435333,0.7064723968505859
24.033487285355413,1.573435690413698,-0.48657232842649145,0.8878622621900562,-0.4012900583186057,-1.675264688667523,-9.122149838269396e-10,-0.15129727125167847,0.9347991347312927,0.19543540477752686,0.7060930728912354,0.03785020112991333,0.03785020858049393,0.7060929536819458
24.233474708030307,1.5742384500187796,-0.4877489708206967,0.8905529943099784,-0.40280421697833957,-1.6968898187805512,-1.0589593054667387e-09,-0.14130181074142456,0.9350521564483643,0.19531632959842682,0.7056242227554321,0.04576575756072998,0.04576575756072998,0.7056241035461426
24.433448812792385,1.5750429098665495,-0.48892810534033365,0.8932494253933063,-0.4043215826220495,-1.7185607508610976,-1.20601443118578e-09,-0.13131634891033173,0.9355525970458984,0.19519707560539246,0.7050653696060181,0.05369227007031441,0.05369227007031441,0.7050653100013733
24.82186096906335,1.5758490562438965,-0.49010971188545227,0.895951509475708,-0.4058421293841761,-1.740277115498678,-1.3533778542296204e-09,-0.12134648114442825,0.9363013505935669,0.19507764279842377,0.7044160962104797,0.06162863224744797,0.06162865087389946,0.7044158577919006
24.987824087046178,1.5260601208490483,-0.5268402763003769,0.8866067889903605,-0.42784268964558314,-1.6917603508226473,0.018661979748822954,-0.09833855926990509,0.9478492140769958,0.22046002745628357,0.7303662300109863,0.018122881650924683,0.0352841392159462,0.681903064250946
25.15319838013312,1.4764478329229658,-0.5633598427714926,0.8753062459879749,-0.45137289063232794,-1.6421647699440227,0.03793037482140475,-0.07506503164768219,0.9616262912750244,0.24588072299957275,0.7540616393089294,-0.026486080139875412,0.008417770266532898,0.656215250492096
25.319163385596365,1.4281374905759108,-0.5988216537678811,0.8619195626032989,-0.47621545254165415,-1.5923752683050492,0.05750340443085311,-0.05171852558851242,0.9777482151985168,0.27117910981178284,0.7750391364097595,-0.07101824134588242,-0.018334785476326942,0.6276419758796692
25.48512839105961,1.3810757193298118,-0.6332685850165014,0.8468044353666772,-0.502117506464439,-1.5425857666660758,0.07729994800009837,-0.02777443826198578,0.9960298538208008,0.2969551086425781,0.7930998206138611,-0.11503224819898605,-0.04488363862037659,0.5964441895484924
25.651093396522857,1.335144889122057,-0.6667778299383109,0.8300898716688566,-0.52903664581944,-1.4927962650271023,0.09734407023009523,-0.0027798861265182495,1.0162943601608276,0.32379186153411865,0.8082275986671448,-0.15823239088058472,-0.07117794454097748,0.5627294182777405
25.817058401986102,1.2900254398666886,-0.6996050528148055,0.8122060395144315,-0.5567213048055454,-1.4430067633881287,0.11759345299838636,0.023802518844604492,1.0380131006240845,0.3524220585823059,0.8203231692314148,-0.20037446916103363,-0.09723740816116333,0.5267491936683655
25.98302340744935,1.245647842374895,-0.7318107878731589,0.7932112951459497,-0.5851692773534575,-1.3932172617491554,0.13807587190232226,0.05222533643245697,1.0607795715332031,0.38335633277893066,0.8294453620910645,-0.2411663681268692,-0.12297027558088303,0.4886075258255005
26.148988412912594,1.2018596649414457,-0.7635321906987337,0.7732750916805036,-0.6143118888446072,-1.343427760110182,0.15880514870065246,0.08270950615406036,1.0840078592300415,0.41713497042655945,0.835638701915741,-0.28035151958465576,-0.14830563962459564,0.44845983386039734
26.31495341837584,1.1585100546011002,-0.7949013961117622,0.7525849246153461,-0.6440506769200676,-1.2936382584712085,0.179773742185021,0.11535419523715973,1.1070040464401245,0.454234778881073,0.838959813117981,-0.31767818331718445,-0.17316840589046478,0.4064968228340149
26.480918353358792,1.115529469024687,-0.8259815908464405,0.7312105776965684,-0.6743634977494493,-1.2438487779763228,0.2009937404873624,0.15008322894573212,1.1291042566299438,0.49501848220825195,0.839527428150177,-0.3528863489627838,-0.19745095074176788,0.3628746569156647
26.646883329961256,1.0728611072083583,-0.856821590563333,0.7092050029181,-0.7052270002580479,-1.194059284995584,0.2224678862742316,0.18668878078460693,1.149621844291687,0.5397750735282898,0.837487518787384,-0.38572293519973755,-0.22104187309741974,0.317762166261673
26.8128483354245,1.0304566397484738,-0.8874611612127545,0.6866098862812461,-0.7366176488071929,-1.1442697833566104,0.24419289846304654,0.22483283281326294,1.1678645610809326,0.588712751865387,0.8330127596855164,-0.4159478545188904,-0.2438267320394516,0.27134010195732117
26.978813340887747,0.98827580508203,-0.9179330783538937,0.6634568283490814,-0.7685180605289317,-1.0944802817176371,0.26616686770651327,0.2640500068664551,1.1831632852554321,0.6419520378112793,0.8263018727302551,-0.44333937764167786,-0.2656879127025604,0.2237975001335144
27.144778346350993,0.9462894163420542,-0.9482617839027869,0.6397502974395164,-0.8009353847955708,-1.0446907800786636,0.2884000413717277,0.3037568926811218,1.19490647315979,0.6995288729667664,0.817581295967102,-0.4676971733570099,-0.2865024209022522,0.17531800270080566
27.31074335181424,0.9044569283777212,-0.9784794798905667,0.615547316200964,-0.8338259470192423,-0.9949012784396901,0.31087529297685773,0.3432527482509613,1.202505350112915,0.7613615989685059,0.8070859909057617,-0.488846093416214,-0.30615609884262085,0.126134991645813
27.476708357277484,0.8627597460060507,-1.0086012088840723,0.5908794888931304,-0.8671652380404142,-0.9451117768007167,0.3335826037298766,0.3817303776741028,1.205485463142395,0.8272558450698853,0.795078456401825,-0.5066352486610413,-0.32453247904777527,0.07648298889398575
27.64267336274073,0.8211824555878897,-1.0386398602771396,0.5657776255586742,-0.9009293466043292,-0.8953222751617432,0.3565115815253548,0.4183061122894287,1.2034839391708374,0.8969073295593262,0.7818393707275391,-0.5209460854530334,-0.34151792526245117,0.026605311781167984
27.808638368203976,0.7797109628492014,-1.0686067330381532,0.5402687893406369,-0.9350971875041818,-0.8455327735227698,0.37965309587827,0.4520469903945923,1.1962701082229614,0.9699051380157471,-0.7676634788513184,0.5316959619522095,0.35700345039367676,0.023249221965670586
27.97460337366722,0.7383326328243319,-1.09851241103744,0.5143773324652887,-0.9696500503482205,-0.7957432718837963,0.40299916607182346,0.48199498653411865,1.1837563514709473,1.0457359552383423,-0.7528561353683472,0.5388394594192505,0.37088510394096375,0.07282818108797073
28.140568379130467,0.6970364005699472,-1.1283661897015695,0.4881261770615354,-1.0045694422229496,-0.7459537702448229,0.42654143624221397,0.5071958899497986,1.1660079956054688,1.1237872838974,-0.7377282977104187,0.5423690676689148,0.38306543231010437,0.12187515944242477
28.306533384593713,0.6558143654088606,-1.1581755221489756,0.4615395887245577,-1.0398330022505131,-0.6961642686058493,0.4502681418279629,0.5267269611358643,1.1432499885559082,1.2033507823944092,-0.722594141960144,0.5423162579536438,0.3934551775455475,0.1701284646987915
28.47249839005696,0.6146594945873743,-1.1879475076735422,0.43464078839507897,-1.0754190546949531,-0.646374766966876,0.474167807833657,0.539731502532959,1.1158652305603027,1.2836384773254395,-0.7077651619911194,0.5387529134750366,0.4019734263420105,0.2173270881175995
28.638463379336844,0.5735652135317141,-1.2176883681862325,0.40745137914518587,-1.1113073895248118,-0.5965852701829103,0.4982295025451817,0.545451283454895,1.0843887329101562,1.3637936115264893,-0.6935456395149231,0.5317912101745605,0.40854835510253906,0.26321232318878174
28.8044282023013,0.5325253977624514,-1.2474045856022127,0.37999174432653615,-1.147478847127956,-0.5467958232935737,0.5224430698996432,0.5432519316673279,1.0494945049285889,1.442907691001892,-0.6802283525466919,0.5215822458267212,0.413117915391922,0.3075301945209503
28.970393206148984,0.49153417886118655,-1.2771016892097962,0.3522815742031321,-1.1839148053731778,-0.49700632213926865,0.5467984574112583,0.5326522588729858,1.0119798183441162,1.5200347900390625,-0.6680896878242493,0.50831538438797,0.4156307876110077,0.35003235936164856
29.136358116027225,0.45058805832622867,-1.306784044310689,0.32433764266957926,-1.2205991442869684,-0.447216849175796,0.5712860161177827,0.5133424401283264,0.9727441072463989,1.5942105054855347,-0.6573865413665771,0.4922142028808594,0.4160461723804474,0.3904787600040436
29.302323026189192,0.40968226065619195,-1.3364561011119052,0.2961832845712271,-1.2575084066922722,-0.3974273761272061,0.5958923337494233,0.4852081537246704,0.9327620267868042,1.6644638776779175,-0.6483504772186279,0.47353875637054443,0.41433680057525635,0.4286345839500427
29.46828793658712,0.36881193759030384,-1.3661223923817756,0.26784341492005337,-1.2946174428069148,-0.34763790300782804,0.6206029619957142,0.44834181666374207,0.8930549621582031,1.7298434972763062,-0.6411842703819275,0.45258116722106934,0.4104880094528198,0.46427640318870544
29.634253016009154,0.32797306915679514,-1.3957868872642452,0.2393382920230659,-1.3319062892690678,-0.29784837918121826,0.6454062104176554,0.40304452180862427,0.8546581864356995,1.789441466331482,-0.6360591650009155,0.4296587407588959,0.4044966697692871,0.4971965253353119
29.800218116188102,0.28716215687306657,-1.4254537036304287,0.21068675288278585,-1.3693546201485658,-0.24805884912753404,0.6702902847522866,0.34982550144195557,0.8185878992080688,1.8424097299575806,-0.6331117153167725,0.4051116108894348,0.39637261629104614,0.527202844619751
29.96618321624559,0.2463773838787907,-1.4551280045992114,0.1819040492612675,-1.4069419564348733,-0.1982693191102876,0.6952429026032565,0.28938916325569153,0.7858080267906189,1.887979507446289,-0.6324422955513,0.37929606437683105,0.3861369490623474,0.5541204810142517
30.13214814069701,0.20561754601631255,-1.484814509769845,0.15300392167065702,-1.4446471339939801,-0.14847984177486234,0.7202515118577562,0.22262650728225708,0.7571996450424194,1.9254753589630127,-0.634111762046814,0.352582186460495,0.3738238215446472,0.5777921676635742
30.298113151444056,0.16488144879930478,-1.514518482154364,0.1239996737144771,-1.4824495549087413,-0.09869033855074777,0.7453037599343175,0.15059340000152588,0.7335315942764282,1.9543298482894897,-0.6381407380104065,0.3253483176231384,0.3594793975353241,0.5980797410011292
30.46407810316114,0.12416806324448218,-1.5442452712799088,0.09490448373445061,-1.520328858464709,-0.04890085303562331,0.7703874436108232,0.0744863823056221,0.7154350876808167,1.9740959405899048,-0.6445086002349854,0.2979763448238373,0.34316179156303406,0.614864706993103
30.63004302976689,0.08347655334410342,-1.5739998007752554,0.06573096485568747,-1.5582645823255694,0.0008886249461023538,0.7954902624523785,-0.004387957975268364,0.703383207321167,1.9844563007354736,-0.6531529426574707,0.2708466053009033,0.32494139671325684,0.6280496716499329
30.796007940566355,0.0428068819522351,-1.6037867758640458,0.036490163582059226,-1.5962357535508898,0.050678098185941045,0.820599546357843,-0.08464816212654114,0.6976743936538696,1.9852323532104492,-0.6639708876609802,0.24433225393295288,0.30489951372146606,0.6375584006309509
30.961972898847787,0.0021596463242785427,-1.6336104830765479,0.007191901367701561,-1.634220788578608,0.10046758567037051,0.8457022890499238,-0.1648736298084259,0.6984227299690247,1.9763859510421753,-0.6768198013305664,0.21879425644874573,0.283128559589386,0.6433367133140564
31.12793786951889,-0.038464351576456855,-1.6634750573312196,-0.022154258290961452,-1.6721978762711422,0.15025707687170153,0.8707853976956492,-0.24364332854747772,0.7055541276931763,1.9580236673355103,-0.6915187835693359,0.19457703828811646,0.25973156094551086,0.645353376865387
31.293902805765466,-0.0790642738161037,-1.693384943152786,-0.051538743863240796,-1.7101452433458024,0.20004655774567348,0.8958357476627337,-0.3195737600326538,0.7188087701797485,1.930391788482666,-0.7078512907028198,0.17200326919555664,0.2348206788301468,0.6435996890068054
31.459867730734125,-0.11963918651718466,-1.7233448022316715,-0.08095207078338922,-1.7480409277121274,0.2498360352362711,0.9208400416061141,-0.3913566768169403,0.737750768661499,1.8938732147216797,-0.7255678772926331,0.15136994421482086,0.2085171788930893,0.6380901336669922
31.62583247273846,-0.16018762766676964,-1.7533596802325002,-0.110385155956532,-1.7858634435416545,0.2996254578375716,0.9457852625976284,-0.45779359340667725,0.7617826461791992,1.848978877067566,-0.7443896532058716,0.13294388353824615,0.18095001578330994,0.6288617253303528
31.791797477538328,-0.20070752671487208,-1.783435351297009,-0.1398297120222299,-1.8235927428794638,0.3494149592775318,0.9706592063127493,-0.5178289413452148,0.7901661992073059,1.7963348627090454,-0.7640127539634705,0.1169576570391655,0.15225453674793243,0.6159738898277283
31.957762749786294,-0.24119648590880066,-1.813578105915132,-0.16927745383020396,-1.8612080909301356,0.39920454095192215,0.9954493052976204,-0.5705739855766296,0.8220475316047668,1.7366704940795898,-0.7841118574142456,0.10360785573720932,0.12257219851016998,0.5995081663131714
32.123727930578646,-0.28165192367920033,-1.8437942781113326,-0.19871991101416495,-1.89868866379261,0.44899409518962696,1.0201427038785869,-0.6153261661529541,0.8564854860305786,1.670803189277649,-0.8043444156646729,0.09305212646722794,0.09204928576946259,0.5795672535896301
32.28969303224099,-0.32207102374712976,-1.8740909653545628,-0.2281484540201681,-1.9360128413187472,0.4987836256883313,1.0447261915622306,-0.65158611536026,0.8924834728240967,1.5996208190917969,-0.824356198310852,0.08540745079517365,0.060836102813482285,0.5562745332717896
32.455658123810544,-0.3624492901969385,-1.9044772308241942,-0.25755423017866613,-1.9731596144048964,0.5485731531591975,1.0691867629247676,-0.6790671944618225,0.9290218949317932,1.524060606956482,-0.8437857627868652,0.08074788004159927,0.029085487127304077,0.5297728180885315
32.62162316206622,-0.4027775639394888,-1.9349692078557992,-0.28692802952405616,-2.010110078345353,0.5983626646359004,1.0935128619543182,-0.6977049112319946,0.9650909900665283,1.4450865983963013,-0.8622709512710571,0.0791015550494194,-0.003050432074815035,0.5002224445343018
32.78758854497087,-0.4430452194936442,-1.9655845985066995,-0.3162603154081106,-2.046845102947515,0.6481522795072955,1.1176927218373094,-0.7076408863067627,0.9997228384017944,1.3636715412139893,-0.8794516921043396,0.08045361191034317,-0.03541966527700424,0.4678005576133728
32.9535537257093,-0.4832407563211103,-1.996342322004906,-0.34554090390853576,-2.083344780600715,0.6979418337288223,1.1417136220648976,-0.7092097997665405,1.032021164894104,1.2807812690734863,-0.8949757218360901,0.08474697917699814,-0.06787113845348358,0.4327007830142975
33.11951853347463,-0.5233525171029535,-2.0272624278809066,-0.374759291962317,-2.1195875731811435,0.7477312760584219,1.1655622243035797,-0.7029216289520264,1.0611894130706787,1.1973544359207153,-0.9085027575492859,0.09188392013311386,-0.10025645047426224,0.3951311409473419
33.285483370000534,-0.5633718804315803,-2.0583628544596198,-0.40390397189564403,-2.155553007064908,0.7975207270161921,1.189225489133901,-0.6894327998161316,1.0865525007247925,1.114289402961731,-0.9197093844413757,0.10173017531633377,-0.1324295848608017,0.35531383752822876
33.4514487402233,-0.6033026525576438,-2.0896534850687596,-0.43296193125863514,-2.191225405816914,0.8473103380830214,1.2126940061060625,-0.6695057153701782,1.1075783967971802,1.032435655593872,-0.9282923340797424,0.11412364989519119,-0.16424833238124847,0.31348302960395813
33.617413525842764,-0.6431512057738124,-2.121142043268398,-0.46191843280982764,-2.226589862623926,0.8970997737688617,1.2359580641201975,-0.6439981460571289,1.1238869428634644,0.9525727033615112,-0.9339733123779297,0.12886987626552582,-0.1955745667219162,0.26988330483436584
33.78337816751651,-0.6829243223728458,-2.152838112815258,-0.4907576341200996,-2.2616285534767164,0.9468891662709851,1.2590066601902594,-0.6138389110565186,1.1352555751800537,0.8753931522369385,-0.9365030527114868,0.14574432373046875,-0.22627387940883636,0.22476817667484283
33.9493431070357,-0.7226299731624845,-2.184752485845921,-0.5194626236776659,-2.296322720156185,0.9966786481267436,1.2818276007506624,-0.5799957513809204,1.14162278175354,0.8014916777610779,-0.9356644153594971,0.16449522972106934,-0.25621795654296875,0.17839738726615906
34.11530768997883,-0.7622840134968077,-2.2168940853749026,-0.5480176567866987,-2.330656169651297,1.046468023009681,1.304410907211034,-0.5434325933456421,1.1430832147598267,0.7313566207885742,-0.9312741160392761,0.1848519742488861,-0.28528639674186707,0.13103410601615906
34.281272389177644,-0.8019222557928214,-2.2492670884686228,-0.5764131895845651,-2.364625669571191,1.0962574327693266,1.3267540586337867,-0.5050628781318665,1.1398773193359375,0.665367603302002,-0.9231809377670288,0.20653460919857025,-0.3133716285228729,0.08293810486793518
34.44723722958465,-0.8415876136215404,-2.28187568816388,-0.6046389793822681,-2.3982280185185965,1.1460468848914278,1.34885493273428,-0.4657454490661621,1.1323727369308472,0.6037928462028503,-0.9112682342529297,0.22925107181072235,-0.34037157893180847,0.03436802700161934
34.61320200273984,-0.8813281404023936,-2.3147259894610976,-0.632682710139643,-2.4314575367109263,1.1958363168379837,1.3707093176927196,-0.4262661337852478,1.1210464239120483,0.5467859506607056,0.8954558372497559,-0.2526978850364685,0.36618945002555847,0.014420192688703537
34.77916700820308,-0.9211967801329032,-2.34782686203297,-0.6605315854284048,-2.4643076277834357,1.2456258184769573,1.3923126855121348,-0.38731908798217773,1.1064624786376953,0.4943869113922119,0.8756986260414124,-0.2765634059906006,0.39073434472084045,0.06317569315433502
34.945132013666324,-0.9612455048795252,-2.3811892658868947,-0.6881846007968444,-2.4967838768598605,1.2954153201159309,1.4136688591677176,-0.34949058294296265,1.0892374515533447,0.44652485847473145,0.851983368396759,-0.3005290627479553,0.4139314293861389,0.11165766417980194
35.11109741649387,-1.00155915816019,-2.4148580663821275,-0.71563411342112,-2.5288690962028877,1.3452049409641935,1.4347665805179606,-0.31322938203811646,1.070049524307251,0.40299198031425476,0.8243266940116882,-0.3242783844470978,0.4357098937034607,0.15964260697364807
35.277062610633365,-1.0422191469453517,-2.448856604299196,-0.7428967292521971,-2.560589740571633,1.3949944992060423,1.4556239796292503,-0.2788499593734741,1.0495537519454956,0.3635199964046478,0.7927643060684204,-0.3474954664707184,0.45602187514305115,0.20691964030265808
35.44302782478466,-1.0832986605455177,-2.483197836052089,-0.7699956921460074,-2.5919850906250055,1.4447840634514302,1.476267453746041,-0.24655546247959137,1.028381586074829,0.3277836740016937,0.7573574781417847,-0.36985912919044495,0.47482848167419434,0.2532821297645569
35.60899298687502,-1.124949534156284,-2.5179618207795373,-0.7969107493508099,-2.6230084817092787,1.4945736120785393,1.496666711652694,-0.2163798063993454,1.007196068763733,0.2953099012374878,0.718205988407135,-0.39106300473213196,0.492056667804718,0.2985467314720154
35.774958233075445,-1.1671729233899808,-2.553115832385678,-0.8236598264708686,-2.6536919040170384,1.5443631859386668,1.5168425099928606,-0.18837310373783112,0.9865207672119141,0.2656998038291931,0.6754606366157532,-0.41076433658599854,0.5076666474342346,0.34249112010002136
35.94092323853869,-1.2101310942281698,-2.5887132343328556,-0.8502242278434525,-2.683988710154161,1.59415268757764,1.536763554177954,-0.16233845055103302,0.9668828248977661,0.23840245604515076,0.6292919516563416,-0.42866864800453186,0.5215844511985779,0.38494738936424255
36.10688903873053,-1.2538817847878958,-2.6247492077598613,-0.8766095471108177,-2.7139038437790677,1.6439424276351926,1.5564326643046695,-0.138077974319458,0.9486687183380127,0.2129071205854416,0.5799133777618408,-0.4444602131843567,0.5337713360786438,0.4257272779941559
36.25081063652018,-1.2919323825249944,-2.653100292686706,-0.8924443714943819,-2.7373697586503307,1.6871189069720869,1.5824815945041775,-0.11978114396333694,0.9376056790351868,0.19497843086719513,0.5363360047340393,-0.46095359325408936,0.5415255427360535,0.45454972982406616
36.41677536692777,-1.2660432182280583,-2.6452118478482083,-0.9087403316650114,-2.7288332855940762,1.6572634297081021,1.532692175381898,-0.12769562005996704,0.9318406581878662,0.19528214633464813,0.5599381923675537,-0.4320513606071472,0.542840838432312,0.45290684700012207
36.58273913573405,-1.2386533441354246,-2.6371698140966404,-0.9264975802758841,-2.720159047991245,1.6273267523062431,1.4829030447400136,-0.13662269711494446,0.9258408546447754,0.19541189074516296,0.5819474458694458,-0.40126922726631165,0.544842541217804,0.45107269287109375
36.74870450650481,-1.2041340385837536,-2.6299451853689364,-0.9452736119386443,-2.7107647935298664,1.6003691175686274,1.433113433508786,-0.15324722230434418,0.9184551239013672,0.19427397847175598,0.6026994585990906,-0.367905855178833,0.548069417476654,0.4483508765697479
36.91367306330543,-1.157806569537486,-2.622680576278753,-0.9551042265882853,-2.698517899804223,1.578316851800658,1.383622866468599,-0.18450014293193817,0.9124858975410461,0.1931876540184021,0.6263633966445923,-0.3333316743373871,0.5495777726173401,0.44104763865470886
37.07874045627834,-1.1082863516456138,-2.611618476039162,-0.9528165932919941,-2.685289290575897,1.556606537587397,1.3358481375631703,-0.22142328321933746,0.9104937314987183,0.19707897305488586,0.6534551382064819,-0.29953616857528687,0.5473566651344299,0.428573340177536
37.24470651242673,-1.0788107528524797,-2.5937405721155917,-0.9493971093482618,-2.676069456778764,1.522056315175525,1.2860583207186531,-0.23503561317920685,0.9156559705734253,0.2095487117767334,0.6788711547851562,-0.26657676696777344,0.5422381162643433,0.41719111800193787
37.41067112052568,-1.0778352746047655,-2.56992434201783,-0.9590789294001689,-2.67501485369709,1.4758723984710742,1.2362689382889696,-0.21452414989471436,0.9242762327194214,0.22918690741062164,0.6953079700469971,-0.2364550232887268,0.5383207201957703,0.4133358895778656
37.57663652335322,-1.0756742678712914,-2.5423432691987835,-0.9793550763509133,-2.6789311601597,1.43354776424881,1.1864793174407064,-0.19420237839221954,0.9267411231994629,0.2525010108947754,0.7062729597091675,-0.20499183237552643,0.5371800661087036,0.4130307734012604
37.74260192618077,-1.0651138106705873,-2.515669362721509,-1.000660494791625,-2.682472940373913,1.3959368843127231,1.1366896965924433,-0.1836005300283432,0.9262068271636963,0.27431783080101013,0.7156186699867249,-0.17143060266971588,0.5371932983398438,0.4122192859649658
37.908567329008314,-1.050177422590531,-2.509468777445848,-1.019611324350358,-2.6728101032768983,1.3578870707678345,1.0869000757441802,-0.17943841218948364,0.9295629262924194,0.27178820967674255,0.7221041917800903,-0.13509783148765564,0.5394433736801147,0.41147884726524353
38.07453273183586,-1.0240912057659817,-2.538745676681199,-1.039343742019525,-2.641815198668535,1.3231567193456615,1.0371104548959176,-0.18957391381263733,0.9340194463729858,0.227320596575737,0.7224161028862,-0.09364592283964157,0.5466017723083496,0.41300347447395325
38.24049873070985,-0.9956054754709945,-2.5601107771132146,-1.0675102982248093,-2.618583025463193,1.295472958016198,0.9873206552337201,-0.20104974508285522,0.9296212792396545,0.1923838108778,0.7176418900489807,-0.05272836610674858,0.5541696548461914,0.4184563457965851
38.40646433831759,-0.9661186561505475,-2.556685535964554,-1.1058217328533873,-2.613585074936731,1.2765098814057134,0.937530972951398,-0.21161198616027832,0.9150543212890625,0.18688233196735382,0.7093563675880432,-0.014408103190362453,0.5603549480438232,0.4273267686367035
38.572428456612585,-0.9304146017072698,-2.544485581516486,-1.1351719512435638,-2.610657963447497,1.2568934636676758,0.8877417374628999,-0.2297622263431549,0.9032914638519287,0.19161787629127502,0.7042887210845947,0.024220092222094536,0.5644435882568359,0.42987707257270813
38.73839234146106,-0.8967509858110727,-2.530790204786811,-1.1513664756202868,-2.603800921490065,1.2288217593345172,0.8379525720083575,-0.24812862277030945,0.9014447927474976,0.19768263399600983,0.7033563852310181,0.06311838328838348,0.5660949945449829,0.42525550723075867
38.90435771940938,-0.8688998498230595,-2.520312185034727,-1.166938012171702,-2.595914569783425,1.1988605835362929,0.7881629586238593,-0.26147064566612244,0.9021409749984741,0.20055988430976868,0.6999130249023438,0.10065463185310364,0.5672484636306763,0.4221605956554413
39.05796584651227,-0.874765145413328,-2.482232362851607,-1.120855574040837,-2.5788118316687134,1.161271487939698,0.7803917159986938,-0.26565396785736084,0.9421223402023315,0.23500290513038635,0.7315959930419922,0.1055607870221138,0.5533320903778076,0.3839894235134125
39.223929959058765,-0.8826708700072122,-2.4422651663421298,-1.0710663402768885,-2.5610680448746637,1.1231027511546448,0.7751297036364846,-0.2683466970920563,0.9838833808898926,0.2771628201007843,0.7629169821739197,0.1066771075129509,0.5384436845779419,0.34154921770095825
39.38989467482876,-0.8907623797863514,-2.4018556878428243,-1.02127692554589,-2.5431172215485165,1.0846525595559668,0.7698576581215376,-0.2694394886493683,1.0245441198349,0.3256874084472656,0.7915723919868469,0.10576846450567245,0.5234771966934204,0.2969808876514435
39.5558594214868,-0.8990517208205479,-2.3609758500220006,-0.9714875015484771,-2.524945923684811,1.045902778841811,0.7645746593712789,-0.2684088945388794,1.0633916854858398,0.38076329231262207,0.817409098148346,0.10273648798465729,0.5084750056266785,0.2504810690879822
39.72182515444893,-0.9075753253548426,-2.3195201238393977,-0.921697781659838,-2.5064982706300705,1.006781870156182,0.7592775609717851,-0.2646771967411041,1.0996705293655396,0.4425482153892517,0.8403009176254272,0.09747897833585739,0.49346140027046204,0.20220793783664703
39.887789979704856,-0.916241972161614,-2.277513115627821,-0.8719083340830598,-2.487721513235476,0.9672635529290207,0.7539574033191068,-0.2578214108943939,1.1325159072875977,0.510962188243866,0.860083818435669,0.08995842933654785,0.47848498821258545,0.15236525237560272
40.053754833813905,-0.9249000521274952,-2.234847275325796,-0.8221188778503451,-2.4684073873652226,0.9271757343635249,0.7485887913169016,-0.24749571084976196,1.1610755920410156,0.5859403610229492,0.8766308426856995,0.08016939461231232,0.46355974674224854,0.10101242363452911
40.21971935371362,-0.9334013213454845,-2.191517084953549,-0.7723295218804305,-2.4484326631474214,0.8864358250538096,0.7431540233837314,-0.23338916897773743,1.1844005584716797,0.6672200560569763,0.889773964881897,0.06810551881790161,0.4486962556838989,0.04832635447382927
40.38568462518105,-0.9416362108362362,-2.1475105261902514,-0.7225399404402021,-2.4277005143951995,0.8449765566947571,0.7376394554595926,-0.2151665985584259,1.2014979124069214,0.7544137239456177,-0.8993476629257202,-0.053746238350868225,-0.4338836967945099,0.005468175746500492
40.55164976200441,-0.9494967315926301,-2.102770424608958,-0.6727503993931938,-2.4060776667635833,0.8026915889897639,0.7320283497601957,-0.19249719381332397,1.2113523483276367,0.8470420837402344,-0.9051936268806458,-0.037064600735902786,-0.4190840721130371,0.06015881523489952
40.71761471047376,-0.9567982774742789,-2.057241864690831,-0.6229609148523887,-2.3833692694782416,0.7594392885499763,0.7262999439298774,-0.16516190767288208,1.2129414081573486,0.9444795250892639,-0.9071493148803711,-0.018058225512504578,-0.40423110127449036,0.11554665118455887
40.88357899771326,-0.963224031136822,-2.0112133918727357,-0.5731716286805387,-2.3595387490797366,0.7153114981264549,0.7204621263406998,-0.13327954709529877,1.2053377628326416,1.0454707145690918,-0.9050777554512024,0.00314981397241354,-0.38926461338996887,0.1711645871400833
41.049543885691264,-0.968510390353697,-1.9650949497001369,-0.5233821622871373,-2.334687548747037,0.6705324726727938,0.7145401524239743,-0.09705264866352081,1.1878608465194702,1.148367166519165,-0.8989443778991699,0.026384152472019196,-0.3741067349910736,0.22637774050235748
41.21550939684288,-0.9723521215149606,-1.919231937154854,-0.47359250894165184,-2.308832249284109,0.6252498764640468,0.7085495281514306,-0.056803226470947266,1.1601568460464478,1.2514547109603882,-0.8888128399848938,0.05142827332019806,-0.35862672328948975,0.28063106536865234
41.381473777173085,-0.9744443427729397,-1.873967286091461,-0.42380319484259193,-2.2819878063908625,0.579609380985152,0.7025057983669784,-0.01292264461517334,1.1222403049468994,1.3529244661331177,-0.874845027923584,0.07803555577993393,-0.34266024827957153,0.33337730169296265
41.54743891950496,-0.9743210360860055,-1.8297258974692499,-0.3740136521430291,-2.2540993900626547,0.5337456871729399,0.6964219751260138,0.033915892243385315,1.0746315717697144,1.4508904218673706,-0.8573076725006104,0.10586417466402054,-0.3259941339492798,0.38411450386047363
41.71340407578041,-0.9716540080725345,-1.786782561337725,-0.3242241052603949,-2.225126112132303,0.4877069011554344,0.6902934827281304,0.08331583440303802,1.0181432962417603,1.543697476387024,-0.836527943611145,0.1346534937620163,-0.3084103465080261,0.43240317702293396
41.87936891129383,-0.9664026202396632,-1.745005618129824,-0.2744346546063692,-2.194984037586278,0.4412739425950206,0.6840686268322119,0.13558605313301086,0.9534470438957214,1.630200743675232,-0.8127662539482117,0.16438670456409454,-0.2897273004055023,0.4779601991176605
42.045333635952666,-0.9583150060050353,-1.7043076192493944,-0.22464523720871893,-2.163459706443954,0.3941423564805566,0.6776787906507032,0.1909000277519226,0.8814430832862854,1.7092769145965576,-0.7862823009490967,0.19502303004264832,-0.26973745226860046,0.5205456018447876
42.21129842652694,-0.9470381177838543,-1.664624752216031,-0.17485580003643786,-2.1302823200055627,0.34596317455179576,0.6710449448596925,0.2494613528251648,0.8032529354095459,1.7798032760620117,-0.7573540210723877,0.22654497623443604,-0.24821707606315613,0.5598933100700378
42.37689592148274,-0.9313878540142025,-1.6263508420658794,-0.12540183229632357,-2.094886424768829,0.2962839260650553,0.6640344917339485,0.3104606568813324,0.7212285995483398,1.8404273986816406,-0.7264695763587952,0.2585531175136566,-0.22491046786308289,0.5956571698188782
42.54286023961754,-0.9119678259049852,-1.590514041321884,-0.07790790050346375,-2.058388961015443,0.24649463062461677,0.6568229571880627,0.37251412868499756,0.6397140622138977,1.888721227645874,-0.6951243281364441,0.2901626229286194,-0.20051200687885284,0.6264205574989319
42.70882559924084,-0.8886860336763603,-1.5573454639839308,-0.03265762777132569,-2.0209439628525123,0.19670502273762644,0.649400809545063,0.43497616052627563,0.561526358127594,1.9246349334716797,-0.6641548275947571,0.32108861207962036,-0.17517207562923431,0.652008593082428
42.87478984512187,-0.8607574057982001,-1.527485641967932,0.00998514244070869,-1.9825897853396566,0.14691574897331885,0.6417049684210718,0.49622678756713867,0.4902922213077545,1.9486327171325684,-0.6345685124397278,0.35071951150894165,-0.14905576407909393,0.67238450050354
43.04075502617185,-0.8289163973063185,-1.5004989457858882,0.050538545213480196,-1.943681662033231,0.09712619465832362,0.6337607698579838,0.5569320321083069,0.4267909526824951,1.9617247581481934,-0.6067394018173218,0.37941974401474,-0.12229985743761063,0.6877140998840332
43.20671978474833,-0.7929212045690099,-1.4766554854491125,0.0889840167437216,-1.9044091399699663,0.047336767085380246,0.6255342430330663,0.6160131692886353,0.3731834888458252,1.964949369430542,-0.5813601613044739,0.40689975023269653,-0.09514791518449783,0.6981402635574341
43.372685290112294,-0.7524651500674426,-1.4563019542435556,0.12528641534389384,-1.8650151485353987,-0.002452884523808596,0.6169816448234569,0.672086775302887,0.331459105014801,1.959639072418213,-0.5591220855712891,0.43279990553855896,-0.06791297346353531,0.7038853168487549
43.538649792395944,-0.7082433906610808,-1.439027499068573,0.15974065226153092,-1.8257665037577173,-0.05224223520890292,0.6081302602405623,0.725080668926239,0.3014487624168396,1.9470235109329224,-0.5401829481124878,0.4573359787464142,-0.040890492498874664,0.7052475810050964
43.704185257957946,-0.6598611406890263,-1.4255418362629224,0.19166643971738653,-1.7871473931523922,-0.10190287487750362,0.5989231310553952,0.772270917892456,0.2851582169532776,1.9289748668670654,-0.525384247303009,0.4796760380268097,-0.014811783097684383,0.7026114463806152
43.870149414213095,-0.6100718938124816,-1.415327287115432,0.2205310944802239,-1.7504735335072419,-0.14995117839155994,0.5897155030287601,0.8128336071968079,0.280612587928772,1.907357931137085,-0.5147143602371216,0.49963924288749695,0.009303223341703415,0.6966657042503357
44.03611494497275,-0.5602822345845846,-1.4085735903941434,0.2455337673508697,-1.7168548401721637,-0.19533035691144365,0.5807000667324714,0.844723641872406,0.2867160141468048,1.8846919536590576,-0.5082935094833374,0.5164738297462463,0.030489975586533546,0.6884494423866272
44.202079896158274,-0.5104927492289281,-1.4044862694095865,0.26747685394987974,-1.6857353392068366,-0.2388491004087398,0.5717768168625262,0.8690932989120483,0.30080288648605347,1.8617819547653198,-0.5053381323814392,0.5307680368423462,0.04908997192978859,0.6786079406738281
44.368045019110724,-0.46070321234319206,-1.4025173063568657,0.2869386866677921,-1.6567187332419495,-0.28099029424781063,0.5628840890495881,0.8867557048797607,0.3209041357040405,1.8390989303588867,-0.5052791833877563,0.5429006814956665,0.06538829207420349,0.6675898432731628
44.53401002018992,-0.4109137120194342,-1.4024028955858299,0.3042036702476479,-1.6296541925784342,-0.32194094280308794,0.5539809657102507,0.8979908227920532,0.34567123651504517,1.8171508312225342,-0.5077683329582214,0.5529693365097046,0.07951927185058594,0.6557994484901428
44.699974532009335,-0.3611243584736084,-1.4039271042164612,0.3195029272981753,-1.6044466928149097,-0.36184662475001694,0.545024793199904,0.9031004905700684,0.3739323616027832,1.7963052988052368,-0.512499988079071,0.5610405802726746,0.0915985032916069,0.6435735821723938
44.8659398344811,-0.31133476773208024,-1.4066543283592434,0.3333346167904412,-1.5807300777613884,-0.4009916736611656,0.5359873753990165,0.9030539989471436,0.40442371368408203,1.7763457298278809,-0.5190495848655701,0.5674629211425781,0.10196384787559509,0.6310124397277832
45.031904299727636,-0.26154542815811815,-1.4103804418112138,0.34592340392362014,-1.5583794992400373,-0.4395113834651438,0.5268401747918008,0.8983095288276672,0.43631038069725037,1.7572972774505615,-0.5271658301353455,0.5723433494567871,0.11075390130281448,0.6182659268379211
45.19786857330674,-0.2117561460843858,-1.414920032692475,0.3574704007616786,-1.5372865805385658,-0.47751723399257534,0.5175580526447173,0.8893289566040039,0.4688926935195923,1.7391295433044434,-0.5366278290748596,0.5757788419723511,0.11810056865215302,0.6054432392120361
45.36383420205854,-0.1619664574588464,-1.4200955233052655,0.368156503205842,-1.5173502205164486,-0.5150492643447236,0.5081305531387474,0.8765679597854614,0.5016055703163147,1.7217772006988525,-0.5472413301467896,0.5778490304946899,0.12415578216314316,0.5926235318183899
45.529798913877386,-0.11217704391319373,-1.425753587875375,0.37811532175158663,-1.4985356482414043,-0.5520679533460735,0.49854789428304824,0.8604212403297424,0.5340155363082886,1.7052102088928223,-0.558850109577179,0.5785816311836243,0.12905745208263397,0.5798914432525635
45.695764226354534,-0.06238745017004954,-1.4316960472953817,0.3875473861532428,-1.4807031209248214,-0.5885775581901636,0.4888159854534019,0.8414207696914673,0.5657557249069214,1.6892365217208862,-0.5712825655937195,0.5780900716781616,0.13299760222434998,0.5672386288642883
45.86172899386125,-0.012598019918036052,-1.4377521252504855,0.3966285687532027,-1.46372122934685,-0.6245882531232688,0.47894185018205704,0.8200458288192749,0.5965620279312134,1.6736631393432617,-0.5843956470489502,0.5764781832695007,0.1361398696899414,0.5546354651451111
46.02769415996978,0.03719152991452395,-1.443777123200939,0.4055004817541777,-1.4475043225592703,-0.6600923555685343,0.46892674864344136,0.7967063188552856,0.6262617707252502,1.658332109451294,-0.5980772376060486,0.5738170742988586,0.13861393928527832,0.5420551896095276
46.19365918716226,0.08698103807226625,-1.4496353399520918,0.41428854388115777,-1.43196754206679,-0.6950896629820728,0.4587715726533418,0.7717812657356262,0.6547495126724243,1.6430811882019043,-0.6122331619262695,0.5701746344566345,0.1405312865972519,0.52945476770401
46.35962490003837,0.13677075193509924,-1.4552085701703965,0.42305702063190315,-1.4170105691816814,-0.7296220818259024,0.44847418881763956,0.7455869913101196,0.681962251663208,1.6277743577957153,-0.6267861127853394,0.565612256526947,0.14196084439754486,0.5167871713638306
46.52559019308247,0.18656033984832923,-1.460393673653717,0.43180936309862517,-1.4025197962723523,-0.7637712716195659,0.4380288714188891,0.7183813452720642,0.7078611850738525,1.6123065948486328,-0.6416725516319275,0.5601828694343567,0.1429297775030136,0.5040065050125122
46.691555074110866,0.23634980415684667,-1.4650906724594326,0.4405388637084325,-1.3883858273490912,-0.7976208281001018,0.42742852479907584,0.6903972029685974,0.7324379682540894,1.59657621383667,-0.6568400859832764,0.553931713104248,0.14345283806324005,0.49106210470199585
46.85752058183578,0.28613945647432026,-1.469198117851004,0.4492388344191222,-1.3745050140774289,-0.8312498287968024,0.41666482242785874,0.6618497967720032,0.7557130455970764,1.5804779529571533,-0.6722458004951477,0.5468975305557251,0.14353781938552856,0.47789686918258667
47.02348506805306,0.3359288023395062,-1.4726114916466129,0.4579024302838204,-1.360777381433231,-0.8647339272503956,0.4057285406670405,0.6329368352890015,0.7777328491210938,1.5639019012451172,-0.6878548860549927,0.5391128063201904,0.14318647980690002,0.4644465744495392
47.18944958902998,0.3857181586325805,-1.4752218273687798,0.4665225984242806,-1.3471046349632685,-0.8981476669380537,0.39460894386283757,0.6038374304771423,0.7985674142837524,1.5467315912246704,-0.7036393880844116,0.530603289604187,0.1423933357000351,0.45063939690589905
47.35541407395735,0.43550750411079275,-1.4769159378634662,0.4751056863164906,-1.3333950504691972,-0.931553142622297,0.38329862337708304,0.574711799621582,0.8183115124702454,1.528839111328125,-0.7195766568183899,0.5213879942893982,0.1411530077457428,0.4363941252231598
47.521378487817934,0.4852968282689694,-1.477545984479089,0.48372486975016304,-1.3195790675001442,-0.9649570521396814,0.3718041714229268,0.5457378625869751,0.8371251821517944,1.5100317001342773,-0.7356476783752441,0.5114873051643372,0.1394946277141571,0.42159727215766907
47.68734389667996,0.5350864509275783,-1.4770149667037238,0.4924825391091163,-1.305600570767401,-0.9983440155216761,0.3601511341259388,0.5169973373413086,0.8551661968231201,1.4901416301727295,-0.7518320679664612,0.5009061098098755,0.13744236528873444,0.40614184737205505
47.85330923386892,0.5848760520842646,-1.4752443733055354,0.5014762470510434,-1.2914084889170283,-1.0316979245014448,0.3483663910837829,0.48851296305656433,0.8725813627243042,1.469018578529358,-0.7681077718734741,0.489634245634079,0.13500423729419708,0.3899264335632324
48.01927504368092,0.634665795027865,-1.4721302652928814,0.5108059571490178,-1.2769478598282862,-1.0650025818234374,0.3364729436135635,0.4602951109409332,0.8895268440246582,1.446482539176941,-0.7844538688659668,0.4776572287082672,0.13218307495117188,0.3728315234184265
48.18524069599592,0.6844554907223651,-1.4675681152344888,0.5205733087769076,-1.2621637504418772,-1.098241334556834,0.3244945165645238,0.4323144555091858,0.906146764755249,1.4223488569259644,-0.8008449673652649,0.4649500846862793,0.12897081673145294,0.3547326326370239
48.351205720651905,0.7342449981191599,-1.461458266748342,0.5308738803854679,-1.2470008795571015,-1.1313992799483885,0.3124547744818059,0.4044972062110901,0.9225576519966125,1.3964381217956543,-0.8172482252120972,0.4514751434326172,0.12534499168395996,0.3355056345462799
48.517170399346334,0.7840344017274877,-1.453737969196257,0.5417574532042586,-1.23140867926804,-1.1644740201015318,0.3003754598459726,0.37670135498046875,0.9388050436973572,1.3686432838439941,-0.8336150646209717,0.43717148900032043,0.12125376611948013,0.3150627315044403
48.68313562243223,0.8338239686532579,-1.4443877588443659,0.5532182761415432,-1.2153414519720616,-1.1974782475930987,0.2882758272260218,0.348735511302948,0.9548468589782715,1.3389476537704468,-0.8498762845993042,0.4219575524330139,0.11661680042743683,0.29336419701576233
48.84910011219011,0.8836133155806196,-1.4333953043738856,0.5652405323790785,-1.198753841421856,-1.2304271724329308,0.276175056099393,0.3204112648963928,0.9705926775932312,1.3073604106903076,-0.8659453392028809,0.40574911236763,0.1113484725356102,0.2703843116760254
49.01506440824739,0.9334026043978034,-1.420746463387048,0.5778086571120422,-1.1815992146711183,-1.2633361976320219,0.2640925683061178,0.2915576696395874,0.9859142303466797,1.2738993167877197,-0.8817189335823059,0.38846325874328613,0.10536246001720428,0.24610301852226257
49.181028564915515,0.9831918513982397,-1.4064257686721142,0.5909071987437591,-1.1638294054700222,-1.2962216454390298,0.25204819010542867,0.2620278298854828,1.0006484985351562,1.238595724105835,-0.8970760107040405,0.3700200617313385,0.09857229888439178,0.22050641477108002
49.34699390306129,1.032981452841973,-1.3903305126009944,0.6045465170150603,-1.145359629274902,-1.3291004660042485,0.2400659135530151,0.23174041509628296,1.014663577079773,1.2013778686523438,-0.9118857979774475,0.3503590524196625,0.09090452641248703,0.19351749122142792
49.51295839265549,1.0827707997202345,-1.3724660299924458,0.6187221157013499,-1.126146832708481,-1.3620070838554088,0.22816335977977842,0.20059514045715332,1.027714490890503,1.162323236465454,-0.9259877800941467,0.32940438389778137,0.08225936442613602,0.16514469683170319
49.678922503482966,1.1325600329684762,-1.3529304831636935,0.6334545311887285,-1.1062000775420344,-1.3950140549654801,0.21634045981966932,0.1685284525156021,1.039475917816162,1.1216171979904175,-0.9391995072364807,0.30707472562789917,0.0725131407380104,0.13546617329120636
49.84488713277318,1.1823494217555406,-1.331750521155348,0.6487995055354373,-1.0855004949147053,-1.4282058435076566,0.20459732934832595,0.13556547462940216,1.0496649742126465,1.0793615579605103,-0.951327919960022,0.2833096385002136,0.061553820967674255,0.10450773686170578
50.01085259465986,1.2321390603215434,-1.308941578068107,0.6648197548108049,-1.064022672453575,-1.4616716388236028,0.19293473326092195,0.10178615897893906,1.0580060482025146,1.0356677770614624,-0.9621598124504089,0.2580574154853821,0.0492745079100132,0.0722968578338623
50.17681806279591,1.2819287007623597,-1.284508371876868,0.6815862306134616,-1.0417341535810587,-1.4955073761149213,0.1813541452064687,0.06732363998889923,1.0642359256744385,0.9906588792800903,-0.9714605212211609,0.231275737285614,0.035573169589042664,0.038862936198711395
50.34278279304604,1.331718119837398,-1.2584438122403847,0.6991801834967201,-1.018594659241212,-1.5298184560580161,0.16985769864555936,0.03236202523112297,1.068113923072815,0.9444687962532043,-0.9789721369743347,0.2029314935207367,0.020352963358163834,0.004237055312842131
50.508747376489225,1.3815074948703536,-1.2305542509437137,0.7177979095134651,-0.9944630644882414,-1.564796503462092,0.15845098366044288,-0.0028193010948598385,1.069474458694458,0.8969700932502747,0.9844041466712952,-0.17300091683864594,-0.0034881054889410734,0.03173298388719559
50.67471222851867,1.4312969504791877,-1.2008596434780316,0.7375195525807235,-0.9693361128989164,-1.6005777712863434,0.14710490135611268,-0.037952620536088943,1.0681155920028687,0.8484216928482056,0.9874277710914612,-0.14143899083137512,0.015116920694708824,0.06894050538539886
50.84067646440543,1.481086221245216,-1.1693540368186037,0.7584336016062918,-0.9432065347965924,-1.6373049966416282,0.13578423975680898,-0.07272674888372421,1.0639153718948364,0.7990831732749939,0.9876837730407715,-0.10821495205163956,0.03553376719355583,0.10727301239967346
51.00664120078606,1.5308756421594056,-1.1359267134562272,0.7807008258818197,-0.9160092205738362,-1.6751810613919904,0.12445362265823204,-0.10677793622016907,1.0568335056304932,0.7490854859352112,0.9847632646560669,-0.07330655306577682,0.057835083454847336,0.14670522511005402
51.1726068941193,1.5806653501593757,-1.099972294610813,0.8048847773113805,-0.8874013038475745,-1.714795173539387,0.11305219944090175,-0.13954433798789978,1.0468741655349731,0.6978577375411987,0.9780827164649963,-0.036607854068279266,0.08227220177650452,0.1877376288175583
51.33857240380545,1.6304550030652205,-1.0616169015163386,0.8310129188855817,-0.8574464170232055,-1.7562718951190666,0.10153071587092657,-0.17069770395755768,1.0340969562530518,0.6460301280021667,0.9670897126197815,0.0018907898338511586,0.10878995060920715,0.22999700903892517
51.50453551632096,1.6802439368198743,-1.0201977834627907,0.8597049401264419,-0.8257462316561662,-1.8003872405377415,0.08980207794843643,-0.19960138201713562,1.01863694190979,0.5931693315505981,0.9509170651435852,0.0423465296626091,0.13761113584041595,0.2739098370075226
51.67042806462063,1.7300117013097738,-0.9755632239632986,0.8911254506755057,-0.7921718569778887,-1.8475659019806798,0.07780846048139793,-0.22582414746284485,1.0008269548416138,0.5397100448608398,0.9286947846412659,0.08478457480669022,0.16864237189292908,0.3192136883735657
51.83639237193603,1.7779857997250448,-0.9284862792260848,0.9248930919976724,-0.7573717848739134,-1.8973551941753002,0.06583245591213469,-0.24777694046497345,0.9818019866943359,0.4869897961616516,0.9001240730285645,0.1279229372739792,0.20091739296913147,0.3647526800632477
52.00235651508728,1.8209936451843654,-0.8819616630268668,0.9589352788140355,-0.7234897122414772,-1.9471444371206759,0.05455898084886499,-0.2639508843421936,0.9636940956115723,0.4382741153240204,0.8669503331184387,0.16888241469860077,0.2319849282503128,0.4075031280517578
52.16832174737933,1.8588773665271265,-0.8362918824369097,0.9930837444077723,-0.6907066464938906,-1.9969340068082915,0.043974828625855424,-0.27468711137771606,0.947405219078064,0.3932923674583435,0.8298779129981995,0.20736469328403473,0.26118913292884827,0.44730594754219055
52.3342874028099,1.891636558640748,-0.7915263190812283,1.027393226808509,-0.6591135520784072,-2.046723703437463,0.03404381096029534,-0.28047114610671997,0.9334537982940674,0.35137078166007996,0.7895280122756958,0.24327880144119263,0.28797826170921326,0.4842821955680847
52.50025050470177,1.9191609389942916,-0.7477197968625913,1.061966982725733,-0.6288477135819853,-2.096512634005023,0.024732739021771186,-0.2816232740879059,0.9221134185791016,0.31180354952812195,0.7465469837188721,0.27657443284988403,0.31184130907058716,0.5185838341712952
52.66621536629624,1.941310995845937,-0.7049349833785096,1.096924570265627,-0.6000669441913095,-2.1463020924833653,0.0160054162572714,-0.27834126353263855,0.9134230613708496,0.2739115059375763,0.7015933990478516,0.3072751760482788,0.3323219120502472,0.5503733158111572
52.83218043152219,1.9586174630261595,-0.6630820781132227,1.1322608250156754,-0.5726606241038723,-2.1960916120511498,0.0077888328937267114,-0.27132269740104675,0.9070388674736023,0.2370692789554596,0.655105471611023,0.3357275426387787,0.349200963973999,0.5798124670982361
52.998144532047895,1.9727530479431152,-0.6218398809432983,1.1678448915481567,-0.546154797077179,-2.2458808422088623,-9.349366882815957e-05,-0.26218241453170776,0.9021905660629272,0.20068638026714325,0.6070642471313477,0.3626725971698761,0.3626302182674408,0.6069932579994202
53.219072921141255,1.9994523819501828,-0.6522315596175654,1.234123408276165,-0.5820172015662505,-2.299705106942411,-7.820608460930756e-05,-0.26241394877433777,0.8923397064208984,0.19965648651123047,0.5919684767723083,0.3868074119091034,0.3867743909358978,0.5919110774993896
53.44734057270183,2.0258718864911787,-0.6823045759537719,1.2997069825717367,-0.6175035782245983,-2.352964951458812,-6.307880072110472e-05,-0.26303398609161377,0.8825005292892456,0.19866859912872314,0.5760868787765503,0.41007286310195923,0.4100482165813446,0.5760421752929688
53.67098273756554,2.051756793722056,-0.7117690663573462,1.3639634766280864,-0.6522718898837341,-2.4051470857716915,-4.82576166412267e-05,-0.264033704996109,0.8726867437362671,0.19773899018764496,0.5596402287483215,0.4322369694709778,0.43221959471702576,0.559607207775116
53.88818746916811,2.076896575600895,-0.7403853891940528,1.4263702772577815,-0.68603935768302,-2.4558271003028302,-3.386307654761638e-05,-0.26538169384002686,0.8629103899002075,0.1968797892332077,0.5428509712219238,0.4531334340572357,0.4531223177909851,0.5428286194801331
54.09779863839582,2.1011569166727937,-0.7680006547356544,1.4865939608115684,-0.7186255706379783,-2.504734224635884,-1.997208680366551e-05,-0.26703107357025146,0.853172779083252,0.1960979849100113,0.5259095430374146,0.472682386636734,0.47267642617225647,0.5258967280387878
54.29910342443447,2.1244566392207687,-0.7945224593261623,1.5444330123509395,-0.7499214917666062,-2.551704810259654,-6.631128158788154e-06,-0.2689271867275238,0.8434734344482422,0.1953965574502945,0.5089764595031738,0.4908624589443207,0.4908607006072998,0.50897216796875
54.52203143739404,2.1383146600157916,-0.8126888719860166,1.5787609161674137,-0.7660720263742563,-2.574074207887058,1.6226910499211022e-07,-0.2700525224208832,0.8345224261283875,0.19771645963191986,0.5000000596046448,0.4999999403953552,0.5,0.4999999403953552
54.759176100064956,2.14226163490158,-0.8222960012513473,1.5884024745628378,-0.7661065363871925,-2.5701273408450604,-1.8275158754821685e-08,-0.2700638473033905,0.8263797760009766,0.20336320996284485,0.5,0.5000000596046448,0.5,0.5
54.95514993222519,2.1459446006780234,-0.8320119248908303,1.5970615737075842,-0.7650497833895042,-2.5664444552045658,-1.584902679986582e-07,-0.27003929018974304,0.8188124895095825,0.2095881551504135,0.5,0.5,0.4999999403953552,0.4999999403953552
55.15330263080164,2.14886030765363,-0.8420297951145052,1.602871858705416,-0.760842242459161,-2.563528748228959,-1.8203650941600035e-07,-0.2700769603252411,0.8129664659500122,0.21758714318275452,0.5000000596046448,0.5,0.5,0.4999999403953552
55.423212587626466,2.151781672176887,-0.8520671037037709,1.6086934178005812,-0.7566265373465099,-2.560607383705702,-2.0562843923204849e-07,-0.2700502574443817,0.8070598244667053,0.22554601728916168,0.4999999403953552,0.5,0.49999988079071045,0.5
55.58184508787316,2.154638121377476,-0.8545509521075229,1.616271286392709,-0.7617205622083618,-2.557750949931864,-2.2582235684093732e-07,-0.27005478739738464,0.8013782501220703,0.22426103055477142,0.5,0.5,0.5,0.4999999403953552
55.806313426735386,2.1574477166483113,-0.8513059105923629,1.6251880691222886,-0.7738823610031926,-2.5549413818053486,-2.434550862837526e-07,-0.27006229758262634,0.7958390116691589,0.21604517102241516,0.4999999701976776,0.5000000596046448,0.4999999701976776,0.49999991059303284
56.00280585655807,2.1605493011829835,-0.8487076860662228,1.634592466804994,-0.785884920523421,-2.551839796773795,-2.3230270366656812e-07,-0.2700422704219818,0.7897328734397888,0.20834855735301971,0.49999991059303284,0.5000000596046448,0.4999999701976776,0.49999991059303284
56.200971742662176,2.1646284728651506,-0.8483230128224776,1.6456079979816058,-0.7972849358919317,-2.547760530565705,-1.2328385629157062e-07,-0.2700892686843872,0.7818915843963623,0.20229163765907288,0.4999999403953552,0.5000000596046448,0.5,0.5
56.52923746226013,2.1687116014246577,-0.8479379664380656,1.6566342144416768,-0.8086960095011846,-2.5436773073885828,-1.415925847495342e-08,-0.27004799246788025,0.7740005850791931,0.19629672169685364,0.49999988079071045,0.5,0.4999999403953552,0.5000000596046448
56.731360291366784,2.1704114807811994,-0.854149964193294,1.6595382896599582,-0.8053881481059656,-2.5419774002558295,-4.148912048956234e-08,-0.2700727581977844,0.7708030939102173,0.20149369537830353,0.49999991059303284,0.5,0.5,0.5
56.93454774093397,2.171120981468827,-0.863103264242338,1.6590671833177357,-0.7959639068992511,-2.541267899568202,-1.2552199752933277e-07,-0.2701040208339691,0.769503653049469,0.21131838858127594,0.5,0.5,0.49999991059303284,0.5000000596046448
57.13270319622524,2.171830037462454,-0.872050952628296,1.6585963722510044,-0.7865455725275811,-2.540558843574575,-2.0950220525259472e-07,-0.27008292078971863,0.7681310176849365,0.2211305946111679,0.5000000596046448,0.4999999403953552,0.49999985098838806,0.5
57.44266413527251,2.1728941143176033,-0.8801345530413474,1.6592500414733742,-0.779115777876159,-2.539494775084403,-2.762890422770767e-07,-0.2700307071208954,0.7660461068153381,0.22942952811717987,0.5000000596046448,0.5,0.49999985098838806,0.4999999701976776
57.8016171660575,2.1772701988136896,-0.8801637966272818,1.6703923228686883,-0.7902286860980086,-2.535118776980003,-1.8275302967668286e-07,-0.27010318636894226,0.757950484752655,0.22371520102024078,0.5,0.4999999701976776,0.49999991059303284,0.49999991059303284
57.99981106634465,2.181648911497917,-0.8801930577763246,1.6815412960936176,-0.8013482685085376,-2.5307401507393474,-8.916084123249031e-08,-0.2700831890106201,0.7498118281364441,0.21806153655052185,0.49999991059303284,0.5,0.5,0.49999991059303284
58.1953525971922,2.1856435723017142,-0.8789937452269956,1.6918036435528665,-0.8128098218568536,-2.5267455397473086,8.02130475891979e-09,-0.2700521647930145,0.7424513697624207,0.21162617206573486,0.49999991059303284,0.5000000596046448,0.5,0.5
58.393480913743645,2.1888848173340314,-0.8753907521196161,1.7003261660564302,-0.8249352758764162,-2.523504272817649,1.1218370387250852e-07,-0.27009865641593933,0.7366374731063843,0.20360535383224487,0.4999999403953552,0.4999999403953552,0.5,0.5000000596046448
58.63490622673763,2.192135704667763,-0.871777040555227,1.7088740420059614,-0.8370968016157293,-2.5202533635214324,2.166559731866935e-07,-0.27006933093070984,0.7307484745979309,0.1956312209367752,0.49999991059303284,0.4999999701976776,0.5000000596046448,0.49999991059303284
58.7627371658523,2.1943349689004346,-0.8738296898516542,1.7135113575587206,-0.8396814458287171,-2.5180540936865885,2.495090740555747e-07,-0.2700651288032532,0.7268149256706238,0.19550885260105133,0.5000000596046448,0.5,0.5,0.5
59.08461837719008,2.195193483118968,-0.8830995239007208,1.71316476267581,-0.8300650454771705,-2.5171955947096882,1.911117659556567e-07,-0.27012941241264343,0.7253772020339966,0.20531335473060608,0.49999988079071045,0.5,0.5000000596046448,0.4999999403953552
59.28278854737803,2.1960515985976934,-0.8923650525442708,1.7128183287700551,-0.8204531114950221,-2.516337494465517,1.3274158068135867e-07,-0.2701377272605896,0.7238653898239136,0.2151058465242386,0.4999999701976776,0.4999999701976776,0.5,0.4999999701976776
59.56063261958316,2.196909439271397,-0.9016276139720257,1.7124720058071505,-0.8108442556623705,-2.5154796690214893,7.439008801946997e-08,-0.2700899541378021,0.7222799062728882,0.2248869240283966,0.4999999403953552,0.5,0.4999999403953552,0.5
59.77426985143088,2.202544054866378,-0.9125484277907856,1.7240821485949311,-0.8115205270968573,-2.524719379496883,1.1798205921571398e-05,-0.269607275724411,0.7190892696380615,0.2303440123796463,0.4962659776210785,0.5037024617195129,0.5037069320678711,0.496269166469574
60.1080995965015,2.2213906297883037,-0.9281040427583676,1.7687489436248225,-0.8405824679477599,-2.5618732189503013,5.6098306026164584e-05,-0.26816850900650024,0.711533784866333,0.2241002470254898,0.4819638133049011,0.5173913240432739,0.5174108743667603,0.48197826743125916
60.306279731841,2.240376788056653,-0.9437748672428962,1.813746554240576,-0.869859650187315,-2.5993022308032083,0.00010072650586480082,-0.2668915092945099,0.7037482261657715,0.2181050181388855,0.4671744704246521,0.5307722091674805,0.5308051705360413,0.46719890832901
60.50443865165225,2.259432962245127,-0.9595034815751592,1.8589101041193512,-0.8992447989161503,-2.636869270932672,0.00014551928267741093,-0.26577499508857727,0.6957283020019531,0.21239523589611053,0.4519573152065277,0.5437788367271423,0.5438231229782104,0.4519905149936676
60.81231722428736,2.278492371584581,-0.9752347661413092,1.9040813213767518,-0.9286349363374571,-2.674442688787565,0.00019031966392280895,-0.2648114562034607,0.6874727010726929,0.20700272917747498,0.43637582659721375,0.5563527345657349,0.5564063787460327,0.4364166557788849
60.97723318477629,2.2857242057676275,-0.9873193711009646,1.9197871022945896,-0.9322996928877948,-2.6885727614637864,0.00015110193543485528,-0.26449915766716003,0.6842491626739502,0.2112070620059967,0.4304131269454956,0.560988187789917,0.5610294938087463,0.43044471740722656
61.28292461322707,2.285776778305002,-0.9971931043110402,1.917606935100729,-0.9203460785816691,-2.688472820539201,6.0861497172399155e-05,-0.26446467638015747,0.684120774269104,0.2211151421070099,0.43043577671051025,0.5609903931617737,0.561007022857666,0.4304485321044922
61.45628871483184,2.2874935505018623,-1.0037824320311033,1.9207513365637403,-0.9169650577334293,-2.686723642439877,3.3814711214648884e-06,-0.2635880708694458,0.6807279586791992,0.22569110989570618,0.4304508864879608,0.5609912872314453,0.5609921813011169,0.4304516613483429
61.754347113230615,2.2919637757141698,-1.0049520946669095,1.932701946242907,-0.9277498645051401,-2.682245697770869,-2.7981209740522374e-08,-0.26134830713272095,0.6720390319824219,0.22148668766021729,0.43045341968536377,0.5609900951385498,0.5609900951385498,0.430453360080719
61.95252683878818,2.296433649841502,-1.0061216654391167,1.9446516173386024,-0.9385338242538412,-2.677768104793111,-3.4371657675276582e-06,-0.25901177525520325,0.6633435487747192,0.21734939515590668,0.4304560422897339,0.5609889030456543,0.5609878897666931,0.43045520782470703
62.15070559577027,2.3009032540308154,-1.0072911655803378,1.9566005667874573,-0.9493171327536153,-2.6732907822195173,-6.846144442889653e-06,-0.25657889246940613,0.654642641544342,0.21327970921993256,0.43045857548713684,0.5609877109527588,0.560985803604126,0.4304569363594055
62.34868644670525,2.3054248983096977,-1.0073269690944966,1.9680127704448607,-0.9606944994100484,-2.6687673077498935,-7.680657549605185e-06,-0.254392147064209,0.6462500095367432,0.20850761234760284,0.4304591417312622,0.5609874129295349,0.5609852075576782,0.43045738339424133
62.546865892866045,2.3099656834973548,-1.0070101858125082,1.9792654899395639,-0.9722640696304872,-2.6642265225622364,-7.714987884591346e-06,-0.25221288204193115,0.6379390358924866,0.2035713940858841,0.43045926094055176,0.5609874129295349,0.5609852075576782,0.43045735359191895
62.74504457534233,2.3145106934182356,-1.0066931077962835,1.9905286789314882,-0.9838444041451334,-2.6596815126413555,-7.74935016042051e-06,-0.2499341368675232,0.6296100616455078,0.198711097240448,0.4304591715335846,0.5609874129295349,0.5609851479530334,0.43045732378959656
62.9924828725087,2.31777190326638,-1.0085499869255479,1.9981774829586476,-0.9896363396386224,-2.6564203235206727,-7.750041196841935e-06,-0.24824953079223633,0.623639702796936,0.1972382813692093,0.4304591715335846,0.5609874725341797,0.5609852075576782,0.4304574131965637
63.377116520333715,2.3167121338220027,-1.0177070615147996,1.9936645885041906,-0.9759661899472626,-2.6574801832888753,-7.637596227707596e-06,-0.24880504608154297,0.6255831718444824,0.20694109797477722,0.4304591119289398,0.5609874725341797,0.560985267162323,0.43045735359191895
63.6952101939487,2.3156562264044167,-1.0268307657633806,1.9891681400035028,-0.9623458572086617,-2.6585361807011276,-7.525561032119402e-06,-0.24927806854248047,0.6274375319480896,0.2166595607995987,0.43045905232429504,0.5609874129295349,0.560985267162323,0.43045729398727417
63.84355413910672,2.318055678392341,-1.0307648970332768,1.9939088262012556,-0.9631314599569802,-2.6561237718321244,1.0853219858961795e-05,-0.24816447496414185,0.6231848001480103,0.21807795763015747,0.43046054244041443,0.5609820485115051,0.5609852075576782,0.43046310544013977
64.07093246193354,2.3229120063366104,-1.0310134947732812,2.0052164409154467,-0.9741547511975112,-2.651245207954044,4.222361065509021e-05,-0.24588385224342346,0.6146280169487,0.21363218128681183,0.43046319484710693,0.5609724521636963,0.5609850883483887,0.43047305941581726
64.2669908395571,2.327583927216465,-1.030460690738136,2.016167136873097,-0.9856351502525448,-2.6465641334066965,6.251048516916202e-05,-0.24363970756530762,0.6064449548721313,0.20872315764427185,0.4304632544517517,0.5609674453735352,0.560986340045929,0.43047791719436646
64.46516272337858,2.3313592473186064,-1.0260562465512806,2.02537836535222,-0.9992884667567118,-2.642842573770715,2.946850694909291e-05,-0.2419602870941162,0.6000640392303467,0.2013310194015503,0.43045204877853394,0.5609838962554932,0.5609928369522095,0.43045905232429504
64.75162515936917,2.3373601125132892,-1.0258456683853863,2.0396443157408313,-1.0138045027006344,-2.6460511193100373,-5.672614261502802e-06,-0.23991316556930542,0.593844473361969,0.19558627903461456,0.4278683364391327,0.5629655122756958,0.5629637241363525,0.4278672933578491
65.18339822156018,2.3634507994808156,-1.0633494578403195,2.0995467678146484,-1.0362599239245665,-2.71162458887902,-6.0129383266534706e-05,-0.23611095547676086,0.5890070796012878,0.20333802700042725,0.4016300439834595,0.58198481798172,0.581968367099762,0.40162137150764465
65.46330947966776,2.3912632514616448,-1.1033281806931394,2.163402275870475,-1.0601972133212472,-2.7815253536949696,-0.00011817983915788867,-0.23353976011276245,0.5830269455909729,0.21078439056873322,0.37273162603378296,0.600909948348999,0.6008828282356262,0.3727172017097473
66.01466655293144,2.419524908065796,-1.1439526081085205,2.2282891273498535,-1.0845211187945765,-2.8525551001178187,-0.00017716787988319993,-0.23236507177352905,0.5758293271064758,0.21746638417243958,0.3424544632434845,0.6186689138412476,0.6186363101005554,0.3424365222454071
66.17779747019539,2.416844061884118,-1.156003848154973,2.264236995328865,-1.1084280030178115,-2.9014943752970015,-0.00018611658410429125,-0.22557374835014343,0.5803551077842712,0.21375714242458344,0.3280547857284546,0.6264209151268005,0.6263929605484009,0.32803764939308167
66.34093217564808,2.4141633766994093,-1.1680554362666735,2.300186037828203,-1.1323355902194572,-2.950434786932809,-0.00019506554678452889,-0.2195698320865631,0.5840117335319519,0.21030601859092712,0.31347912549972534,0.6338377594947815,0.6338149309158325,0.3134630024433136
66.50406688110077,2.4114824512286486,-1.180107228610828,2.336134986113904,-1.1562430578199536,-2.999375198568617,-0.0002040145208969816,-0.21433377265930176,0.5867652893066406,0.20711709558963776,0.2987358570098877,0.6409150958061218,0.6408982276916504,0.2987208068370819
66.66720158655346,2.4088015313549462,-1.192158723327843,2.3720837231585463,-1.1801505606672344,-3.048315610204424,-0.00021296346592865182,-0.209844172000885,0.5885829925537109,0.20419377088546753,0.2838324308395386,0.647649347782135,0.6476389765739441,0.28381893038749695
66.83033629200615,2.4061206152138244,-1.2042102864006796,2.4080322568391965,-1.2040579876441952,-3.0972560218402316,-0.00022191240265901082,-0.2060776650905609,0.5894339084625244,0.20153939723968506,0.2687772512435913,0.6540367007255554,0.6540336012840271,0.26876533031463623
66.99347099745884,2.403439445728609,-1.2162620187658526,2.4439814334761216,-1.2279655817886577,-3.1461964334760393,-0.00023086138297860826,-0.203008770942688,0.5892882347106934,0.19915693998336792,0.2535780072212219,0.6600739359855652,0.6600785851478577,0.25356820225715637
67.15660570291153,2.4007586469370192,-1.2283137009293985,2.479930213584972,-1.2518729913538418,-3.195136845111847,-0.0002398103280168572,-0.20061171054840088,0.5881189107894897,0.1970495879650116,0.2382429838180542,0.6657577753067017,0.6657707691192627,0.23823541402816772
67.31974040836423,2.3980778388045065,-1.2403651866097212,2.5158792890786197,-1.2757805181644788,-3.2440772567476546,-0.0002487592896431587,-0.19885727763175964,0.5858999490737915,0.19521977007389069,0.22278034687042236,0.6710851788520813,0.6711069941520691,0.22277554869651794
67.48287511381692,2.395396900034895,-1.2524168855484206,2.5518281873485122,-1.2996879865480724,-3.293017668383462,-0.00025770826688713933,-0.1977171152830124,0.5826078653335571,0.19367025792598724,0.20719841122627258,0.6760532259941101,0.6760846972465515,0.20719635486602783
67.64600981926961,2.392715964998518,-1.2644684314727783,2.5877769674573625,-1.3235954557146346,-3.34195808001927,-0.00026665717762495793,-0.1971593201160431,0.5782209634780884,0.19240306317806244,0.1915055364370346,0.6806592345237732,0.680700957775116,0.19150660932064056
67.8091445247223,2.3900349959004767,-1.276520011456933,2.623725985984792,-1.3475030015152731,-3.3908984916550775,-0.00027560613409713933,-0.19715173542499542,0.5727190375328064,0.19142036139965057,0.17571011185646057,0.6849009394645691,0.6849533319473267,0.17571458220481873
67.97227923017499,2.3873542577562485,-1.2885715398394428,2.65967476399391,-1.3714105627788282,-3.4398389032908847,-0.0002845550946940834,-0.19766117632389069,0.566084623336792,0.1907239854335785,0.15982036292552948,0.6887759566307068,0.6888396143913269,0.15982849895954132
68.13541393562768,2.384673283060016,-1.3006232216175364,2.695623533994336,-1.3953180052249197,-3.4887793149266924,-0.00029350404074435503,-0.19865258038043976,0.5583024621009827,0.19031570851802826,0.14384517073631287,0.6922821402549744,0.69235759973526,0.1438572108745575
68.29854705162317,2.3819921016693115,-1.312674641609192,2.731571912765503,-1.4192252159118652,-3.537719249725342,-0.00030245291418395936,-0.2000901699066162,0.5493592619895935,0.19019685685634613,0.12779317796230316,0.695417582988739,0.6955055594444275,0.1278093159198761
68.56215448375718,2.3357951558382752,-1.3395404363117307,2.762170809560256,-1.4229011308818449,-3.616801479365546,-0.0002498104131384534,-0.19395416975021362,0.5541669130325317,0.19539909064769745,0.11633886396884918,0.6974261403083801,0.6975115537643433,0.11635955423116684
68.93548264489812,2.2740644263255274,-1.3754398403493835,2.803058569304712,-1.4278132296199975,-3.7224753857052217,-0.00017946693770065343,-0.18733347952365875,0.5568543672561646,0.2014133483171463,0.1009865552186966,0.6998202204704285,0.6998931765556335,0.10100921243429184
69.49999599343566,2.1898676523043386,-1.4244043355547968,2.8588268632259055,-1.4345130186989619,-3.8666078474831203,-8.352292809554428e-05,-0.18170365691184998,0.5539608001708984,0.20787549018859863,0.07997449487447739,0.7025482654571533,0.7025891542434692,0.07999039441347122
70.26628091179872,2.1165692806243896,-1.4670308828353882,2.907376527786255,-1.440345589314596,-3.9920838514911097,2.1209132228250382e-09,-0.18047381937503815,0.5456986427307129,0.2118549644947052,0.06162817403674126,0.7044160962104797,0.704416036605835,0.06162818893790245
70.43159094408358,2.1091501386120677,-1.4750806887160384,2.8989869991871875,-1.4539917760606882,-3.955312446056843,-0.049593007564544676,-0.16330808401107788,0.5515928864479065,0.2252124696969986,0.06634433567523956,0.6961798667907715,0.7093123197555542,0.08836356550455093
70.59690335348452,2.1017326629012287,-1.4831288604396407,2.890599181816709,-1.4676351768286375,-3.918548559322283,-0.09918673038482666,-0.14604651927947998,0.5563052892684937,0.23806652426719666,0.07168731093406677,0.6883185505867004,0.7126334309577942,0.11503003537654877
70.76221576288546,2.094316323549442,-1.4911756413991972,2.8822129753621026,-1.4812760963832272,-3.8817915313473352,-0.14878045320510863,-0.1287514567375183,0.5598680973052979,0.25036609172821045,0.07762475311756134,0.6808711290359497,0.7143921256065369,0.14153702557086945
70.9275281722864,2.086900696635317,-1.499221730537686,2.873827347809928,-1.494915760445652,-3.8450384034172647,-0.19837417602539062,-0.11148472130298615,0.5623176097869873,0.2620643079280853,0.08412285149097443,0.6738738417625427,0.7146061658859253,0.16779568791389465
71.09284058168734,2.0794856405724116,-1.5072673996340094,2.8654422521065612,-1.5085549288283813,-3.8082871967683927,-0.2479678988456726,-0.09430800378322601,0.5636945962905884,0.2731180489063263,0.09114567190408707,0.6673609018325806,0.7132987380027771,0.19371801614761353
71.25815299108828,2.0720705684523426,-1.515312712456733,2.857057369549192,-1.522193438905594,-3.7715374199901386,-0.29756162166595457,-0.07728305459022522,0.5640436410903931,0.2834870517253876,0.09865425527095795,0.6613653302192688,0.7104974389076233,0.2192179560661316
71.42346540048922,2.0646556524990896,-1.523357970656097,2.848672680506215,-1.5358317249531295,-3.7347884616374762,-0.3471553444862366,-0.060471147298812866,0.5634134411811829,0.29313573241233826,0.1066078394651413,0.6559172868728638,0.7062353491783142,0.2442108392715454
71.58877780989016,2.057240866414422,-1.5314029492961514,2.8402880408007585,-1.549469837592218,-3.6980405188387837,-0.39674906730651854,-0.043933138251304626,0.5618565082550049,0.30203211307525635,0.11496349424123764,0.6510447859764099,0.7005501389503479,0.2686142325401306
71.7540902192911,2.0498264241953303,-1.5394479626878614,2.8319034629493167,-1.5631076303024747,-3.661292836947546,-0.4463427901268005,-0.027727454900741577,0.5594284534454346,0.310149222612381,0.1236773282289505,0.6467733979225159,0.6934841871261597,0.29234859347343445
71.91940262869204,2.0424120181625294,-1.54749267064765,2.82351916022603,-1.5767455484712294,-3.6245455366394803,-0.4959365129470825,-0.011912018060684204,0.5561885833740234,0.3174642026424408,0.1327034831047058,0.6431260108947754,0.685084879398346,0.3153369426727295
72.08471503809298,2.0349975465968186,-1.555537386798232,2.815134957756154,-1.5903831997844424,-3.5877986270931848,-0.5455302357673645,0.0034577548503875732,0.5521990060806274,0.3239593505859375,0.14199534058570862,0.6401228904724121,0.6754035353660583,0.3375057280063629
72.25002744749392,2.027583321550008,-1.563582210492583,2.80675055252929,-1.604020865658589,-3.5510517716759646,-0.5951239585876464,0.018327459692955017,0.5475245118141174,0.32962140440940857,0.15150462090969086,0.6377813220024109,0.6644962430000305,0.3587840497493744
72.41533985689486,2.02016894823541,-1.5716268035534136,2.798366172493271,-1.617658564649571,-3.5143051081557437,-0.6447176814079284,0.03264613449573517,0.5422320365905762,0.33444157242774963,0.16118258237838745,0.6361162662506104,0.6524225473403931,0.3791055679321289
72.5806522662958,2.012754589928771,-1.5796714390427633,2.7899818072171043,-1.631296230316074,-3.477558473680296,-0.6943114042282105,0.04636460542678833,0.5363902449607849,0.33841606974601746,0.1709790825843811,0.6351395845413208,0.6392459273338318,0.3984072506427765
72.74596467569674,2.0053403309117095,-1.5877160561344315,2.78159771605994,-1.6449339990615823,-3.440812029770269,-0.7439051270484924,0.05943623185157776,0.5300699472427368,0.34154635667800903,0.18084372580051422,0.6348602175712585,0.6250337958335876,0.4166301190853119
72.91127708509768,1.997926097586666,-1.5957606304774579,2.7732136094970326,-1.6585717503929271,-3.404065394838562,-0.7934988498687744,0.07181763648986816,0.523342490196228,0.34383779764175415,0.19072557985782623,0.635284423828125,0.6098561882972717,0.43371984362602234
73.07658949449862,1.9905118318254895,-1.6038051930273374,2.7648293801702404,-1.6722094955790245,-3.367318691324623,-0.8430925726890564,0.08346809446811676,0.5162811279296875,0.34530141949653625,0.2005736231803894,0.6364150047302246,0.5937865972518921,0.44962602853775024
73.24190190389956,1.9830975225030578,-1.6118497953393436,2.7564451361489932,-1.68584730805019,-3.3305720776214076,-0.8926862955093383,0.09434998035430908,0.5089588165283203,0.3459526300430298,0.21033605933189392,0.6382522583007812,0.5769013166427612,0.4643034040927887
73.4072143133005,1.9756831573872862,-1.6198944811765603,2.74806091002331,-1.6994851398069661,-3.2938252221239317,-0.9422800183296204,0.10442939400672913,0.5014486908912659,0.3458109498023987,0.2199619859457016,0.6407934427261353,0.5592785477638245,0.4777110815048218
73.57252672270144,1.9682686253235255,-1.6279391270209052,2.739676718412366,-1.7131230449999666,-3.257078713655706,-0.9918737411499023,0.11367535591125488,0.4938242733478546,0.3449014127254486,0.2293996810913086,0.6440327763557434,0.5409992933273315,0.4898136258125305
73.73783913210238,1.9608542885373434,-1.635983905907293,2.731292356628967,-1.7267609485508106,-3.2203322039279407,-1.0414674639701842,0.12206050753593445,0.4861580729484558,0.343252569437027,0.23859858512878418,0.6479614973068237,0.5221458673477173,0.5005799531936646
73.90315154150332,1.953439821827276,-1.6440285986292844,2.7229079679197565,-1.740398890184221,-3.1835854207979475,-1.0910611867904663,0.12956121563911438,0.4785212278366089,0.3408973515033722,0.2475082278251648,0.652567982673645,0.5028021931648254,0.5099849104881287
74.06846395090426,1.9460253122428204,-1.652073355301482,2.714523617650679,-1.7540368522535237,-3.146838496944361,-1.1406549096107483,0.13615740835666656,0.47098445892333984,0.3378733694553375,0.2560793161392212,0.6578378677368164,0.48305371403694153,0.5180075764656067
74.2337763603052,1.9386107907088288,-1.6601182314605865,2.706139269324437,-1.7676748259102766,-3.110091546714612,-1.1902486324310302,0.14183254539966583,0.4636160731315613,0.33422139286994934,0.2642625868320465,0.6637536287307739,0.46298614144325256,0.5246334075927734
74.39908876970614,1.9311961513091715,-1.6681631080349788,2.6977547822613035,-1.7813128238047349,-3.0733445829323,-1.2398423552513123,0.14657381176948547,0.4564829468727112,0.329986572265625,0.27201047539711,0.6702950596809387,0.4426864683628082,0.5298523902893066
74.56440117910708,1.9237814560713593,-1.6762081265293112,2.6893700571386656,-1.7949509444730996,-3.0365973207984194,-1.289436078071594,0.1503719985485077,0.44964951276779175,0.325217068195343,0.279276579618454,0.6774392127990723,0.4222414791584015,0.5336596965789795
