Sungjin-Park-dev/lg_sgu_vision_v2/data/curved_structure/trajectory/100/trajectory_dp_ee_s0010_eev50mms_av20dps_jv0p30_corner30d_x2p5.csv
time,ur20-shoulder_pan_joint,ur20-shoulder_lift_joint,ur20-elbow_joint,ur20-wrist_1_joint,ur20-wrist_2_joint,ur20-wrist_3_joint,target-POS_X,target-POS_Y,target-POS_Z,target-ROT_X,target-ROT_Y,target-ROT_Z,target-ROT_W
0.0,-1.0125229994403284,-1.726356863975525,-1.8192319869995117,-1.4012773672686976,1.4535682201385498,0.0,-0.22649183869361877,0.8525575995445251,0.2811613380908966,0.9511672854423523,0.2797514498233795,0.08809946477413177,0.09622003138065338
0.18208585679531097,-1.0139315963869406,-1.7052820071290111,-1.8423152239128426,-1.3798558623284076,1.454631030249954,0.0,-0.22126081585884094,0.8454036712646484,0.2832460105419159,0.9526095986366272,0.2787906527519226,0.0849403589963913,0.08715472370386124
0.3641979396343231,-1.0153362528819652,-1.6842661057227504,-1.86533388708294,-1.3584942825522048,1.4556908672242939,0.0,-0.21602796018123627,0.8381973505020142,0.2851428985595703,0.9539543986320496,0.27781426906585693,0.08179359883069992,0.07810202986001968
0.546339638531208,-1.0167370596253715,-1.6633078027405364,-1.888289462846191,-1.3371912486031103,1.4567477994962232,0.0,-0.2107957899570465,0.8309420347213745,0.28685280680656433,0.9552027583122253,0.27682265639305115,0.07865942269563675,0.06906209141016006
0.7284437865018845,-1.0181335801558646,-1.642413628339444,-1.9111747987382188,-1.3159533980489646,1.4578014977483467,0.0,-0.2055683732032776,0.8236440420150757,0.2883753776550293,0.9563546776771545,0.27581652998924255,0.07553914934396744,0.060038793832063675
1.0509251759423166,-1.0195262096247506,-1.621577670425727,-1.9339963702602139,-1.294774721551421,1.4588522601289775,0.0,-0.20034660398960114,0.8163055181503296,0.28971171379089355,0.9574114680290222,0.27479591965675354,0.07243224233388901,0.05103049427270889
1.1798929372509996,-1.011148299986774,-1.6221669102439005,-1.9345302138193123,-1.2968286526922674,1.452402445475945,0.0,-0.2037162184715271,0.8151096105575562,0.28902217745780945,0.9558805227279663,0.27902576327323914,0.07615940272808075,0.05134939029812813
1.3930053526519743,-0.9969656516843722,-1.6355634211968861,-1.9217361364584455,-1.3127640238829634,1.441496571691418,0.0,-0.2123049646615982,0.8175472617149353,0.2872339189052582,0.952704906463623,0.28640666604042053,0.08401229232549667,0.057152342051267624
1.5751143807529417,-0.9829064279284876,-1.6488433489663912,-1.9090533996006143,-1.3285607174500693,1.4306856063116915,0.0,-0.2209344506263733,0.8198797702789307,0.2855016887187958,0.9493839740753174,0.2937491536140442,0.09186500310897827,0.06278825551271439
1.7524417566119639,-0.9734638320291238,-1.6641760079758112,-1.893780138335814,-1.3445930901794985,1.4241052969373444,0.0,-0.22874802350997925,0.8236706256866455,0.2837156355381012,0.9468079805374146,0.29877814650535583,0.0975789949297905,0.06902517378330231
1.9345576392470805,-0.9706185756941301,-1.6825795839662843,-1.8746601080266097,-1.361078506415813,1.4235853496567619,0.0,-0.23531346023082733,0.8296422958374023,0.28167855739593506,0.9454434514045715,0.3004641532897949,0.10018141567707062,0.07630020380020142
2.2394699927049895,-0.9677734375,-1.700982395802633,-1.8555408716201782,-1.377563238143921,1.423065423965454,0.0,-0.2418888807296753,0.8355456590652466,0.27948006987571716,0.9440159797668457,0.3021318018436432,0.10279779136180878,0.08356266468763351
2.40314905119234,-0.9479858951966883,-1.7262362033385477,-1.839075838705357,-1.4266669556901261,1.4004868379348339,0.03767229701879579,-0.24312946200370789,0.8284894227981567,0.2704233229160309,0.9413114786148071,0.29591211676597595,0.1246914267539978,0.104022316634655
2.5668293017725863,-0.9262201950368746,-1.753553083998403,-1.8173316566761486,-1.4757710308642,1.3758043826609356,0.0769984263233889,-0.2477549910545349,0.8254531025886536,0.2647244930267334,0.9375949501991272,0.29032793641090393,0.14825230836868286,0.1210232600569725
2.7305095523528324,-0.9039847271325693,-1.7821902679333201,-1.7937496411685117,-1.524875106038274,1.3501868827409116,0.11701193007745207,-0.2535662055015564,0.8241600394248962,0.2603199779987335,0.9328519105911255,0.2851759195327759,0.17308968305587769,0.13602209091186523
2.8941898029330786,-0.8823990955820761,-1.8113876168442893,-1.7705579259379778,-1.5739791812123478,1.3245828506658432,0.15694773630263917,-0.2589987814426422,0.823162853717804,0.2562330663204193,0.9270554780960083,0.28030022978782654,0.19878920912742615,0.14994223415851593
3.0578700535133247,-0.861876477816168,-1.8406139134671866,-1.7487994050466367,-1.6230832563864217,1.2995064510846266,0.19641261337925353,-0.2633984088897705,0.8218011856079102,0.25222456455230713,0.9201700091362,0.27569034695625305,0.22506189346313477,0.16318413615226746
3.221550304093571,-0.842386605423406,-1.8696866530250351,-1.7288551572763018,-1.6721873315604956,1.275160720320036,0.23532162621201871,-0.2666723430156708,0.8198508024215698,0.2482631504535675,0.9121460914611816,0.27140387892723083,0.2517669200897217,0.17590582370758057
3.385230554673818,-0.8237830302120156,-1.898575066133516,-1.7107623011773274,-1.7212914067345697,1.2515774376507143,0.2737278960300418,-0.2689449191093445,0.8173330426216125,0.24442625045776367,0.902947187423706,0.26749250292778015,0.278828501701355,0.18811877071857452
3.548910805254064,-0.8060368615222198,-1.9273176652174513,-1.6943096989777884,-1.7703954819086436,1.228620074094263,0.3116911285436481,-0.2703440189361572,0.8145087957382202,0.2408769130706787,0.8925682902336121,0.2639647126197815,0.3061913847923279,0.19972804188728333
3.7125910558343103,-0.7891820653782591,-1.955971879306308,-1.6793940668288863,-1.8194995570827175,1.206165728314994,0.34923500113754263,-0.27091410756111145,0.8115795254707336,0.23768511414527893,0.8809927105903625,0.260825514793396,0.3338014781475067,0.2107096165418625
3.8762713064145564,-0.7729829449843723,-1.984629220191924,-1.6659395779853245,-1.8686036322567914,1.1841127065550399,0.3864375585081459,-0.2709261476993561,0.8086451292037964,0.2348627895116806,0.868167519569397,0.25817978382110596,0.36163708567619324,0.2210131734609604
4.039951556994803,-0.7572563132007705,-2.0133527368366644,-1.653723993598319,-1.9177077074308653,1.1623351516266387,0.4233966879142023,-0.27069851756095886,0.8059035539627075,0.23248715698719025,0.8540855050086975,0.2560984790325165,0.3896405100822449,0.23050351440906525
4.203631807575049,-0.742010546223517,-2.0422037544114664,-1.6424811578088316,-1.9668117826049392,1.1406573555048702,0.4602150900758769,-0.2704264223575592,0.8036371469497681,0.23061999678611755,0.8387777209281921,0.25457966327667236,0.4177314043045044,0.23904326558113098
4.367312058155295,-0.7271496296551663,-2.0712149544821727,-1.631916104288728,-2.015915857779013,1.118964983669743,0.49696844104324833,-0.2704319953918457,0.8020718693733215,0.22930195927619934,0.8222941756248474,0.25366902351379395,0.44579434394836426,0.2464786171913147
4.530992308735542,-0.7125883642958099,-2.100422365231598,-1.6220483070317824,-2.065019932953087,1.0972736569757502,0.5336463086349104,-0.27087339758872986,0.8011983036994934,0.22841575741767883,0.8046271800994873,0.25343334674835205,0.4737297594547272,0.2528374493122101
4.694672559315789,-0.6982754423028982,-2.129919076782648,-1.6128132620615714,-2.114124008127161,1.0755983499735955,0.5702656018973561,-0.2719224691390991,0.8010472655296326,0.22781714797019958,0.7857851386070251,0.25390830636024475,0.5014331340789795,0.2581414580345154
4.858352809896036,-0.6841501396951932,-2.159746502319816,-1.6039200427190963,-2.163228083301235,1.0539631707420487,0.6068745842292594,-0.2738778591156006,0.8017325401306152,0.22743669152259827,0.7658636569976807,0.2550964951515198,0.5287444591522217,0.2623123824596405
5.022033060476282,-0.6702362953485073,-2.1897761302445784,-1.5953891309574812,-2.212332158475309,1.032517800095983,0.6434109000846762,-0.2767912447452545,0.8031619787216187,0.2272130399942398,0.7449464797973633,0.256978303194046,0.5554876327514648,0.26542484760284424
5.185713311056529,-0.6566100991222809,-2.219772782980493,-1.5873884265607674,-2.2614362336493827,1.011473373935987,0.6797258570736108,-0.2805706560611725,0.8051545023918152,0.22713281214237213,0.7231171131134033,0.25951704382896423,0.5814805626869202,0.26764318346977234
5.349393561636775,-0.6433813794787533,-2.2494637917650957,-1.5801311110650467,-2.3105403088234566,0.9910264354862576,0.715608221446437,-0.2850474417209625,0.8075289726257324,0.22722646594047546,0.7004541754722595,0.26267310976982117,0.606555700302124,0.26917827129364014
5.513073812217022,-0.6305712917574181,-2.2783798739644956,-1.5737023700972956,-2.3596443839975305,0.9714527542597476,0.7508591131631013,-0.2901764512062073,0.8100988268852234,0.227713942527771,0.6771461367607117,0.2663642466068268,0.6305071115493774,0.2701553702354431
5.676754062797269,-0.6180807746834909,-2.305827373664885,-1.5682274575219237,-2.4087484591716044,0.9528814540105076,0.7852145174215798,-0.2959662079811096,0.8127028346061707,0.22900091111660004,0.6534107327461243,0.2705736458301544,0.65316241979599,0.27059775590896606
5.838934810382261,-0.6213532689133493,-2.3056952670441024,-1.5699492679133737,-2.4079573446740463,0.9533960897151634,0.736560293146082,-0.2925034761428833,0.8128349781036377,0.22854232788085938,0.6469002962112427,0.2852194607257843,0.6459871530532837,0.28787216544151306
6.0026150609625075,-0.6237946885531747,-2.305724334685965,-1.570703475006358,-2.406904764427015,0.9536317088186798,0.6874562179720081,-0.2902582585811615,0.8132412433624268,0.22799193859100342,0.6401993632316589,0.3001411557197571,0.6382719874382019,0.30441564321517944
6.166295224214056,-0.6255045370222593,-2.3057351213116153,-1.571127788744383,-2.405873895129533,0.9538289516314626,0.6383521689965436,-0.2887783646583557,0.8135728240013123,0.22750763595104218,0.6331468820571899,0.31513136625289917,0.6302030682563782,0.320407897233963
6.329975562123001,-0.6266244990809319,-2.305642189710562,-1.5713165020654762,-2.404889430722315,0.954040813253133,0.5892480676238603,-0.28789693117141724,0.8138106465339661,0.22714683413505554,0.6257513165473938,0.3301224410533905,0.6217842698097229,0.33591482043266296
6.493655619374239,-0.627405520506048,-2.3054867544560342,-1.5713597125933025,-2.4040197890040784,0.9542308001655745,0.5401440504484888,-0.2873533070087433,0.8140062689781189,0.22689683735370636,0.6179707646369934,0.3450479805469513,0.613033652305603,0.35106080770492554
6.657335665919196,-0.6278195345361567,-2.3053369110775734,-1.5712942460472081,-2.4033088235227718,0.9544521016288382,0.49104003648500183,-0.2871454358100891,0.8141072988510132,0.226721853017807,0.6097540855407715,0.35989439487457275,0.6039835810661316,0.36589598655700684
6.821015917107326,-0.6279592119364905,-2.3051835277426003,-1.5710799661053356,-2.402784808477527,0.9546439586434885,0.4419359611285628,-0.28721490502357483,0.8141835331916809,0.22664564847946167,0.6011114716529846,0.37463730573654175,0.5946369171142578,0.38041922450065613
6.984696266420763,-0.62774789548732,-2.305051959572701,-1.5706796951744306,-2.4025629051516937,0.9547509408516427,0.39283185633453166,-0.2876279056072235,0.8142436742782593,0.22670172154903412,0.5919786691665649,0.3893033266067505,0.5850446224212646,0.3946225345134735
7.1483763359661925,-0.6272542810485163,-2.304966584153945,-1.5701671297038033,-2.4026032234470436,0.9547614140479636,0.343727835470903,-0.2882947623729706,0.8142883777618408,0.226847305893898,0.5823420882225037,0.403857558965683,0.5752139091491699,0.408540815114975
7.312056730561894,-0.6265010606211007,-2.304925692395425,-1.5695789167813816,-2.4029243634871613,0.9546018032739851,0.2946237170921927,-0.289174884557724,0.8143446445465088,0.22708646953105927,0.572169840335846,0.4182945787906647,0.5651704668998718,0.4221770167350769
7.475737005065432,-0.6255590339184525,-2.304898743398644,-1.5690479282668024,-2.4034972175019433,0.9542721673733348,0.24551963474113128,-0.29014483094215393,0.8143844604492188,0.22741088271141052,0.561448335647583,0.43257126212120056,0.554915189743042,0.4355766475200653
7.63941728142729,-0.6244990169974297,-2.3048251956977923,-1.5687168707332366,-2.4043609042073633,0.9537708830979755,0.1964155518325738,-0.29106754064559937,0.8143715858459473,0.22786027193069458,0.5501495599746704,0.4466424286365509,0.5444486141204834,0.448800265789032
7.803097265321011,-0.623368253429015,-2.3047088738537695,-1.5686527812418585,-2.4054443703618302,0.9532027806525943,0.14731155666445755,-0.2918790876865387,0.8142490386962891,0.22839383780956268,0.5383107662200928,0.46044179797172546,0.533735990524292,0.46188825368881226
7.9667773979442,-0.6220228075204143,-2.304693123379123,-1.5688719127170292,-2.406653800155279,0.9527186253204879,0.09820751687750079,-0.29270002245903015,0.8139017224311829,0.2288685292005539,0.5259159803390503,0.47394198179244995,0.5227778553962708,0.47486263513565063
8.130457431806464,-0.6203632979312336,-2.304945212091798,-1.5689887231275716,-2.4079086197381767,0.9524171275493922,0.04910350671882143,-0.2938234210014343,0.8134039044380188,0.22918471693992615,0.5130771994590759,0.4871331453323364,0.5115498900413513,0.48761627078056335
8.294135787535868,-0.6180137395858765,-2.305971622467041,-1.568199872970581,-2.4090139865875244,0.9527826309204102,0.0,-0.2959998846054077,0.812717616558075,0.2290101796388626,0.5,0.5,0.5,0.5
8.344135787535869,-0.6213359437904181,-2.3151326015808404,-1.564064921228275,-2.4039877768258493,0.9494603150512007,0.0,-0.2960408926010132,0.817324161529541,0.22097016870975494,0.4999999403953552,0.5,0.5,0.5
8.606284890936864,-0.6246582036312305,-2.3242935806946403,-1.5599299694859685,-2.398961805482753,0.946137999181991,0.0,-0.2960093915462494,0.8219034671783447,0.21288932859897614,0.49999988079071045,0.5,0.5,0.4999999701976776
8.976936778292535,-0.6633239260881058,-2.3604589781681216,-1.4949035758574512,-2.4278576451424994,0.9991551553458133,0.0,-0.29437455534935,0.8286399841308594,0.20686458051204681,0.522375226020813,0.4765600264072418,0.4765641391277313,0.5223995447158813
9.259942927596297,-0.7045297701765757,-2.3981675516508973,-1.4254055448119756,-2.4596846393405314,1.0567388466332865,0.0,-0.29306456446647644,0.8358078598976135,0.20112186670303345,0.545255184173584,0.450183629989624,0.4501926004886627,0.5453055500984192
9.523457725177638,-0.7428981045341064,-2.433279443848187,-1.3606932751975542,-2.489319968551686,1.110357219699859,0.0,-0.29219260811805725,0.8430971503257751,0.19544662535190582,0.5653647184371948,0.4246346652507782,0.42464858293533325,0.5654393434524536
10.059409955271857,-0.7746577701198932,-2.4625131439510524,-1.3073006317444016,-2.5135097147964838,1.1548422991789609,0.0,-0.2916474938392639,0.8495667576789856,0.19020390510559082,0.5811276435852051,0.4027746021747589,0.4027930796146393,0.5812236666679382
10.675474245405404,-0.7373214580759929,-2.431460713185243,-1.373457608235792,-2.4784055317868217,1.1045413584030082,0.0,-0.2917328178882599,0.8402873277664185,0.1903386265039444,0.5629259347915649,0.42784643173217773,0.42786428332328796,0.5630220770835876
10.944466045982487,-0.6973179811681723,-2.3981900142578514,-1.444340588811184,-2.440793638765793,1.050647108740468,0.0,-0.2917878031730652,0.8310158252716064,0.19049517810344696,0.5422254204750061,0.45379653573036194,0.4538138508796692,0.5423221588134766
11.2337386767528,-0.6542981934429958,-2.3624106641622897,-1.5205682323409655,-2.4003457632614915,0.9926891670987282,0.0,-0.2918912172317505,0.8217388987541199,0.19068476557731628,0.5186318755149841,0.48058581352233887,0.48060235381126404,0.5187289118766785
11.544290133104203,-0.6081147582593358,-2.324000123724294,-1.6024016076391077,-2.3569233770655593,0.9304690357887091,0.0,-0.29214176535606384,0.8124692440032959,0.1909211277961731,0.4918335974216461,0.5079799294471741,0.5079958438873291,0.4919312000274658
11.87613774042215,-0.558764206333751,-2.2829555075575496,-1.689846862000041,-2.3105232183035858,0.8639820408559848,0.0,-0.2926519811153412,0.8032073378562927,0.19122159481048584,0.46160292625427246,0.5356018543243408,0.535616934299469,0.461700975894928
12.333205996940869,-0.5067314505577087,-2.2396801153766077,-1.782044768333435,-2.261601209640503,0.7938814759254456,0.0,-0.29352590441703796,0.793981671333313,0.19160276651382446,0.4280546307563782,0.5627779364585876,0.562792181968689,0.4281531274318695
12.492311120558579,-0.48479409389813066,-2.2148864112800446,-1.8297763054187481,-2.2387582525458494,0.7563488667590291,0.0,-0.2901170253753662,0.7912709712982178,0.19417792558670044,0.4111001789569855,0.5752528309822083,0.5752753615379333,0.4112652838230133
12.65141624417629,-0.46295216406155515,-2.19016405722236,-1.8775078425040612,-2.2160033033036424,0.7187771255266804,0.0,-0.2868219316005707,0.7886373400688171,0.1966133564710617,0.39374271035194397,0.5872012376785278,0.587245523929596,0.39408642053604126
12.810521367794,-0.44107679468537514,-2.1653940922081434,-1.9252393795893743,-2.193210158556444,0.6810883700501101,0.0,-0.28378012776374817,0.7860581874847412,0.1989366114139557,0.37602266669273376,0.5986649394035339,0.5987207293510437,0.376484751701355
12.96962649141171,-0.4191465679811446,-2.140556664608726,-1.9729709166746874,-2.170358066527681,0.6432731205033428,0.0,-0.2810150980949402,0.7834985256195068,0.20115020871162415,0.35795778036117554,0.6096360683441162,0.6096914410591125,0.3584499657154083
13.12873161502942,-0.3971461647539632,-2.115635800094626,-2.0207024537600002,-2.1474308646300413,0.6053187509007513,0.0,-0.27854394912719727,0.7809251546859741,0.20325493812561035,0.3395642340183258,0.6201048493385315,0.620147705078125,0.33997485041618347
13.28783673864713,-0.37508401406489833,-2.0906415185060365,-2.0684339908453135,-2.12443781188071,0.5672480539179253,0.0,-0.2763473689556122,0.7782939076423645,0.20524545013904572,0.320858359336853,0.6300489902496338,0.630071222782135,0.3210892677307129
13.44694186226484,-0.352996693874323,-2.065614989306152,-2.1161655279306264,-2.101416330937896,0.5291293806585479,0.0,-0.27435991168022156,0.775551438331604,0.20710699260234833,0.301860511302948,0.6394351124763489,0.6394358277320862,0.3018687069416046
13.60604698588255,-0.33093542044088825,-2.0406155445110192,-2.1638970650159397,-2.0784205748099636,0.4910569307897044,0.0,-0.272483766078949,0.7726441621780396,0.20882003009319305,0.2825940251350403,0.6482283473014832,0.6482141017913818,0.28241637349128723
13.76515210950026,-0.3089356781767207,-2.0156843985862665,-2.2116286021012526,-2.0554879336811758,0.45309857838285,0.0,-0.27063536643981934,0.7695339918136597,0.2103710174560547,0.26308369636535645,0.6564077138900757,0.6563881039619446,0.2628125250339508
13.92425723311797,-0.28700549363026356,-1.9908337888457832,-2.259360139186566,-2.0326278515911422,0.415277600937622,0.0,-0.2687678933143616,0.7662006616592407,0.21175438165664673,0.2433517426252365,0.6639677882194519,0.6639513373374939,0.24309515953063965
14.08336235673568,-0.26512794053631483,-1.966048957375945,-2.3070916762718787,-2.0098240585580793,0.37758050385352726,0.0,-0.26686984300613403,0.7626343965530396,0.21297287940979004,0.22341875731945038,0.6709133386611938,0.6709045767784119,0.22326304018497467
14.24246748035339,-0.24328024335066478,-1.9413121805089724,-2.354823213357192,-1.9870549076130475,0.3399972417519043,0.0,-0.264934241771698,0.7588250637054443,0.21402974426746368,0.2033071219921112,0.6772483587265015,0.6772485375404358,0.20331059396266937
14.401571809242503,-0.221332848072052,-1.9165067672729492,-2.402554512023926,-1.964195728302002,0.3024500012397766,0.0,-0.26308131217956543,0.754757285118103,0.21495480835437775,0.1830502599477768,0.6829947829246521,0.6829968690872192,0.1831008642911911
14.567792096566762,-0.221332806931514,-1.9165056036836183,-2.402554602729651,-1.964197459434216,0.3024504638251525,0.04986608619727786,-0.2630809545516968,0.7547570466995239,0.2149556279182434,0.2000206857919693,0.6782189607620239,0.6873493194580078,0.16601689159870148
14.734014023018753,-0.22133275066141947,-1.9165050343135726,-2.402554512023926,-1.9641986897936137,0.30245074851017534,0.09973266413287511,-0.2630806267261505,0.7547569274902344,0.21495603024959564,0.2168668657541275,0.6730214953422546,0.6912747025489807,0.14882946014404297
14.900235949470744,-0.2213327085493344,-1.916504979133606,-2.402554750442505,-1.964199391176958,0.3024509860520547,0.14959924206847236,-0.26308029890060425,0.7547568082809448,0.21495604515075684,0.23357807099819183,0.6674056053161621,0.6947702169418335,0.1315496414899826
15.066457875922735,-0.22133267887939284,-1.9165050213726942,-2.4025545965021022,-1.9641997044476454,0.3024511058026988,0.19946582000406962,-0.2630804181098938,0.7547567486763,0.2149561643600464,0.2501443922519684,0.6613749265670776,0.6978338956832886,0.11418769508600235
15.232679758612395,-0.22133266925811768,-1.916505413431677,-2.402554750442505,-1.9641998864474406,0.3024511897877482,0.24933238481096764,-0.26308009028434753,0.7547566890716553,0.21495592594146729,0.26655489206314087,0.6549330949783325,0.7004638314247131,0.09675506502389908
15.398901679156179,-0.22133265882063163,-1.916505837226948,-2.402554583442728,-1.964199626499156,0.3024512231349945,0.2991989609741029,-0.26308032870292664,0.7547566890716553,0.21495573222637177,0.28279998898506165,0.6480841040611267,0.7026582360267639,0.079261913895607
15.56512360560817,-0.2213326788655059,-1.9165065555220298,-2.402554750442505,-1.9641994661401618,0.3024512231349945,0.3490655389097002,-0.2630802094936371,0.7547566890716553,0.21495547890663147,0.2988691031932831,0.6408323049545288,0.7044159770011902,0.06171974912285805
15.73134553206016,-0.22133271204811278,-1.9165073250496276,-2.4025545273318336,-1.9641990891239711,0.3024511952461606,0.39893211684529745,-0.2630804479122162,0.7547567486763,0.21495510637760162,0.3147525191307068,0.6331821084022522,0.7057358026504517,0.044139035046100616
15.897567458512151,-0.22133278158627107,-1.916508066299512,-2.402554750442505,-1.96419876358333,0.30245115818366636,0.4487986947808947,-0.2630802392959595,0.7547568082809448,0.21495473384857178,0.33044013381004333,0.6251383423805237,0.7066169381141663,0.02653106488287449
16.063789346308607,-0.2213328414630516,-1.9165087409588684,-2.402554657669217,-1.9641982845690857,0.30245111053470536,0.498665261119831,-0.26308029890060425,0.7547568082809448,0.21495430171489716,0.3459224998950958,0.6167059540748596,0.7070587277412415,0.008906444534659386
16.23001121207506,-0.221332929119695,-1.9165093738849213,-2.402554512023926,-1.964197788297221,0.302451057041609,0.5485318208497668,-0.2630804777145386,0.7547569274902344,0.2149539589881897,-0.36118990182876587,-0.6078901290893555,-0.7070609927177429,0.008723844774067402
16.396233138527048,-0.22133303318518532,-1.916510067654857,-2.402554687767509,-1.9641971962916762,0.3024510003851643,0.598398398785364,-0.26308029890060425,0.7547568678855896,0.21495360136032104,-0.37623268365859985,-0.5986965298652649,-0.7066237926483154,0.026348471641540527
16.562455064979037,-0.22133314908615748,-1.916510646732512,-2.402554539247422,-1.9641966172140213,0.30245095831703006,0.6482649767209613,-0.26308053731918335,0.7547570466995239,0.21495327353477478,-0.39104175567626953,-0.5891306400299072,-0.7057472467422485,0.04395701363682747
16.72867699143103,-0.22133326740269713,-1.9165110727949177,-2.4025545176189436,-1.9641961939491244,0.3024509237130162,0.6981315546565586,-0.26308053731918335,0.7547570466995239,0.21495315432548523,-0.4056077301502228,-0.5791985988616943,-0.7044320106506348,0.06153808906674385
16.89489891788302,-0.22133336848167742,-1.916511673214014,-2.4025547137221186,-1.9641956548612296,0.30245086091707757,0.7479981325921559,-0.26308029890060425,0.7547570466995239,0.21495269238948822,-0.4199213683605194,-0.5689064860343933,-0.7026788592338562,0.07908084243535995
17.061120844335008,-0.2213334777381128,-1.9165118413023365,-2.402554512023926,-1.9641951842256176,0.30245083570480347,0.7978647105277531,-0.26308053731918335,0.7547572255134583,0.2149525284767151,-0.4339742362499237,-0.5582606196403503,-0.7004888653755188,0.09657467901706696
17.227342770786997,-0.2213336062081653,-1.9165120124816895,-2.402554610036214,-1.9641949150339766,0.30245082345326746,0.8477312884633503,-0.2630804777145386,0.7547572255134583,0.2149524986743927,-0.4477573037147522,-0.5472677946090698,-0.6978633999824524,0.1140083447098732
17.393564697238986,-0.2213337163521406,-1.9165119475267256,-2.402554620532577,-1.9641945797627938,0.30245082214122204,0.8975978663989476,-0.2630804777145386,0.754757285118103,0.21495243906974792,-0.461262047290802,-0.5359346866607666,-0.6948041319847107,0.13137125968933105
17.55978662369098,-0.2213338184802274,-1.9165118113559432,-2.402554512023926,-1.9641943350833602,0.30245083570480347,0.9474644443345449,-0.263080358505249,0.754757285118103,0.21495254337787628,-0.47448012232780457,-0.5242684483528137,-0.6913129687309265,0.14865244925022125
17.726008382851088,-0.22133390918430731,-1.9165115733128533,-2.4025547127741826,-1.964194197415399,0.30245083570480347,0.9973309720825779,-0.2630801796913147,0.754757285118103,0.21495254337787628,-0.4874030351638794,-0.5122763514518738,-0.6873921155929565,0.16584116220474243
17.89223027791281,-0.2213339664992672,-1.9165111729759086,-2.402554512023926,-1.9641939435231612,0.3024508361248663,1.0471975406010945,-0.263080358505249,0.7547574043273926,0.21495270729064941,-0.5000232458114624,-0.499965637922287,-0.6830437183380127,0.18292701244354248
18.0584522043648,-0.22133403473507424,-1.9165107446184906,-2.4025545625374614,-1.96419415332447,0.3024508718213178,1.0970641185366918,-0.2630802392959595,0.7547573447227478,0.21495291590690613,-0.5123324394226074,-0.48734426498413086,-0.6782709360122681,0.19989891350269318
18.224674130816794,-0.22133407651568135,-1.9165102532117588,-2.4025546456679217,-1.9641941117592399,0.30245089530944824,1.1469306964722892,-0.26308006048202515,0.754757285118103,0.21495309472084045,-0.5243231654167175,-0.4744199514389038,-0.6730763912200928,0.21674665808677673
18.390896057268783,-0.22133409536337845,-1.9165096500854517,-2.402554512023926,-1.9641944304599743,0.30245093728923766,1.1967972744078863,-0.2630801498889923,0.7547574043273926,0.2149534523487091,-0.535987913608551,-0.4612005949020386,-0.6674634218215942,0.23345963656902313
18.557117983720776,-0.22133409928836453,-1.9165091418341849,-2.4025547465926826,-1.9641945381340176,0.302450954914093,1.2466638523434836,-0.2630798816680908,0.754757285118103,0.21495358645915985,-0.5473194122314453,-0.4476945996284485,-0.6614356637001038,0.2500274181365967
18.723339910172765,-0.22133405205154735,-1.9165084120865121,-2.402554512023926,-1.9641947987441764,0.302450954914093,1.2965304302790808,-0.2630801200866699,0.754757285118103,0.2149539589881897,-0.5583109855651855,-0.4339103400707245,-0.6549965143203735,0.2664400637149811
18.889561836624758,-0.2213339994655949,-1.916507785013361,-2.402554718409457,-1.964195219431796,0.3024509291159016,1.3463970082146781,-0.26308000087738037,0.754757285118103,0.2149541676044464,-0.5689550042152405,-0.41985636949539185,-0.6481504440307617,0.2826867699623108
19.05578376307675,-0.22133387981993155,-1.916507317985781,-2.402554512023926,-1.9641954803694037,0.30245089530944824,1.3962635861502755,-0.26308029890060425,0.754757285118103,0.21495456993579865,-0.5792455673217773,-0.4055413603782654,-0.6409012079238892,0.2987579107284546
19.22200568952874,-0.22133372905033302,-1.9165069497064247,-2.402554694457401,-1.9641958475112915,0.30245082170852755,1.4461301640858726,-0.2630801498889923,0.7547572255134583,0.2149546593427658,-0.5891758799552917,-0.3909744322299957,-0.6332537531852722,0.31464317440986633
19.388227615980732,-0.22133350293399218,-1.9165068456936059,-2.4025545936011916,-1.964195966720581,0.302450666298875,1.49599674202147,-0.26308053731918335,0.7547571659088135,0.21495480835437775,-0.5987400412559509,-0.37616443634033203,-0.6252126097679138,0.33033299446105957
19.55444954243272,-0.22133322051467413,-1.9165068152331697,-2.4025545599841465,-1.9641959427404707,0.30245037667991254,1.545863319957067,-0.263080894947052,0.754757285118103,0.21495485305786133,-0.6079318523406982,-0.36112064123153687,-0.6167826652526855,0.345817506313324
19.60901717342742,-0.22901026625829174,-1.9096643193737095,-2.3898305496702985,-1.9521963803159725,0.31882066597832304,1.5458637967942253,-0.26258647441864014,0.7554214000701904,0.21765795350074768,-0.6204843521118164,-0.3463151454925537,-0.6126762628555298,0.34596627950668335
19.775239099879414,-0.24441249014794897,-1.8964273217751393,-2.3656497394868667,-1.9288243638896425,0.35192906496512105,1.495997218858628,-0.26064008474349976,0.7561816573143005,0.2224295735359192,-0.6364237070083618,-0.33293822407722473,-0.6126503944396973,0.3298126757144928
19.941461026331403,-0.2598636689784824,-1.883635545129371,-2.3426696465511143,-1.905852020863109,0.38547245302031313,1.4461306409230308,-0.2580493092536926,0.7562862038612366,0.2263786792755127,-0.6522446274757385,-0.3207213878631592,-0.6115843653678894,0.31253692507743835
20.107682952783396,-0.27561803270594126,-1.8711133037013605,-2.3206174007836924,-1.8832036873944271,0.4192746666844886,1.3962640629874334,-0.2550686001777649,0.7559113502502441,0.22961090505123138,-0.6680310368537903,-0.30954495072364807,-0.609313428401947,0.2943698465824127
20.273904879235385,-0.2919457619248349,-1.8588085237238186,-2.299534212276932,-1.8609853500099087,0.4532263104845806,1.3463974850518363,-0.2516028881072998,0.7551586627960205,0.23218564689159393,-0.6837142705917358,-0.2993895411491394,-0.6058626174926758,0.2753744423389435
20.440126805687377,-0.30881439742818073,-1.846731887216722,-2.2792636941840954,-1.839056218310208,0.4872826500691346,1.296530907116239,-0.24794819951057434,0.7541010975837708,0.23414663970470428,-0.6992859244346619,-0.29022136330604553,-0.6011222004890442,0.25577884912490845
20.60634873213937,-0.3262005322358521,-1.8349067406491648,-2.2597525098085662,-1.817353101665211,0.5214199547805543,1.2466643291806416,-0.24427524209022522,0.7527906894683838,0.2355363517999649,-0.7146956920623779,-0.2820368707180023,-0.5950502157211304,0.2357550710439682
20.77257065859136,-0.344081147981855,-1.8233411132311794,-2.240987044903363,-1.7958906939744774,0.555602325402219,1.1967977512450445,-0.24069583415985107,0.7512761354446411,0.23641854524612427,-0.7298684120178223,-0.2748519778251648,-0.5876461267471313,0.2154541015625
20.93879243437243,-0.3625205252116369,-1.8120781531009869,-2.2230522579928733,-1.774712261987575,0.5898122645363444,1.1469312185107225,-0.2371489405632019,0.749591588973999,0.23682096600532532,-0.7447100877761841,-0.26867029070854187,-0.5789797902107239,0.19494977593421936
21.10501411413104,-0.3814715723840823,-1.8010875985832462,-2.2057878809544507,-1.7537489658175494,0.6240475058338368,1.0970647145831394,-0.2338581681251526,0.7478207945823669,0.2368529587984085,-0.7592211365699768,-0.26344171166419983,-0.568989634513855,0.17444868385791779
21.271235698663588,-0.4009549490392382,-1.7903830020398563,-2.189149068366511,-1.732966263572921,0.6583131951148786,1.0471982392233752,-0.23088422417640686,0.7460324764251709,0.23658248782157898,-0.7733686566352844,-0.25912657380104065,-0.5576847195625305,0.1540839970111847
21.437457370988575,-0.42094653003094434,-1.7800103314930638,-2.173115476468928,-1.7123159770533771,0.6926098123150931,0.9973317375258794,-0.22829648852348328,0.7442834973335266,0.23605294525623322,-0.7871056795120239,-0.2557089924812317,-0.5450913310050964,0.13398845493793488
21.603679297440568,-0.44138066398713866,-1.7700340280454143,-2.1576679189104095,-1.6917375667927372,0.7269331350190191,0.9474651595902821,-0.22618746757507324,0.742628276348114,0.23529593646526337,-0.8003813028335571,-0.2531889081001282,-0.5312442183494568,0.11430075764656067
21.76990129903009,-0.46217296781139006,-1.7604352697846848,-2.1427209535622618,-1.6712017345507142,0.761267215431466,0.8975985591134259,-0.22469526529312134,0.7411454319953918,0.2344171702861786,-0.8131683468818665,-0.2515562176704407,-0.5161532163619995,0.09519659727811813
21.936123554594378,-0.4833376587914535,-1.7511828478505986,-2.1282509164248156,-1.6507465581903356,0.795584436509288,0.8477318824441393,-0.22380408644676208,0.7399114966392517,0.23352298140525818,-0.8254274725914001,-0.2507818043231964,-0.4998807907104492,0.07679186761379242
22.10234567284299,-0.5048981865254744,-1.7422421919837494,-2.1142362396465932,-1.6304101458535698,0.8298577123648252,0.7978652469695562,-0.22347277402877808,0.7390004992485046,0.2327190786600113,-0.8371239900588989,-0.2508288621902466,-0.48249804973602295,0.05919438228011131
22.268567905482016,-0.5268660561367494,-1.7335828097427928,-2.1006333580954424,-1.610176551034928,0.8640735519501103,0.747998577177848,-0.223690003156662,0.7384938597679138,0.23210512101650238,-0.8482415080070496,-0.2516504228115082,-0.4640580117702484,0.04252636805176735
22.434789923111268,-0.5492437564240552,-1.7251782987713762,-2.0873803588630446,-1.5899845780895812,0.8982290591830216,0.698131971889072,-0.22446826100349426,0.7384834289550781,0.23177817463874817,-0.8587770462036133,-0.2531944811344147,-0.44460052251815796,0.02692403458058834
22.601011449153514,-0.5720430225466449,-1.7170095052553784,-2.074428758777997,-1.5697809705662567,0.9323177716697981,0.6482655140763984,-0.2257918417453766,0.739059329032898,0.23182980716228485,-0.8687220811843872,-0.25541138648986816,-0.42418211698532104,0.01251139584928751
22.767233151222513,-0.5953154210420776,-1.7090809540682803,-2.061788044823234,-1.5495774131919284,0.9663058141682015,0.5983990034556991,-0.22753895819187164,0.7402898073196411,0.23232421278953552,0.8780438899993896,0.25825557112693787,0.4029175341129303,0.0006398523692041636
22.93345496415382,-0.619046901748376,-1.7013673882274984,-2.049442898963938,-1.529412938663661,1.0001666106327272,0.548532459576307,-0.22963358461856842,0.7422229051589966,0.2333492487668991,0.8867120146751404,0.26170262694358826,0.38091814517974854,0.012446812354028225
23.09967698938222,-0.6432348674817914,-1.6938634027860084,-2.037409670600643,-1.509313301190572,1.033886058840931,0.49866585200778696,-0.2319655418395996,0.7448825836181641,0.23495441675186157,0.8946974873542786,0.2657240629196167,0.3583078980445862,0.022856852039694786
23.265898981594614,-0.6678300310865865,-1.6865619899841817,-2.025714411583658,-1.489283452041317,1.067481342910008,0.4487992543440694,-0.23446029424667358,0.7482585310935974,0.23716753721237183,0.9019767045974731,0.27030640840530396,0.33520078659057617,0.031826309859752655
23.432120985117844,-0.6927809902732041,-1.6794599237200534,-2.01439159184147,-1.469326212451673,1.100979934170859,0.39893265328710026,-0.23704293370246887,0.7523224353790283,0.23999810218811035,0.9085280895233154,0.27543768286705017,0.31171104311943054,0.0393298901617527
23.598342629213004,-0.7180826466964609,-1.672575674409461,-2.0034955940121937,-1.4494508396278276,1.1344350008145985,0.3490661600585519,-0.23959854245185852,0.7570239901542664,0.24341660737991333,0.9143378138542175,0.2810865044593811,0.287952721118927,0.04538693279027939
23.76456487244096,-0.7437871496890434,-1.6659639365102452,-1.9931358995988795,-1.4296812998764572,1.167943055218136,0.2991994870901648,-0.24194864928722382,0.7622656226158142,0.24731668829917908,0.9193963408470154,0.2871997654438019,0.2640407681465149,0.0500897578895092
23.930787073976447,-0.7698116058424528,-1.6596186456479007,-1.9833219484822837,-1.4100475055017994,1.2015754308445965,0.24933282662951858,-0.24408583343029022,0.7679727077484131,0.2516873776912689,0.9236955642700195,0.2937752902507782,0.2400536686182022,0.053449369966983795
24.097008939278492,-0.7960174961170637,-1.6535670866433958,-1.9741861897396906,-1.390661966171991,1.2353843201358778,0.19946626703890535,-0.24594955146312714,0.7739564180374146,0.2564111351966858,0.927193820476532,0.30085328221321106,0.21612495183944702,0.055578138679265976
24.26323075376795,-0.8222469817127761,-1.6477688910832904,-1.9658892676670288,-1.3716796485069587,1.269456077426919,0.14959972269206842,-0.2474963515996933,0.7799623012542725,0.2613755762577057,0.9298580884933472,0.30847644805908203,0.19235582649707794,0.05661538615822792
24.42945256629869,-0.8485172708035703,-1.641847515075412,-1.9584418539706956,-1.3532074213174763,1.3039572158172565,0.09973317893284626,-0.2486943155527115,0.7858408689498901,0.26679959893226624,0.9317370057106018,0.3165745735168457,0.16868218779563904,0.056505195796489716
24.59567442648268,-0.8747827411894337,-1.6354214741386142,-1.9519146122280593,-1.335394010940843,1.3391072355005929,0.04986662087764848,-0.24954956769943237,0.7913506031036377,0.2728763818740845,0.9328516721725464,0.3251182436943054,0.1450379639863968,0.05522400513291359
24.761896496074844,-0.9005677700042725,-1.6284997463226318,-1.9465112686157227,-1.318442940711975,1.3750967979431152,0.0,-0.2503494620323181,0.7960500717163086,0.2794152498245239,0.9331015348434448,0.334304541349411,0.12147259712219238,0.05297359079122543
24.927857968167004,-0.8663638787473212,-1.615664016367457,-1.8967228269880745,-1.2907675850741966,1.3787573044455712,-0.03072450413806923,-0.31286802887916565,0.8259502649307251,0.3298633098602295,0.9263822436332703,0.36139199137687683,0.1053164005279541,0.010965261608362198
25.09382102971636,-0.8319963246500057,-1.602953381268701,-1.846933908523268,-1.2626649678216977,1.3825168951624252,-0.06189601424615993,-0.37563249468803406,0.8499200344085693,0.3852573335170746,-0.9168446660041809,-0.3880201578140259,-0.08869504928588867,0.03113413229584694
25.259784091265715,-0.7974107642451653,-1.5904073101464788,-1.7971449900584615,-1.2339963889524013,1.386407925851931,-0.09366016028762761,-0.4380576014518738,0.8677539825439453,0.4453648328781128,-0.9044615030288696,-0.414061576128006,-0.07163643836975098,0.0732840895652771
25.42574715281507,-0.7626012580698066,-1.578011941601764,-1.7473560715936551,-1.2047729398377658,1.390429065940349,-0.126007252759752,-0.4994254410266876,0.8792782425880432,0.5099517703056335,-0.889249861240387,-0.4392918348312378,-0.054204054176807404,0.11540920287370682
25.591710214364426,-0.7275418565603197,-1.5657597159463204,-1.6975671531288488,-1.174967471684558,1.394588531650777,-0.15896911689185317,-0.5590277314186096,0.8843928575515747,0.5787525177001953,-0.8712305426597595,-0.46350762248039246,-0.0364539735019207,0.15744523704051971
25.75767327591378,-0.6922048511627406,-1.5536486077679537,-1.6477782346640422,-1.144541478757263,1.3988971704183344,-0.1925889772791168,-0.616146981716156,0.8830729722976685,0.6514676213264465,-0.8504353165626526,-0.48650553822517395,-0.018444273620843887,0.19932861626148224
25.923636337463137,-0.6565990906978204,-1.5416718919763737,-1.5979893161992358,-1.1135198044630927,1.4033503775176446,-0.2268410222196804,-0.6699983477592468,0.8753831386566162,0.727751612663269,-0.8269418478012085,-0.5080356001853943,-0.00024963897885754704,0.2409704029560089
26.089599399012492,-0.6207416147556496,-1.529844902313107,-1.5482003977344294,-1.0819130937264017,1.407947611353495,-0.26171245883330396,-0.7198086977005005,0.86149662733078,0.8072006702423096,-0.8008526563644409,-0.5278536081314087,0.01805179752409458,0.28227582573890686
26.255562460561848,-0.5846300689064576,-1.5181988793650474,-1.498411479269623,-1.0496806374062988,1.4127012842093536,-0.2972442119679929,-0.7648682594299316,0.8416789770126343,0.8893788456916809,-0.772270917892456,-0.545745849609375,0.03638600930571556,0.32316428422927856
26.421525522111203,-0.5482823868857154,-1.5067455629699518,-1.4486225608048167,-1.0168380333530989,1.417609483278405,-0.3334181056588605,-0.8044552803039551,0.8162910342216492,0.9738183617591858,-0.7413477897644043,-0.5614740252494812,0.054668691009283066,0.3635405898094177
26.58748858366056,-0.5117036150958514,-1.4955037130886355,-1.39883364234001,-0.9833825569572449,1.422674902903115,-0.3702356081358314,-0.8379145860671997,0.7857798337936401,1.060020923614502,-0.7082490921020508,-0.5748204588890076,0.07281678915023804,0.4033140540122986
26.753451645209914,-0.4748963774654073,-1.4844991265287386,-1.3490447238752037,-0.9493333330235241,1.427896455055488,-0.4076741970098948,-0.8646543025970459,0.7506797909736633,1.1474441289901733,-0.6731755137443542,-0.5855754017829895,0.09074557572603226,0.4423815608024597
26.91941470675927,-0.43786206249216275,-1.473757652420229,-1.2992558054103973,-0.9147122686387563,1.433272560447821,-0.4457084493851088,-0.8841595649719238,0.7116066217422485,1.235520839691162,-0.6363531351089478,-0.5935453772544861,0.10837215930223465,0.48063918948173523
27.085377768308625,-0.4006010433163952,-1.4633036478256707,-1.2494668869455907,-0.8795379434139908,1.4388020603715468,-0.4843166791636684,-0.8960050940513611,0.6692485213279724,1.323669672012329,-0.5980297923088074,-0.59855717420578,0.12561658024787903,0.517986536026001
27.25134082985798,-0.36311342357372683,-1.4531586329141304,-1.1996779684807843,-0.8438249177805559,1.4444842666219566,-0.5234817799554041,-0.8998614549636841,0.6243552565574646,1.4113048315048218,-0.5584719777107239,-0.6004593968391418,0.14240190386772156,0.5543275475502014
27.417303891407336,-0.32536818095264053,-1.4433887397010277,-1.149889050015978,-0.807509734835426,1.4503411636420311,-0.5632675841638105,-0.8955798149108887,0.5777076482772827,1.4978280067443848,-0.5179211497306824,-0.5991495251655579,0.15865249931812286,0.5895819067955017
27.58326695295669,-0.2873952199304444,-1.4339690262804006,-1.1001001315511716,-0.7706314791681437,1.4563631735397267,-0.6036360987681101,-0.8829711079597473,0.5301527976989746,1.5826871395111084,-0.4766921103000641,-0.5944968461990356,0.17429062724113464,0.6236673593521118
27.749230014506047,-0.24924635484160276,-1.424833151790365,-1.0503112130863652,-0.7332856034737681,1.4625233366637718,-0.6444908453836748,-0.8618930578231812,0.4825820028781891,1.6653409004211426,-0.43514639139175415,-0.5863837599754333,0.1892450749874115,0.6564967632293701
27.915193076055402,-0.21094181876718382,-1.4159605960841661,-1.0005222946215586,-0.695496435311576,1.468815135310701,-0.6858085239831184,-0.8323937654495239,0.43588191270828247,1.7452411651611328,-0.3936174213886261,-0.5747500658035278,0.20344804227352142,0.6879945397377014
28.081156164354088,-0.17249978658234308,-1.407333251527456,-0.9507333681319527,-0.6572859292519925,1.475232688411621,-0.727568053959263,-0.7946423888206482,0.39093655347824097,1.8218475580215454,-0.3524457812309265,-0.5595682859420776,0.21683506667613983,0.7180862426757812
28.247119384144497,-0.13392505177526115,-1.3989596095541061,-0.9009444021948294,-0.6186307407358889,1.4817838681401898,-0.7697959615709635,-0.7489621639251709,0.34860092401504517,1.89463472366333,-0.3119527995586395,-0.5408483743667603,0.22933843731880188,0.7467076182365417
28.41308231558289,-0.09522449021907348,-1.3908484257637024,-0.8511555227633109,-0.5795225044730412,1.4884710083926873,-0.8125001388293509,-0.695791482925415,0.30970025062561035,1.963091254234314,-0.27247387170791626,-0.5186290144920349,0.24089415371418,0.7737905383110046
28.579045322252817,-0.05643497863236063,-1.3829390913024073,-0.8013666207623329,-0.5400743604646414,1.4952598492366191,-0.8555606530365142,-0.6355883479118347,0.27504321932792664,2.0267293453216553,-0.23440591990947723,-0.4929753839969635,0.2514648139476776,0.7992462515830994
28.745008443706926,-0.01756616735945986,-1.375223177501168,-0.7515776843261007,-0.5003070635309077,1.502143959118387,-0.8989548261147657,-0.5689913034439087,0.2453521341085434,2.085092544555664,-0.19808974862098694,-0.4640008807182312,0.2610069215297699,0.8230059742927551
28.910971644033676,0.021372933178669798,-1.3676928912614077,-0.7017887242280754,-0.4602402637550153,1.5091173077166158,-0.9426611939615998,-0.49673718214035034,0.2212730348110199,2.1377599239349365,-0.1638563722372055,-0.43185335397720337,0.26948243379592896,0.8450047373771667
29.07693470558303,0.06038498865567239,-1.3603790315994337,-0.651999805763269,-0.4198365872874944,1.516191051774456,-0.9867174107488691,-0.4197011888027191,0.203347846865654,2.1843502521514893,-0.1320003718137741,-0.3967122733592987,0.2768430709838867,0.8651896715164185
29.242897767132387,0.09945623270711056,-1.3532577194936102,-0.6022108872984624,-0.379152529787876,1.523350061140547,-1.0310639263403771,-0.33876484632492065,0.19204068183898926,2.2245256900787354,-0.10284125804901123,-0.3587927222251892,0.28307074308395386,0.8834944367408752
29.408860828681743,0.13857337919924345,-1.346295632899851,-0.552421968833656,-0.3382507752062592,1.5305769943547487,-1.075635349121304,-0.25485557317733765,0.18771246075630188,2.2579972743988037,-0.07667692750692368,-0.3183426260948181,0.288158655166626,0.899857223033905
29.574823911310112,0.17773214561068465,-1.3394868631982582,-0.5026330440451456,-0.2971510767057689,1.5378670559872003,-1.1204109070674826,-0.1689836084842682,0.1905980259180069,2.284528970718384,-0.053762637078762054,-0.27563825249671936,0.2920949161052704,0.9142283797264099
29.740787050190136,0.21692884255772732,-1.3328281357789737,-0.45284410238113815,-0.2558701403568785,1.5452163772168186,-1.1653729998074147,-0.08219195902347565,0.2008124142885208,2.3039369583129883,-0.034326501190662384,-0.23098136484622955,0.29487258195877075,0.9265631437301636
29.90675003636717,0.256168731646098,-1.3263616820511201,-0.403055206528027,-0.21438506499648505,1.5526365516012963,-1.2105437814429822,0.0043924301862716675,0.21832212805747986,2.3161003589630127,-0.018555298447608948,-0.18470066785812378,0.29647698998451233,0.9368258714675903
30.07271307487916,0.29543594491513114,-1.3200262157617726,-0.3532662949744303,-0.1727823232330933,1.5601013367110954,-1.2558341599274494,0.08980023860931396,0.243025541305542,2.3209497928619385,-0.006636131554841995,-0.13714481890201569,0.2969372272491455,0.9449737668037415
30.23867610446953,0.3347283935539682,-1.3138168818033507,-0.3034773860973192,-0.1310801195408844,1.5676067467546237,-1.301224960253323,0.17300252616405487,0.27467381954193115,2.3184757232666016,0.0013006062945351005,-0.08867697417736053,0.29626578092575073,0.9509790539741516
30.404639093764512,0.37404404132713376,-1.3077289589009138,-0.253688489308825,-0.08929644994298576,1.5751488573941073,-1.3466972308823868,0.2530081272125244,0.31290215253829956,2.3087282180786133,0.005160599946975708,-0.03967297077178955,0.29448026418685913,0.9548197388648987
30.57060211675511,0.41338480124498655,-1.301782273088958,-0.20389958241164566,-0.04744303654974071,1.5827294474185731,-1.3922376837552064,0.3288348913192749,0.35721632838249207,2.2918241024017334,0.004890205338597298,0.009473539888858795,0.2916024923324585,0.9564802050590515
30.7365652043912,0.4527452600573443,-1.2959629121698575,-0.15411065612081887,-0.005558490885706306,1.5903391047913173,-1.437805764055593,0.39962276816368103,0.40704241394996643,2.2679319381713867,0.00046920368913561106,0.05836660787463188,0.2876685559749603,0.9559496641159058
30.902528230201696,0.4921182133929147,-1.2902484471571216,-0.10432174837767043,0.03632724890554519,1.5979674035180405,-1.4833704883041796,0.46461349725723267,0.46172621846199036,2.2372684478759766,-0.008083229884505272,0.10661773383617401,0.2827143669128418,0.9532260298728943
31.068491184792347,0.531500280725611,-1.2846366608981938,-0.05453286200047536,0.07819449565612012,1.6056096354238212,-1.5289108098712278,0.5231078863143921,0.5205184817314148,2.200108528137207,-0.02070535719394684,0.1538369059562683,0.27677714824676514,0.9483141899108887
31.23445410998061,0.5708879825513967,-1.2791286652348912,-0.0047439844439963325,0.12002095357091468,1.6132610710470925,-1.5744026539161142,0.574505090713501,0.5825997591018677,2.15678071975708,-0.037295661866664886,0.19963905215263367,0.2698991596698761,0.9412266612052917
31.400417065708766,0.6102752215796595,-1.2737535138145886,0.04504490227444985,0.1617476630060493,1.620913474092536,-1.6197814519865232,0.61826491355896,0.6470609307289124,2.107699394226074,-0.05770020931959152,0.24362227320671082,0.2621477246284485,0.9319856762886047
31.566379873960454,0.6496574690910893,-1.2684725574355662,0.09483374474995654,0.2033698270050037,1.6285593681337267,-1.6650440277149126,0.6540939211845398,0.713040292263031,2.0532479286193848,-0.08174999058246613,0.28545764088630676,0.2535601854324341,0.9206182360649109
31.73234277831651,0.6890342858500594,-1.2632846985285713,0.14462261605677393,0.24486991113854467,1.6361946704666794,-1.7101724103362645,0.6817498207092285,0.7796172499656677,1.9938771724700928,-0.1092340275645256,0.32481250166893005,0.24418652057647705,0.9071590900421143
31.898305882713096,0.7284055698650966,-1.2581890073429949,0.194411547375749,0.2862302622097522,1.643815441205613,-1.7551485854965334,0.7011120319366455,0.8458681106567383,1.9300686120986938,-0.1399102509021759,0.3613765835762024,0.23407886922359467,0.891649603843689
32.06426874990301,0.767770820388471,-1.253203361117166,0.24420040753272304,0.32739316654060574,1.6514129051694764,-1.799911835239097,0.7121523022651672,0.9108554124832153,1.8623722791671753,-0.17348812520503998,0.394845575094223,0.22331444919109344,0.8741450309753418
32.23023171600236,0.807130959025036,-1.2483229822195234,0.29398929736252744,0.3683301557624038,1.6589800798122387,-1.8444337035068037,0.7149999141693115,0.9737033247947693,1.7913217544555664,-0.20966459810733795,0.42496737837791443,0.211954265832901,0.8547038435935974
32.3961946092946,0.8464872156465937,-1.2435309921877769,0.34377816535020006,0.4090515892297629,1.6665166650634782,-1.8887265123176937,0.7099113464355469,1.0335932970046997,1.7174289226531982,-0.24813368916511536,0.45153743028640747,0.20003655552864075,0.8333839774131775
32.56215748392499,0.8858401593502767,-1.2388258713182214,0.39356702773931945,0.44953928128438725,1.6740190423575072,-1.9327716264414077,0.6972236037254333,1.0897397994995117,1.6412442922592163,-0.2885570228099823,0.47436755895614624,0.18761619925498962,0.8102532625198364
32.72812047691277,0.9251904779816854,-1.2342056920701492,0.44335592563565435,0.4897747143246892,1.6814836108302342,-1.9765499930923818,0.6773693561553955,1.1414244174957275,1.5633200407028198,-0.3305817246437073,0.4933047294616699,0.17474840581417084,0.7853846549987793
32.89408369647403,0.9645387125779641,-1.2296905967602094,0.4931448915040315,0.5296495551887963,1.6888928837507595,-2.0199483413727894,0.6508483290672302,1.187989592552185,1.4842827320098877,-0.37379422783851624,0.5082142353057861,0.16153854131698608,0.7588817477226257
33.0600467919925,1.0038861425638321,-1.2252571577306623,0.5429338201595719,0.569199373325393,1.696250995721371,-2.0630045826484418,0.6182771325111389,1.2289040088653564,1.404616117477417,-0.4178526997566223,0.519038736820221,0.14800646901130676,0.7308158874511719
33.226009767856276,1.0432335972017905,-1.2208991416425827,0.5927227129187058,0.6084192759430596,1.703556347371658,-2.105714129346861,0.5803120732307434,1.2637059688568115,1.3248329162597656,-0.46239110827445984,0.5257408618927002,0.1341945379972458,0.7012722492218018
33.39197271640906,1.082581425965391,-1.2166158256775084,0.6425115974845399,0.6472898198522123,1.710804988912367,-2.148056262476599,0.5376545786857605,1.2920230627059937,1.245443344116211,-0.507034957408905,0.5283161401748657,0.12015163898468018,0.6703441143035889
33.55793576759081,1.121929674131377,-1.2124073169894514,0.6923005128390667,0.685792139110291,1.7179929217323042,-2.1900102555477927,0.4910408854484558,1.3135802745819092,1.1669355630874634,-0.5514146089553833,0.526796281337738,0.10592442005872726,0.6381282210350037
33.72389866606613,1.1612783967497355,-1.2082891429816434,0.7420893823816606,0.7238239736113008,1.7251016127487049,-2.2314671341492405,0.441228449344635,1.3282150030136108,1.0898295640945435,-0.5951229333877563,0.5212552547454834,0.09160122275352478,0.6047568917274475
33.88986198126248,1.2006276938684113,-1.204252458261548,0.7918783769405652,0.7614066834770283,1.7321327413965568,-2.2724473382950205,0.3889898955821991,1.3358535766601562,1.0145212411880493,-0.637834370136261,0.5118017792701721,0.07720004767179489,0.570321261882782
34.05582505412036,1.2399765929837083,-1.2002917691107944,0.84166729879793,0.7985483081177682,1.7390866679889392,-2.3129586185088558,0.33509236574172974,1.3365120887756348,0.9413875341415405,-0.6792309880256653,0.4985702931880951,0.06274312734603882,0.5349169969558716
34.221788177960704,1.279321552585019,-1.196405910124403,0.891456235950032,0.8352283921433746,1.7459585136078688,-2.3529786746486367,0.2802903950214386,1.3303000926971436,0.8707890510559082,-0.7189965844154358,0.4817273020744324,0.0482642725110054,0.4986513555049896
34.38775143406908,1.3186574770313246,-1.1925927895367188,0.9412452127825445,0.8714260008800203,1.752743288753467,-2.392484659043895,0.22531342506408691,1.3174134492874146,0.8030480146408081,-0.7568361163139343,0.46146759390830994,0.03379414603114128,0.4616324305534363
34.55371439370815,1.3579782189157366,-1.1888499533319916,0.991034100674265,0.9071166513646486,1.7594354251520563,-2.431449870987486,0.17085640132427216,1.2981278896331787,0.7384487390518188,-0.7924768328666687,0.43801289796829224,0.019360926002264023,0.4239697754383087
34.719677800726025,1.397276140432278,-1.1851748218109133,1.0408231227796285,0.9422697737862726,1.7660275597058173,-2.4698412673417423,0.11756919324398041,1.2727938890457153,0.6772372722625732,-0.8256687521934509,0.4116103947162628,0.004992393776774406,0.38577598333358765
34.88564049972063,1.4365399495340943,-1.1815698674383217,1.0906119324780104,0.9768016995915767,1.7725028600201387,-2.507568859464362,0.06605090200901031,1.2418487071990967,0.6196339130401611,-0.856170654296875,0.3825514316558838,-0.009266359731554985,0.34718888998031616
35.05160353058476,1.475770858808504,-1.1780219894981774,1.1404008417372493,1.010785065745782,1.778874907664117,-2.544710923182093,0.016829021275043488,1.2057116031646729,0.5657695531845093,-0.8838351964950562,0.3510763943195343,-0.023438826203346252,0.30827152729034424
35.21756659213411,1.514967288550997,-1.1745255145321147,1.1901897602020557,1.0442361388202448,1.7851473942623548,-2.5812858193978867,-0.02962625026702881,1.1648633480072021,0.5157681703567505,-0.9085130095481873,0.3174521028995514,-0.0375242717564106,0.2691097557544708
35.383529991184545,1.5541264521553984,-1.1710744517316065,1.2399787799171846,1.0771586481916962,1.7913214996591018,-2.617299133498255,-0.07290703803300858,1.1198232173919678,0.4697248339653015,-0.9300761818885803,0.2819570302963257,-0.0515180304646492,0.22979195415973663
35.549493112597126,1.5932444050266825,-1.1676630363724971,1.289767716340958,1.1095523593305943,1.7973975753160112,-2.6527515231880265,-0.11267045885324478,1.0711361169815063,0.4277046322822571,-0.9484206438064575,0.24487699568271637,-0.06541508436203003,0.19040566682815552
35.71545620333304,1.632313733534459,-1.1642886465787263,1.3395566435617325,1.141394816930333,1.8033697481213904,-2.6876183102482396,-0.1486404538154602,1.0193732976913452,0.3897453546524048,-0.9634641408920288,0.2065146267414093,-0.07920340448617935,0.15104782581329346
35.88141949798991,1.671324214769036,-1.1609490286530162,1.3893456319587927,1.1726680302867125,1.8092307243132921,-2.721876700040998,-0.18060755729675293,0.965111494064331,0.35585251450538635,-0.975153923034668,0.16717484593391418,-0.09287376701831818,0.11181080341339111
36.047382600411126,1.710269034761991,-1.157636103225092,1.4391345626851577,1.2034241489064472,1.8149849268991969,-2.755577833903105,-0.20842182636260986,0.9088911414146423,0.3260067403316498,-0.9834733009338379,0.12711931765079498,-0.10643739998340607,0.07274578511714935
36.21334535879455,1.7491369147786722,-1.1543475838691302,1.488923390200184,1.2336438175093307,1.8206240841485664,-2.7886976868374496,-0.23200134932994843,0.8512806296348572,0.30016666650772095,-0.9884169697761536,0.08664706349372864,-0.11988435685634613,0.033938802778720856
36.36074495466572,1.7847708946470346,-1.1511257279968181,1.5331432689615354,1.260356935116644,1.8248827468096755,-2.8182841992635352,-0.2505982518196106,0.7988836765289307,0.280239462852478,0.99007248878479,-0.04963786154985428,0.13149964809417725,0.0006121408077888191
36.526707727459375,1.7667531694932928,-1.14873895869133,1.4833544371234382,1.2345219573342219,1.807241791918944,-2.795445566404177,-0.2541065812110901,0.849684476852417,0.29670488834381104,-0.9902134537696838,0.07459831982851028,-0.11342068016529083,0.032373424619436264
36.69267043060878,1.7484750535483822,-1.146427681870065,1.4335656261786165,1.2082896546115145,1.7893728887454314,-2.7722362000474168,-0.2557350993156433,0.9006978273391724,0.31646081805229187,-0.9883764982223511,0.09914424270391464,-0.0948256105184555,0.06549979746341705
36.858633850558085,1.7297898983171844,-1.1442343269776416,1.3837766001938254,1.1814367468416564,1.7711480113026439,-2.7484484427616613,-0.25534430146217346,0.9517816305160522,0.3395923972129822,-0.9845299124717712,0.12332980334758759,-0.07565472275018692,0.09882721304893494
37.02459691210744,1.710712289773445,-1.1421557865163814,1.333987681729019,1.1539836689980345,1.752578709562018,-2.724100252811606,-0.252852201461792,1.0026317834854126,0.3661903142929077,-0.9786530137062073,0.1469920128583908,-0.055957645177841187,0.13228905200958252
37.1905595762925,1.6912278858034764,-1.140204408857759,1.2841988824735022,1.1258960139434038,1.733642612171855,-2.6991587572641746,-0.24818763136863708,1.052951455116272,0.3963358998298645,-0.9707291722297668,0.17000354826450348,-0.03576049953699112,0.1658458709716797
37.3565226841593,1.6713160601117192,-1.1384002006648632,1.2344099501134622,1.09712030799573,1.714305902059196,-2.6735718250506477,-0.24129581451416016,1.1024303436279297,0.4301060140132904,-0.9607445597648621,0.19223959743976593,-0.01508269738405943,0.19946514070034027
37.52248609675551,1.6510335408770542,-1.1367324215969141,1.1846209263345995,1.0677343408926383,1.694611046166836,-2.647410454432694,-0.23218710720539093,1.1506567001342773,0.46752557158470154,-0.9487266540527344,0.21347661316394806,0.005988996475934982,0.23304428160190582
37.68844923469908,1.6303847013982062,-1.1352063885172414,1.1348319849515291,1.0377349744145004,1.6745549470124503,-2.620671155051838,-0.22087477147579193,1.1972520351409912,0.5086030960083008,-0.9347035884857178,0.2335512489080429,0.027400296181440353,0.2665184438228607
37.85441261721852,1.609378440350684,-1.133827439425518,1.0850429701956972,1.0071288720645948,1.6541384679599151,-2.5933597606867083,-0.20740661025047302,1.2418172359466553,0.553317666053772,-0.9187209010124207,0.25229376554489136,0.049088556319475174,0.29981639981269836
38.02037560141274,1.5880351189993727,-1.132601318516337,1.0352540749374328,0.9759442298963948,1.6333728289316152,-2.565502043344042,-0.19187425076961517,1.283931016921997,0.6016126871109009,-0.9008473753929138,0.2695232033729553,0.0709770992398262,0.33285656571388245
38.186338193263396,1.56637364906814,-1.131533902981339,0.9854652973822344,0.9442064655940071,1.6122683896284522,-2.537122579692043,-0.17440728843212128,1.323170781135559,0.6533950567245483,-0.8811688423156738,0.28506559133529663,0.09298545122146606,0.3655582070350647
38.35230197997927,1.544397948845896,-1.1306364006300245,0.9356761613674707,0.9119162867678301,1.590820248054115,-2.5082217204349617,-0.15516218543052673,1.3591289520263672,0.7085468769073486,-0.8597785234451294,0.2987666428089142,0.1150413230061531,0.3978501856327057
38.51826523495283,1.522097894576676,-1.1299295494606898,0.8858871848754049,0.8790490368075434,1.5690077774919513,-2.478775746501161,-0.13432131707668304,1.391412615776062,0.7669347524642944,-0.8367728590965271,0.3104870319366455,0.137081116437912,0.42967167496681213
38.684227723504826,1.4995043535931747,-1.1294055663464813,0.8360984383098062,0.8456561004447418,1.5468589695885067,-2.44883335984543,-0.1121380627155304,1.4196150302886963,0.8283286690711975,-0.812298059463501,0.3200637698173523,0.15899521112442017,0.46092459559440613
38.85019021584561,1.4766292279052564,-1.1290613152667035,0.7863096906075717,0.8117609385715204,1.5243865120206408,-2.4184153835550117,-0.08888715505599976,1.4433704614639282,0.8924673795700073,-0.7865056395530701,0.3273635804653168,0.18068350851535797,0.49152350425720215
39.01615276272988,1.4534841447730384,-1.1288927188668627,0.7365209265422905,0.7773871540711818,1.5016031427142997,-2.3875432229838225,-0.06487785279750824,1.4623465538024902,0.9590486288070679,-0.7595622539520264,0.3322685658931732,0.2020418792963028,0.5213843584060669
39.182115725822634,1.4300789385631616,-1.1288959321942769,0.6867320376144641,0.7425555068917135,1.4785200355086332,-2.356235404534868,-0.0404505655169487,1.476253628730774,1.0277318954467773,-0.731647253036499,0.33467888832092285,0.22296510636806488,0.5504260659217834
39.34807929290656,1.406421739705795,-1.1290679025271328,0.6369429674892849,0.7072836403132964,1.45514664894412,-2.324507600725451,-0.015972072258591652,1.484849452972412,1.0981419086456299,-0.7029500007629395,0.33451369404792786,0.2433471977710724,0.5785706639289856
39.514042835347766,1.382519603689986,-1.129406592392104,0.5871539047569225,0.6715867667741162,1.4314910840221997,-2.2923736403796116,0.008168529719114304,1.487945795059204,1.1698726415634155,-0.6736689209938049,0.3317111134529114,0.2630818784236908,0.605743944644928
39.68000589689712,1.3583353814527075,-1.1299428815974282,0.5373649862921157,0.6354028867681037,1.4075097012465672,-2.259772277869207,0.03159989044070244,1.4853929281234741,1.2425744533538818,-0.6439688205718994,0.32622894644737244,0.2820984721183777,0.6319013237953186
39.84596847040358,1.3339159411843895,-1.1306560727557597,0.4875762142401789,0.5988088020972943,1.3832536245800742,-2.226776828143087,0.05386266112327576,1.477117896080017,1.3157284259796143,-0.61409592628479,0.3180343508720398,0.30025815963745117,0.6569516062736511
40.01193095690472,1.3092867924900191,-1.1315382684061468,0.4377874682898365,0.5618443800856401,1.3587501560996929,-2.193425229231481,0.07451404631137848,1.4631221294403076,1.3888291120529175,-0.5842806100845337,0.3071269690990448,0.3174421489238739,0.6808227896690369
40.17789386569293,1.284459781459693,-1.1325903754599822,0.38799859565337286,0.5245263284456195,1.3340106863280938,-2.1597329343831424,0.09312616288661957,1.4434740543365479,1.4613794088363647,-0.5547418594360352,0.2935306429862976,0.33354452252388,0.7034552097320557
40.34385718050745,1.2594459080375717,-1.1338135646537417,0.33820960120901655,0.48687004089763525,1.3090457201665613,-2.1257141591212347,0.10928356647491455,1.418315052986145,1.5328720808029175,-0.5256970524787903,0.27729228138923645,0.34846189618110657,0.7247936129570007
40.50981991720975,1.2342529468453616,-1.1352121286841677,0.2884207801983274,0.448884984333341,1.2838620171154485,-2.091377565418767,0.12259160727262497,1.3878538608551025,1.602802038192749,-0.49735745787620544,0.2584802508354187,0.36209574341773987,0.744788646697998
40.675782615081815,1.2088527983499069,-1.136836867605553,0.23863197083670704,0.41051058070463065,1.2584201641154869,-2.056663227286106,0.1326819807291031,1.3522967100143433,1.6707581281661987,-0.4698936939239502,0.23715651035308838,0.37437573075294495,0.7634130716323853
40.841745681251886,1.183307427119118,-1.1386475121436586,0.188843050985685,0.37185554916922253,1.2327944384546172,-2.0216728723819024,0.13919690251350403,1.3120510578155518,1.736133098602295,-0.44354990124702454,0.21345992386341095,0.3851724863052368,0.7806025743484497
41.007708927415024,1.1576307199327773,-1.1406505044227073,0.1390540771367438,0.3329394040126114,1.2069998495077512,-1.9864228342390289,0.1418420523405075,1.26752769947052,1.798442006111145,-0.4185131788253784,0.1875281035900116,0.3943976163864136,0.7963229417800903
41.173672274292834,1.1318359025835143,-1.1428522750637409,0.08926507307339997,0.293780989559018,1.1810506943605017,-1.9509286945520417,0.14037354290485382,1.219193935394287,1.85722017288208,-0.39495667815208435,0.159518301486969,0.40196889638900757,0.8105456233024597
41.33963572555064,1.105935638909362,-1.1452592366378076,0.039476037696056294,0.25439851290038407,1.1549606474910232,-1.9152053465838097,0.13460466265678406,1.167569875717163,1.9120302200317383,-0.3730371594429016,0.1296064853668213,0.40781038999557495,0.8232473134994507
41.5055991523497,1.0799251847209395,-1.1479326483302463,-0.010312990343662003,0.21476653428272624,1.1287177143671123,-1.8792206814718604,0.12436699122190475,1.1131232976913452,1.9625368118286133,-0.35287249088287354,0.09795098751783371,0.41186463832855225,0.8344183564186096
41.671562415836895,1.0538368449918878,-1.1508436080139872,-0.06010196938981917,0.17494374828276182,1.1023618842650202,-1.8430312297326725,0.1096123456954956,1.0565110445022583,2.0083119869232178,-0.3346010744571686,0.06478232890367508,0.4140581786632538,0.8440385460853577
41.83752559359797,1.02768437273444,-1.15397096751174,-0.1098909227181396,0.13495604297953648,1.0759113082211171,-1.806664641206159,0.09037187695503235,0.998399555683136,2.0489983558654785,-0.31832948327064514,0.030333247035741806,0.4143347442150116,0.8520991206169128
42.00348873487514,1.0014745560289566,-1.1573090909555543,-0.15967986510129162,0.09481411213441472,1.0493747447934492,-1.770132701501078,0.06673703342676163,0.9394420981407166,2.0843124389648438,-0.3041350841522217,-0.005163755267858505,0.4126507043838501,0.8586003184318542
42.16945188546698,0.9752136826382843,-1.1608518115587936,-0.20946881027884298,0.054528023492672564,1.0227604948129199,-1.7334467841080778,0.038868993520736694,0.8802968263626099,2.1140213012695312,-0.29207268357276917,-0.04146876931190491,0.4089716672897339,0.8635485172271729
42.3354151459342,0.9489004298088606,-1.1646358022074366,-0.25925778841900887,0.014081235496318761,0.9960642216588252,-1.6965904230197373,0.006944581866264343,0.8215433955192566,2.137979745864868,-0.2821637988090515,-0.07836391031742096,0.40327343344688416,0.8669562935829163
42.501377911241086,0.9225501464247582,-1.1686281067099382,-0.30904661801107575,-0.02649459949304074,0.9693074521461951,-1.6595986149804405,-0.028718747198581696,0.7638627886772156,2.156041145324707,-0.274423211812973,-0.11558359861373901,0.3955376148223877,0.8688396215438843
42.667340806103354,0.8961737534004675,-1.1728055539996654,-0.35883548646975516,-0.06717502121674614,0.9425047305565484,-1.622496781068088,-0.06774887442588806,0.7078902125358582,2.1681323051452637,-0.2688373625278473,-0.15286870300769806,0.38575929403305054,0.8692222833633423
42.8333037101522,0.8697784823330241,-1.1771720668632,-0.4086243576844091,-0.10794624916096737,0.9156632208357232,-1.5852965733794475,-0.1097533330321312,0.6541796922683716,2.1742594242095947,-0.26536306738853455,-0.1899784803390503,0.37394431233406067,0.8681337237358093
42.99926632048181,0.8433720219031833,-1.1817354999648741,-0.4584131407832918,-0.1487927401530666,0.8887897653715666,-1.548009984845351,-0.15430094301700592,0.6032341122627258,2.174485921859741,-0.26393353939056396,-0.22667908668518066,0.3601086735725403,0.8656080961227417
43.165229223211185,0.8169648500607882,-1.1865574649710677,-0.5082020116021054,-0.1897048767277405,0.8618875993150165,-1.5106366590578497,-0.20099972188472748,0.555427074432373,2.1689414978027344,-0.2644505798816681,-0.2627693712711334,0.34427279233932495,0.8616810441017151
43.331192389187656,0.7905703878898299,-1.191629352122736,-0.5579909613950467,-0.23064888021061677,0.834970790832663,-1.473205294053449,-0.24933472275733948,0.5111810564994812,2.15777850151062,-0.26680535078048706,-0.2980215847492218,0.3264734447002411,0.856395423412323
43.49715579300736,0.7641965976280809,-1.1969388657309759,-0.6077799825409567,-0.2716027841721051,0.8080481969799043,-1.43573530094454,-0.29876509308815,0.47085729241371155,2.141202211380005,-0.27086952328681946,-0.33222317695617676,0.30675914883613586,0.8497977256774902
43.66311927912287,0.7378517080336923,-1.202495123073589,-0.6575690283756083,-0.312550538137948,0.7811266465120185,-1.3982386361484367,-0.3487722873687744,0.4347177743911743,2.119469165802002,-0.2764926850795746,-0.36518844962120056,0.2851869761943817,0.8419368267059326
43.82908261029666,0.7115443877008256,-1.2083056790503395,-0.7073580277277449,-0.3534764783460166,0.7542134082946723,-1.3607273077782052,-0.39883559942245483,0.4029587507247925,2.092872381210327,-0.28350770473480225,-0.39674773812294006,0.2618243098258972,0.8328640460968018
43.99504535409417,0.6853003569293085,-1.2144326337460856,-0.7571468508669963,-0.3943519569974546,0.7273245954719054,-1.3232181319301854,-0.44852426648139954,0.3756363093852997,2.0617380142211914,-0.2917175889015198,-0.42676979303359985,0.23674540221691132,0.8226299285888672
44.161008753489284,0.6591300586155576,-1.2208416046533908,-0.8069358706855314,-0.4351598297083639,0.7004722109856281,-1.285730522319184,-0.49728816747665405,0.35285964608192444,2.0264194011688232,-0.3009311854839325,-0.45510900020599365,0.21004603803157806,0.8112932443618774
44.32697201764336,0.6330391885107295,-1.2275069225398192,-0.8567248499317532,-0.47589028023390256,0.6736634487978688,-1.2482767417984832,-0.5446147322654724,0.3346579372882843,1.9872971773147583,-0.3109491467475891,-0.48164698481559753,0.18182902038097382,0.798914909362793
44.492934975336055,0.6070385964440616,-1.2344289196046752,-0.9065137372395629,-0.5165293013092386,0.646907425172032,-1.210869190527981,-0.590064287185669,0.3209632337093353,1.9447696208953857,-0.32155928015708923,-0.5062974691390991,0.15220312774181366,0.7855549454689026
44.65889771842315,0.5811391258049354,-1.2416081028168406,-0.9563025601656912,-0.5570628136265046,0.6202133425080698,-1.1735203478395964,-0.6332385540008545,0.3116493821144104,1.8992438316345215,-0.33254507184028625,-0.5289977788925171,0.12128551304340363,0.771274745464325
44.8248604611855,0.5553804509598119,-1.2491031039310894,-1.0060913829943976,-0.5974445828045685,0.5936106790852604,-1.1362638707556059,-0.6738710403442383,0.30646371841430664,1.8511152267456055,-0.34366294741630554,-0.5497285723686218,0.08920283615589142,0.7561330199241638
44.99082320360106,0.5297631764649331,-1.256885682594674,-1.0558802057190646,-0.637668281560421,0.567108750841448,-1.099115018375184,-0.7116196751594543,0.3052169680595398,1.800791621208191,-0.35470086336135864,-0.5684669613838196,0.056088000535964966,0.7401937246322632
45.15678594566066,0.5042839097170286,-1.2649315251951256,-1.1056690283369437,-0.6777336321680718,0.5407115881576136,-1.0620812277589389,-0.7461992502212524,0.3076791763305664,1.748673915863037,-0.3654548227787018,-0.5852139592170715,0.022077837958931923,0.7235191464424133
45.322748687328136,0.4789514497224861,-1.2732434295850414,-1.1554578508371862,-0.7176273601375461,0.514431136115566,-1.0251779923958098,-0.7774178981781006,0.31355732679367065,1.6951404809951782,-0.3757169544696808,-0.6000015139579773,-0.01268527377396822,0.706168532371521
45.48871146166735,0.45377478795779935,-1.2818243974668002,-1.2052466831389506,-0.7573359539691882,0.4882795834524323,-0.9884211372954114,-0.8051370978355408,0.3225354850292206,1.6405484676361084,-0.3852882385253906,-0.6128832697868347,-0.04805465415120125,0.6881989240646362
45.654674523216705,0.42879516174756077,-1.290726428296122,-1.2550356016037574,-0.7968059268488157,0.4622982886582903,-0.9518608476472326,-0.8293451070785522,0.3342199921607971,1.5852068662643433,-0.39395156502723694,-0.6239544749259949,-0.0838722363114357,0.6696628928184509
45.82063758476606,0.40402214417499704,-1.2999419219178423,-1.3048245200685633,-0.8360233613543037,0.4365022644266916,-0.915515526061315,-0.8499884009361267,0.3482837677001953,1.5294179916381836,-0.40153443813323975,-0.6333062052726746,-0.11998014152050018,0.6506136059761047
45.98660044350187,0.37944909797681503,-1.3094373780138115,-1.3546133776893061,-0.8750008624683061,0.41088830483035366,-0.8793769731531276,-0.8670186400413513,0.36442917585372925,1.4734668731689453,-0.40789806842803955,-0.6410327553749084,-0.15622249245643616,0.6311027407646179
46.152563566961405,0.35509249871211684,-1.3192164229889436,-1.4044023147271663,-0.9137231442132911,0.3854731274014541,-0.8434597796266509,-0.8804817795753479,0.382315993309021,1.4175901412963867,-0.4128997027873993,-0.6472581028938293,-0.1924383044242859,0.6111776828765869
46.31852711236475,0.33096978198986543,-1.329283069719536,-1.4541913783481697,-0.9521742584938216,0.3602742592637699,-0.807779063073462,-0.8904585242271423,0.40161365270614624,1.3619893789291382,-0.41641512513160706,-0.6521188020706177,-0.22846680879592896,0.5908827781677246
46.484489849453176,0.3071197381440431,-1.3396637103590603,-1.5039801994746986,-0.9903145105737705,0.3353293788034488,-0.7723712424597085,-0.8970921635627747,0.42197537422180176,1.3068149089813232,-0.4183243215084076,-0.6557748317718506,-0.26414021849632263,0.5702579021453857
46.65045227823578,0.28360838630464974,-1.3504056666465816,-1.5537689281094795,-1.0280755706355573,0.31070227442663595,-0.7372982649647744,-0.9005836844444275,0.4430409371852875,1.2521607875823975,-0.41851210594177246,-0.6584113240242004,-0.2992817163467407,0.5493382215499878
46.81641468635297,0.2603968321318218,-1.3614458587971752,-1.6035576505446352,-1.065503887104873,0.2863586237869059,-0.7025210288021811,-0.9009636640548706,0.46462491154670715,1.1981760263442993,-0.4169618785381317,-0.6601458191871643,-0.3337576985359192,0.528162956237793
46.98237742615436,0.23749296571546305,-1.3727714801056974,-1.6533464724850502,-1.1025869894174345,0.2623090479815016,-0.6680531944507514,-0.898356020450592,0.4864887297153473,1.1449495553970337,-0.4136403203010559,-0.6611287593841553,-0.36742138862609863,0.506766140460968
47.14834048770371,0.21490301466437994,-1.3843657427620002,-1.703135390949857,-1.1393125455856727,0.2385631191174031,-0.6339086117313372,-0.8928835391998291,0.5084159970283508,1.09255051612854,-0.4085361063480377,-0.6615087389945984,-0.4001315236091614,0.48517945408821106
47.314303614669036,0.19263276420571493,-1.3962095136445363,-1.752924329039454,-1.1756676129588002,0.2151303765875169,-0.6001019203784027,-0.8846672177314758,0.5302104353904724,1.0410301685333252,-0.4016583561897278,-0.6614306569099426,-0.43175286054611206,0.46343228220939636
47.4802673423087,0.17072790562086557,-1.4083069459346318,-1.8027134473313537,-1.2115907292749697,0.1920608757485236,-0.5666932783288582,-0.873870313167572,0.551650881767273,0.9903955459594727,-0.3930162191390991,-0.6610599160194397,-0.4621386229991913,0.44154947996139526
47.64623046708037,0.14919632660087107,-1.4206263727400041,-1.8525023847628557,-1.247062772715356,0.16936857823034324,-0.533704726344732,-0.8605908155441284,0.5725810527801514,0.9406757950782776,-0.3826618492603302,-0.6605286598205566,-0.491166353225708,0.41955626010894775
47.81219401707202,0.12800697147251913,-1.4331195627271789,-1.9022914497603491,-1.282113807633059,0.14702616582816913,-0.5011109903804489,-0.8448797464370728,0.592897891998291,0.8919168710708618,-0.3706783354282379,-0.6599368453025818,-0.5187430381774902,0.39747506380081177
47.97815757224238,0.1071696106460205,-1.4457645571648796,-1.9520805163114585,-1.316726634223519,0.12504474100445953,-0.46892836553121275,-0.8268278241157532,0.6124662160873413,0.8441323041915894,-0.3571437895298004,-0.6593995094299316,-0.5447671413421631,0.37532567977905273
48.14412111078331,0.08669545710285113,-1.4585381277152247,-2.0018695778737365,-1.3508823201239717,0.10343603500856688,-0.43717384964451217,-0.8065159320831299,0.6311627626419067,0.7973356246948242,-0.342149943113327,-0.6590196490287781,-0.5691468119621277,0.3531263470649719
48.310084866194764,0.06659753711014263,-1.4714154460613973,-2.0516587044971724,-1.3845593720004061,0.08221331521910263,-0.405866399726128,-0.7840135097503662,0.6488738059997559,0.7515451908111572,-0.3258006274700165,-0.658888578414917,-0.591801106929779,0.3308945298194885
48.4760486293049,0.04689107176644892,-1.4843695567213262,-2.1014478334302136,-1.4177331016723305,0.06139211510220184,-0.3750279402304997,-0.7593809366226196,0.6654938459396362,0.7067853212356567,-0.30820968747138977,-0.6590844988822937,-0.6126596927642822,0.30864614248275757
48.64201240125175,0.027601592118169094,-1.4973711094987596,-2.1512369650142675,-1.450365174842935,0.04099849127554964,-0.3446932126219456,-0.7326760292053223,0.6809184551239014,0.663089394569397,-0.2894994020462036,-0.6596750617027283,-0.6316607594490051,0.28639736771583557
48.80797547420455,0.008778416920538913,-1.510388334298057,-2.2010258869001067,-1.4823825352869204,0.021083273598515168,-0.3149285997612853,-0.7039626240730286,0.6950360536575317,0.620498538017273,-0.2697995603084564,-0.6607201099395752,-0.6487478017807007,0.26416561007499695
48.97393918494358,-0.009633898883924755,-1.523404252539955,-2.250815000121818,-1.5138454550298648,0.0015911437366576409,-0.2856783882351573,-0.6732470989227295,0.7078181505203247,0.5790864825248718,-0.24924242496490479,-0.6622276902198792,-0.6639214754104614,0.24195221066474915
49.13990299552681,-0.027642711783309327,-1.5364074547314561,-2.3006041432967868,-1.5447491373779239,-0.01748352521331681,-0.2569472360201412,-0.6405665874481201,0.7192030549049377,0.5389216542243958,-0.22795429825782776,-0.6642151474952698,-0.6771707534790039,0.2197607010602951
49.3058662483098,-0.045252849951846676,-1.5493845968037203,-2.3503931191316836,-1.575082870435061,-0.03614342929999981,-0.22874530499226822,-0.6059610247612,0.729131817817688,0.5000878572463989,-0.20606128871440887,-0.6666883826255798,-0.6884921789169312,0.19759532809257507
49.47182930985915,-0.062466701362565415,-1.5623201847020836,-2.4001820375964904,-1.6048298235283076,-0.0543883308736781,-0.20108876483133376,-0.5694754123687744,0.7375488877296448,0.46268230676651,-0.1836874932050705,-0.6696425676345825,-0.6978906393051147,0.1754603087902069
49.63779296671696,-0.0792843628211727,-1.575198101114858,-2.449971134653832,-1.6339701635913715,-0.0722161887331869,-0.17399642934071774,-0.5311627388000488,0.7444032430648804,0.4268150329589844,-0.16095398366451263,-0.6730626821517944,-0.7053800225257874,0.15336063504219055
49.803756227686456,-0.0957055895522239,-1.5880111522224003,-2.4997601129446823,-1.6625016174013494,-0.08962949579915536,-0.14747099274548783,-0.4910871982574463,0.7496504783630371,0.39260151982307434,-0.1379716992378235,-0.6769242286682129,-0.7109836935997009,0.13129964470863342
49.96971928923581,-0.11172894652274222,-1.600758731450028,-2.549549031409489,-1.6904342133917565,-0.10663373432991118,-0.12150388799947642,-0.44932419061660767,0.7532531023025513,0.3601624369621277,-0.11484158039093018,-0.6811953783035278,-0.7147321701049805,0.1092800721526146
50.13568143299609,-0.12730615189206643,-1.6134340091922463,-2.5993376745375723,-1.717717777570955,-0.12319105712691501,-0.09614333672676113,-0.40598246455192566,0.7551642656326294,0.329630047082901,-0.09166131913661957,-0.6858389973640442,-0.7166588306427002,0.08731063455343246
50.301643822877324,-0.1424396027437828,-1.626039094792883,-2.6491263915019436,-1.7443848051714426,-0.13931906135696837,-0.07136088328013,-0.3611595630645752,0.7553720474243164,0.3011420965194702,-0.0685129389166832,-0.6908052563667297,-0.7168105840682983,0.06539586186408997
50.46760688442668,-0.1571607329906861,-1.6385796581843854,-2.6989153099667496,-1.770497501744758,-0.15505790044284043,-0.0470993867147985,-0.3149513006210327,0.7538833022117615,0.2748368978500366,-0.045471783727407455,-0.6960410475730896,-0.7152367234230042,0.04353802278637886
50.63357055915599,-0.17145018872509588,-1.651052800379238,-2.748704412385544,-1.7960324706681687,-0.17039078687725973,-0.02338094101343472,-0.2674880027770996,0.750697910785675,0.2508600652217865,-0.022614268586039543,-0.701490044593811,-0.7119883894920349,0.02174306847155094
50.79953380225398,-0.18547135591506958,-1.66348397731781,-2.7984933853149414,-1.8212084770202637,-0.18547135591506958,0.0,-0.21882455050945282,0.7458649277687073,0.2293277233839035,-1.7777442451460956e-07,0.7071067094802856,0.7071067094802856,1.7808258689910872e-07
50.899281031850684,-0.1907020367840422,-1.6815627203808368,-2.810338556348035,-1.7912843081412533,-0.190702068457958,0.0,-0.21194051206111908,0.745925784111023,0.2226586490869522,-6.380315653586877e-08,0.7071067094802856,0.7071067094802856,4.557881894129423e-08
51.22424469914264,-0.19599992508227315,-1.6998738219639073,-2.8223361729690484,-1.7609758068059853,-0.1959999888370976,0.0,-0.20479947328567505,0.7458863258361816,0.21626722812652588,-2.1482665601979534e-07,0.7071067094802856,0.7071067094802856,1.6261844848486362e-07
51.46209145839867,-0.19807442235337455,-1.683959222803638,-2.830842087753313,-1.7363907572694774,-0.1980279462035997,0.0,-0.2010555863380432,0.7456661462783813,0.22219489514827728,-0.011106187477707863,-0.7047907710075378,-0.7092418670654297,0.01107332669198513
51.653718100298015,-0.19927561787293688,-1.6590570560645592,-2.838354982348727,-1.7135133890006038,-0.1991705591258568,0.0,-0.19802957773208618,0.7453619241714478,0.23128074407577515,-0.025074070319533348,-0.7015902996063232,-0.7117002606391907,0.024999812245368958
52.03076237028579,-0.20033385990308453,-1.6393354163896277,-2.8451092257749773,-1.6920028201339532,-0.20017863907436184,0.0,-0.1952296495437622,0.7450606822967529,0.23863035440444946,-0.03702063113451004,-0.6985967755317688,-0.7136031985282898,0.036911025643348694
52.48978613941834,-0.20002193550464772,-1.6703787516246722,-2.8446599166986157,-1.6829130500007838,-0.1998979868046517,0.0,-0.19695711135864258,0.7453312873840332,0.229209303855896,-0.029569029808044434,-0.7004808783531189,-0.7124485373497009,0.02948146127164364
52.68142866968081,-0.19971116410034495,-1.701307338595052,-2.844212268443697,-1.6738568792003246,-0.19961837193510107,0.0,-0.19841612875461578,0.745546817779541,0.2197413593530655,-0.022140683606266975,-0.7022731304168701,-0.7112206816673279,0.0220751091837883
52.87309250860379,-0.19940151162855824,-1.7321245671805945,-2.843766231946428,-1.6648333151450134,-0.19933976381895563,0.0,-0.1996067762374878,0.7457075119018555,0.21023377776145935,-0.014735658653080463,-0.7039743661880493,-0.7099204659461975,0.01469199825078249
53.064723490466335,-0.19909304598651176,-1.7628236801147883,-2.8433219050088376,-1.6558443364237772,-0.19906222354637104,0.0,-0.20052854716777802,0.7458134293556213,0.20069725811481476,-0.0073564802296459675,-0.7055850625038147,-0.7085490226745605,0.00733470031991601
53.38851238582514,-0.1987856070147913,-1.7934206167804163,-2.842879056930542,-1.6468852758407593,-0.1987856070147913,0.0,-0.20118166506290436,0.745864987373352,0.1911354809999466,-1.0847261222579618e-07,-0.7071067690849304,-0.7071067690849304,1.1380284092865622e-07
53.553965190175205,-0.20929423975538303,-1.8010447588775713,-2.8198158770550203,-1.59724943453574,-0.21865287849633303,-0.03429964821383665,-0.2304111123085022,0.7537081241607666,0.1979961395263672,-0.007133271545171738,-0.702065646648407,-0.711946964263916,0.013578781858086586
53.719420428381596,-0.21991013272183008,-1.808784668254051,-2.796419339247077,-1.5476128630738222,-0.2386707535054835,-0.06866421523232748,-0.25916916131973267,0.7620050311088562,0.20691336691379547,-0.014353075064718723,-0.6960081458091736,-0.7173875570297241,0.026863975450396538
53.88487566658799,-0.23065365095928292,-1.8166244901982094,-2.7726682196652015,-1.4979762916119044,-0.25884104795044766,-0.10308342100916285,-0.28727802634239197,0.7707202434539795,0.21787460148334503,-0.021713847294449806,-0.688923180103302,-0.723415195941925,0.039796166121959686
54.05033090479438,-0.24151001455552076,-1.824448098565716,-2.748721060598924,-1.4483397201499866,-0.27907205122413875,-0.13748907746356592,-0.31439468264579773,0.7797681093215942,0.23084428906440735,-0.02928302064538002,-0.6808165907859802,-0.7299979329109192,0.052290886640548706
54.21578614717495,-0.2524839000383235,-1.832170983657279,-2.7246631822809153,-1.3987031474358147,-0.2993077615646544,-0.17183178676355515,-0.3402496576309204,0.7890723943710327,0.24576948583126068,-0.03712916374206543,-0.6716964244842529,-0.7370978593826294,0.06428035348653793
54.3812414308777,-0.2635609603247737,-1.8397369752631338,-2.7005598242926756,-1.3490665623249898,-0.31952379248037105,-0.2060976793714736,-0.3646297752857208,0.7985458374023438,0.26257434487342834,-0.04528653621673584,-0.6615761518478394,-0.7446712851524353,0.07570211589336395
54.54669666908409,-0.27468660363357444,-1.8471240448545858,-2.676471146396873,-1.299429990863072,-0.3397358868453544,-0.2403265428625022,-0.38739001750946045,0.8080765008926392,0.28115567564964294,-0.053733211010694504,-0.6504756808280945,-0.7526702880859375,0.08649574220180511
54.71215190729048,-0.2858223147525264,-1.8543047654700693,-2.6524398605031756,-1.2497934194011542,-0.35996039439823907,-0.2745497961721229,-0.4084013104438782,0.8175513744354248,0.3014054596424103,-0.062463756650686264,-0.6384155750274658,-0.7610457539558411,0.0966087058186531
54.877607145496874,-0.2969417878563747,-1.8612509219919005,-2.6285041337674144,-1.2001568479392364,-0.38020649444566407,-0.3087893752690407,-0.42753878235816956,0.8268558979034424,0.32320359349250793,-0.07148461043834686,-0.6254194974899292,-0.7697443962097168,0.10598979890346527
55.043062383703266,-0.3080447819917999,-1.8679181003471983,-2.6047215854405525,-1.1505202764773186,-0.4004603008902448,-0.34304876052465194,-0.4446471035480499,0.8358786106109619,0.3464142084121704,-0.08082282543182373,-0.6115180850028992,-0.7787069082260132,0.11458102613687515
55.20851762190966,-0.31915788507173004,-1.8742431347687387,-2.581173238046971,-1.1008837050154008,-0.4206827732116467,-0.37731204681284014,-0.4595384895801544,0.8445150852203369,0.37088456749916077,-0.09052551537752151,-0.5967498421669006,-0.7878660559654236,0.12231859564781189
55.37397286011605,-0.3303097363225714,-1.8801649763133346,-2.557936603453732,-1.051247133553483,-0.4408346370785274,-0.41156193301518645,-0.47204601764678955,0.8526642322540283,0.39644795656204224,-0.10063736885786057,-0.5811585187911987,-0.7971500754356384,0.12914521992206573
55.53942809832244,-0.34152431797371724,-1.8856306582973286,-2.5350802548102718,-1.0016105620915652,-0.46088194743436295,-0.4457842403653033,-0.482037752866745,0.860227108001709,0.4229274094104767,-0.11119602620601654,-0.5647913813591003,-0.806484580039978,0.1350133866071701
55.70488333652883,-0.3528173345712626,-1.8906058781938635,-2.5126619499294622,-0.9519739906296475,-0.480798539016855,-0.47997268084148476,-0.48942258954048157,0.8671066761016846,0.45013049244880676,-0.12222473323345184,-0.5477009415626526,-0.8157927393913269,0.13988229632377625
55.87033857473522,-0.3641889653645331,-1.8950811138465267,-2.490746253624968,-0.9023374191677297,-0.500566013331947,-0.5141397697159334,-0.49415087699890137,0.873201847076416,0.47783905267715454,-0.13372036814689636,-0.5299496650695801,-0.8249965310096741,0.14371083676815033
56.03579381294161,-0.37563462740099357,-1.8990537644778838,-2.469407029956913,-0.8527008477058119,-0.520166198903588,-0.5483057114756945,-0.49620044231414795,0.8784135580062866,0.5058191418647766,-0.14566771686077118,-0.5116097331047058,-0.8340177536010742,0.14646054804325104
56.201249051148004,-0.3871417067219133,-1.9025797234280075,-2.44864269269504,-0.8030642762438941,-0.5396023919556577,-0.5824881837231213,-0.4956415891647339,0.8826643228530884,0.5338351726531982,-0.15804752707481384,-0.4927480220794678,-0.8427825570106506,0.14811408519744873
56.366704289354395,-0.39871976421537225,-1.9056656018463003,-2.428486743160658,-0.7534277047819763,-0.5588646920033485,-0.6166981715553801,-0.4925139844417572,0.8858861923217773,0.5616678595542908,-0.17085473239421844,-0.4734326899051666,-0.8512176275253296,0.14865626394748688
56.532159527560786,-0.4104262538770629,-1.9083049763418138,-2.408944614792171,-0.7037911333200585,-0.5779425798006619,-0.6509327870658649,-0.48684263229370117,0.888047456741333,0.5891274809837341,-0.18411101400852203,-0.45371827483177185,-0.8592535853385925,0.14807461202144623
56.697614695022665,-0.42233966439899784,-1.9104864628272868,-2.390007369795973,-0.6541545830814959,-0.5968258027910408,-0.6851827891019838,-0.47865453362464905,0.8891345262527466,0.6160414814949036,-0.1978452503681183,-0.4336510896682739,-0.8668232560157776,0.14636074006557465
56.863069805291424,-0.4345423538108602,-1.912198036772775,-2.3716617457413873,-0.6045180500008678,-0.6155045441537896,-0.7194373401063959,-0.46798670291900635,0.8891404867172241,0.6422476768493652,-0.2120831310749054,-0.4132729172706604,-0.8738595247268677,0.1435115486383438
57.028525043497815,-0.4471107637837864,-1.9134312845123373,-2.3538932204577567,-0.55488147853895,-0.6339701762543182,-0.7536864534390991,-0.45489606261253357,0.8880587220191956,0.6675900220870972,-0.22684121131896973,-0.3926233649253845,-0.8802960515022278,0.13953080773353577
57.19398028170421,-0.4601338839766071,-1.9141636603789174,-2.3367150049781222,-0.5052449070770322,-0.6522044758843866,-0.7879225853185864,-0.4394250214099884,0.8858851194381714,0.6919147968292236,-0.24212895333766937,-0.371744304895401,-0.8860652446746826,0.13441751897335052
57.3594355199106,-0.4735995174191761,-1.9144800474958037,-2.320077255420338,-0.4556083356151144,-0.6702186076663502,-0.8221571208093562,-0.4217876195907593,0.8825976848602295,0.715036928653717,-0.2579035758972168,-0.35069045424461365,-0.8911035060882568,0.12820488214492798
57.524890626451544,-0.4874017163492624,-1.9145423330189526,-2.303839855127314,-0.4059718036528308,-0.6880640158406919,-0.8564043760593375,-0.4023560881614685,0.8781664371490479,0.7367826700210571,-0.27410024404525757,-0.32951050996780396,-0.8953527808189392,0.1209755539894104
57.69034574681275,-0.5014920105805484,-1.9144470750494054,-2.287934113597981,-0.3563352675444688,-0.7057638753127917,-0.8906760903856044,-0.38140416145324707,0.8725852370262146,0.7569956183433533,-0.2906729578971863,-0.3082585036754608,-0.8987572193145752,0.1127893403172493
57.855800901161075,-0.5158292035159919,-1.9142803565035649,-2.272289633494398,-0.30669872123997133,-0.7233418642864224,-0.9249809857225371,-0.3591999411582947,0.8658642768859863,0.7755402326583862,-0.30758237838745117,-0.2869836091995239,-0.9012643694877625,0.10371042788028717
58.02125609470808,-0.5303890736770697,-1.9141061545427753,-2.256827528555262,-0.2570621631758692,-0.7408242212011776,-0.9593208339331454,-0.33599036931991577,0.8580290079116821,0.7923157811164856,-0.3248046338558197,-0.26572224497795105,-0.9028252959251404,0.09380790591239929
58.18671141155073,-0.5451689385788515,-1.9139603305970154,-2.2414573629659404,-0.20742556812307422,-0.7582406908932005,-0.993688552608977,-0.311992347240448,0.8491171598434448,0.8072571158409119,-0.3423336148262024,-0.24449259042739868,-0.9033915996551514,0.08315451443195343
58.352166608799536,-0.5602257194568903,-1.9138887694920064,-2.226056980655815,-0.15778900894843406,-0.7756231585349234,-1.0280749414427115,-0.2873818278312683,0.8391988277435303,0.8203142881393433,-0.36017632484436035,-0.2232929915189743,-0.9029161930084229,0.07180232554674149
58.51762172340943,-0.5755258702007339,-1.9139142807475433,-2.2105104754796607,-0.10815247456546781,-0.7930158872291688,-1.062464249963259,-0.262395441532135,0.8283118605613708,0.8314589858055115,-0.37833166122436523,-0.2021244764328003,-0.9013482928276062,0.05985001102089882
58.68307684476425,-0.5910429541717573,-1.9140578018564098,-2.1947480439630116,-0.05851593815902115,-0.8104456940007688,-1.096848466772162,-0.23724928498268127,0.8165090084075928,0.8406453728675842,-0.396785706281662,-0.18100698292255402,-0.8986390829086304,0.04738350212574005
58.848532014603705,-0.606721572679173,-1.9143465650980738,-2.178720153486393,-0.00887938720718575,-0.8279350379965045,-1.1312236453599087,-0.21217921376228333,0.8038517832756042,0.8478220701217651,-0.4155125916004181,-0.15997642278671265,-0.8947438597679138,0.034497395157814026
59.01398725516589,-0.6224903530874109,-1.9148080504015061,-2.162390909567723,0.04075718496146934,-0.845503519593578,-1.165587742307087,-0.1874271035194397,0.790416955947876,0.8529422283172607,-0.4344823658466339,-0.13907934725284576,-0.8896226286888123,0.021292617544531822
59.17944261976341,-0.6382438984525872,-1.9155345699211468,-2.1456313064042165,0.09039379434072461,-0.8632026793789326,-1.1999357632967946,-0.16330307722091675,0.7763150334358215,0.8559660911560059,-0.4536695182323456,-0.11835131794214249,-0.8832409977912903,0.007886908017098904
59.34489794403203,-0.6538605784102416,-1.916548212150746,-2.128429251379329,0.14003039162131065,-0.881050761914336,-1.2342673150345913,-0.14006325602531433,0.761652946472168,0.8568609356880188,0.4730398952960968,0.09786313772201538,0.8755710124969482,0.005600228905677795
59.51035314074525,-0.6692937722584728,-1.91783511775621,-2.110816086970365,0.18966695063527733,-0.8990441274642295,-1.2685836597625204,-0.11787053942680359,0.7465593218803406,0.8556112051010132,0.4925665855407715,0.07768353819847107,0.8665905594825745,0.019079454243183136
59.67580828969506,-0.6845171876629177,-1.9193951668348215,-2.092795811363803,0.23930349532022116,-0.9171851295852989,-1.3028855921327303,-0.09687632322311401,0.7311837077140808,0.8522168397903442,0.5122272372245789,0.05787191912531853,0.856282651424408,0.0324673131108284
59.84126367763199,-0.6994777388821256,-1.9212646124838615,-2.074316068463735,0.28894011170130013,-0.9354968299034777,-1.3371729268739472,-0.07726907730102539,0.7156950831413269,0.8466901779174805,0.5320022702217102,0.038481779396533966,0.8446342945098877,0.04566894844174385
60.00671886866491,-0.7141311390279546,-1.9234582850704536,-2.0553537661033494,0.33857666901117645,-0.9539930239144264,-1.3714478354140838,-0.05920460820198059,0.7002668976783752,0.8390573859214783,0.5518708825111389,0.019573600962758064,0.8316382169723511,0.05859473720192909
60.172174151884306,-0.7285444433338285,-1.9258845931370785,-2.036044752451763,0.3882132539769943,-0.9726251133819528,-1.4057158610265907,-0.04267337918281555,0.6850501298904419,0.8293734192848206,0.5718017816543579,0.0012164436047896743,0.8172958493232727,0.07119517028331757
60.337629468853386,-0.7427171758360015,-1.9285331885624122,-2.0164049483119757,0.4378498490677186,-0.9913887289986892,-1.4399782069996627,-0.027765244245529175,0.6702189445495605,0.8177017569541931,0.5917665958404541,-0.01653292216360569,0.8016136884689331,0.08339285105466843
60.50308448836872,-0.7565792146026543,-1.9314492151061904,-1.9963690860750891,0.48748635492231956,-1.010313378240657,-1.47423511124111,-0.014645189046859741,0.6559649705886841,0.8041113018989563,0.611741304397583,-0.033616840839385986,0.784602165222168,0.09508799761533737
60.668539807391895,-0.7701317695605725,-1.934608843219217,-1.9759861471568985,0.5371229506292708,-1.0293833305958733,-1.5084862589605843,-0.0033650994300842285,0.6424617171287537,0.7886937260627747,0.6316905617713928,-0.04996968433260918,0.766283392906189,0.10620643198490143
60.833995190330114,-0.783451834060306,-1.9379394525974196,-1.9553701856474648,0.5867595655107366,-1.0485533355038823,-1.5427322163180404,0.0061178505420684814,0.6298607587814331,0.7715694904327393,0.6515704989433289,-0.06553782522678375,0.746687650680542,0.11669731885194778
60.99945055058835,-0.7965434241074923,-1.9414312521533434,-1.9345408570533635,0.6363961735882067,-1.0678165233408055,-1.5769726102459336,0.013763457536697388,0.618327796459198,0.7528638243675232,0.6713427901268005,-0.08027113974094391,0.7258488535881042,0.12648628652095795
61.16490564463631,-0.8093030449374508,-1.9451350569206076,-1.9134512866656237,0.6860327018025967,-1.0871986813349581,-1.611203633885693,0.019439518451690674,0.6080446243286133,0.7326967716217041,0.6909719705581665,-0.09409883618354797,0.7038114070892334,0.13547182083129883
61.330360940326436,-0.8218195596039403,-1.9489773234995464,-1.892212823941147,0.7356692905096327,-1.106654220444496,-1.645427103781942,0.023232996463775635,0.5991376638412476,0.711234450340271,0.7104076743125916,-0.10698232799768448,0.6806260347366333,0.14361023902893066
61.49581622993484,-0.8341324467190866,-1.95293100163568,-1.8708671354240485,0.7853058773921526,-1.126164712252917,-1.6796447460193664,0.025177180767059326,0.5917393565177917,0.6886452436447144,0.7296035885810852,-0.11888719350099564,0.6563462018966675,0.15084457397460938
61.66127132354842,-0.8462359493042504,-1.9569942909257347,-1.849430152538761,0.8349424054762277,-1.1457246491248894,-1.7138569373854586,0.025275349617004395,0.5859793424606323,0.6650986671447754,0.7485133409500122,-0.12977196276187897,0.6310338973999023,0.15710876882076263
61.82672669188682,-0.8580890527719249,-1.9611764221573529,-1.8279422037016795,0.8845790159777477,-1.1653218002123957,-1.7480648639960203,0.023528099060058594,0.5819751620292664,0.6407659649848938,0.7670834064483643,-0.13957633078098297,0.604771077632904,0.1623368114233017
61.99218216159944,-0.8697991363320183,-1.9654169892574906,-1.8064675486156392,0.9342156568915343,-1.1849240600353614,-1.7822720508499472,0.020066142082214355,0.5798042416572571,0.6158524751663208,0.785262405872345,-0.1483025848865509,0.5776232481002808,0.16649480164051056
62.157637559010425,-0.8813767153729257,-1.96970705993455,-1.7850276051323986,0.9838522761148307,-1.2045226116947716,-1.816479563497827,0.01494520902633667,0.5795488953590393,0.590550422668457,0.8030003309249878,-0.15592937171459198,0.5496687293052673,0.16953088343143463
62.323092500082225,-0.8928200668141723,-1.9740384800365298,-1.7636660941155775,1.0334887584363706,-1.224101136873067,-1.850689412021984,0.008234590291976929,0.5812718272209167,0.5650519728660583,0.8202428221702576,-0.16242839395999908,0.521000325679779,0.17139780521392822
62.488547974436216,-0.9041757752578484,-1.9783863486956066,-1.7424253587831375,1.0831254007425677,-1.2436408427086068,-1.8849053758040017,4.801154136657715e-05,0.5850143432617188,0.5395574569702148,0.836936891078949,-0.16779857873916626,0.49170637130737305,0.17206087708473206
62.65400316413148,-0.9155128666924237,-1.9827261431779322,-1.7212928788106014,1.1327619576511465,-1.2631417040054682,-1.919128462613504,-0.0094984769821167,0.5908164978027344,0.5142711997032166,0.8530384302139282,-0.17206761240959167,0.46185630559921265,0.17148447036743164
62.81945809178919,-0.9268659900889352,-1.9870423873297396,-1.7002846807518093,1.1823984359484574,-1.2825955018144402,-1.9533607207231194,-0.02029050886631012,0.5987012386322021,0.4893890619277954,0.8684970736503601,-0.17524559795856476,0.4315391778945923,0.16963380575180054
62.984913022881514,-0.9382782695690909,-1.991315784786629,-1.6794206960136628,1.2320349152761563,-1.3019920366836473,-1.987604681238456,-0.03219527006149292,0.608676552772522,0.46510517597198486,0.8832626938819885,-0.17735041677951813,0.4008474349975586,0.16647844016551971
63.150368261087905,-0.9498450779688006,-1.9954997362006195,-1.6587690544588465,1.281671486738074,-1.3212997761086198,-2.0218675364411465,-0.045010343194007874,0.6207194328308105,0.4416170120239258,0.8972774744033813,-0.1784200817346573,0.36988523602485657,0.1620003879070282
63.3158234992943,-0.9615633495770721,-1.9995987990631419,-1.6382871188099397,1.3313080581999919,-1.3405345861383104,-2.0561442199322477,-0.0586424320936203,0.6348340511322021,0.41910362243652344,0.9105036854743958,-0.1784755140542984,0.3387373685836792,0.1561618447303772
63.48127873750069,-0.9734473062127199,-2.003606044902485,-1.6179674536920112,1.3809446296619097,-1.3596983411228687,-2.0904326877616666,-0.07296228408813477,0.6510008573532104,0.3977400064468384,0.9228981733322144,-0.17754068970680237,0.30750009417533875,0.14893591403961182
63.64673416513229,-0.9855228272425096,-2.007507841929682,-1.5978083935840237,1.4305812579513895,-1.3787899849252465,-2.1247309381835873,-0.0878223180770874,0.6691863536834717,0.37769776582717896,0.9344183802604675,-0.17564691603183746,0.2762715518474579,0.14030088484287262
63.81218978555546,-0.9978231678846307,-2.011286074832334,-1.577807783939683,1.4802179440783423,-1.39780836063639,-2.159036679798453,-0.10306230187416077,0.6893467307090759,0.35914361476898193,0.9450227618217468,-0.17283228039741516,0.24515029788017273,0.13023878633975983
