Sungjin-Park-dev/lg_sgu_vision_v2/data/sample/trajectory/124/trajectory_dp_s005.csv
time,ur20-shoulder_pan_joint,ur20-shoulder_lift_joint,ur20-elbow_joint,ur20-wrist_1_joint,ur20-wrist_2_joint,ur20-wrist_3_joint,target-POS_X,target-POS_Y,target-POS_Z,target-ROT_X,target-ROT_Y,target-ROT_Z,target-ROT_W
0.0,1.9927528540240687,-0.7432699203491211,1.4341142177581787,-0.6908443609820765,-2.7196171283721924,0.0,-0.28499841690063477,1.0089393854141235,0.1959955245256424,0.5000047087669373,0.49999526143074036,0.4999952018260956,0.5000047087669373
1.0,1.982954336968082,-0.7255179776689383,1.3842379197291959,-0.6587202640092518,-2.729415467864648,0.0,-0.28504514694213867,1.038282871246338,0.20291586220264435,0.5000048279762268,0.4999951422214508,0.49999526143074036,0.5000046491622925
2.0,1.9738353962907929,-0.707374885237167,1.334361621700213,-0.6269867425257611,-2.738534557858007,0.0,-0.28501343727111816,1.0665785074234009,0.20962907373905182,0.500004768371582,0.4999952018260956,0.4999952018260956,0.500004768371582
3.0,1.9775530341776082,-0.7141762526420244,1.355158312562832,-0.6409821552656162,-2.7348166537741525,0.0,-0.28507089614868164,1.0550068616867065,0.20585565268993378,0.5000048279762268,0.4999951124191284,0.4999951124191284,0.5000048875808716
4.0,1.96891572826004,-0.696427445500109,1.305282014533849,-0.6088544936051203,-2.7434540059982804,0.0,-0.2850874662399292,1.0825506448745728,0.2131926566362381,0.5000048279762268,0.4999951422214508,0.4999951422214508,0.500004768371582
5.0,1.9608159277336104,-0.6778395046089587,1.2554057165048662,-0.57756632215203,-2.7515539324380494,0.0,-0.2850062847137451,1.1091574430465698,0.21970981359481812,0.500004768371582,0.4999951422214508,0.49999526143074036,0.5000046491622925
6.0,1.9534055096070355,-0.6587155001696255,1.2055294184758836,-0.5468137639858444,-2.7589642763853353,0.0,-0.28504085540771484,1.1346732378005981,0.22573058307170868,0.500004768371582,0.4999951720237732,0.4999951720237732,0.5000048279762268
7.0,1.9465141486986854,-0.6392954977713254,1.1556531204469007,-0.5163575973995808,-2.76585549495312,0.0,-0.2850452661514282,1.159162998199463,0.23152446746826172,0.500004768371582,0.4999951422214508,0.4999951422214508,0.500004768371582
8.0,1.9400436099796177,-0.6182783160445166,1.1057768224179179,-0.48749881815199625,-2.772326046781064,0.0,-0.2850273847579956,1.1828683614730835,0.23530803620815277,0.5000048875808716,0.49999508261680603,0.4999952018260956,0.5000047087669373
9.0,1.9339705464288623,-0.5927118391462965,1.055900524388935,-0.4505011410822419,-2.7455257044992822,0.0,-0.2846655547618866,1.1915981769561768,0.2348528504371643,0.5040234923362732,0.4934702515602112,0.4899290204048157,0.5122662782669067
10.0,1.927959025235067,-0.5663496698469378,1.0060242263599521,-0.411608419923125,-2.711692425189692,0.0,-0.2843587398529053,1.196587324142456,0.23394937813282013,0.5086283683776855,0.4852311313152313,0.4776519536972046,0.5269690752029419
11.0,1.9219475040412712,-0.5399875005475789,0.9561479283309695,-0.3727156987640082,-2.677859145880102,0.0,-0.2841624617576599,1.2008804082870483,0.23329457640647888,0.5129395127296448,0.4766339063644409,0.4652983844280243,0.5414891839027405
12.0,1.9252695844827408,-0.5535318090686825,0.9833428325504914,-0.3924061102002532,-2.6901859408048447,0.0,-0.2844504714012146,1.1960277557373047,0.23294900357723236,0.5112766623497009,0.48004111647605896,0.4701707065105438,0.5358135104179382
13.0,1.931338463834489,-0.5788202517486897,1.0332191305794742,-0.4293370351126331,-2.7160972496782225,0.0,-0.2847587466239929,1.1879714727401733,0.23277126252651215,0.5077441930770874,0.4868510961532593,0.48007479310035706,0.5241183638572693
14.0,1.9374073431862373,-0.6041086944286966,1.0830954286084569,-0.46626796002501303,-2.7420085585516,0.0,-0.2849438488483429,1.1791993379592896,0.23273250460624695,0.5040269494056702,0.49343979358673096,0.4899185001850128,0.5123023986816406
15.0,1.9434762225379858,-0.6293971371087037,1.1329717266374397,-0.5031988849373928,-2.767919867424977,0.0,-0.2849956750869751,1.1697139739990234,0.23283500969409943,0.5001263618469238,0.49980488419532776,0.4996984899044037,0.5003698468208313
16.0,1.9501507174561472,-0.6490913495508333,1.1828480246664226,-0.5337566023036638,-2.7622192762535738,0.0,-0.2850250005722046,1.1460927724838257,0.22730550169944763,0.5000047087669373,0.4999952018260956,0.4999952018260956,0.500004768371582
17.0,1.9573538065181515,-0.6683185296443834,1.2327243226954054,-0.5644058369375226,-2.755016183070974,0.0,-0.28504478931427,1.121021032333374,0.22136136889457703,0.5000047087669373,0.4999952018260956,0.49999526143074036,0.5000046491622925
18.0,1.9650999674944751,-0.6872341121597141,1.2826006207243883,-0.5953664499160013,-2.747269770344663,0.0,-0.28503215312957764,1.0949193239212036,0.21519023180007935,0.500004768371582,0.4999952018260956,0.4999952018260956,0.5000048279762268
19.0,1.9589756875871294,-0.7022262564802049,1.3001168030143087,-0.6418446946704242,-2.730940951929687,0.0,-0.2775968015193939,1.0883080959320068,0.2169361114501953,0.5198599100112915,0.48838114738464355,0.500080943107605,0.491068571805954
20.0,1.9497492198940598,-0.7163776223657483,1.3104954122336077,-0.6917209926994069,-2.712761979266165,0.0,-0.26884734630584717,1.0863169431686401,0.22014547884464264,0.5437169671058655,0.4739532172679901,0.49963897466659546,0.479688435792923
21.0,1.9405227522009905,-0.7305289882512916,1.3208740214529069,-0.7415972907283896,-2.694583006602643,0.0,-0.26041120290756226,1.0845870971679688,0.2230689823627472,0.5671318173408508,0.4592689275741577,0.49860680103302,0.4677870571613312
22.0,1.931296284507921,-0.744680354136835,1.331252630672206,-0.7914735887573722,-2.676404033939121,0.0,-0.2522892951965332,1.0831557512283325,0.22574248909950256,0.5900760889053345,0.444350928068161,0.4969969391822815,0.45536401867866516
23.0,1.9220698168148516,-0.7588317200223783,1.3416312398915051,-0.8413498867863549,-2.658225061275599,0.0,-0.24448028206825256,1.0820552110671997,0.22820504009723663,0.6125222444534302,0.4292222261428833,0.4948228895664215,0.44241955876350403
24.0,1.912843349121782,-0.7729830859079218,1.3520098491108041,-0.8912261848153378,-2.640046088612077,0.0,-0.23698121309280396,1.0813179016113281,0.23049777746200562,0.6344433426856995,0.4139062166213989,0.49209871888160706,0.42895475029945374
25.0,1.9036168814287127,-0.7871344517934651,1.3623884583301034,-0.9411024828443206,-2.6218671159485547,0.0,-0.22978611290454865,1.0809708833694458,0.2326642870903015,0.6558133363723755,0.39842623472213745,0.48883941769599915,0.41497138142585754
26.0,1.8943904137356429,-0.8012858176790085,1.3727670675494026,-0.9909787808733035,-2.6036881432850327,0.0,-0.22288787364959717,1.081039547920227,0.23475003242492676,0.6766071319580078,0.3828063905239105,0.48506075143814087,0.4004724323749542
27.0,1.8851639460425735,-0.8154371835645519,1.3831456767687018,-1.0408550789022861,-2.5855091706215108,0.0,-0.2162768691778183,1.0815447568893433,0.23680247366428375,0.6967999339103699,0.3670707046985626,0.4807789921760559,0.3854615390300751
28.0,1.875937478349504,-0.8295885494500953,1.3935242859880008,-1.090731376931269,-2.5673301979579883,0.0,-0.2099422961473465,1.0825049877166748,0.23887023329734802,0.7163680791854858,0.35124337673187256,0.4760115146636963,0.3699430227279663
29.0,1.8667110106564346,-0.8437399153356387,1.4039028952073,-1.1406076749602518,-2.549151225294467,0.0,-0.2038710117340088,1.0839341878890991,0.24100345373153687,0.7352890372276306,0.335348904132843,0.47077611088752747,0.3539222776889801
30.0,1.857484542963365,-0.8578912812211821,1.4142815044265993,-1.1904839729892345,-2.5309722526309444,0.0,-0.19804897904396057,1.0858417749404907,0.2432529330253601,0.7535408139228821,0.31941166520118713,0.4650912284851074,0.33740562200546265
31.0,1.8482580752702957,-0.8720426471067254,1.4246601136458985,-1.2403602710182173,-2.512793279967423,0.0,-0.19246011972427368,1.0882340669631958,0.24567019939422607,0.7711025476455688,0.30345621705055237,0.4589758515357971,0.32040005922317505
32.0,1.8390316075772262,-0.8861940129922689,1.4350387228651975,-1.2902365690472002,-2.4946143073039004,0.0,-0.18708807229995728,1.091112732887268,0.24830709397792816,0.7879544496536255,0.2875072658061981,0.452449768781662,0.30291351675987244
33.0,1.8298051398841568,-0.9003453788778122,1.4454173320844967,-1.340112867076183,-2.476435334640378,0.0,-0.1819145381450653,1.0944747924804688,0.2512155771255493,0.8040772080421448,0.2715892195701599,0.4455329477787018,0.28495487570762634
34.0,1.820578672191087,-0.9144967447633557,1.455795941303796,-1.389989165105166,-2.458256361976856,0.0,-0.17692095041275024,1.0983128547668457,0.2544468343257904,0.8194532990455627,0.25572678446769714,0.43824610114097595,0.26653388142585754
35.0,1.8113522044980177,-0.928648110648899,1.4661745505230952,-1.4398654631341485,-2.440077389313334,0.0,-0.17208784818649292,1.1026158332824707,0.25805217027664185,0.8340655565261841,0.23994427919387817,0.4306104779243469,0.24766097962856293
36.0,1.8021257368049484,-0.9427994765344423,1.4765531597423942,-1.4897417611631314,-2.421898416649812,0.0,-0.1673952341079712,1.107367992401123,0.26208123564720154,0.8478981256484985,0.22426599264144897,0.4226474463939667,0.22834758460521698
37.0,1.7928992691118788,-0.9569508424199857,1.4869317689616934,-1.5396180591921143,-2.40371944398629,0.0,-0.16282331943511963,1.1125484704971313,0.26658275723457336,0.8609362244606018,0.20871615409851074,0.4143790006637573,0.20860598981380463
38.0,1.7836728014188092,-0.9711022083055292,1.4973103781809927,-1.5894943572210969,-2.385540471322768,0.0,-0.1583518534898758,1.118132472038269,0.271604061126709,0.8731660842895508,0.19331862032413483,0.40582719445228577,0.18844908475875854
39.0,1.77444633372574,-0.9852535741910726,1.5076889874002917,-1.6393706552500797,-2.3673614986592457,0.0,-0.15396088361740112,1.1240910291671753,0.2771899104118347,0.8845750689506531,0.17809715867042542,0.3970147967338562,0.16789104044437408
40.0,1.7652198660326706,-0.999404940076616,1.518067596619591,-1.6892469532790626,-2.3491825259957237,0.0,-0.1496308147907257,1.1303908824920654,0.2833837568759918,0.8951517939567566,0.16307510435581207,0.3879646360874176,0.1469464749097824
41.0,1.7550392307231364,-1.0139199454720942,1.5279667785530888,-1.7347283202959631,-2.326948799417073,0.0,-0.14511321485042572,1.135480523109436,0.2897193133831024,0.9053777456283569,0.14820517599582672,0.3768405020236969,0.12774014472961426
42.0,1.7383537255581707,-1.0309139992502716,1.5345975493128394,-1.7502480183525162,-2.27707250138809,0.0,-0.13958345353603363,1.1307287216186523,0.2931673526763916,0.9180700778961182,0.13311319053173065,0.35278522968292236,0.12235444039106369
43.0,1.721668220393205,-1.0479080530284488,1.5412283200725898,-1.7657677164090693,-2.2271962033591075,0.0,-0.1349608600139618,1.1266255378723145,0.2971506118774414,0.929838240146637,0.11831992864608765,0.3284561336040497,0.11626570671796799
44.0,1.7049827152282393,-1.064902106806626,1.5478590908323404,-1.781287414465622,-2.177319905330125,0.0,-0.13117091357707977,1.1231751441955566,0.3017350435256958,0.9406784176826477,0.1038576290011406,0.3038918972015381,0.10948703438043594
45.0,1.6882972100632734,-1.0818961605848032,1.554489861592091,-1.7968071125221752,-2.127443607301142,0.0,-0.12813787162303925,1.1203733682632446,0.30698293447494507,0.9505884051322937,0.08975804597139359,0.2791312634944916,0.1020331084728241
46.0,1.6724990167397848,-1.0964438768234706,1.569120803438208,-1.8190896863770396,-2.077567309272159,0.0,-0.12648358941078186,1.1152085065841675,0.3049001395702362,0.9593130946159363,0.07692638039588928,0.2542937397956848,0.09557964652776718
47.0,1.6567286599494582,-1.1109148471506556,1.5840027247228217,-1.841584423540933,-2.027691011243176,0.0,-0.1255505084991455,1.1106064319610596,0.3033139109611511,0.967164158821106,0.06446995586156845,0.22932466864585876,0.08858563750982285
48.0,1.6409583031591315,-1.1253858174778406,1.5988846460074353,-1.8640791607048266,-1.9778147132141934,0.0,-0.12524446845054626,1.1066443920135498,0.3025211691856384,0.9741520881652832,0.0523863211274147,0.20425453782081604,0.08101505786180496
49.0,1.6251879463688048,-1.1398567878050254,1.6137665672920487,-1.88657389786872,-1.9279384151852108,0.0,-0.12549187242984772,1.1032977104187012,0.3025625944137573,0.9802797436714172,0.040700655430555344,0.17911674082279205,0.07288408279418945
50.0,1.6094175895784781,-1.1543277581322104,1.6286484885766626,-1.9090686350326136,-1.8780621171562277,0.0,-0.12622077763080597,1.1005351543426514,0.3034736216068268,0.9855514764785767,0.029437584802508354,0.15394389629364014,0.06421061605215073
51.0,1.5936472327881515,-1.1687987284593953,1.643530409861276,-1.931563372196507,-1.828185819127245,0.0,-0.1273612678050995,1.0983197689056396,0.3052857518196106,0.9899725317955017,0.01862100139260292,0.1287684142589569,0.055012915283441544
52.0,1.5778768759978246,-1.1832696987865803,1.6584123311458896,-1.9540581093604006,-1.778309521098262,0.0,-0.1288454383611679,1.0966081619262695,0.30802565813064575,0.993549644947052,0.008273911662399769,0.10362230241298676,0.04531075805425644
53.0,1.5621065192074979,-1.1977406691137653,1.6732942524305032,-1.976552846524294,-1.7284332230692794,0.0,-0.13060803711414337,1.0953528881072998,0.3117148280143738,0.996290922164917,-0.0015815561637282372,0.07853706926107407,0.03512473776936531
54.0,1.5463361624171714,-1.2122116394409501,1.6881761737151169,-1.9990475836881876,-1.6785569250402967,0.0,-0.13258738815784454,1.094499945640564,0.3163699209690094,0.9982056617736816,-0.01092398539185524,0.0535435676574707,0.024476423859596252
55.0,1.5305658056268445,-1.2266826097681351,1.7030580949997305,-2.021542320852081,-1.6286806270113137,0.0,-0.1347246617078781,1.0939918756484985,0.3220023512840271,0.9993043541908264,-0.01973305270075798,0.028672220185399055,0.013388467021286488
56.0,1.5147954488365178,-1.2411535800953202,1.7179400162843441,-2.0440370580159746,-1.578804328982331,0.0,-0.1369648426771164,1.0937681198120117,0.3286181092262268,0.9995985627174377,-0.027989426627755165,0.003952804021537304,0.0018842010758817196
57.0,1.5164603052752823,-1.2145388575110707,1.67846106432432,-2.034718577319536,-1.5707963353402399,0.0,-0.14041166007518768,1.1208984851837158,0.32981035113334656,0.999630868434906,-0.027164671570062637,2.0332754147034393e-08,6.594531498649303e-08
58.0,1.521116723164335,-1.180810672924657,1.628584766295337,-2.0185705783220294,-1.5707963170935324,0.0,-0.14402785897254944,1.1524450778961182,0.32977837324142456,-0.9996914863586426,0.02483724243938923,-2.5841066175757987e-08,1.3048372693447163e-07
59.0,1.5206286759691172,-1.1567221792926057,1.5869248162443845,-1.9695414884766205,-1.5724531275938858,0.0,-0.14220817387104034,1.1647260189056396,0.32842591404914856,0.9995616674423218,-0.025065049529075623,0.00043356436071917415,0.015743935480713844
60.0,1.520009753415231,-1.1328781559697962,1.545477946660359,-1.9196651904476378,-1.574152907634836,0.0,-0.14025945961475372,1.1759672164916992,0.3271002769470215,0.9991700053215027,-0.025324173271656036,0.0008679728489369154,0.031892336905002594
61.0,1.519390830861345,-1.1090341326469868,1.5040310770763328,-1.8697888924186548,-1.575852687675786,0.0,-0.13832537829875946,1.1866528987884521,0.3258366882801056,0.9985180497169495,-0.025548964738845825,0.0012912298552691936,0.048032619059085846
62.0,1.5187719083074591,-1.0851901093241776,1.4625842074923072,-1.8199125943896721,-1.5775524677167359,0.0,-0.13640685379505157,1.1967847347259521,0.3246406018733978,0.997606098651886,-0.025739213451743126,0.0017029066802933812,0.06416064500808716
63.0,1.5181529857535732,-1.0613460860013681,1.4211373379082812,-1.770036296360689,-1.579252247757686,0.0,-0.13450480997562408,1.2063642740249634,0.32351797819137573,0.9964343905448914,-0.025894740596413612,0.0021024118177592754,0.08027186989784241
64.0,1.5154823310302155,-1.0716621851750583,1.4321181865590407,-1.7569778057486671,-1.5803935693638358,0.0,-0.13159054517745972,1.1931416988372803,0.32609742879867554,0.9958249926567078,-0.027130795642733574,0.002371987560763955,0.08712494373321533
65.0,1.5153590722820256,-1.0925891421957967,1.4693952750065076,-1.8053246485437116,-1.5786570675664577,0.0,-0.1325128823518753,1.1860562562942505,0.32652127742767334,0.9970875382423401,-0.02736552059650421,0.001948951045051217,0.0711597353219986
66.0,1.5154183911407586,-1.1128551535826514,1.5061071083952704,-1.8552009465726946,-1.5768100420383584,0.0,-0.13366171717643738,1.1795512437820435,0.3269493281841278,0.9981366395950317,-0.027480805292725563,0.0014952403726056218,0.054458774626255035
67.0,1.515477709999492,-1.1331211649695059,1.5428189417840328,-1.905077244601677,-1.5749630165102595,0.0,-0.13483555614948273,1.1725788116455078,0.3275871276855469,0.9989069104194641,-0.027557579800486565,0.0010384370107203722,0.03774257376790047
68.0,1.5155370288582253,-1.1533871763563606,1.5795307751727958,-1.9549535426306603,-1.5731159909821602,0.0,-0.1360349804162979,1.1651320457458496,0.3284302353858948,0.9993979930877686,-0.02759569138288498,0.0005791937583126128,0.021015631034970284
69.0,1.5155963477169587,-1.173653187743215,1.6162426085615582,-2.0048298406596428,-1.571268965454061,0.0,-0.1372600942850113,1.1572030782699585,0.32947343587875366,0.9996100068092346,-0.027595199644565582,0.00011814622848760337,0.004282827023416758
70.0,1.5141191425066636,-1.171256298414248,1.6108322591868736,-1.9804834899124486,-1.5726979620888375,0.0,-0.13530831038951874,1.15187668800354,0.32741984724998474,0.9994868040084839,-0.028317417949438095,0.0005269180983304977,0.014964720234274864
71.0,1.5121134277494002,-1.1610641785179634,1.5909333793827838,-1.9306071918834653,-1.575253793651917,0.0,-0.13229097425937653,1.1472543478012085,0.32476794719696045,0.9989560842514038,-0.029241133481264114,0.0011989851482212543,0.03507218882441521
72.0,1.5101077129921363,-1.150872058621679,1.571034499578694,-1.8807308938544827,-1.5778096252149967,0.0,-0.12931157648563385,1.1423147916793823,0.3227080702781677,0.9980217218399048,-0.030100299045443535,0.0018283994868397713,0.055166590958833694
73.0,1.508101998234873,-1.1406799387253943,1.5511356197746042,-1.8308545958254998,-1.5803654567780765,0.0,-0.12637020647525787,1.1370837688446045,0.32124757766723633,0.9966838359832764,-0.030893854796886444,0.0024140276946127415,0.0752396285533905
74.0,1.5047975638974307,-1.1502105538008272,1.5596925898274057,-1.8061169834077528,-1.5822454902240333,0.0,-0.12299947440624237,1.1205672025680542,0.3230506181716919,0.9956685900688171,-0.03237023204565048,0.0028303314466029406,0.08711013197898865
75.0,1.4884390861219636,-1.1756579148563036,1.592860525939083,-1.8140446484376753,-1.585078533932152,0.0,-0.1053919643163681,1.1001062393188477,0.3266311585903168,0.9953755140304565,-0.04039052501320839,0.0035320043098181486,0.08708461374044418
76.0,1.4941180128837543,-1.1371301686452873,1.5429842279101003,-1.8026190430733142,-1.5840954554387705,0.0,-0.10943864285945892,1.1330935955047607,0.3208271265029907,0.9954845905303955,-0.03760646656155586,0.00328848953358829,0.08709403872489929
77.0,1.4985392641528084,-1.1036985072238175,1.4931079298811172,-1.786117872069082,-1.5833297785095313,0.0,-0.11253750324249268,1.1631001234054565,0.3193224370479584,0.9955641031265259,-0.03543880954384804,0.0030988373328000307,0.08710110187530518
78.0,1.5012943878031175,-1.0781968577333403,1.4432316318521345,-1.7617081074340644,-1.5828526553012006,0.0,-0.11411899328231812,1.1887624263763428,0.32568174600601196,0.9956111311912537,-0.03408792242407799,0.0029806571546941996,0.08710608631372452
79.0,1.4950571894826363,-1.0530361726607045,1.4067930519513363,-1.7505076878716115,-1.5839329861979823,0.0,-0.10462680459022522,1.2112584114074707,0.3228908181190491,0.9955017566680908,-0.0371459536254406,0.00324824545532465,0.08709642291069031
80.0,1.4887203467203793,-1.084928340833324,1.4562537128679613,-1.768161992859904,-1.5850301714781316,0.0,-0.0988696739077568,1.1833534240722656,0.32415732741355896,0.9953809976577759,-0.040252648293972015,0.0035201115533709526,0.0870857760310173
81.0,1.4856755340569132,-1.1099381683291298,1.5061300108969444,-1.7930735037314294,-1.585556928959005,0.0,-0.09726887941360474,1.1577731370925903,0.31719040870666504,0.9953195452690125,-0.04174523800611496,0.003650661325082183,0.08707957714796066
82.0,1.4801656165228698,-1.1468188795248093,1.5560063089259266,-1.8061518526678848,-1.5865100033942168,0.0,-0.09345249831676483,1.125986099243164,0.3221006989479065,0.9952026009559631,-0.04444614052772522,0.0038868894334882498,0.08706934750080109
83.0,1.4634898085876928,-1.1750701242333343,1.5927774346782893,-1.8149540215121571,-1.5893919081061592,0.0,-0.07619765400886536,1.102699875831604,0.32616305351257324,0.9948040246963501,-0.05261882022023201,0.004601883236318827,0.08703422546386719
84.0,1.4692097393878745,-1.1369755905216654,1.543428850600824,-1.8035973956979954,-1.5884040207384706,0.0,-0.07950911670923233,1.1354056596755981,0.3204292058944702,0.9949482679367065,-0.04981576278805733,0.004356699995696545,0.08704712241888046
85.0,1.4743802711839848,-1.1032871035269316,1.4935525525718418,-1.7873218233638482,-1.5875105649760914,0.0,-0.08277066051959991,1.1655480861663818,0.31863996386528015,0.9950718879699707,-0.047281745821237564,0.004135043825954199,0.0870581567287445
86.0,1.4777123598961188,-1.0788182317655461,1.4436762545428588,-1.7618585113818022,-1.5869345434951454,0.0,-0.08450526744127274,1.1906883716583252,0.32610616087913513,0.9951481223106384,-0.045648567378520966,0.003992156591266394,0.08706583082675934
87.0,1.4706567334427054,-1.0578800286749463,1.4141880910859168,-1.7534552339118494,-1.5881509847450987,0.0,-0.07382503151893616,1.2091947793960571,0.3232651650905609,0.9949848055839539,-0.049106959253549576,0.004293845035135746,0.08703623712062836
88.0,1.465925747834335,-1.0842541866383855,1.4563910532344146,-1.7918473776631774,-1.5863124384077143,0.0,-0.07036664336919785,1.1948481798171997,0.3255007266998291,0.9957782030105591,-0.05167554318904877,0.0037697867956012487,0.07577058672904968
89.0,1.4622518285736996,-1.106201842840063,1.494927359695887,-1.8417236756921602,-1.5830219218540769,0.0,-0.06809061020612717,1.1874908208847046,0.3264438509941101,0.9967969655990601,-0.05379125475883484,0.002900040941312909,0.059108275920152664
90.0,1.458577909313064,-1.1281494990417409,1.5334636661573593,-1.8915999737211429,-1.5797314053004392,0.0,-0.0659250020980835,1.1796410083770752,0.32754355669021606,0.9975357055664062,-0.05584075301885605,0.002087604021653533,0.04242610186338425
91.0,1.4549039900524288,-1.1500971552434185,1.5719999726188316,-1.9414762717501257,-1.5764408887468015,0.0,-0.06387589126825333,1.1712943315505981,0.3287948966026306,0.9979943037033081,-0.05782237648963928,0.0013335468247532845,0.025729037821292877
92.0,1.451105968129505,-1.1755947737617851,1.6143217203223204,-1.9837261528377044,-1.5738625062917349,0.0,-0.06224394962191582,1.156489610671997,0.33003541827201843,0.9981268048286438,-0.05978468805551529,0.0007588063599541783,0.012966793030500412
93.0,1.4470602763187554,-1.2081770007208699,1.6641980183513039,-2.010756103961102,-1.5727053195552647,0.0,-0.061433278024196625,1.1292669773101807,0.3305327296257019,0.9980546236038208,-0.061818916350603104,0.00045609206426888704,0.0080742621794343
94.0,1.443014584508006,-1.2407592276799548,1.7140743163802872,-2.0377860550845,-1.5715481328187944,0.0,-0.06091203913092613,1.1015269756317139,0.330308198928833,0.9979546070098877,-0.06384587287902832,0.00017318810569122434,0.0031802821904420853
95.0,1.427427423955969,-1.2579792390479982,1.7408868429244304,-2.0537040069040327,-1.5707963632602027,0.0,-0.046144839376211166,1.0876966714859009,0.3297911286354065,-0.997431755065918,0.0716230720281601,-2.561252365751443e-08,8.005234519714577e-08
96.0,1.4350172306192737,-1.2231448514343073,1.6910105448954473,-2.0386619325633326,-1.5707963583114821,0.0,-0.04987505450844765,1.1204273700714111,0.32980039715766907,0.9976963996887207,-0.0678374171257019,1.713875619202554e-08,5.567481409229913e-08
97.0,1.4409616885110583,-1.1923680068057552,1.6442071359724246,-2.0145311203405853,-1.571748222465167,0.0,-0.052694257348775864,1.1466680765151978,0.3295668065547943,0.9978853464126587,-0.06486924737691879,0.00021208960970398039,0.004074470605701208
98.0,1.443435792406546,-1.1717535839668851,1.6069204151307688,-1.9646548223116032,-1.5756479446139386,0.0,-0.05293191224336624,1.154909610748291,0.32884034514427185,0.9977604150772095,-0.06357346475124359,0.001106097362935543,0.020765146240592003
99.0,1.4459098963020336,-1.1511391611280146,1.569633694289112,-1.91477852428262,-1.5795476667627102,0.0,-0.05327088385820389,1.162677526473999,0.328302800655365,0.997359037399292,-0.06219609081745148,0.0020397580228745937,0.03744751960039139
100.0,1.4483840001975214,-1.1305247382891443,1.5323469734474557,-1.8649022262536372,-1.583447388911482,0.0,-0.05370700731873512,1.1699780225753784,0.327958881855011,0.9966810941696167,-0.06073814257979393,0.0030117298010736704,0.054116614162921906
101.0,1.4508581040930089,-1.1099103154502743,1.4950602526057992,-1.8150259282246546,-1.5873471110602535,0.0,-0.05423559248447418,1.176817774772644,0.32781288027763367,0.9957263469696045,-0.05920085683465004,0.00402068393304944,0.0707675963640213
102.0,1.4534195995939196,-1.0888897889291858,1.457443750984246,-1.7660896118981217,-1.5911187881512556,0.0,-0.05492999404668808,1.1838438510894775,0.3277314603328705,0.9945349097251892,-0.05755406990647316,0.005030874628573656,0.08696234226226807
103.0,1.45484394984247,-1.0565291981013667,1.4126150140749016,-1.7535272531905435,-1.5908807696141036,0.0,-0.05350501462817192,1.2112751007080078,0.32289063930511475,0.9945721626281738,-0.05685538426041603,0.004971661604940891,0.086998850107193
104.0,1.4416362021482167,-1.0877109091625832,1.456095709354421,-1.7664784633162087,-1.593165740501806,0.0,-0.04003734514117241,1.1854729652404785,0.3274416923522949,0.9941972494125366,-0.06332810968160629,0.005554147530347109,0.08677802979946136
105.0,1.4388853220357771,-1.1086962350333749,1.493693270840216,-1.8157295976772876,-1.5889546894087356,0.0,-0.039348796010017395,1.1786177158355713,0.3275492489337921,0.9953805804252625,-0.0651094987988472,0.004425429739058018,0.07041651755571365
106.0,1.4361932882700843,-1.1294104177793416,1.5310689641272273,-1.8656058957062702,-1.5846485998470938,0.0,-0.03880847990512848,1.1717373132705688,0.3277660608291626,0.9963135123252869,-0.06678412109613419,0.003309508552774787,0.053742021322250366
107.0,1.4335012545043915,-1.1501246005253085,1.568444657414239,-1.9154821937352535,-1.5803425102854516,0.0,-0.03836987540125847,1.1643961668014526,0.32817938923835754,0.9969692230224609,-0.06837109476327896,0.002233792096376419,0.03704886510968208
108.0,1.4308092207386987,-1.1708387832712748,1.6058203507012496,-1.9653584917642357,-1.5760364207238098,0.0,-0.038037970662117004,1.1565877199172974,0.32878434658050537,0.9973479509353638,-0.0698690414428711,0.0011998210102319717,0.02034192718565464
109.0,1.4281171869730056,-1.1915529660172417,1.6431960439882611,-2.015234789793219,-1.571730331162168,0.0,-0.03781721368432045,1.148305892944336,0.3295761048793793,0.9974498748779297,-0.07127693295478821,0.00020906273857690394,0.0036264534574002028
110.0,1.4231672790130434,-1.2132546536570847,1.6755424638716594,-2.0279436279648673,-1.571521815207225,0.0,-0.03516509756445885,1.1286388635635376,0.32967549562454224,0.9972736835479736,-0.07374636083841324,0.00017217865388374776,0.002590018790215254
111.0,1.4244354473604928,-1.18908705455163,1.6334152420192871,-1.978067329935885,-1.5760259021635432,0.0,-0.033020008355379105,1.1408624649047852,0.3290982246398926,0.9971523880958557,-0.0730539858341217,0.0012526685604825616,0.018669063225388527
112.0,1.425703615707942,-1.164919455446175,1.5912880201669135,-1.9281910319069018,-1.5805299891198616,0.0,-0.030984878540039062,1.1525524854660034,0.3285638391971588,0.9967769384384155,-0.07227139919996262,0.0023519759997725487,0.034741491079330444
113.0,1.426971784055391,-1.1407518563407202,1.5491607983145408,-1.878314733877919,-1.58503407607618,0.0,-0.02905779331922531,1.1637091636657715,0.32807743549346924,0.996147096157074,-0.07139904797077179,0.003468528389930725,0.05080314353108406
114.0,1.4282399524028402,-1.1165842572352656,1.507033576462168,-1.8284384358489367,-1.5895381630324983,0.0,-0.027236584573984146,1.1743333339691162,0.32764461636543274,0.9952629804611206,-0.07043755054473877,0.00460097286850214,0.06684932857751846
115.0,1.4295081207502893,-1.0924166581298105,1.464906354609795,-1.7785621378199536,-1.5940422499888167,0.0,-0.025519056245684624,1.184425950050354,0.32726970314979553,0.9941246509552002,-0.0693875402212143,0.005747848656028509,0.08287570625543594
116.0,1.435391294794067,-1.0594523394800957,1.4169951516577308,-1.755396242625558,-1.5942310936498034,0.0,-0.028968077152967453,1.2095401287078857,0.32319673895835876,0.9939815402030945,-0.06638379395008087,0.005804436281323433,0.08694968372583389
117.0,1.4237501737189577,-1.0556981472286004,1.4205727841692735,-1.7440921817073274,-1.5471093836427867,0.0,-0.03396886587142944,1.205828070640564,0.3150077164173126,0.992573618888855,-0.07424463331699371,-0.018782196566462517,0.09451185911893845
118.0,1.4106536142829293,-1.0538899777806594,1.427418620964179,-1.7329856265561514,-1.4972330856138036,0.0,-0.038682568818330765,1.2005001306533813,0.30773240327835083,0.9902552962303162,-0.08335205167531967,-0.04488172009587288,0.10213913023471832
119.0,1.3975570548469012,-1.0520818083327186,1.4342644577590844,-1.7218790714049756,-1.4473567875848206,0.0,-0.04343760758638382,1.1956642866134644,0.30156511068344116,0.9871078729629517,-0.0928555279970169,-0.07099470496177673,0.10934147238731384
120.0,1.3844604954108732,-1.0502736388847775,1.4411102945539898,-1.7107725162538001,-1.3974804895558384,0.0,-0.04816228151321411,1.1913670301437378,0.29648762941360474,0.9831268191337585,-0.10273648798465729,-0.09709206968545914,0.11610286682844162
121.0,1.371363935974845,-1.0484654694368367,1.4479561313488951,-1.6996659611026244,-1.3476041915268553,0.0,-0.05278277397155762,1.1876494884490967,0.29247698187828064,0.978308916091919,-0.11297576874494553,-0.1231442242860794,0.12240780889987946
122.0,1.358267376538817,-1.0466572999888957,1.4548019681438005,-1.6885594059514486,-1.2977278934978722,0.0,-0.05722402408719063,1.184548020362854,0.28950628638267517,0.9726517796516418,-0.12355343252420425,-0.14912134408950806,0.1282416135072708
123.0,1.3451708171027885,-1.0448491305409549,1.461647804938706,-1.6774528508002728,-1.2478515954688891,0.0,-0.06140970066189766,1.1820937395095825,0.2875441610813141,0.9661542773246765,-0.1344493329524994,-0.1749935746192932,0.1335906684398651
124.0,1.3320742576667606,-1.0430409610930138,1.4684936417336112,-1.666346295649097,-1.197975297439907,0.0,-0.06526310741901398,1.180311918258667,0.28655529022216797,0.9588165879249573,-0.1456424593925476,-0.20073077082633972,0.13844206929206848
125.0,1.3189776982307324,-1.041232791645073,1.4753394785285168,-1.6552397404979213,-1.1480989994109239,0.0,-0.06870722770690918,1.179221510887146,0.2865005433559418,0.9506396651268005,-0.1571115106344223,-0.22630266845226288,0.14278386533260345
126.0,1.3058811387947042,-1.039424622197132,1.4821853153234221,-1.6441331853467456,-1.0982227013819408,0.0,-0.07166531682014465,1.178836703300476,0.28733742237091064,0.9416260719299316,-0.1688345968723297,-0.2516789138317108,0.14660488069057465
127.0,1.2927845793586763,-1.0376164527491911,1.4890311521183275,-1.63302663019557,-1.0483464033529586,0.0,-0.07406140863895416,1.1791640520095825,0.28901922702789307,0.9317790269851685,-0.1807895302772522,-0.276829332113266,0.14989514648914337
128.0,1.279688019922648,-1.03580828330125,1.4958769889132328,-1.6219200750443943,-0.9984701053239755,0.0,-0.07582052052021027,1.1802048683166504,0.2914969027042389,0.9211031794548035,-0.1929536610841751,-0.30172351002693176,0.1526452898979187
129.0,1.2665914604866197,-1.0340001138533093,1.5027228257081382,-1.6108135198932185,-0.9485938072949924,0.0,-0.0768694281578064,1.1819539070129395,0.29471784830093384,0.9096044898033142,-0.2053041309118271,-0.3263312578201294,0.15484721958637238
130.0,1.2534949010505918,-1.0321919444053682,1.5095686625030436,-1.599706964742043,-0.8987175092660102,0.0,-0.07713665068149567,1.1843994855880737,0.2986270785331726,0.8972898125648499,-0.21781760454177856,-0.3506224453449249,0.15649352967739105
131.0,1.2638398191970248,-1.0185345798358183,1.4780652588412313,-1.5869849392359736,-0.8802447373302617,0.0,-0.08876350522041321,1.203934669494629,0.3082696795463562,0.8957912921905518,-0.21387234330177307,-0.3579213321208954,0.15397660434246063
132.0,1.2538629999569688,-1.044278392004111,1.5230405491077486,-1.6107589050941105,-0.8801779622596403,0.0,-0.08419367671012878,1.1821227073669434,0.30725640058517456,0.8952813148498535,-0.21767635643482208,-0.3585517704486847,0.1500961184501648
133.0,1.2477286096595068,-1.063751565292707,1.5612719084037918,-1.6606352031230922,-0.8697816819654312,0.0,-0.08287873864173889,1.174638271331787,0.30654844641685486,0.8966007232666016,-0.2165312021970749,-0.3624657094478607,0.1335664689540863
134.0,1.2415942193620448,-1.0832247385813036,1.599503267699836,-1.7105115011520753,-0.8593854016712218,0.0,-0.08181004971265793,1.1666550636291504,0.30609560012817383,0.8977076411247253,-0.21518853306770325,-0.3662230670452118,0.1170273944735527
135.0,1.2354598290645826,-1.1026979118699,1.6377346269958801,-1.7603877991810581,-0.8489891213770125,0.0,-0.08099918067455292,1.1581696271896362,0.30589205026626587,0.8986043930053711,-0.21364754438400269,-0.36982104182243347,0.10048524290323257
136.0,1.2274506274230412,-1.1240886286629492,1.6787851279592267,-1.8007932296061075,-0.842184305048565,0.0,-0.07917492091655731,1.143803358078003,0.3045777976512909,0.898691713809967,-0.21426551043987274,-0.37224751710891724,0.08874261379241943
137.0,1.21313604548752,-1.1516198065649983,1.728661425988209,-1.811105165885625,-0.846825780665874,0.0,-0.07364043593406677,1.111950397491455,0.29897838830947876,0.8967128396034241,-0.2223951518535614,-0.37143221497535706,0.09211186319589615
138.0,1.2017128793404053,-1.163343378965119,1.7539055409433508,-1.7964223329182536,-0.8445560508706251,0.0,-0.07010748237371445,1.0908305644989014,0.29396316409111023,0.891838788986206,-0.2320411652326584,-0.3744906187057495,0.10265032202005386
139.0,1.1920129358831317,-1.1453360294446924,1.7414334481338953,-1.7465460348892705,-0.8324062440494806,0.0,-0.06463427096605301,1.0881035327911377,0.28521931171417236,0.8816125392913818,-0.24565346539020538,-0.3832436501979828,0.12465094029903412
140.0,1.1823129924258584,-1.127328679924266,1.72896135532444,-1.6966697368602883,-0.8202564372283363,0.0,-0.059139616787433624,1.0854675769805908,0.277133047580719,0.8705328106880188,-0.2592768967151642,-0.3918226957321167,0.14636574685573578
141.0,1.172613048968585,-1.1093213304038396,1.7164892625149848,-1.6467934388313052,-0.8081066304071918,0.0,-0.05360279977321625,1.0829622745513916,0.269679456949234,0.8586110472679138,-0.27289050817489624,-0.4002094268798828,0.1677805483341217
142.0,1.1629131055113116,-1.091313980883413,1.7040171697055293,-1.5969171408023222,-0.7959568235860472,0.0,-0.0480022132396698,1.080623745918274,0.26283156871795654,0.8458593487739563,-0.2864733636379242,-0.4083854854106903,0.1888817995786667
143.0,1.1532131620540382,-1.0733066313629867,1.691545076896074,-1.54704084277334,-0.7838070167649029,0.0,-0.04231598228216171,1.078485369682312,0.25656017661094666,0.8322911262512207,-0.30000439286231995,-0.41633278131484985,0.20965632796287537
144.0,1.143513218596765,-1.05529928184256,1.6790729840866185,-1.497164544744357,-0.7716572099437584,0.0,-0.03652182221412659,1.0765776634216309,0.25083330273628235,0.8179208040237427,-0.31346267461776733,-0.42403358221054077,0.23009178042411804
145.0,1.1338132751394914,-1.0372919323221332,1.666600891277163,-1.4472882467153738,-0.7595074031226139,0.0,-0.030597306787967682,1.0749281644821167,0.24561730027198792,0.8027635216712952,-0.32682716846466064,-0.43147003650665283,0.250176340341568
146.0,1.124113331682218,-1.019284582801707,1.6541287984677078,-1.3974119486863916,-0.7473575963014696,0.0,-0.024520307779312134,1.0735605955123901,0.24087651073932648,0.7868355512619019,-0.34007710218429565,-0.4386249780654907,0.26989877223968506
147.0,1.1144133882249447,-1.0012772332812803,1.6416567056582523,-1.3475356506574085,-0.7352077894803252,0.0,-0.01826860010623932,1.072495937347412,0.2365737110376358,0.7701541781425476,-0.3531915843486786,-0.44548118114471436,0.2892487049102783
148.0,1.1047134447676712,-0.9832698837608538,1.6291846128487968,-1.2976593526284255,-0.7230579826591806,0.0,-0.011820659041404724,1.0717509984970093,0.2326701581478119,0.7527373433113098,-0.3661498725414276,-0.4520217478275299,0.3082159459590912
149.0,1.0950135013103979,-0.9652625342404274,1.6167125200393415,-1.2477830545994433,-0.7109081758380363,0.0,-0.005155600607395172,1.071340560913086,0.2291257679462433,0.734604001045227,-0.37893158197402954,-0.45823046565055847,0.3267914354801178
150.0,1.0853135578531246,-0.9472551847200008,1.604240427229886,-1.1979067565704602,-0.6987583690168918,0.0,0.0017470493912696838,1.0712753534317017,0.22589978575706482,0.7157741189002991,-0.39151623845100403,-0.464091032743454,0.34496641159057617
151.0,1.075613614395851,-0.9292478351995741,1.5917683344204305,-1.1480304585414771,-0.6866085621957473,0.0,0.008906364440917969,1.0715627670288086,0.22295033931732178,0.6962683796882629,-0.40388381481170654,-0.46958795189857483,0.36273300647735596
152.0,1.0659136709385777,-0.9112404856791478,1.5792962416109755,-1.098154160512495,-0.674458755374603,0.0,0.01634066551923752,1.0722063779830933,0.22023504972457886,0.6761083602905273,-0.4160144627094269,-0.4747059941291809,0.38008373975753784
153.0,1.0562137274813044,-0.8932331361587211,1.56682414880152,-1.0482778624835118,-0.6623089485534585,0.0,0.02406700700521469,1.0732085704803467,0.21771137416362762,0.6553163528442383,-0.4278884530067444,-0.47943034768104553,0.39701199531555176
154.0,1.0465137840240308,-0.8752257866382945,1.5543520559920645,-0.9984015644545288,-0.6501591417323139,0.0,0.03210087865591049,1.07456636428833,0.21533642709255219,0.6339155435562134,-0.4394865036010742,-0.48374655842781067,0.4135115444660187
155.0,1.0368138405667575,-0.8572184371178679,1.541879963182609,-0.9485252664255457,-0.6380093349111694,0.0,0.04045650362968445,1.0762747526168823,0.21306751668453217,0.6119298934936523,-0.45078974962234497,-0.48764097690582275,0.42957717180252075
156.0,1.0271138971094842,-0.8392110875974417,1.5294078703731537,-0.8986489683965635,-0.6258595280900251,0.0,0.049146465957164764,1.078325867652893,0.2108621895313263,0.5893840193748474,-0.4617794454097748,-0.49110037088394165,0.44520390033721924
157.0,1.0174139536522107,-0.821203738077015,1.5169357775636982,-0.8487726703675804,-0.6137097212688806,0.0,0.05818147212266922,1.0807088613510132,0.20867842435836792,0.5663031935691833,-0.47243744134902954,-0.4941118359565735,0.46038779616355896
158.0,1.0077140101949373,-0.8031963885565883,1.5044636847542427,-0.7988963723385973,-0.6015599144477362,0.0,0.0675707757472992,1.0834105014801025,0.20647506415843964,0.5427136421203613,-0.48274582624435425,-0.4966633915901184,0.47512492537498474
159.0,0.998014066737664,-0.785189039036162,1.4919915919447875,-0.7490200743096151,-0.5894101076265919,0.0,0.07732146978378296,1.0864143371582031,0.20421165227890015,0.5186418294906616,-0.49268725514411926,-0.49874335527420044,0.48941266536712646
160.0,0.9936561788616078,-0.767173750010786,1.4706131865464194,-0.7034395221632188,-0.5771208876765197,0.0,0.08505616337060928,1.0954917669296265,0.2039615660905838,0.4999952018260956,-0.500004768371582,-0.500004768371582,0.4999952018260956
161.0,1.0060529971564018,-0.7489828186943472,1.4207368885174372,-0.6717540173541982,-0.5647238980882441,0.0,0.08505310863256454,1.1227604150772095,0.21041718125343323,0.4999951124191284,-0.5000048279762268,-0.500004768371582,0.4999952018260956
162.0,1.0169174387725675,-0.731613262348608,1.3739769320182607,-0.6423639134651848,-0.5538596288057752,0.0,0.08502047508955002,1.1475509405136108,0.2163204848766327,0.49999529123306274,-0.500004768371582,-0.5000048279762268,0.4999951124191284
163.0,1.0050854169565875,-0.7506707954026282,1.4238532300472428,-0.6731825965023376,-0.56569168391854,0.0,0.08525999635457993,1.1209174394607544,0.21066759526729584,0.49999529123306274,-0.500004768371582,-0.5000047087669373,0.4999951124191284
164.0,0.9927918837494719,-0.769238663469302,1.473729528076225,-0.7044909466209891,-0.5779852371095798,0.0,0.08505614846944809,1.0936309099197388,0.2046576291322708,0.49999523162841797,-0.500004768371582,-0.500004768371582,0.4999951124191284
165.0,0.9789398547294116,-0.786802743197184,1.5236058261052083,-0.7368031024283458,-0.5918372468851142,0.0,0.0855616107583046,1.0652563571929932,0.19775083661079407,0.4999952018260956,-0.500004768371582,-0.500004768371582,0.4999951422214508
166.0,0.964758008281384,-0.8042195365749691,1.5734821241341896,-0.7692625492878647,-0.606019066361138,0.0,0.08529844135046005,1.036321997642517,0.19100166857242584,0.4999951124191284,-0.500004768371582,-0.500004768371582,0.4999951422214508
167.0,0.9709141985470591,-0.7974923901813509,1.5535789195268919,-0.7560865860419381,-0.5998628661158378,0.0,0.0850052759051323,1.0481294393539429,0.19390684366226196,0.49999523162841797,-0.500004768371582,-0.500004768371582,0.4999951720237732
168.0,0.9772743777213438,-0.7887782337806445,1.5314030837633226,-0.7426248045006795,-0.5935026693597927,0.0,0.08506061881780624,1.0610946416854858,0.1958184391260147,0.4999952018260956,-0.500004768371582,-0.500004768371582,0.4999951422214508
169.0,0.9627238524756256,-0.806005414905983,1.5812793817923048,-0.7752740825118748,-0.6080531130383637,0.0,0.08502509444952011,1.0319370031356812,0.1889306604862213,0.4999952018260956,-0.500004768371582,-0.5000048279762268,0.4999951124191284
170.0,0.9478774813675145,-0.814576003493782,1.6296335453671775,-0.8150574666254862,-0.6228995193370808,0.0,0.0850941389799118,1.003639578819275,0.17372630536556244,0.4999951124191284,-0.5000048279762268,-0.5000048279762268,0.4999951720237732
171.0,0.9311240996326593,-0.818477489927104,1.6748004310144708,-0.8236398998458082,-0.5941431167542213,0.0,0.0844312310218811,0.9892902374267578,0.16304972767829895,0.477032870054245,-0.5131210684776306,-0.5092458724975586,0.4998149275779724
172.0,0.9130287160106848,-0.8260220877434236,1.7193605280448607,-0.8118412508205659,-0.5442668187252391,0.0,0.0840584859251976,0.9810311198234558,0.15988823771476746,0.4421268701553345,-0.5323982238769531,-0.5218358635902405,0.4987615942955017
173.0,0.9161855358009781,-0.8305569454915698,1.7221724337175277,-0.7665248843475325,-0.5083088778385927,0.0,0.0778796449303627,0.9887916445732117,0.17124313116073608,0.41793495416641235,-0.5431103110313416,-0.5252078771591187,0.504497766494751
174.0,0.9222336202820725,-0.8346823419232215,1.719304689650549,-0.7166485863185486,-0.47424446553243876,0.0,0.07130524516105652,0.9987883567810059,0.18391233682632446,0.39513933658599854,-0.5528932809829712,-0.5265412330627441,0.5108113288879395
175.0,0.9282817047631667,-0.8388077383548731,1.7164369455835702,-0.6667722882895664,-0.44018005322628606,0.0,0.0651564672589302,1.0087989568710327,0.19580340385437012,0.3722583055496216,-0.5628787279129028,-0.5269180536270142,0.5166705846786499
176.0,0.9343297892442609,-0.8429331347865248,1.7135692015165915,-0.6168959902605842,-0.4061156409201333,0.0,0.05939474701881409,1.018769383430481,0.2068905532360077,0.3493287265300751,-0.5730499625205994,-0.5263379812240601,0.5220646262168884
177.0,0.9403778737253553,-0.8470585312181765,1.7107014574496127,-0.5670196922316002,-0.3720512286139794,0.0,0.053981222212314606,1.0286438465118408,0.21715375781059265,0.32638752460479736,-0.5833892822265625,-0.5248019099235535,0.5269830226898193
178.0,0.9464259582064496,-0.8511839276498281,1.707833713382634,-0.517143394202618,-0.3379868163078267,0.0,0.04887774586677551,1.0383647680282593,0.22657927870750427,0.30347108840942383,-0.593878984451294,-0.5223119854927063,0.5314162373542786
179.0,0.952474042687544,-0.8553093240814799,1.7049659693156551,-0.46726709617363404,-0.3039224040016727,0.0,0.044046834111213684,1.047873616218567,0.23515959084033966,0.2806161046028137,-0.6045005321502686,-0.5188720226287842,0.5353553295135498
180.0,0.9585221271686383,-0.8594347205131314,1.7020982252486763,-0.41739079814465185,-0.26985799169551994,0.0,0.03945159167051315,1.0571107864379883,0.24289372563362122,0.25785884261131287,-0.6152352690696716,-0.5144872665405273,0.5387922525405884
181.0,0.9645702116497324,-0.8635601169447831,1.6992304811816976,-0.36751450011566966,-0.23579357938936724,0.0,0.03505720943212509,1.0660163164138794,0.2497866004705429,0.2352352887392044,-0.6260639429092407,-0.5091643929481506,0.5417193174362183
182.0,0.9706182961308268,-0.8676855133764348,1.6963627371147187,-0.3176382020866857,-0.20172916708321326,0.0,0.0308295339345932,1.0745306015014648,0.25584957003593445,0.21278107166290283,-0.6369669437408447,-0.5029112100601196,0.5441301465034485
183.0,0.9766663806119211,-0.8718109098080864,1.69349499304774,-0.2677619040577035,-0.16766475477706055,0.0,0.02673695981502533,1.082594633102417,0.26110008358955383,0.1905314177274704,-0.6479243636131287,-0.49573713541030884,0.546018660068512
184.0,0.9827144650930153,-0.8759363062397381,1.6906272489807614,-0.2178856060287213,-0.1336003424709078,0.0,0.02274957299232483,1.0901496410369873,0.2655618190765381,0.16852137446403503,-0.6589159965515137,-0.48765313625335693,0.5473798513412476
185.0,0.9887625495741097,-0.8800617026713897,1.6877595049137826,-0.16800930799973735,-0.09953593016475387,0.0,0.018839716911315918,1.0971391201019287,0.26926377415657043,0.14678503572940826,-0.6699211597442627,-0.47867101430892944,0.548209547996521
186.0,0.994810634055204,-0.8841870991030414,1.6848917608468037,-0.11813300997075515,-0.06547151785860117,0.0,0.014982357621192932,1.1035075187683105,0.27224114537239075,0.12535633146762848,-0.6809192895889282,-0.4688045382499695,0.5485042929649353
187.0,1.0008587185362983,-0.8883124955346929,1.682024016779825,-0.06825671194177296,-0.03140710555244841,0.0,0.011155128479003906,1.109202265739441,0.27453431487083435,0.10426840931177139,-0.6918893456459045,-0.45806828141212463,0.5482615232467651
188.0,1.0069068030173927,-0.8924378919663447,1.6791562727128462,-0.018380413912788995,0.0026573067537055683,0.0,0.007338181138038635,1.1141729354858398,0.27618831396102905,0.08355379849672318,-0.7028101086616516,-0.44647812843322754,0.5474796891212463
189.0,1.0129548874984868,-0.8965632883979964,1.6762885286458675,0.031495884116193196,0.036721719059858215,0.0,0.003514721989631653,1.1183723211288452,0.27725380659103394,0.06324438005685806,-0.7136604189872742,-0.434051513671875,0.546157717704773
190.0,1.019002971979581,-0.9006886848296479,1.6734207845788887,0.08137218214517539,0.07078613136601097,0.0,-0.0003288835287094116,1.1217565536499023,0.2777855396270752,0.04337111860513687,-0.7244186401367188,-0.4208068251609802,0.5442959070205688
191.0,1.0250510564606754,-0.9048140812612997,1.67055304051191,0.13124848017415935,0.10485054367216495,0.0,-0.004203364253044128,1.1242855787277222,0.27784237265586853,0.023964373394846916,-0.7350635528564453,-0.40676385164260864,0.5418951511383057
192.0,1.0310991409417698,-0.9089394776929514,1.6676852964449311,0.18112477820314155,0.1389149559783177,0.0,-0.008116506040096283,1.125923991203308,0.2774868905544281,0.005053712986409664,-0.7455735802650452,-0.3919432759284973,0.5389572978019714
193.0,1.037147225422864,-0.9130648741246029,1.6648175523779525,0.23100107623212374,0.17297936828447036,0.0,-0.012072756886482239,1.1266398429870605,0.2767850458621979,-0.013332473114132881,-0.7559270858764648,-0.37636706233024597,0.5354850888252258
194.0,1.0431953099039584,-0.9171902705562547,1.6619498083109736,0.2808773742611077,0.20704378059062434,0.0,-0.016073234379291534,1.1264070272445679,0.27580568194389343,-0.031166397035121918,-0.76610267162323,-0.3600582182407379,0.5314821600914001
195.0,1.0492433943850525,-0.9213156669879062,1.659082064243995,0.3307536722900899,0.2411081928967771,0.0,-0.020116545259952545,1.1252036094665527,0.2746201455593109,-0.04842151328921318,-0.7760791182518005,-0.3430407643318176,0.5269529819488525
196.0,1.0552914788661467,-0.9254410634195579,1.656214320177016,0.3806299703190721,0.27517260520292985,0.0,-0.024197928607463837,1.1230134963989258,0.27330172061920166,-0.06507199257612228,-0.7858350276947021,-0.32533973455429077,0.5219030976295471
197.0,1.0613395633472413,-0.9295664598512097,1.6533465761100374,0.43050626834805605,0.3092370175090837,0.0,-0.028309844434261322,1.1198257207870483,0.27192506194114685,-0.08109326660633087,-0.7953493595123291,-0.3069811165332794,0.5163388848304749
198.0,1.0673876478283355,-0.9336918562828612,1.6504788320430586,0.48038256637703824,0.3433014298152365,0.0,-0.032441817224025726,1.1156353950500488,0.27056607604026794,-0.09646181017160416,-0.8046011328697205,-0.28799179196357727,0.5102674961090088
199.0,1.0734357323094297,-0.9378172527145128,1.64761108797608,0.5302588644060204,0.37736584212138924,0.0,-0.036580756306648254,1.1104423999786377,0.2693009376525879,-0.11115508526563644,-0.8135696649551392,-0.26839950680732727,0.5036969780921936
200.0,1.079483816790524,-0.9419426491461645,1.644743343909101,0.5801351624350044,0.4114302544275431,0.0,-0.04071119427680969,1.1042540073394775,0.268205851316452,-0.12515175342559814,-0.8222344517707825,-0.2482328712940216,0.4966364800930023
201.0,1.0855319012716182,-0.9460680455778162,1.6418755998421224,0.6300114604639866,0.44549466673369587,0.0,-0.0448150560259819,1.0970821380615234,0.2673567533493042,-0.1384318321943283,-0.8305756449699402,-0.22752121090888977,0.4890957474708557
202.0,1.0915799857527126,-0.9501934420094678,1.6390078557751435,0.6798877584929688,0.4795590790398485,0.0,-0.04887237399816513,1.0889453887939453,0.2668282091617584,-0.15097618103027344,-0.8385732173919678,-0.20629465579986572,0.48108571767807007
203.0,1.097628070233807,-0.9543188384411195,1.6361401117081646,0.7297640565219528,0.5136234913460025,0.0,-0.05286116898059845,1.0798680782318115,0.266693651676178,-0.16276724636554718,-0.8462079763412476,-0.1845838576555252,0.47261783480644226
204.0,1.1036761547149012,-0.9584442348727711,1.633272367641186,0.7796403545509349,0.5476879036521554,0.0,-0.05675766244530678,1.0698802471160889,0.267024427652359,-0.17378847301006317,-0.8534606695175171,-0.16242024302482605,0.46370452642440796
205.0,1.1097242391959954,-0.9625696313044227,1.6304046235742073,0.8295166525799171,0.581752315958308,0.0,-0.06053658202290535,1.0590181350708008,0.26788946986198425,-0.1840246468782425,-0.8603130578994751,-0.13983584940433502,0.4543590545654297
206.0,1.1157723236770898,-0.9666950277360745,1.6275368795072285,0.8793929506089011,0.615816728264462,0.0,-0.06417166441679001,1.0473237037658691,0.26935458183288574,-0.19346190989017487,-0.8667469620704651,-0.11686305701732635,0.4445955157279968
207.0,1.1218204081581842,-0.9708204241677261,1.6246691354402498,0.9292692486378833,0.6498811405706146,0.0,-0.06763553619384766,1.0348434448242188,0.2714824080467224,-0.2020876258611679,-0.8727447986602783,-0.09353478997945786,0.43442878127098083
208.0,1.1278684926392786,-0.9749458205993778,1.621801391373271,0.9791455466668673,0.6839455528767686,0.0,-0.0709000676870346,1.0216306447982788,0.27433186769485474,-0.2098904252052307,-0.8782896399497986,-0.06988447904586792,0.42387422919273376
209.0,1.1339165771203727,-0.9790712170310294,1.618933647306292,1.0290218446958495,0.7180099651829215,0.0,-0.07393686473369598,1.0077424049377441,0.2779574990272522,-0.2168605625629425,-0.8833651542663574,-0.04594569653272629,0.4129486083984375
210.0,1.1494676257013248,-0.9861510889391683,1.614495674955645,1.0434506997111463,0.760946821122964,0.0,-0.08017867803573608,1.0000131130218506,0.2763887941837311,-0.21140052378177643,-0.8935078382492065,-0.03690341114997864,0.39445096254348755
211.0,1.1724512680259387,-0.9955417573221322,1.6088295732766456,1.0301548953039963,0.8108231191519479,0.0,-0.0882633775472641,0.9979290962219238,0.27094340324401855,-0.19682712852954865,-0.9070447683334351,-0.04028065502643585,0.37000831961631775
212.0,1.1954349103505517,-1.004932425705096,1.6031634715976462,1.0168590908968467,0.8606994171809301,0.0,-0.09540048241615295,0.9964763522148132,0.2663891315460205,-0.18246403336524963,-0.9195021390914917,-0.04444698989391327,0.3453215956687927
213.0,1.2184185526751647,-1.0143230940880597,1.5974973699186468,1.003563286489697,0.9105757152099123,0.0,-0.10169054567813873,0.9956696629524231,0.2627944350242615,-0.16835318505764008,-0.9308788776397705,-0.049390919506549835,0.32044070959091187
214.0,1.2414021949997784,-1.0237137624710237,1.5918312682396474,0.9902674820825471,0.9604520132388963,0.0,-0.10723555088043213,0.9955125451087952,0.2602221965789795,-0.15453580021858215,-0.9411761164665222,-0.05509885028004646,0.2954154312610626
215.0,1.2643858373243915,-1.0331044308539874,1.586165166560648,0.9769716776753975,1.0103283112678785,0.0,-0.11213833093643188,0.9959971308708191,0.258730411529541,-0.1410522609949112,-0.9503975510597229,-0.061555344611406326,0.27029526233673096
216.0,1.2873694796490045,-1.042495099236951,1.5804990648816486,0.9636758732682479,1.0602046092968607,0.0,-0.11650057137012482,0.9971047639846802,0.2583703398704529,-0.12794236838817596,-0.958549439907074,-0.06874256581068039,0.2451290488243103
217.0,1.3103531219736184,-1.0518857676199151,1.5748329632026492,0.9503800688610978,1.1100809073258446,0.0,-0.1204223558306694,0.9988059401512146,0.25918716192245483,-0.11524487286806107,-0.9656397700309753,-0.07664063572883606,0.21996502578258514
218.0,1.3333367642982314,-1.0612764360028788,1.5691668615236498,0.9370842644539482,1.1599572053548268,0.0,-0.12400127947330475,1.001062035560608,0.26121941208839417,-0.10299761593341827,-0.9716793894767761,-0.085227832198143,0.1948508769273758
219.0,1.3563204066228445,-1.0706671043858424,1.5635007598446504,0.9237884600467987,1.209833503383809,0.0,-0.1273314505815506,1.0038244724273682,0.2644987106323242,-0.09123709052801132,-0.9766809940338135,-0.09448035061359406,0.16983327269554138
220.0,1.3793040489474584,-1.0800577727688065,1.557834658165651,0.9104926556396487,1.259709801412793,0.0,-0.13050243258476257,1.0070358514785767,0.26904961466789246,-0.07999879866838455,-0.9806598424911499,-0.1043725311756134,0.14495806396007538
221.0,1.4022876912720714,-1.0894484411517702,1.5521685564866516,0.897196851232499,1.3095860994417752,0.0,-0.1335986703634262,1.01063072681427,0.27488967776298523,-0.06931675225496292,-0.9836328625679016,-0.11487684398889542,0.12027009576559067
222.0,1.4252713335966845,-1.0988391095347338,1.5465024548076522,0.8839010468253494,1.3594623974707574,0.0,-0.13669873774051666,1.0145366191864014,0.28202933073043823,-0.05922365188598633,-0.9856193661689758,-0.12596409022808075,0.09581296890974045
223.0,1.4482549759212984,-1.108229777917698,1.5408363531286529,0.8706052424181994,1.4093386954997413,0.0,-0.1398746222257614,1.0186747312545776,0.2904709577560425,-0.0497506782412529,-0.986640453338623,-0.13760320842266083,0.0716291069984436
224.0,1.4712386182459114,-1.1176204463006616,1.5351702514496535,0.8573094380110498,1.4592149935287235,0.0,-0.1431916058063507,1.022960901260376,0.30021023750305176,-0.04092727601528168,-0.9867194890975952,-0.14976178109645844,0.04775964841246605
225.0,1.4942222605705244,-1.1270111146836252,1.529504149770654,0.8440136336039001,1.5090912915577057,0.0,-0.1467072069644928,1.0273054838180542,0.31123536825180054,-0.03278136998414993,-0.9858813285827637,-0.16240546107292175,0.024244287982583046
226.0,1.5131136898888151,-1.1384442731441367,1.531797050684407,0.8288916708760995,1.551428369541821,0.0,-0.14945703744888306,1.0274317264556885,0.3203889727592468,-0.02672071009874344,-0.9844449758529663,-0.17358988523483276,0.004533188883215189
227.0,1.5119840182112707,-1.1618954714398568,1.5816733487133892,0.8025319619427864,1.550572346449371,0.0,-0.15016184747219086,1.0015677213668823,0.3109647333621979,-0.027202993631362915,-0.9844334125518799,-0.1735718846321106,0.004857433959841728
228.0,1.5178944272439514,-1.1850407718706966,1.6315496467423714,0.7756654568202315,1.552695222633315,0.0,-0.15665759146213531,0.9741463661193848,0.3009880781173706,-0.024476971477270126,-0.984502911567688,-0.1735975593328476,0.0043234797194600105
229.0,1.5064448764008282,-1.1715881058304782,1.6018022141794503,0.7922134154595737,1.5486505273140148,0.0,-0.14605557918548584,0.9915819764137268,0.3073376715183258,-0.02976345084607601,-0.9843598008155823,-0.1735554039478302,0.005324590485543013
230.0,1.5000973181349415,-1.1484125189107592,1.5519259161504682,0.8190366563007493,1.5465817414584735,0.0,-0.13871334493160248,1.0186156034469604,0.31716975569725037,-0.0327090360224247,-0.9842654466629028,-0.17354504764080048,0.005794084630906582
231.0,1.494370112586069,-1.1475880386380373,1.5496888824736068,0.8205720669735087,1.5446863429332935,0.0,-0.13353504240512848,1.0204403400421143,0.3178443908691406,-0.035364121198654175,-0.9841729998588562,-0.17353403568267822,0.006232258398085833
232.0,1.4885289589094668,-1.1712500573349347,1.5995651805025908,0.7945057714781821,1.542693916809546,0.0,-0.1305180937051773,0.9948872923851013,0.3085438311100006,-0.03806694969534874,-0.9840719699859619,-0.17351683974266052,0.006708883214741945
233.0,1.4751874063552022,-1.1576340866509618,1.5696527978966497,0.8111838509050836,1.5381469674861543,0.0,-0.11751565337181091,1.012084722518921,0.3148035705089569,-0.044240523129701614,-0.9838138222694397,-0.17347101867198944,0.0077974144369363785
234.0,1.4551390600802296,-1.1688308670135261,1.592206441759835,0.8005074780376517,1.5313239937357752,0.0,-0.10127928853034973,1.0020908117294312,0.3111661970615387,-0.05351773276925087,-0.9833529591560364,-0.17338956892490387,0.00943320244550705
235.0,1.4400989055855002,-1.162592077997037,1.5782283694308674,0.8088418402202343,1.5262146575821351,0.0,-0.08725477755069733,1.0106619596481323,0.3142862915992737,-0.06047758087515831,-0.9829493761062622,-0.17331832647323608,0.010660374537110329
236.0,1.4222776885651394,-1.1653668476298868,1.583424995782563,0.8072190627128798,1.5201721479655639,0.0,-0.07203444093465805,1.009155511856079,0.31373828649520874,-0.06872453540563583,-0.9824072122573853,-0.17322257161140442,0.012114462442696095
237.0,1.4049850805668602,-1.16626575105739,1.584864040259479,0.8075511549989794,1.514322245235832,0.0,-0.057021718472242355,1.0093640089035034,0.31381428241729736,-0.07672706991434097,-0.9818146228790283,-0.17311815917491913,0.013525528833270073
238.0,1.389982233075054,-1.1609115450042924,1.5733107978848615,0.8145846563773935,1.5092591843947771,0.0,-0.042782966047525406,1.016039252281189,0.3162439167499542,-0.08367013186216354,-0.9812474250793457,-0.17301802337169647,0.014749741181731224
239.0,1.3811468315529212,-1.179299685731592,1.6231870959138441,0.7836173960301812,1.506280861286919,0.0,-0.039530638605356216,0.9926684498786926,0.30163145065307617,-0.08775877952575684,-0.9808897972106934,-0.17295722663402557,0.015471613965928555
240.0,1.372401616149146,-1.192204638805502,1.673063393942827,0.7471666357634968,1.5033322974106753,0.0,-0.036416616290807724,0.9710745215415955,0.281779944896698,-0.09180478006601334,-0.9805172085762024,-0.17290374636650085,0.016187630593776703
241.0,1.3786114077082008,-1.2021681818961452,1.7111224192779468,0.7187440991880376,1.5054339709501239,0.0,-0.04500168561935425,0.9534329175949097,0.26684141159057617,-0.08893357962369919,-0.9807872772216797,-0.17291957139968872,0.015677377581596375
242.0,1.428487705737183,-1.2023136351555368,1.7129059959496626,0.7144669759683132,1.5222857710332185,0.0,-0.08593740314245224,0.949602484703064,0.2654450535774231,-0.06585291773080826,-0.982610285282135,-0.1732216328382492,0.01160568930208683
243.0,1.4753102241060856,-1.1987109847257387,1.7081747080158702,0.711710380446327,1.5380511965382038,0.0,-0.12372347712516785,0.948942244052887,0.264737993478775,-0.04414709657430649,-0.9836412668228149,-0.17447009682655334,0.007804612163454294
244.0,1.475312459979303,-1.2085974670947621,1.733887664459638,0.6618340824173448,1.5357160107491743,0.0,-0.12456955015659332,0.9496359825134277,0.2574758529663086,-0.043500881642103195,-0.9805460572242737,-0.1912366896867752,0.008100183680653572
245.0,1.4753146958525203,-1.2184839494637854,1.7596006209034056,0.6119577843883626,1.5333808249601446,0.0,-0.12543344497680664,0.9501427412033081,0.2507137656211853,-0.04280305281281471,-0.9771671295166016,-0.2079465240240097,0.008385892026126385
246.0,1.4753169317257377,-1.228370431832809,1.7853135773471744,0.5620814863593786,1.5310456391711151,0.0,-0.12631642818450928,0.9504483342170715,0.24445369839668274,-0.042053982615470886,-0.9735057950019836,-0.22459469735622406,0.008660988882184029
247.0,1.475319167598955,-1.2382569142018325,1.8110265337909421,0.5122051883303964,1.5287104533820854,0.0,-0.12722007930278778,0.9505382776260376,0.23869697749614716,-0.04125392809510231,-0.9695629477500916,-0.2411763221025467,0.00892475713044405
248.0,1.4753214034721724,-1.2481433965708557,1.8367394902347098,0.4623288903014142,1.526375267593056,0.0,-0.12814563512802124,0.9503985643386841,0.233443945646286,-0.04040335491299629,-0.9653397798538208,-0.25768643617630005,0.009176449850201607
249.0,1.4753236393453897,-1.2580298789398794,1.8624524466784784,0.41245259227243025,1.5240400818040263,0.0,-0.12909449636936188,0.9500147700309753,0.2286951243877411,-0.039502665400505066,-0.9608376026153564,-0.2741202414035797,0.009415346197783947
250.0,1.475325875218607,-1.2679163613089028,1.8881654031222461,0.36257629424344806,1.5217048960149968,0.0,-0.13006781041622162,0.9493731260299683,0.22444948554039001,-0.03855236619710922,-0.9560577273368835,-0.2904726564884186,0.009640717878937721
251.0,1.4753281110918244,-1.277802843677926,1.9138783595660138,0.31269999621446587,1.5193697102259673,0.0,-0.1310672163963318,0.9484593868255615,0.2207062989473343,-0.03755281865596771,-0.9510015249252319,-0.30673906207084656,0.009851868264377117
252.0,1.4753303469650416,-1.2876893260469497,1.9395913160097824,0.2628236981854819,1.5170345244369376,0.0,-0.13209380209445953,0.9472603797912598,0.21746356785297394,-0.03650456666946411,-0.9456704258918762,-0.32291460037231445,0.010048085823655128
253.0,1.475332582838259,-1.297575808415973,1.96530427245355,0.2129474001564997,1.5146993386479082,0.0,-0.1331489086151123,0.9457622170448303,0.21471937000751495,-0.0354081355035305,-0.9400661587715149,-0.33899447321891785,0.010228675790131092
254.0,1.4753348187114763,-1.3074622907849964,1.9910172288973178,0.16307110212751752,1.5123641528588785,0.0,-0.13423368334770203,0.9439516067504883,0.2124703973531723,-0.034264128655195236,-0.9341901540756226,-0.3549739420413971,0.01039292011409998
255.0,1.4753370545846936,-1.31734877315402,2.0167301853410864,0.11319480409853355,1.510028967069849,0.0,-0.1353496015071869,0.9418156147003174,0.21071366965770721,-0.033073004335165024,-0.9280445575714111,-0.37084829807281494,0.010540192946791649
256.0,1.475339290457911,-1.3272352555230433,2.042443141784854,0.06331850606955136,1.5076937812808193,0.0,-0.13649776577949524,0.9393413066864014,0.209445059299469,-0.0318354070186615,-0.9216307401657104,-0.3866128623485565,0.010669791139662266
257.0,1.4753415263311283,-1.3371217378920668,2.068156098228622,0.01344220804056917,1.5053585954917899,0.0,-0.13767942786216736,0.9365159869194031,0.20866000652313232,-0.030551960691809654,-0.9149507880210876,-0.4022628664970398,0.0107810627669096
258.0,1.4753437622043457,-1.3470082202610905,2.093869054672391,-0.0364340899884148,1.5030234097027602,0.0,-0.13889557123184204,0.9333276152610779,0.20835350453853607,-0.029223358258605003,-0.9080065488815308,-0.4177938401699066,0.010873324237763882
259.0,1.475345998077563,-1.3568947026301137,2.119582011116158,-0.08631038801739699,1.5006882239137307,0.0,-0.1401476114988327,0.9297637343406677,0.20851989090442657,-0.027850177139043808,-0.900800347328186,-0.4332011342048645,0.010945984162390232
260.0,1.4753482339507804,-1.366781184999137,2.145294967559926,-0.13618668604637918,1.4983530381247012,0.0,-0.14143653213977814,0.9258129596710205,0.20915327966213226,-0.02643313631415367,-0.8933340311050415,-0.44848018884658813,0.010998397134244442
261.0,1.4753504698239976,-1.3766676673681606,2.171007924003695,-0.18606298407536315,1.4960178523356715,0.0,-0.14276345074176788,0.9214637279510498,0.21024657785892487,-0.02497297339141369,-0.885610044002533,-0.46362653374671936,0.01102993544191122
262.0,1.4753527056972149,-1.386554149737184,2.1967208804474625,-0.23593928210434534,1.493682666546642,0.0,-0.14412935078144073,0.9167048931121826,0.2117931991815567,-0.02347041852772236,-0.8776304125785828,-0.47863563895225525,0.011039979755878448
263.0,1.4753549415704323,-1.3964406321062073,2.22243383689123,-0.28581558013332753,1.4913474807576124,0.0,-0.14553523063659668,0.9115259647369385,0.21378518640995026,-0.021926267072558403,-0.8693976402282715,-0.4935031235218048,0.0110279256477952
264.0,1.4753571774436496,-1.406327114475231,2.248146793334999,-0.3356918781623115,1.489012294968583,0.0,-0.14698220789432526,0.9059164524078369,0.21621422469615936,-0.020341211929917336,-0.8609141111373901,-0.5082246661186218,0.0109932292252779
265.0,1.475359413316867,-1.4162135968442544,2.2738597497787665,-0.3855681761912937,1.4866771091795532,0.0,-0.1484711766242981,0.8998662829399109,0.219072163105011,-0.018716104328632355,-0.8521822094917297,-0.5227957963943481,0.010935290716588497
266.0,1.4753616491900843,-1.4261000792132776,2.299572706222534,-0.4354444742202759,1.4843419233905237,0.0,-0.15000295639038086,0.8933659791946411,0.222349613904953,-0.017051808536052704,-0.8432048559188843,-0.5372121930122375,0.010853501968085766
