Sungjin-Park-dev/lg_sgu_vision_v2/data/sample/trajectory/124/trajectory_-01_105_0095.csv
time,shoulder_pan_joint,shoulder_lift_joint,elbow_joint,wrist_1_joint,wrist_2_joint,wrist_3_joint,target-POS_X,target-POS_Y,target-POS_Z,target-ROT_X,target-ROT_Y,target-ROT_Z,target-ROT_W
0.0,-4.71238899230957,-1.5707963705062866,1.0471975803375244,-1.5707963705062866,-1.5707963705062866,0.0,-0.2010798156261444,0.963180422782898,1.2060223817825317,-0.9659258723258972,-9.036605774781492e-08,2.4157825961879098e-08,0.258819043636322
1.0,-4.71238899230957,-1.5707963705062866,1.0471975803375244,-1.5707963705062866,-1.5707963705062866,0.0,-0.2010798156261444,0.963180422782898,1.2060223817825317,-0.9659258723258972,-9.036605774781492e-08,2.4157825961879098e-08,0.258819043636322
2.0,-4.7117719650268555,-1.5673391819000244,1.0480259656906128,-1.5668470859527588,-1.5748945474624634,0.0,-0.20008443295955658,0.9654668569564819,1.2005858421325684,-0.9669814705848694,0.0002236767759313807,-0.0019027430098503828,0.25483983755111694
3.0,-4.710273265838623,-1.560263752937317,1.0496879816055298,-1.5587626695632935,-1.5833271741867065,0.0,-0.1982668936252594,0.9699854850769043,1.1895112991333008,-0.9690746068954468,0.000520421948749572,-0.0058106365613639355,0.24669910967350006
4.0,-4.707738399505615,-1.5495774745941162,1.0521235466003418,-1.546537160873413,-1.5961616039276123,0.0,-0.19577498733997345,0.9764713644981384,1.1729094982147217,-0.9720672965049744,0.0007121702656149864,-0.011783837340772152,0.23440541326999664
5.0,-4.703996658325195,-1.5353658199310303,1.0552453994750977,-1.5302702188491821,-1.6134045124053955,0.0,-0.19280923902988434,0.9845194816589355,1.1510624885559082,-0.9757311344146729,0.0005501617561094463,-0.019874989986419678,0.218067467212677
6.0,-4.698882102966309,-1.5177757740020752,1.0589582920074463,-1.5101104974746704,-1.6350550651550293,0.0,-0.1895829141139984,0.993622362613678,1.1243855953216553,-0.9797664284706116,-0.00026427782722748816,-0.030153796076774597,0.19785980880260468
7.0,-4.692351341247559,-1.4970422983169556,1.0631662607192993,-1.4862138032913208,-1.6611117124557495,0.0,-0.18619553744792938,1.003200650215149,1.0934412479400635,-0.9838133454322815,-0.0020127142779529095,-0.04271421208977699,0.17401990294456482
8.0,-4.684164047241211,-1.4727783203125,1.067870855331421,-1.4581658840179443,-1.692244529724121,0.0,-0.18269746005535126,1.0129852294921875,1.0580188035964966,-0.9875436425209045,-0.005099789705127478,-0.05798262730240822,0.14618340134620667
9.0,-4.6744866371154785,-1.4455084800720215,1.0729501247406006,-1.4268018007278442,-1.7278951406478882,0.0,-0.1791999191045761,1.0224270820617676,1.019327998161316,-0.9904054403305054,-0.009822060354053974,-0.07578842341899872,0.11513867229223251
10.0,-4.663385391235352,-1.4156745672225952,1.0783419609069824,-1.3927686214447021,-1.767519474029541,0.0,-0.17590230703353882,1.031125783920288,0.9783944487571716,-0.9919048547744751,-0.016492201015353203,-0.09592220187187195,0.08155812323093414
11.0,-4.650993347167969,-1.3835400342941284,1.0840153694152832,-1.3563874959945679,-1.8108062744140625,0.0,-0.17284153401851654,1.0388705730438232,0.9359650611877441,-0.9915981888771057,-0.02535371296107769,-0.11825582385063171,0.04589035362005234
12.0,-4.637453556060791,-1.349348545074463,1.0899430513381958,-1.3178627490997314,-1.857469916343689,0.0,-0.17003339529037476,1.045562744140625,0.8927290439605713,-0.9890624284744263,-0.03661281242966652,-0.1426253467798233,0.008551317267119884
13.0,-4.622915744781494,-1.313378095626831,1.096097469329834,-1.2773966789245605,-1.9072093963623047,0.0,-0.16749677062034607,1.0512199401855469,0.849374532699585,0.9839021563529968,0.05042240023612976,0.1688033938407898,0.0299940574914217
14.0,-4.607562065124512,-1.2759777307510376,1.1024500131607056,-1.2352906465530396,-1.9596868753433228,0.0,-0.16524630784988403,1.0559948682785034,0.8066025972366333,0.9757771492004395,0.06684397161006927,0.1964828222990036,0.06917709857225418
15.0,-4.591502666473389,-1.2373244762420654,1.1089967489242554,-1.191637396812439,-2.0149471759796143,0.0,-0.16326504945755005,1.0601890087127686,0.7648440599441528,0.9643495678901672,0.08596095442771912,0.2254960685968399,0.10859213024377823
16.0,-4.574855327606201,-1.197662591934204,1.1156797409057617,-1.1464159488677979,-2.0725209712982178,0.0,-0.16173653304576874,1.064092755317688,0.7244568467140198,0.9493756294250488,0.10777989029884338,0.25537195801734924,0.14783334732055664
17.0,-4.557854175567627,-1.157426357269287,1.1224486827850342,-1.0998121500015259,-2.1316332817077637,0.0,-0.1608365774154663,1.0680007934570312,0.6858103275299072,0.9307758808135986,0.13209860026836395,0.2854437530040741,0.18635500967502594
18.0,-4.54062032699585,-1.116803765296936,1.129271149635315,-1.052049994468689,-2.1916120052337646,0.0,-0.16084015369415283,1.0722906589508057,0.6488403081893921,0.9085542559623718,0.15869808197021484,0.3150900602340698,0.223746657371521
19.0,-4.523288726806641,-1.076007604598999,1.1360983848571777,-1.0034793615341187,-2.2517104148864746,0.0,-0.16201317310333252,1.0772658586502075,0.6133517622947693,0.8828677535057068,0.18722885847091675,0.3436640202999115,0.25958627462387085
20.0,-4.505955219268799,-1.035205602645874,1.1428683996200562,-0.9545654058456421,-2.311145544052124,0.0,-0.16463562846183777,1.083115577697754,0.5789718627929688,0.8540228605270386,0.217253640294075,0.37055015563964844,0.29349344968795776
21.0,-4.488653659820557,-0.9944794774055481,1.1495192050933838,-0.9058334231376648,-2.3691372871398926,0.0,-0.16898061335086823,1.0898691415786743,0.5451531410217285,0.8224432468414307,0.24828672409057617,0.3952149748802185,0.32518622279167175
22.0,-4.471563339233398,-0.9541744589805603,1.1560029983520508,-0.8577180504798889,-2.424697160720825,0.0,-0.17507398128509521,1.0972063541412354,0.5115965604782104,0.7887603640556335,0.2796645164489746,0.41712048649787903,0.35447919368743896
23.0,-4.45475959777832,-0.9147727489471436,1.1622225046157837,-0.8110473155975342,-2.4767184257507324,0.0,-0.18295708298683167,1.1046767234802246,0.47820812463760376,0.7538720369338989,0.31060680747032166,0.4358632266521454,0.3810822665691376
24.0,-4.43834924697876,-0.8768001198768616,1.1681299209594727,-0.7664898633956909,-2.524782657623291,0.0,-0.19237345457077026,1.1118640899658203,0.44517868757247925,0.7186074256896973,0.34046316146850586,0.4514515995979309,0.4048205316066742
25.0,-4.422377586364746,-0.8406749963760376,1.1736468076705933,-0.7247205972671509,-2.5685625076293945,0.0,-0.20307359099388123,1.1184083223342896,0.41275450587272644,0.6837998032569885,0.36867573857307434,0.4640568494796753,0.4256140887737274
26.0,-4.406941890716553,-0.8067692518234253,1.1787128448486328,-0.6862342357635498,-2.6079463958740234,0.0,-0.21468913555145264,1.124040126800537,0.3813033998012543,0.6501907706260681,0.39481469988822937,0.4739920198917389,0.44351446628570557
27.0,-4.392202854156494,-0.7754574418067932,1.1832808256149292,-0.6515295505523682,-2.6429176330566406,0.0,-0.22677937150001526,1.1286240816116333,0.35130396485328674,0.618496835231781,0.41852647066116333,0.48164352774620056,0.45860329270362854
28.0,-4.378355503082275,-0.7471358776092529,1.1873100996017456,-0.6211274266242981,-2.673471450805664,0.0,-0.2388942688703537,1.1321420669555664,0.3233237564563751,0.5894249677658081,0.43952229619026184,0.4874304234981537,0.4709671139717102
29.0,-4.365583896636963,-0.7223334908485413,1.1907464265823364,-0.5952944159507751,-2.699432134628296,0.0,-0.2506331205368042,1.1345676183700562,0.29816025495529175,0.5636565089225769,0.45756372809410095,0.49172690510749817,0.48076146841049194
30.0,-4.354336738586426,-0.7020176649093628,1.193494200706482,-0.5745474696159363,-2.720289945602417,0.0,-0.26136231422424316,1.1359658241271973,0.27711784839630127,0.5422078967094421,0.47220444679260254,0.49484074115753174,0.4880227744579315
31.0,-4.344858646392822,-0.6858053207397461,1.1956382989883423,-0.5582094192504883,-2.7367241382598877,0.0,-0.27061566710472107,1.1366708278656006,0.2600594460964203,0.5248552560806274,0.48378822207450867,0.4970826208591461,0.4933405816555023
32.0,-4.337512493133545,-0.6738993525505066,1.1971800327301025,-0.5462782979011536,-2.7487354278564453,0.0,-0.2779054343700409,1.1369256973266602,0.24739325046539307,0.5119256973266602,0.49227410554885864,0.49862968921661377,0.4969574809074402
33.0,-4.332648277282715,-0.6663597822189331,1.1981306076049805,-0.5387390851974487,-2.756336212158203,0.0,-0.28278660774230957,1.1369633674621582,0.23931856453418732,0.5036405324935913,0.4976502060890198,0.4995822310447693,0.4991074800491333
34.0,-4.33046293258667,-0.6630730628967285,1.1985312700271606,-0.5354584455490112,-2.7596497535705566,0.0,-0.284994900226593,1.1369494199752808,0.23578856885433197,0.5000044107437134,0.49999579787254333,0.4999959170818329,0.5000040531158447
35.0,-4.33046293258667,-0.6630730628967285,1.1985312700271606,-0.5354584455490112,-2.7596497535705566,0.0,-0.284994900226593,1.1369494199752808,0.23578856885433197,0.5000044107437134,0.49999579787254333,0.4999959170818329,0.5000040531158447
36.0,-4.329905033111572,-0.664679229259491,1.2024024724960327,-0.5377271175384521,-2.7590959072113037,0.0,-0.2849961817264557,1.1350014209747314,0.2354600429534912,0.5000045895576477,0.4999963045120239,0.49999743700027466,0.500001847743988
37.0,-4.329347610473633,-0.6662785410881042,1.206260323524475,-0.5399813652038574,-2.758535623550415,0.0,-0.28499457240104675,1.1330511569976807,0.23513227701187134,0.5000035762786865,0.49999627470970154,0.4999959468841553,0.5000042915344238
38.0,-4.328789710998535,-0.6678804159164429,1.2101154327392578,-0.5422525405883789,-2.7579853534698486,0.0,-0.2849915325641632,1.1311047077178955,0.23480716347694397,0.5000077486038208,0.499995619058609,0.5000004768371582,0.4999963343143463
39.0,-4.328227996826172,-0.6694521903991699,1.2139257192611694,-0.5444585084915161,-2.7574105262756348,0.0,-0.28499412536621094,1.1291557550430298,0.23447883129119873,0.5000003576278687,0.4999968409538269,0.49999260902404785,0.5000103116035461
40.0,-4.327662467956543,-0.6710382699966431,1.2177537679672241,-0.5467215776443481,-2.7568485736846924,0.0,-0.28499701619148254,1.127206563949585,0.23415060341358185,0.5000064373016357,0.49999475479125977,0.499996542930603,0.5000023245811462
41.0,-4.327101707458496,-0.6726182699203491,1.221566915512085,-0.548981249332428,-2.7562832832336426,0.0,-0.28499338030815125,1.1252599954605103,0.23382359743118286,0.5000162124633789,0.4999900162220001,0.499999076128006,0.49999484419822693
42.0,-4.32652473449707,-0.6741842031478882,1.2253525257110596,-0.5511892437934875,-2.7557172775268555,0.0,-0.28500691056251526,1.1233104467391968,0.2335013747215271,0.5000096559524536,0.49999430775642395,0.5000001192092896,0.4999959170818329
43.0,-4.325967311859131,-0.6757398843765259,1.2291395664215088,-0.5534017086029053,-2.75515079498291,0.0,-0.2849943935871124,1.1213624477386475,0.2331668734550476,0.5000056624412537,0.499994695186615,0.49999523162841797,0.5000044107437134
44.0,-4.32539701461792,-0.6772940158843994,1.2329132556915283,-0.5556148886680603,-2.7545878887176514,0.0,-0.28499552607536316,1.1194146871566772,0.23283740878105164,0.5000014901161194,0.4999975264072418,0.499996155500412,0.5000048279762268
45.0,-4.324857234954834,-0.6794264316558838,1.2362247705459595,-0.5568000078201294,-2.754041910171509,0.0,-0.28499260544776917,1.1175615787506104,0.23353791236877441,0.500005304813385,0.49999505281448364,0.49999547004699707,0.5000042915344238
46.0,-4.324324607849121,-0.6807024478912354,1.2397613525390625,-0.5590553879737854,-2.753506898880005,0.0,-0.2849957048892975,1.1157536506652832,0.23299647867679596,0.5000040531158447,0.49999526143074036,0.4999941885471344,0.5000066757202148
47.0,-4.323792934417725,-0.6819655895233154,1.2432770729064941,-0.5613256692886353,-2.7529778480529785,0.0,-0.284999817609787,1.1139575242996216,0.2324490249156952,0.5000093579292297,0.49999338388442993,0.49999725818634033,0.5000001192092896
48.0,-4.323268413543701,-0.6832268834114075,1.2467777729034424,-0.5635281801223755,-2.7524542808532715,0.0,-0.28499171137809753,1.1121593713760376,0.23191770911216736,0.4999968409538269,0.4999988079071045,0.4999924302101135,0.5000120401382446
49.0,-4.322733402252197,-0.6844851970672607,1.2502689361572266,-0.5657787322998047,-2.7519259452819824,0.0,-0.2849964499473572,1.1103647947311401,0.23138126730918884,0.5000009536743164,0.49999797344207764,0.49999648332595825,0.5000045895576477
50.0,-4.322202682495117,-0.6857307553291321,1.2537448406219482,-0.5680177807807922,-2.751389503479004,0.0,-0.28499582409858704,1.1085708141326904,0.23084041476249695,0.5000054836273193,0.49999526143074036,0.4999963343143463,0.5000029802322388
51.0,-4.32166862487793,-0.6869761943817139,1.257218360900879,-0.570246160030365,-2.750854015350342,0.0,-0.2849954664707184,1.106772541999817,0.23030315339565277,0.5000060200691223,0.49999481439590454,0.49999600648880005,0.5000032186508179
52.0,-4.321134567260742,-0.6882098317146301,1.2606736421585083,-0.5724610686302185,-2.7503154277801514,0.0,-0.28499484062194824,1.1049768924713135,0.22976410388946533,0.5000046491622925,0.49999481439590454,0.49999380111694336,0.500006914138794
53.0,-4.3205976486206055,-0.6894382834434509,1.2641171216964722,-0.5746825337409973,-2.749781370162964,0.0,-0.2849971354007721,1.1031855344772339,0.2292250245809555,0.5000063180923462,0.4999944865703583,0.499995619058609,0.5000036954879761
54.0,-4.320058345794678,-0.6906642913818359,1.2675610780715942,-0.5768947601318359,-2.749239921569824,0.0,-0.2849980890750885,1.1013858318328857,0.22868533432483673,0.5000046491622925,0.4999948740005493,0.49999409914016724,0.500006377696991
55.0,-4.319519519805908,-0.6918914914131165,1.2710028886795044,-0.5791085362434387,-2.7487056255340576,0.0,-0.28499579429626465,1.0995869636535645,0.22814889252185822,0.5000033378601074,0.4999960958957672,0.4999952018260956,0.5000054836273193
56.0,-4.318961143493652,-0.693988561630249,1.2742397785186768,-0.5802502632141113,-2.748145580291748,0.0,-0.2849927842617035,1.0977236032485962,0.22884434461593628,0.5000043511390686,0.4999954104423523,0.49999499320983887,0.500005304813385
57.0,-4.318418025970459,-0.6951966881752014,1.2776427268981934,-0.5824617147445679,-2.7475931644439697,0.0,-0.28499680757522583,1.0959302186965942,0.22830542922019958,0.5000123381614685,0.4999907314777374,0.49999502301216125,0.5000019073486328
58.0,-4.317877292633057,-0.6963909268379211,1.281031847000122,-0.5846307277679443,-2.7470688819885254,0.0,-0.28499552607536316,1.0941458940505981,0.22776459157466888,0.49999943375587463,0.4999984800815582,0.49999549984931946,0.5000065565109253
59.0,-4.3173298835754395,-0.6976034045219421,1.2844476699829102,-0.586844265460968,-2.7465150356292725,0.0,-0.28499534726142883,1.0923378467559814,0.22722643613815308,0.5000043511390686,0.49999552965164185,0.4999954104423523,0.5000048279762268
60.0,-4.316783905029297,-0.6987988948822021,1.287833333015442,-0.5890377163887024,-2.7459611892700195,0.0,-0.28499510884284973,1.0905392169952393,0.2266874760389328,0.5000078678131104,0.49999287724494934,0.4999939501285553,0.5000053644180298
61.0,-4.316235542297363,-0.6999892592430115,1.2912105321884155,-0.5912057757377625,-2.745420217514038,0.0,-0.2849951982498169,1.0887426137924194,0.22615142166614532,0.499999463558197,0.49999743700027466,0.49999314546585083,0.5000099539756775
62.0,-4.315678596496582,-0.7011784315109253,1.2945771217346191,-0.5933899283409119,-2.744873285293579,0.0,-0.2850043475627899,1.0869457721710205,0.22561749815940857,0.49999913573265076,0.499999076128006,0.4999965727329254,0.5000053644180298
63.0,-4.315133094787598,-0.7023597359657288,1.2979434728622437,-0.5956029891967773,-2.7443172931671143,0.0,-0.28499940037727356,1.0851497650146484,0.22507208585739136,0.5000113844871521,0.4999924600124359,0.4999978244304657,0.4999984800815582
64.0,-4.314585208892822,-0.7035340666770935,1.3012944459915161,-0.5977778434753418,-2.743770122528076,0.0,-0.2849949896335602,1.0833559036254883,0.22453230619430542,0.5000104308128357,0.49999305605888367,0.49999764561653137,0.4999990165233612
65.0,-4.314030170440674,-0.7046960592269897,1.3046307563781738,-0.5999249815940857,-2.7432122230529785,0.0,-0.28499650955200195,1.081555962562561,0.22399123013019562,0.5000021457672119,0.49999597668647766,0.499993234872818,0.5000088214874268
66.0,-4.313475608825684,-0.7058672904968262,1.3079663515090942,-0.6021124124526978,-2.7426581382751465,0.0,-0.2849971354007721,1.079761028289795,0.22345560789108276,0.5000097155570984,0.4999929368495941,0.49999651312828064,0.5000008940696716
67.0,-4.312900543212891,-0.7079225778579712,1.3111035823822021,-0.6031907796859741,-2.74208664894104,0.0,-0.2849965989589691,1.0779026746749878,0.22415383160114288,0.5000075101852417,0.4999944269657135,0.49999693036079407,0.5000011920928955
68.0,-4.312341213226318,-0.7090802788734436,1.3144267797470093,-0.6053580045700073,-2.741530179977417,0.0,-0.2849973142147064,1.0761035680770874,0.22361299395561218,0.5000075101852417,0.49999481439590454,0.49999791383743286,0.4999999403953552
69.0,-4.311784744262695,-0.7102207541465759,1.3177242279052734,-0.6074903011322021,-2.7409632205963135,0.0,-0.2849954068660736,1.0743063688278198,0.2230709046125412,0.5000017881393433,0.499995619058609,0.49999186396598816,0.5000108480453491
70.0,-4.311216831207275,-0.7113615274429321,1.3210142850875854,-0.6096323728561401,-2.7404067516326904,0.0,-0.2850051522254944,1.0725122690200806,0.2225324958562851,0.49999669194221497,0.49999937415122986,0.4999938905239105,0.5000101923942566
71.0,-4.310661792755127,-0.7125144600868225,1.3243225812911987,-0.6118041276931763,-2.7398459911346436,0.0,-0.2849952280521393,1.0707118511199951,0.2219955325126648,0.5000033974647522,0.4999958276748657,0.499994695186615,0.5000062584877014
72.0,-4.3100972175598145,-0.7136437296867371,1.3275973796844482,-0.6139300465583801,-2.739283323287964,0.0,-0.2849968373775482,1.0689162015914917,0.22145581245422363,0.4999964237213135,0.49999886751174927,0.4999924302101135,0.5000123381614685
73.0,-4.309536933898926,-0.7147881388664246,1.3308957815170288,-0.6161271929740906,-2.7387161254882812,0.0,-0.28498995304107666,1.0671149492263794,0.22091275453567505,0.5000126957893372,0.4999912977218628,0.4999966025352478,0.4999995827674866
74.0,-4.308969020843506,-0.7159075140953064,1.3341460227966309,-0.6182453036308289,-2.738147020339966,0.0,-0.28499409556388855,1.0653210878372192,0.22037680447101593,0.5000087022781372,0.4999927282333374,0.4999946355819702,0.5000039935112
75.0,-4.30839729309082,-0.7170363068580627,1.3374134302139282,-0.6203882694244385,-2.7375879287719727,0.0,-0.2849964201450348,1.0635225772857666,0.21984092891216278,0.5000069737434387,0.49999526143074036,0.4999982416629791,0.4999994933605194
76.0,-4.307828903198242,-0.7181414365768433,1.340647578239441,-0.6225051283836365,-2.737013101577759,0.0,-0.2849980890750885,1.0617291927337646,0.21929919719696045,0.5000044107437134,0.4999953508377075,0.49999499320983887,0.500005304813385
77.0,-4.307259559631348,-0.7192499041557312,1.3438843488693237,-0.6246262788772583,-2.736445188522339,0.0,-0.28499704599380493,1.0599348545074463,0.21876026690006256,0.5000017881393433,0.4999966025352478,0.4999943971633911,0.5000072717666626
78.0,-4.306666851043701,-0.7212830781936646,1.346962809562683,-0.625678539276123,-2.7358641624450684,0.0,-0.28499361872673035,1.0580693483352661,0.21945896744728088,0.5000010132789612,0.49999871850013733,0.4999982416629791,0.5000020861625671
79.0,-4.306094646453857,-0.7223769426345825,1.3501677513122559,-0.627801775932312,-2.7352731227874756,0.0,-0.28499695658683777,1.0562772750854492,0.21891888976097107,0.5000098347663879,0.49999234080314636,0.49999526143074036,0.5000025629997253
80.0,-4.305520057678223,-0.7234688997268677,1.3533835411071777,-0.6298815011978149,-2.734703779220581,0.0,-0.2849942445755005,1.0544776916503906,0.21837976574897766,0.4999938905239105,0.49999943375587463,0.49999067187309265,0.5000160336494446
81.0,-4.30495023727417,-0.7245582342147827,1.3565889596939087,-0.6320251226425171,-2.734130620956421,0.0,-0.2849896252155304,1.0526905059814453,0.21783404052257538,0.5000038743019104,0.49999499320983887,0.4999934434890747,0.5000078678131104
82.0,-4.30436897277832,-0.7256615161895752,1.3598065376281738,-0.634157657623291,-2.7335474491119385,0.0,-0.28499099612236023,1.0508850812911987,0.2173008918762207,0.5000105500221252,0.49999213218688965,0.49999547004699707,0.5000020265579224
83.0,-4.303785800933838,-0.7267422676086426,1.3629950284957886,-0.6362462043762207,-2.7329764366149902,0.0,-0.28499457240104675,1.0490902662277222,0.21676386892795563,0.5000008940696716,0.49999773502349854,0.4999958872795105,0.5000056028366089
84.0,-4.303203582763672,-0.7278202176094055,1.3661779165267944,-0.6383558511734009,-2.732388973236084,0.0,-0.2849964499473572,1.047292709350586,0.2162245661020279,0.5000037550926208,0.49999576807022095,0.4999951124191284,0.5000053644180298
85.0,-4.3026227951049805,-0.7288933396339417,1.3693516254425049,-0.6404489874839783,-2.731806755065918,0.0,-0.28499507904052734,1.0454974174499512,0.2156878113746643,0.5000017285346985,0.4999964237213135,0.49999386072158813,0.5000081658363342
86.0,-4.302037239074707,-0.729958176612854,1.3725082874298096,-0.6425459384918213,-2.7312097549438477,0.0,-0.2849997282028198,1.0437017679214478,0.2151499092578888,0.5000061392784119,0.49999290704727173,0.49999165534973145,0.5000093579292297
87.0,-4.301449775695801,-0.7310338616371155,1.37568998336792,-0.6446731090545654,-2.730635404586792,0.0,-0.28499895334243774,1.041903018951416,0.21460971236228943,0.5000102519989014,0.4999932646751404,0.4999977946281433,0.4999988079071045
88.0,-4.300863742828369,-0.7320941090583801,1.37884521484375,-0.6467735767364502,-2.7300503253936768,0.0,-0.2849981188774109,1.0401077270507812,0.21406960487365723,0.5000117421150208,0.49999281764030457,0.49999865889549255,0.49999675154685974
89.0,-4.300253868103027,-0.7340770363807678,1.381822109222412,-0.6477397680282593,-2.7294437885284424,0.0,-0.28499773144721985,1.0382457971572876,0.21476614475250244,0.5000013709068298,0.49999740719795227,0.4999958574771881,0.5000054836273193
90.0,-4.2996649742126465,-0.7351402640342712,1.3849809169769287,-0.6498463749885559,-2.7288615703582764,0.0,-0.28499311208724976,1.0364454984664917,0.21422787010669708,0.5000036954879761,0.4999975264072418,0.4999990165233612,0.49999991059303284
91.0,-4.299072265625,-0.7361770868301392,1.388095498085022,-0.6519253253936768,-2.728256940841675,0.0,-0.2849982678890228,1.0346523523330688,0.21368585526943207,0.5000070333480835,0.4999944269657135,0.49999627470970154,0.500002384185791
92.0,-4.298481464385986,-0.7372217774391174,1.3912196159362793,-0.654005765914917,-2.7276647090911865,0.0,-0.2849957346916199,1.0328571796417236,0.21314910054206848,0.5000078082084656,0.49999386072158813,0.4999959468841553,0.5000025033950806
93.0,-4.297887802124023,-0.7382602095603943,1.3943346738815308,-0.6560835242271423,-2.7270724773406982,0.0,-0.28499504923820496,1.0310630798339844,0.21261131763458252,0.5000078082084656,0.49999406933784485,0.49999645352363586,0.5000017285346985
94.0,-4.297289848327637,-0.7392924427986145,1.3974446058273315,-0.6581572890281677,-2.7264695167541504,0.0,-0.2849968373775482,1.0292631387710571,0.2120710164308548,0.5000077486038208,0.49999338388442993,0.49999475479125977,0.5000042915344238
95.0,-4.296689033508301,-0.7403192520141602,1.4005415439605713,-0.6602283716201782,-2.72587251663208,0.0,-0.28500106930732727,1.0274690389633179,0.21153230965137482,0.5000072121620178,0.499994158744812,0.49999576807022095,0.5000030398368835
96.0,-4.296092510223389,-0.7413426637649536,1.403637409210205,-0.6622904539108276,-2.7252724170684814,0.0,-0.28499752283096313,1.0256716012954712,0.21099291741847992,0.5000044703483582,0.4999946653842926,0.49999353289604187,0.5000074505805969
97.0,-4.295490741729736,-0.7423706650733948,1.4067356586456299,-0.6643704771995544,-2.7246785163879395,0.0,-0.284996896982193,1.0238738059997559,0.210455983877182,0.5000060200691223,0.49999529123306274,0.4999968409538269,0.5000020265579224
98.0,-4.294893741607666,-0.7433857917785645,1.4098234176635742,-0.6664388179779053,-2.7240824699401855,0.0,-0.284989595413208,1.022078037261963,0.20991294085979462,0.5000041723251343,0.499996155500412,0.49999651312828064,0.5000032186508179
99.0,-4.29427433013916,-0.7443917989730835,1.4128878116607666,-0.668508768081665,-2.7234609127044678,0.0,-0.28500810265541077,1.020276665687561,0.20937126874923706,0.5000085234642029,0.4999941289424896,0.49999746680259705,0.49999991059303284
100.0,-4.293655872344971,-0.746354341506958,1.415798306465149,-0.6694592833518982,-2.722831964492798,0.0,-0.2849983274936676,1.0184167623519897,0.21007217466831207,0.5000121593475342,0.4999910593032837,0.4999951124191284,0.5000016689300537
101.0,-4.293049335479736,-0.7473551034927368,1.4188560247421265,-0.6714966893196106,-2.722236156463623,0.0,-0.28499698638916016,1.0166233777999878,0.20953375101089478,0.5000026226043701,0.49999645352363586,0.49999526143074036,0.5000057220458984
102.0,-4.292439937591553,-0.7483482360839844,1.4218978881835938,-0.6735328435897827,-2.7216172218322754,0.0,-0.2849990427494049,1.0148265361785889,0.20899562537670135,0.5000008344650269,0.4999955892562866,0.499991238117218,0.5000123381614685
103.0,-4.291830062866211,-0.7493500709533691,1.424954891204834,-0.6756071448326111,-2.721012830734253,0.0,-0.2849974036216736,1.013029932975769,0.20845553278923035,0.5000060200691223,0.49999457597732544,0.4999951720237732,0.5000043511390686
104.0,-4.291214942932129,-0.7503336071968079,1.4279847145080566,-0.677640438079834,-2.720390558242798,0.0,-0.2850014865398407,1.011231541633606,0.20791517198085785,0.5000032186508179,0.4999944865703583,0.4999915659427643,0.5000107288360596
105.0,-4.2906036376953125,-0.7513278126716614,1.4310276508331299,-0.6796992421150208,-2.7197940349578857,0.0,-0.2849970757961273,1.0094385147094727,0.2073782980442047,0.500002920627594,0.4999968111515045,0.49999648332595825,0.5000037550926208
106.0,-4.2899885177612305,-0.7523073554039001,1.4340471029281616,-0.681742787361145,-2.7191696166992188,0.0,-0.28499847650527954,1.0076419115066528,0.20683932304382324,0.5000067353248596,0.4999939203262329,0.49999475479125977,0.5000045895576477
107.0,-4.289371013641357,-0.7532882690429688,1.4370700120925903,-0.6837817430496216,-2.718555450439453,0.0,-0.28499776124954224,1.0058436393737793,0.20630231499671936,0.5000045895576477,0.4999953508377075,0.4999951720237732,0.5000050663948059
108.0,-4.288748741149902,-0.7542631030082703,1.4400794506072998,-0.6858229041099548,-2.7179319858551025,0.0,-0.2850019335746765,1.0040459632873535,0.20576563477516174,0.5000074505805969,0.49999403953552246,0.49999570846557617,0.500002920627594
109.0,-4.288131237030029,-0.75522780418396,1.4430826902389526,-0.6878542304039001,-2.7173118591308594,0.0,-0.28499916195869446,1.00225031375885,0.20522397756576538,0.5000053644180298,0.4999944269657135,0.4999941289424896,0.5000062584877014
110.0,-4.287511348724365,-0.7561895251274109,1.446073293685913,-0.689879834651947,-2.716693639755249,0.0,-0.28499835729599,1.0004584789276123,0.20468635857105255,0.5000038743019104,0.4999951720237732,0.49999409914016724,0.5000068545341492
111.0,-4.286863327026367,-0.7581239938735962,1.4489238262176514,-0.6907961964607239,-2.716052293777466,0.0,-0.2849985659122467,0.9985942840576172,0.2053837776184082,0.5000022649765015,0.4999968707561493,0.4999958574771881,0.5000050067901611
112.0,-4.28623628616333,-0.7591751217842102,1.451904296875,-0.6927345991134644,-2.7154252529144287,0.0,-0.2849966883659363,0.9967889785766602,0.2049570530653,0.5000055432319641,0.4999956488609314,0.49999701976776123,0.500001847743988
113.0,-4.285606384277344,-0.7602141499519348,1.4548629522323608,-0.6946597695350647,-2.7147867679595947,0.0,-0.284999281167984,0.9949865937232971,0.20452997088432312,0.5000094771385193,0.49999284744262695,0.4999955892562866,0.5000022053718567
114.0,-4.284979820251465,-0.7612435817718506,1.4578157663345337,-0.6965473890304565,-2.714155673980713,0.0,-0.2849942743778229,0.9931833148002625,0.2041022926568985,0.4999985694885254,0.49999624490737915,0.49998992681503296,0.5000154376029968
115.0,-4.284344673156738,-0.7622782588005066,1.4607625007629395,-0.6984850168228149,-2.7135229110717773,0.0,-0.28499966859817505,0.991385817527771,0.20367592573165894,0.5000066161155701,0.49999353289604187,0.4999937415122986,0.5000061392784119
116.0,-4.283709526062012,-0.7633118629455566,1.4637171030044556,-0.7004039287567139,-2.7128942012786865,0.0,-0.28499871492385864,0.9895806312561035,0.20324930548667908,0.5000041127204895,0.49999555945396423,0.49999508261680603,0.5000053644180298
117.0,-4.283074855804443,-0.7643343806266785,1.466652750968933,-0.7023193836212158,-2.712256669998169,0.0,-0.28499871492385864,0.987779974937439,0.2028203308582306,0.5000057816505432,0.4999944269657135,0.4999947249889374,0.5000050663948059
118.0,-4.282439231872559,-0.7653647661209106,1.4695936441421509,-0.7042486667633057,-2.7116212844848633,0.0,-0.284995973110199,0.9859772324562073,0.2023964524269104,0.5000120401382446,0.49999216198921204,0.4999971091747284,0.4999987781047821
119.0,-4.281797409057617,-0.7663858532905579,1.472528338432312,-0.7061468958854675,-2.710975408554077,0.0,-0.2849958837032318,0.9841654300689697,0.20197145640850067,0.5000079870223999,0.49999308586120605,0.49999427795410156,0.500004768371582
120.0,-4.281156063079834,-0.7673918604850769,1.4754422903060913,-0.7080559134483337,-2.7103421688079834,0.0,-0.28499776124954224,0.9823695421218872,0.20153863728046417,0.5000062584877014,0.4999949634075165,0.4999963343143463,0.5000026226043701
121.0,-4.280513286590576,-0.7684065103530884,1.478363037109375,-0.7099621295928955,-2.7096967697143555,0.0,-0.2849961817264557,0.9805625677108765,0.20111356675624847,0.5000069737434387,0.4999942481517792,0.499995619058609,0.5000032186508179
122.0,-4.279860973358154,-0.7694027423858643,1.4812520742416382,-0.7118285298347473,-2.7090420722961426,0.0,-0.28500646352767944,0.978759229183197,0.20068982243537903,0.4999985694885254,0.49999696016311646,0.4999917149543762,0.5000128149986267
123.0,-4.279223442077637,-0.7704100608825684,1.4841595888137817,-0.7137497663497925,-2.7084062099456787,0.0,-0.2849983870983124,0.9769629836082458,0.20026236772537231,0.5000055432319641,0.4999947249889374,0.4999949634075165,0.5000048875808716
124.0,-4.278575420379639,-0.7714026570320129,1.4870390892028809,-0.7156371474266052,-2.7077457904815674,0.0,-0.28500187397003174,0.9751630425453186,0.1998373121023178,0.500008761882782,0.4999915659427643,0.49999186396598816,0.5000079870223999
125.0,-4.277924060821533,-0.7724137306213379,1.489965558052063,-0.7175748944282532,-2.707118034362793,0.0,-0.28499656915664673,0.9733536839485168,0.19940583407878876,0.5000102519989014,0.4999947249889374,0.5000004172325134,0.4999946057796478
126.0,-4.277274131774902,-0.7733819484710693,1.4928072690963745,-0.7194086909294128,-2.7064480781555176,0.0,-0.2850022315979004,0.9715589284896851,0.19898191094398499,0.5000016689300537,0.4999947249889374,0.4999905526638031,0.5000130534172058
127.0,-4.2766194343566895,-0.7743805050849915,1.495703101158142,-0.7213181853294373,-2.705808401107788,0.0,-0.2850000858306885,0.9697534441947937,0.19855648279190063,0.5000020265579224,0.49999693036079407,0.49999579787254333,0.5000052452087402
128.0,-4.275968074798584,-0.7753546833992004,1.498560905456543,-0.7232074737548828,-2.70513916015625,0.0,-0.2850000560283661,0.9679538607597351,0.19812576472759247,0.5000085830688477,0.4999917149543762,0.4999920725822449,0.500007688999176
129.0,-4.275311470031738,-0.7763429880142212,1.5014386177062988,-0.7250967025756836,-2.7044968605041504,0.0,-0.28499680757522583,0.9661499857902527,0.19770245254039764,0.5000049471855164,0.49999529123306274,0.49999555945396423,0.5000041723251343
130.0,-4.2746477127075195,-0.7773143649101257,1.504289984703064,-0.7269617319107056,-2.7038280963897705,0.0,-0.28500282764434814,0.9643430709838867,0.19727766513824463,0.5000008940696716,0.49999597668647766,0.4999924600124359,0.5000106692314148
131.0,-4.273991584777832,-0.7782880663871765,1.5071470737457275,-0.7288671135902405,-2.7031688690185547,0.0,-0.28499937057495117,0.9625433087348938,0.19684745371341705,0.500009298324585,0.4999925196170807,0.4999944865703583,0.5000038743019104
132.0,-4.273334503173828,-0.7792608737945557,1.509994626045227,-0.7307440638542175,-2.7025082111358643,0.0,-0.28499409556388855,0.960742175579071,0.19642582535743713,0.5000109076499939,0.4999912977218628,0.49999380111694336,0.5000040531158447
133.0,-4.272660732269287,-0.7802162170410156,1.5128262042999268,-0.7326168417930603,-2.701852560043335,0.0,-0.28500592708587646,0.9589442610740662,0.1959948092699051,0.500005304813385,0.49999621510505676,0.4999978840351105,0.5000005960464478
134.0,-4.273625373840332,-0.7785164713859558,1.5086220502853394,-0.7295607328414917,-2.701498508453369,0.0,-0.28499865531921387,0.9610373377799988,0.1964019238948822,0.5001511573791504,0.49973270297050476,0.499601811170578,0.500514030456543
135.0,-4.274580955505371,-0.7768136262893677,1.5044162273406982,-0.7265288233757019,-2.701145648956299,0.0,-0.2849966585636139,0.963128924369812,0.19680428504943848,0.5003018975257874,0.4994686543941498,0.49921080470085144,0.5010166168212891
136.0,-4.275536060333252,-0.7750869393348694,1.5001693964004517,-0.7234524488449097,-2.7007789611816406,0.0,-0.28499701619148254,0.9652279019355774,0.19720737636089325,0.5004468560218811,0.49920454621315,0.4988129436969757,0.5015312433242798
137.0,-4.276485919952393,-0.7733615636825562,1.4959166049957275,-0.7203885316848755,-2.700409173965454,0.0,-0.2849985361099243,0.9673254489898682,0.1976134181022644,0.5005976557731628,0.49893826246261597,0.4984174072742462,0.5020386576652527
138.0,-4.277437210083008,-0.7716334462165833,1.4916647672653198,-0.7173195481300354,-2.700040578842163,0.0,-0.28499242663383484,0.9694185853004456,0.1980186104774475,0.5007452368736267,0.4986729919910431,0.4980204999446869,0.5025486946105957
139.0,-4.278379917144775,-0.7698959708213806,1.4873994588851929,-0.7142529487609863,-2.6996774673461914,0.0,-0.2849925756454468,0.9715155959129333,0.1984207183122635,0.5008913278579712,0.4984102249145508,0.4976275861263275,0.5030526518821716
140.0,-4.279322147369385,-0.7681502103805542,1.483115553855896,-0.7111771702766418,-2.6993026733398438,0.0,-0.28499120473861694,0.9736125469207764,0.19882440567016602,0.5010402798652649,0.4981444776058197,0.4972316324710846,0.5035589337348938
141.0,-4.2802605628967285,-0.7663974761962891,1.4788199663162231,-0.7081131935119629,-2.698925495147705,0.0,-0.2849915623664856,0.9757119417190552,0.1992252618074417,0.501194179058075,0.4978768527507782,0.4968374967575073,0.5040590763092041
142.0,-4.281191825866699,-0.7646486759185791,1.4745304584503174,-0.7050221562385559,-2.6985490322113037,0.0,-0.2849900722503662,0.9777982234954834,0.19963373243808746,0.5013360977172852,0.49761465191841125,0.4964417517185211,0.5045665502548218
143.0,-4.282131195068359,-0.7628781795501709,1.4701993465423584,-0.7019293308258057,-2.6981587409973145,0.0,-0.2849847078323364,0.9799003601074219,0.20003797113895416,0.5014894604682922,0.497344434261322,0.4960421919822693,0.5050733685493469
144.0,-4.283065319061279,-0.7611097097396851,1.4658787250518799,-0.6988314986228943,-2.6977808475494385,0.0,-0.2849758267402649,0.9819948673248291,0.20044219493865967,0.5016336441040039,0.4970802962779999,0.495645135641098,0.5055796504020691
145.0,-4.283993721008301,-0.7593286633491516,1.4615306854248047,-0.6957431435585022,-2.6973862648010254,0.0,-0.2849743962287903,0.9840939044952393,0.2008446753025055,0.5017885565757751,0.4968101978302002,0.4952479600906372,0.5060805082321167
146.0,-4.284913063049316,-0.757542073726654,1.457175850868225,-0.6926301717758179,-2.6969947814941406,0.0,-0.28497588634490967,0.9861870408058167,0.2012493908405304,0.5019323229789734,0.4965459108352661,0.4948504865169525,0.5065858960151672
147.0,-4.285833835601807,-0.7557525634765625,1.4528095722198486,-0.6895336508750916,-2.696599245071411,0.0,-0.2849743962287903,0.9882839918136597,0.20165422558784485,0.5020854473114014,0.4962770640850067,0.49445462226867676,0.5070838928222656
148.0,-4.286755084991455,-0.7539436221122742,1.448413372039795,-0.6863923072814941,-2.69618821144104,0.0,-0.28497087955474854,0.9903805255889893,0.2020602822303772,0.5022310018539429,0.4960080683231354,0.49405011534690857,0.5075969696044922
149.0,-4.287667274475098,-0.7521448731422424,1.4440354108810425,-0.6832886338233948,-2.6958048343658447,0.0,-0.2849681079387665,0.992476224899292,0.20246432721614838,0.5023771524429321,0.4957445561885834,0.4936579465866089,0.5080909132957458
150.0,-4.288579940795898,-0.7503249049186707,1.4396212100982666,-0.6801498532295227,-2.695382833480835,0.0,-0.28496605157852173,0.9945674538612366,0.20286843180656433,0.5025259256362915,0.4954735338687897,0.4932533800601959,0.5086009502410889
151.0,-4.289490699768066,-0.7484935522079468,1.4351931810379028,-0.6770432591438293,-2.69498348236084,0.0,-0.28496530652046204,0.9966744184494019,0.20326220989227295,0.5026801228523254,0.49520429968833923,0.4928587079048157,0.5090930461883545
152.0,-4.290401935577393,-0.7466862201690674,1.4307827949523926,-0.6739326119422913,-2.694575786590576,0.0,-0.2849537134170532,0.9987640976905823,0.20367547869682312,0.5028369426727295,0.49493247270584106,0.4924619793891907,0.5095862150192261
153.0,-4.291306018829346,-0.7448365688323975,1.4263279438018799,-0.6707645058631897,-2.694155693054199,0.0,-0.2849505543708801,1.0008578300476074,0.20407411456108093,0.5029764175415039,0.4946657419204712,0.49205660820007324,0.5100988149642944
154.0,-4.292205810546875,-0.7429918646812439,1.421860933303833,-0.6676068305969238,-2.693737268447876,0.0,-0.2849493622779846,1.0029549598693848,0.2044823318719864,0.5031233429908752,0.4943971037864685,0.49165597558021545,0.5106005668640137
155.0,-4.293107986450195,-0.7411525845527649,1.4173998832702637,-0.6645001769065857,-2.693317413330078,0.0,-0.28494179248809814,1.005051612854004,0.20488637685775757,0.5032877326011658,0.4941212236881256,0.4912601411342621,0.5110864043235779
156.0,-4.294008255004883,-0.7392841577529907,1.4129056930541992,-0.661299467086792,-2.692903757095337,0.0,-0.28493207693099976,1.0071494579315186,0.2052907645702362,0.5034199953079224,0.4938580393791199,0.49085500836372375,0.5115994811058044
157.0,-4.294889450073242,-0.7374294996261597,1.4083988666534424,-0.6581649780273438,-2.692471981048584,0.0,-0.2849436104297638,1.009247064590454,0.20570462942123413,0.5035825371742249,0.4935838282108307,0.4904613196849823,0.5120815634727478
158.0,-4.295787334442139,-0.7355493903160095,1.4038912057876587,-0.6550076603889465,-2.6920435428619385,0.0,-0.28493040800094604,1.0113426446914673,0.20609748363494873,0.5037323236465454,0.49331164360046387,0.49005788564682007,0.5125823020935059
159.0,-4.29667854309082,-0.7336645126342773,1.399351716041565,-0.6518241763114929,-2.6916019916534424,0.0,-0.28492429852485657,1.0134400129318237,0.2065042108297348,0.503883957862854,0.493037611246109,0.4896526634693146,0.5130841135978699
160.0,-4.297564506530762,-0.7317774891853333,1.3948166370391846,-0.6486488580703735,-2.6911754608154297,0.0,-0.28491705656051636,1.0155354738235474,0.20690672099590302,0.504030704498291,0.4927683472633362,0.48925256729125977,0.5135799050331116
161.0,-4.298446178436279,-0.729902446269989,1.3902870416641235,-0.6455036997795105,-2.690741539001465,0.0,-0.28490859270095825,1.0176233053207397,0.20731575787067413,0.5041903257369995,0.492493599653244,0.4888557195663452,0.5140644311904907
162.0,-4.299323081970215,-0.7279850840568542,1.385695457458496,-0.6423101425170898,-2.6902968883514404,0.0,-0.284911185503006,1.0197269916534424,0.20771491527557373,0.5043416023254395,0.49222078919410706,0.48845374584198,0.514559268951416
163.0,-4.300206661224365,-0.7260685563087463,1.3811062574386597,-0.6390918493270874,-2.689852476119995,0.0,-0.2848988473415375,1.0218225717544556,0.20811983942985535,0.5044854283332825,0.49194929003715515,0.48804646730422974,0.5150641202926636
164.0,-4.301084518432617,-0.7241479754447937,1.3765027523040771,-0.6358987092971802,-2.6893999576568604,0.0,-0.2848912477493286,1.0239198207855225,0.20852339267730713,0.5046414732933044,0.4916726052761078,0.487642765045166,0.5155577063560486
165.0,-4.301952362060547,-0.7222220301628113,1.3718897104263306,-0.6326934099197388,-2.6889564990997314,0.0,-0.28488898277282715,1.0260157585144043,0.20892822742462158,0.5047897696495056,0.4914016127586365,0.48724234104156494,0.5160490870475769
166.0,-4.302826404571533,-0.7202837467193604,1.3672622442245483,-0.6294739246368408,-2.688518762588501,0.0,-0.2848769724369049,1.028116226196289,0.20932985842227936,0.5049341917037964,0.4911317825317383,0.48684006929397583,0.5165441036224365
167.0,-4.30369234085083,-0.7183391451835632,1.36260986328125,-0.6262689232826233,-2.688047170639038,0.0,-0.28487473726272583,1.0302109718322754,0.20973365008831024,0.5050954222679138,0.4908512234687805,0.4864352345466614,0.5170342922210693
168.0,-4.3045573234558105,-0.7163952589035034,1.3579620122909546,-0.6230457425117493,-2.6876041889190674,0.0,-0.2848649322986603,1.0323063135147095,0.210140660405159,0.5052419900894165,0.49058085680007935,0.4860348105430603,0.517524242401123
169.0,-4.305418968200684,-0.7144269943237305,1.3532745838165283,-0.6198142170906067,-2.6871399879455566,0.0,-0.2848612666130066,1.0344069004058838,0.2105410099029541,0.5053950548171997,0.4903045892715454,0.48563048243522644,0.5180159211158752
170.0,-4.306280612945557,-0.7124687433242798,1.3485972881317139,-0.6165857315063477,-2.686675548553467,0.0,-0.2848493754863739,1.0364971160888672,0.21094822883605957,0.5055486559867859,0.49002790451049805,0.48522597551345825,0.518506646156311
171.0,-4.307136535644531,-0.7104933261871338,1.3438916206359863,-0.6133453845977783,-2.686208724975586,0.0,-0.2848435640335083,1.0385924577713013,0.21135270595550537,0.5057012438774109,0.4897518754005432,0.484822154045105,0.5189961791038513
172.0,-4.307992458343506,-0.7085155248641968,1.339178442955017,-0.6101152300834656,-2.685744047164917,0.0,-0.284833699464798,1.0406885147094727,0.21175681054592133,0.5058581233024597,0.48947426676750183,0.4844202399253845,0.5194801688194275
173.0,-4.308845520019531,-0.706519365310669,1.334437608718872,-0.6068586111068726,-2.6852710247039795,0.0,-0.28482550382614136,1.042785406112671,0.21215882897377014,0.5060102343559265,0.4891972541809082,0.484014630317688,0.5199708342552185
174.0,-4.309698104858398,-0.704521119594574,1.3296855688095093,-0.6035956144332886,-2.6847946643829346,0.0,-0.28481438755989075,1.0448803901672363,0.21256539225578308,0.5061636567115784,0.4889190196990967,0.48360830545425415,0.5204609036445618
175.0,-4.310543537139893,-0.7025015354156494,1.3248971700668335,-0.6003016829490662,-2.6843156814575195,0.0,-0.28481048345565796,1.0469812154769897,0.21297100186347961,0.5063106417655945,0.4886435866355896,0.48320090770721436,0.5209547877311707
176.0,-4.311385154724121,-0.7005046010017395,1.3201426267623901,-0.597038209438324,-2.683852434158325,0.0,-0.28479892015457153,1.0490678548812866,0.21338263154029846,0.5064589977264404,0.4883706569671631,0.48280069231987,0.5214373469352722
177.0,-4.312232494354248,-0.6984551548957825,1.3153274059295654,-0.5937629342079163,-2.6833760738372803,0.0,-0.2847881317138672,1.0511746406555176,0.21376633644104004,0.5066103935241699,0.4880933463573456,0.482394814491272,0.5219254493713379
178.0,-4.313068389892578,-0.6964370012283325,1.3105205297470093,-0.5905020236968994,-2.6828837394714355,0.0,-0.2847828269004822,1.0532644987106323,0.21417900919914246,0.5067750811576843,0.4878098964691162,0.48199230432510376,0.5224022269248962
179.0,-4.313906192779541,-0.6943920254707336,1.3056776523590088,-0.587198793888092,-2.6823935508728027,0.0,-0.28477421402931213,1.0553618669509888,0.21458645164966583,0.5069286227226257,0.48753026127815247,0.48158523440361023,0.5228894352912903
180.0,-4.314742565155029,-0.6923397183418274,1.3008263111114502,-0.5839018225669861,-2.681906223297119,0.0,-0.28476375341415405,1.0574593544006348,0.21498966217041016,0.5070832371711731,0.48725077509880066,0.4811800420284271,0.5233728289604187
181.0,-4.3155717849731445,-0.6902837157249451,1.2959630489349365,-0.580609142780304,-2.6814138889312744,0.0,-0.28475749492645264,1.0595533847808838,0.21539446711540222,0.5072413086891174,0.4869701564311981,0.4807767868041992,0.5238512754440308
182.0,-4.31640625,-0.6882051825523376,1.2910747528076172,-0.577299952507019,-2.680917978286743,0.0,-0.28474414348602295,1.0616518259048462,0.2157890349626541,0.5073963403701782,0.4866887032985687,0.48036903142929077,0.5243363976478577
183.0,-4.317232608795166,-0.6861340999603271,1.28617525100708,-0.5739617943763733,-2.6804308891296387,0.0,-0.2847335934638977,1.0637468099594116,0.21620287001132965,0.5075438618659973,0.48641258478164673,0.47996410727500916,0.5248205065727234
184.0,-4.31806755065918,-0.6840367913246155,1.2812432050704956,-0.570615828037262,-2.6799283027648926,0.0,-0.2847149968147278,1.0658472776412964,0.21660438179969788,0.5076965093612671,0.48613032698631287,0.47955256700515747,0.5253104567527771
185.0,-4.318880081176758,-0.68194180727005,1.2762991189956665,-0.5672892332077026,-2.679415464401245,0.0,-0.28471773862838745,1.06794011592865,0.2170114666223526,0.507857084274292,0.48584672808647156,0.47914811968803406,0.525786280632019
186.0,-4.319706916809082,-0.6798511743545532,1.2713652849197388,-0.5639743208885193,-2.6789193153381348,0.0,-0.28469759225845337,1.0700335502624512,0.217417910695076,0.5080186128616333,0.4855632185935974,0.4787448048591614,0.5262593030929565
187.0,-4.320520401000977,-0.6777238249778748,1.2663787603378296,-0.5605992674827576,-2.678422451019287,0.0,-0.28469258546829224,1.072134256362915,0.2178182452917099,0.5081623792648315,0.48528772592544556,0.47833871841430664,0.5267436504364014
188.0,-4.32133674621582,-0.6755998730659485,1.2613847255706787,-0.5572413802146912,-2.677906036376953,0.0,-0.284682035446167,1.0742278099060059,0.21822409331798553,0.5083205699920654,0.4850030839443207,0.47793036699295044,0.5272238254547119
189.0,-4.322149276733398,-0.6734573841094971,1.2563693523406982,-0.5538597702980042,-2.6774001121520996,0.0,-0.28467169404029846,1.0763251781463623,0.21862348914146423,0.5084680318832397,0.48472437262535095,0.477522611618042,0.527707040309906
190.0,-4.322961807250977,-0.6713255047798157,1.2513507604599,-0.5505165457725525,-2.6768858432769775,0.0,-0.2846584916114807,1.078419804573059,0.21903051435947418,0.5086349248886108,0.48443689942359924,0.47711917757987976,0.5281750559806824
191.0,-4.3237738609313965,-0.6691563725471497,1.246285080909729,-0.5471076369285583,-2.676365613937378,0.0,-0.2846457064151764,1.0805193185806274,0.2194293737411499,0.5087841153144836,0.4841545522212982,0.4767070412635803,0.5286620855331421
192.0,-4.3245768547058105,-0.6670007705688477,1.2412151098251343,-0.5437253713607788,-2.6758384704589844,0.0,-0.28463923931121826,1.0826126337051392,0.2198413610458374,0.5089471936225891,0.48386725783348083,0.47630074620246887,0.529134213924408
193.0,-4.325384616851807,-0.6648368239402771,1.2361494302749634,-0.5403569936752319,-2.6753273010253906,0.0,-0.28462064266204834,1.0847060680389404,0.22024083137512207,0.5091078877449036,0.4835825264453888,0.4758971631526947,0.5296027660369873
194.0,-4.326186180114746,-0.6626567244529724,1.2310434579849243,-0.5369440317153931,-2.6748132705688477,0.0,-0.284608393907547,1.0868037939071655,0.22064882516860962,0.5092606544494629,0.4833010137081146,0.4754916727542877,0.530076801776886
195.0,-4.326984405517578,-0.6604586839675903,1.22591233253479,-0.5335144996643066,-2.6742851734161377,0.0,-0.28459787368774414,1.0888978242874146,0.22105157375335693,0.5094125866889954,0.4830174148082733,0.47508201003074646,0.5305564999580383
196.0,-4.32778263092041,-0.6582560539245605,1.2207635641098022,-0.5300939679145813,-2.6737565994262695,0.0,-0.28458550572395325,1.0909945964813232,0.22145690023899078,0.5095719695091248,0.4827309548854828,0.4746748208999634,0.5310284495353699
197.0,-4.328578472137451,-0.6560359001159668,1.2155886888504028,-0.5266333818435669,-2.6732304096221924,0.0,-0.284572035074234,1.093091368675232,0.22186172008514404,0.5097191333770752,0.4824492931365967,0.4742644727230072,0.531509518623352
198.0,-4.329370021820068,-0.6538193225860596,1.2104136943817139,-0.5232164263725281,-2.6727004051208496,0.0,-0.284559428691864,1.0951844453811646,0.22226399183273315,0.5098820328712463,0.48216167092323303,0.4738599359989166,0.5319748520851135
199.0,-4.330162048339844,-0.6515833735466003,1.205204963684082,-0.5197750926017761,-2.6721677780151367,0.0,-0.2845457196235657,1.0972824096679688,0.2226646989583969,0.5100418925285339,0.4818744361400604,0.47345325350761414,0.5324438214302063
200.0,-4.330953598022461,-0.6493387222290039,1.1999775171279907,-0.5163029432296753,-2.671633005142212,0.0,-0.2845282554626465,1.0993765592575073,0.2230706512928009,0.5101950168609619,0.48158910870552063,0.47304320335388184,0.5329195857048035
201.0,-4.3317389488220215,-0.6470897793769836,1.194729208946228,-0.5128559470176697,-2.671091318130493,0.0,-0.2845169007778168,1.10147225856781,0.2234773486852646,0.5103620290756226,0.48129814863204956,0.4726381301879883,0.5333817601203918
202.0,-4.332522392272949,-0.6448157429695129,1.1894478797912598,-0.5093520283699036,-2.670545816421509,0.0,-0.28450465202331543,1.1035664081573486,0.22388163208961487,0.5105127096176147,0.4810124337673187,0.47222596406936646,0.5338600873947144
203.0,-4.333304405212402,-0.6425401568412781,1.184156060218811,-0.5058677196502686,-2.670008897781372,0.0,-0.2844903767108917,1.1056632995605469,0.22428582608699799,0.5106704235076904,0.4807257354259491,0.47181981801986694,0.5343263745307922
204.0,-4.3340840339660645,-0.6402574777603149,1.1788551807403564,-0.502390444278717,-2.669471025466919,0.0,-0.28447452187538147,1.1077570915222168,0.22468581795692444,0.5108306407928467,0.4804380238056183,0.4714149534702301,0.5347892045974731
205.0,-4.334860801696777,-0.6379420757293701,1.1734938621520996,-0.4988330900669098,-2.668911933898926,0.0,-0.28446319699287415,1.109851360321045,0.22509142756462097,0.5109773278236389,0.48015153408050537,0.4709984064102173,0.535273015499115
206.0,-4.335638999938965,-0.6356387734413147,1.1681320667266846,-0.49534285068511963,-2.668360471725464,0.0,-0.2844476103782654,1.1119506359100342,0.2254992127418518,0.5111489295959473,0.479856938123703,0.4705934226512909,0.5357293486595154
207.0,-4.336414813995361,-0.6333103775978088,1.1627472639083862,-0.49181699752807617,-2.6678121089935303,0.0,-0.2844301164150238,1.1140482425689697,0.2258962094783783,0.5113064646720886,0.47956812381744385,0.4701846241950989,0.5361964702606201
208.0,-4.337184429168701,-0.6309812664985657,1.1573349237442017,-0.4882606565952301,-2.667268991470337,0.0,-0.28441646695137024,1.1161469221115112,0.22631123661994934,0.5114596486091614,0.47928255796432495,0.4697782099246979,0.5366616249084473
209.0,-4.337952136993408,-0.6286365389823914,1.1519103050231934,-0.48472273349761963,-2.6667098999023438,0.0,-0.2844029664993286,1.1182384490966797,0.22671155631542206,0.5116209387779236,0.4789912700653076,0.469370037317276,0.5371249914169312
210.0,-4.338719844818115,-0.6262804269790649,1.1464548110961914,-0.4811723828315735,-2.666149854660034,0.0,-0.2843875288963318,1.1203343868255615,0.22711589932441711,0.5117847919464111,0.4786985516548157,0.46896207332611084,0.5375860333442688
211.0,-4.33948278427124,-0.6239064931869507,1.1409721374511719,-0.4775942265987396,-2.66559100151062,0.0,-0.28437405824661255,1.1224297285079956,0.2275179922580719,0.5119406580924988,0.47840937972068787,0.46855300664901733,0.5380513668060303
212.0,-4.340246677398682,-0.6215189695358276,1.1354565620422363,-0.4739922285079956,-2.6650240421295166,0.0,-0.2843587100505829,1.1245253086090088,0.22792452573776245,0.5120968818664551,0.4781181812286377,0.46814098954200745,0.5385200381278992
213.0,-4.341006755828857,-0.6191360950469971,1.1299471855163574,-0.4704348146915436,-2.6644718647003174,0.0,-0.28434130549430847,1.1266207695007324,0.22832603752613068,0.5122631192207336,0.4778265058994293,0.4677389860153198,0.5389700531959534
214.0,-4.341759204864502,-0.6167181134223938,1.1243847608566284,-0.46680590510368347,-2.6639010906219482,0.0,-0.28433242440223694,1.1287122964859009,0.22872532904148102,0.5124133229255676,0.477538138628006,0.4673270285129547,0.5394399166107178
215.0,-4.342523097991943,-0.6143059134483337,1.118803858757019,-0.46318402886390686,-2.6633405685424805,0.0,-0.28430742025375366,1.1308118104934692,0.22913900017738342,0.5125742554664612,0.4772454798221588,0.46691837906837463,0.5398995876312256
216.0,-4.343283176422119,-0.6118654012680054,1.11318838596344,-0.45954862236976624,-2.662766218185425,0.0,-0.284286230802536,1.1329096555709839,0.22953909635543823,0.5127348899841309,0.47695091366767883,0.46650615334510803,0.5403637290000916
217.0,-4.34403133392334,-0.6094255447387695,1.1075565814971924,-0.45590901374816895,-2.662187099456787,0.0,-0.2842744290828705,1.135000467300415,0.22994890809059143,0.5128977298736572,0.4766562879085541,0.4660972058773041,0.5408217310905457
218.0,-4.34478235244751,-0.6069656014442444,1.1019039154052734,-0.45224857330322266,-2.6616263389587402,0.0,-0.2842550277709961,1.1370960474014282,0.23034928739070892,0.5130500793457031,0.47636809945106506,0.46568945050239563,0.5412822365760803
219.0,-4.345532417297363,-0.6044900417327881,1.0962098836898804,-0.4485929608345032,-2.661034107208252,0.0,-0.2842384874820709,1.139189600944519,0.2307509481906891,0.5132195949554443,0.4760677218437195,0.4652774930000305,0.5417398810386658
220.0,-4.346275329589844,-0.6020053029060364,1.0904940366744995,-0.44490647315979004,-2.660465955734253,0.0,-0.2842242121696472,1.1412867307662964,0.23115786910057068,0.5133753418922424,0.4757777452468872,0.46487104892730713,0.5421957969665527
221.0,-4.347019672393799,-0.5995104908943176,1.0847572088241577,-0.4412269592285156,-2.6598892211914062,0.0,-0.28420665860176086,1.1433814764022827,0.23156215250492096,0.5135391354560852,0.4754827618598938,0.4644641578197479,0.5426480174064636
222.0,-4.347759246826172,-0.5970012545585632,1.0789873600006104,-0.4375208020210266,-2.6593074798583984,0.0,-0.28419172763824463,1.1454746723175049,0.2319706827402115,0.5137000679969788,0.47518840432167053,0.46405595541000366,0.5431026220321655
223.0,-4.348503112792969,-0.5944619178771973,1.0731819868087769,-0.43379873037338257,-2.6587233543395996,0.0,-0.2841707468032837,1.1475719213485718,0.2323637753725052,0.5138587355613708,0.4748932719230652,0.4636443555355072,0.5435619354248047
224.0,-4.349241733551025,-0.5919205546379089,1.0673468112945557,-0.4300476610660553,-2.658134937286377,0.0,-0.2841520309448242,1.149665117263794,0.2327745407819748,0.5140166282653809,0.4745982587337494,0.4632325768470764,0.5440212488174438
225.0,-4.349977493286133,-0.5893687605857849,1.0614899396896362,-0.42631030082702637,-2.657554864883423,0.0,-0.28413456678390503,1.1517624855041504,0.2331807017326355,0.5141798853874207,0.47430315613746643,0.46282684803009033,0.5444694757461548
226.0,-4.349977493286133,-0.5893687605857849,1.0614899396896362,-0.42631030082702637,-2.657554864883423,0.0,-0.28413456678390503,1.1517624855041504,0.2331807017326355,0.5141798853874207,0.47430315613746643,0.46282684803009033,0.5444694757461548
227.0,-4.349977493286133,-0.5893687605857849,1.0614899396896362,-0.42631030082702637,-2.657554864883423,0.0,-0.28413456678390503,1.1517624855041504,0.2331807017326355,0.5141798853874207,0.47430315613746643,0.46282684803009033,0.5444694757461548
228.0,-4.355308532714844,-0.5912259221076965,1.0613994598388672,-0.4204433262348175,-2.6651530265808105,0.0,-0.2773337960243225,1.1554018259048462,0.23638276755809784,0.5123687982559204,0.4754779040813446,0.46280762553215027,0.5451680421829224
229.0,-4.361007213592529,-0.5932111740112305,1.0613027811050415,-0.4141717553138733,-2.6732752323150635,0.0,-0.2700534462928772,1.1592479944229126,0.23978449404239655,0.5104378461837769,0.4767490327358246,0.462766170501709,0.5459038615226746
230.0,-4.371783256530762,-0.5968294143676758,1.0612627267837524,-0.4018471837043762,-2.688983917236328,0.0,-0.256197065114975,1.1664026975631714,0.24600428342819214,0.5064713358879089,0.4793858528137207,0.46261271834373474,0.5474171042442322
231.0,-4.383311748504639,-0.6006895899772644,1.061231017112732,-0.3886258900165558,-2.7058162689208984,0.0,-0.2413347065448761,1.1738768815994263,0.2525480091571808,0.5022262334823608,0.4822898507118225,0.4623521864414215,0.548995316028595
232.0,-4.3990278244018555,-0.6057430505752563,1.0614385604858398,-0.3699182868003845,-2.7296931743621826,0.0,-0.22091978788375854,1.1839205026626587,0.2610183656215668,0.49588748812675476,0.4867710769176483,0.4618931710720062,0.5511844754219055
233.0,-4.415748596191406,-0.611082911491394,1.0617034435272217,-0.3498939871788025,-2.755260705947876,0.0,-0.19913692772388458,1.1942517757415771,0.26973703503608704,0.489103764295578,0.49176520109176636,0.46118882298469543,0.5533980131149292
234.0,-4.435832977294922,-0.6172053217887878,1.0623598098754883,-0.3250685930252075,-2.7872867584228516,0.0,-0.17281194031238556,1.2063952684402466,0.27940833568573,0.4802883565425873,0.49853968620300293,0.4601089358329773,0.5559505820274353
235.0,-4.45708703994751,-0.6235998868942261,1.0631523132324219,-0.29857322573661804,-2.821559429168701,0.0,-0.14490282535552979,1.2186893224716187,0.2890433371067047,0.47087690234184265,0.5061346888542175,0.4585798382759094,0.5583969950675964
236.0,-4.480919361114502,-0.6304271221160889,1.0644346475601196,-0.2680168151855469,-2.861704111099243,0.0,-0.11350754648447037,1.2320729494094849,0.2986401319503784,0.45960918068885803,0.5156909823417664,0.4564512372016907,0.56078040599823
237.0,-4.505979537963867,-0.6374604105949402,1.0659503936767578,-0.23552657663822174,-2.904644727706909,0.0,-0.08051566779613495,1.245385766029358,0.30770254135131836,0.447637677192688,0.5264151692390442,0.453620582818985,0.5627930164337158
238.0,-4.53289794921875,-0.6446421146392822,1.0679986476898193,-0.19968953728675842,-2.952871561050415,0.0,-0.04512125253677368,1.2591066360473633,0.31576287746429443,0.434091717004776,0.53922039270401,0.4499361217021942,0.5642369985580444
239.0,-4.560989856719971,-0.6519175171852112,1.0703833103179932,-0.16173875331878662,-3.004437208175659,0.0,-0.008367948234081268,1.2724632024765015,0.3225928843021393,0.4197988510131836,0.5535435080528259,0.4452671408653259,0.5648855566978455
240.0,-4.590305805206299,-0.6591253280639648,1.0733088254928589,-0.1210419163107872,-3.0606234073638916,0.0,0.029689811170101166,1.2855299711227417,0.327544629573822,0.4043183922767639,0.5699482560157776,0.4394558072090149,0.5644150972366333
241.0,-4.620630264282227,-0.6662773489952087,1.0766798257827759,-0.07808365672826767,-3.120614528656006,0.0,0.0685809850692749,1.2978310585021973,0.33043429255485535,0.38813138008117676,0.5881602764129639,0.4323452413082123,0.5625827312469482
242.0,-4.651641368865967,-0.6732087135314941,1.0805710554122925,-0.032916661351919174,-3.183541774749756,0.0,0.10770425945520401,1.3087722063064575,0.3308632969856262,0.3714643716812134,0.6080160737037659,0.4236428141593933,0.55933678150177
243.0,-4.683384895324707,-0.6799046993255615,1.085017204284668,0.014606310054659843,-3.249600648880005,0.0,0.1468827724456787,1.3180880546569824,0.3285602331161499,0.35444122552871704,0.6295517683029175,0.413164883852005,0.5543742179870605
244.0,-4.715391635894775,-0.6862838864326477,1.0899409055709839,0.06380778551101685,-3.3169891834259033,0.0,0.18533563613891602,1.325066328048706,0.3235917091369629,0.33769530057907104,0.6521339416503906,0.4008124768733978,0.5477524399757385
245.0,-4.747762680053711,-0.692224383354187,1.095526099205017,0.11533334106206894,-3.386219024658203,0.0,0.22291451692581177,1.329421877861023,0.3155584931373596,0.3211027979850769,0.6759586930274963,0.3862648904323578,0.5392331480979919
246.0,-4.78010892868042,-0.6978040337562561,1.101528286933899,0.168134868144989,-3.455838918685913,0.0,0.25895535945892334,1.3308056592941284,0.30502983927726746,0.30538979172706604,0.7002704739570618,0.369809627532959,0.5287713408470154
247.0,-4.8124098777771,-0.7027277946472168,1.1082886457443237,0.22325637936592102,-3.52616810798645,0.0,0.2931171655654907,1.3287914991378784,0.29144287109375,0.29025164246559143,0.7253193855285645,0.35089796781539917,0.5162717700004578
248.0,-4.844501495361328,-0.7072897553443909,1.1153908967971802,0.2793028950691223,-3.5966837406158447,0.0,0.3249998092651367,1.3235838413238525,0.27583399415016174,0.27642253041267395,0.7503620982170105,0.33028581738471985,0.501456618309021
249.0,-4.876081466674805,-0.7109676003456116,1.1233289241790771,0.33761054277420044,-3.6676547527313232,0.0,0.3538196086883545,1.314732313156128,0.2573547661304474,0.2633698284626007,0.7757366299629211,0.30721843242645264,0.4842374622821808
250.0,-4.907342433929443,-0.7143227458000183,1.1315221786499023,0.3965185582637787,-3.7387092113494873,0.0,0.3797069191932678,1.302704930305481,0.23768217861652374,0.2519995868206024,0.8005214929580688,0.2827678620815277,0.4644395411014557
251.0,-4.937510967254639,-0.7165714502334595,1.1405901908874512,0.45748502016067505,-3.8100485801696777,0.0,0.4012317657470703,1.2871700525283813,0.2156773805618286,0.2415224313735962,0.8251096606254578,0.2560371160507202,0.4419344663619995
252.0,-4.967352867126465,-0.71856689453125,1.1498281955718994,0.5188086628913879,-3.8813934326171875,0.0,0.41939598321914673,1.2687222957611084,0.19360896944999695,0.2330368012189865,0.848460853099823,0.2282855063676834,0.41676586866378784
253.0,-4.995498180389404,-0.719245195388794,1.1599498987197876,0.5819897651672363,-3.9527664184570312,0.0,0.4320637583732605,1.2472307682037354,0.17008328437805176,0.22547079622745514,0.8709781765937805,0.19847887754440308,0.38880082964897156
254.0,-5.023401260375977,-0.7197632789611816,1.1701653003692627,0.6453224420547485,-4.024138450622559,0.0,0.4412534832954407,1.2233736515045166,0.14779920876026154,0.2201344519853592,0.8916022181510925,0.1680544763803482,0.3582514822483063
255.0,-5.0490403175354,-0.7187862396240234,1.18125581741333,0.7100704312324524,-4.095502853393555,0.0,0.44415444135665894,1.1973756551742554,0.12510812282562256,0.21567422151565552,0.9107186198234558,0.13596193492412567,0.32494741678237915
256.0,-5.074588775634766,-0.7177546620368958,1.1923747062683105,0.7748472690582275,-4.166869640350342,0.0,0.44383326172828674,1.1697942018508911,0.10499344766139984,0.21360960602760315,0.927320122718811,0.10364536195993423,0.2893199920654297
257.0,-5.097411632537842,-0.7150859832763672,1.204343318939209,0.8404901027679443,-4.238321781158447,0.0,0.4369575083255768,1.1412608623504639,0.08554825186729431,0.21233704686164856,0.941759467124939,0.07011093199253082,0.25117066502571106
258.0,-5.120234489440918,-0.7124173045158386,1.2163119316101074,0.9061329960823059,-4.309773921966553,0.0,0.4273766279220581,1.1121208667755127,0.06980015337467194,0.2135048657655716,0.9531543850898743,0.03668439760804176,0.2111082673072815
259.0,-5.1401567459106445,-0.70814448595047,1.2290334701538086,0.9721130728721619,-4.381473541259766,0.0,0.41174811124801636,1.0833309888839722,0.05585157871246338,0.21545858681201935,0.9617796540260315,0.0025490084663033485,0.16897058486938477
260.0,-5.159981727600098,-0.7038182020187378,1.2417800426483154,1.0381042957305908,-4.453181266784668,0.0,0.3940461277961731,1.0550577640533447,0.04628933221101761,0.2197386622428894,0.9669565558433533,-0.03123060055077076,0.12543796002864838
261.0,-5.177103042602539,-0.698091447353363,1.2551145553588867,1.103868842124939,-4.5249552726745605,0.0,0.3717409372329712,1.0283763408660889,0.03951636701822281,0.22492779791355133,0.9688436388969421,-0.06515703350305557,0.08064828813076019
262.0,-5.193934440612793,-0.6922146677970886,1.2685120105743408,1.1696089506149292,-4.596735954284668,0.0,0.3481981158256531,1.003379464149475,0.03733506798744202,0.23223446309566498,0.967022180557251,-0.09850721806287766,0.03509598225355148
263.0,-5.20840311050415,-0.6851815581321716,1.2823386192321777,1.234627604484558,-4.668460369110107,0.0,0.3218455910682678,0.9810975193977356,0.038361698389053345,-0.24055606126785278,-0.961631178855896,0.13145789504051208,0.01082462165504694
264.0,-5.22241735458374,-0.6779261231422424,1.2962476015090942,1.29950749874115,-4.74017333984375,0.0,0.29531222581863403,0.9615606665611267,0.043690502643585205,-0.2507677376270294,-0.9524322152137756,0.16359570622444153,0.05678796395659447
265.0,-5.234391689300537,-0.6697846055030823,1.3104009628295898,1.362912893295288,-4.811656951904297,0.0,0.2678290009498596,0.9457429647445679,0.051931530237197876,-0.26201125979423523,-0.9396952390670776,0.19465187191963196,0.10214556008577347
266.0,-5.2457709312438965,-0.6613845825195312,1.3246256113052368,1.4258882999420166,-4.883073806762695,0.0,0.2412680983543396,0.9334900379180908,0.06362417340278625,-0.2748846113681793,-0.9232823848724365,0.22460193932056427,0.14677251875400543
267.0,-5.255439758300781,-0.652375340461731,1.3389087915420532,1.4868683815002441,-4.953769207000732,0.0,0.21547113358974457,0.9254290461540222,0.07734841853380203,-0.2886764109134674,-0.9036893844604492,0.2529763877391815,0.18977470695972443
268.0,-5.26440954208374,-0.6431168913841248,1.3532159328460693,1.5470319986343384,-5.024169445037842,0.0,0.19155839085578918,0.9213089942932129,0.09322232007980347,-0.3037804365158081,-0.8808276057243347,0.2799662947654724,0.23125578463077545
269.0,-5.271987438201904,-0.6335192918777466,1.3673774003982544,1.6047885417938232,-5.092535972595215,0.0,0.16986742615699768,0.9211049675941467,0.10977575927972794,-0.31946125626564026,-0.8555514216423035,0.30513566732406616,0.26994186639785767
270.0,-5.2788004875183105,-0.6237351894378662,1.3814586400985718,1.6612211465835571,-5.159783363342285,0.0,0.15074580907821655,0.9245452284812927,0.12688201665878296,-0.33598124980926514,-0.8278020620346069,0.32874396443367004,0.30624788999557495
271.0,-5.284519672393799,-0.6138578653335571,1.395227313041687,1.7149666547775269,-5.223203182220459,0.0,0.13465452194213867,0.9308336973190308,0.14317883551120758,-0.35251060128211975,-0.7987819314002991,0.35060158371925354,0.33876579999923706
272.0,-5.289449691772461,-0.6039131283760071,1.408770203590393,1.7667713165283203,-5.283858776092529,0.0,0.1213437020778656,0.9396662712097168,0.15846452116966248,-0.36917605996131897,-0.7685314416885376,0.37094059586524963,0.36806467175483704
273.0,-5.293593883514404,-0.5940940380096436,1.4218629598617554,1.8157246112823486,-5.340135097503662,0.0,0.11089549958705902,0.9501814842224121,0.1719556748867035,-0.38541582226753235,-0.7381001114845276,0.38961470127105713,0.39352670311927795
274.0,-5.297001838684082,-0.5843926668167114,1.4345335960388184,1.8620045185089111,-5.392305850982666,0.0,0.10284562408924103,0.9618799090385437,0.18342429399490356,-0.4011075496673584,-0.7078150510787964,0.4068199694156647,0.4154614210128784
275.0,-5.299848556518555,-0.5749855637550354,1.4466477632522583,1.9053847789764404,-5.440560817718506,0.0,0.09692689776420593,0.9743537902832031,0.19281166791915894,-0.4161456823348999,-0.6781421303749084,0.42242833971977234,0.43416643142700195
276.0,-5.302013397216797,-0.5659359097480774,1.4580864906311035,1.9452438354492188,-5.4840617179870605,0.0,0.09265831112861633,0.9868400692939758,0.19987927377223969,-0.4301043152809143,-0.6498870253562927,0.4365018308162689,0.44958144426345825
277.0,-5.303821563720703,-0.5573018193244934,1.4689078330993652,1.9823888540267944,-5.524180889129639,0.0,0.08979825675487518,0.9993897080421448,0.20511789619922638,-0.44330793619155884,-0.6227428317070007,0.44917044043540955,0.4625099003314972
278.0,-5.305063247680664,-0.5493256449699402,1.4787516593933105,2.0152370929718018,-5.558945178985596,0.0,0.08790063112974167,1.010944128036499,0.20834173262119293,-0.4549928307533264,-0.5981640815734863,0.4602571725845337,0.4725935459136963
279.0,-5.306082725524902,-0.54183030128479,1.4879506826400757,2.0455257892608643,-5.590874195098877,0.0,0.08679764717817307,1.0221126079559326,0.21022748947143555,-0.4658976197242737,-0.5749931931495667,0.47013628482818604,0.4809305667877197
280.0,-5.306635856628418,-0.5353444814682007,1.4957960844039917,2.0704407691955566,-5.616847038269043,0.0,0.08607807755470276,1.0314823389053345,0.210707426071167,-0.474875271320343,-0.5555504560470581,0.4782526195049286,0.48696169257164
281.0,-5.307070732116699,-0.5293487310409546,1.5030204057693481,2.093186378479004,-5.640537738800049,0.0,0.08573798090219498,1.040277361869812,0.2104574590921402,-0.4831409454345703,-0.537539541721344,0.48543936014175415,0.4919092059135437
282.0,-5.307166576385498,-0.5247614979743958,1.5084595680236816,2.10969614982605,-5.657665252685547,0.0,0.08544054627418518,1.0467157363891602,0.2096450924873352,-0.48914170265197754,-0.5242571234703064,0.49070096015930176,0.49508339166641235
283.0,-5.307223320007324,-0.5206140875816345,1.5133658647537231,2.1245532035827637,-5.673079490661621,0.0,0.08529612421989441,1.0525978803634644,0.208608478307724,-0.4945688247680664,-0.5122100710868835,0.4953226149082184,0.49769288301467896
284.0,-5.307119846343994,-0.5182991027832031,1.5160517692565918,2.132524251937866,-5.681353569030762,0.0,0.08512131869792938,1.0557763576507568,0.20784562826156616,-0.49746936559677124,-0.5056951642036438,0.49783316254615784,0.49895790219306946
285.0,-5.307029724121094,-0.5162827968597412,1.5183910131454468,2.1394665241241455,-5.6885600090026855,0.0,0.08500126004219055,1.0585609674453735,0.20711448788642883,-0.500002384185791,-0.5000027418136597,0.4999900460243225,0.5000048875808716
286.0,-5.307029724121094,-0.5162827968597412,1.5183910131454468,2.1394665241241455,-5.6885600090026855,0.0,0.08500126004219055,1.0585609674453735,0.20711448788642883,-0.500002384185791,-0.5000027418136597,0.4999900460243225,0.5000048875808716
287.0,-5.307029724121094,-0.5162827968597412,1.5183910131454468,2.1394665241241455,-5.6885600090026855,0.0,0.08500126004219055,1.0585609674453735,0.20711448788642883,-0.500002384185791,-0.5000027418136597,0.4999900460243225,0.5000048875808716
288.0,-5.307029724121094,-0.5162827968597412,1.5183910131454468,2.1394665241241455,-5.6885600090026855,0.0,0.08500126004219055,1.0585609674453735,0.20711448788642883,-0.500002384185791,-0.5000027418136597,0.4999900460243225,0.5000048875808716
289.0,-5.307938575744629,-0.518038809299469,1.5217472314834595,2.1378982067108154,-5.687651634216309,0.0,0.08499487489461899,1.0567015409469604,0.20781005918979645,-0.5000048875808716,-0.49999117851257324,0.5000008940696716,0.5000030398368835
290.0,-5.308825492858887,-0.5185483694076538,1.524603009223938,2.135542154312134,-5.6867594718933105,0.0,0.08499804139137268,1.0549036264419556,0.20727276802062988,-0.5000028014183044,-0.4999960660934448,0.4999990165233612,0.5000022053718567
291.0,-5.309711933135986,-0.5190513134002686,1.5274569988250732,2.133188486099243,-5.685876369476318,0.0,0.08499740064144135,1.0531096458435059,0.20673337578773499,-0.500003457069397,-0.4999961853027344,0.49999716877937317,0.5000032782554626
292.0,-5.310603141784668,-0.5195566415786743,1.5303205251693726,2.1308226585388184,-5.684993267059326,0.0,0.08499423414468765,1.0513087511062622,0.2061953842639923,-0.5000050067901611,-0.4999968111515045,0.49999240040779114,0.500005841255188
293.0,-5.31149435043335,-0.5200488567352295,1.5331553220748901,2.128469228744507,-5.684108734130859,0.0,0.08499482274055481,1.0495184659957886,0.20565609633922577,-0.5000059604644775,-0.49999886751174927,0.49998709559440613,0.5000081658363342
294.0,-5.312387466430664,-0.5205287337303162,1.535980224609375,2.1261425018310547,-5.683193683624268,0.0,0.08499833941459656,1.0477218627929688,0.2051163911819458,-0.5000016689300537,-0.4999981224536896,0.49999889731407166,0.5000014901161194
295.0,-5.313286304473877,-0.5210180878639221,1.5388263463974,2.123784065246582,-5.682301998138428,0.0,0.08499544858932495,1.0459210872650146,0.20457817614078522,-0.5000033378601074,-0.4999968111515045,0.49999645352363586,0.5000033974647522
296.0,-5.314182281494141,-0.5214982032775879,1.5416533946990967,2.1214492321014404,-5.6814045906066895,0.0,0.0849921926856041,1.0441274642944336,0.2040431946516037,-0.5000037550926208,-0.49999305605888367,0.500001072883606,0.5000022053718567
297.0,-5.315089702606201,-0.5219716429710388,1.5444767475128174,2.119093894958496,-5.68050479888916,0.0,0.08499591052532196,1.04232919216156,0.2035016566514969,-0.5000052452087402,-0.49999305605888367,0.4999973475933075,0.5000044703483582
298.0,-5.3159942626953125,-0.5224406123161316,1.547289252281189,2.116741418838501,-5.679600238800049,0.0,0.08499583601951599,1.0405328273773193,0.20296160876750946,-0.5000048279762268,-0.49999600648880005,0.499994158744812,0.5000051259994507
299.0,-5.316900253295898,-0.5229045748710632,1.5501025915145874,2.1144068241119385,-5.6786885261535645,0.0,0.08499400317668915,1.0387340784072876,0.20242413878440857,-0.5000043511390686,-0.499992311000824,0.5000005960464478,0.5000027418136597
300.0,-5.3178534507751465,-0.5246217846870422,1.5533945560455322,2.1128242015838623,-5.6777472496032715,0.0,0.08500256389379501,1.0368692874908447,0.20311139523983002,-0.5000067949295044,-0.4999920725822449,0.4999951422214508,0.5000061392784119
301.0,-5.318758964538574,-0.5250841975212097,1.5561919212341309,2.110482692718506,-5.676840782165527,0.0,0.08499573916196823,1.03507661819458,0.20257887244224548,-0.5000060796737671,-0.49999451637268066,0.4999929368495941,0.5000064373016357
302.0,-5.319669246673584,-0.5255315899848938,1.5589728355407715,2.108149528503418,-5.6759185791015625,0.0,0.0849945917725563,1.033282995223999,0.20204056799411774,-0.5000031590461731,-0.49999746680259705,0.4999961256980896,0.5000033378601074
303.0,-5.320589065551758,-0.5259838104248047,1.5617791414260864,2.1058008670806885,-5.675015926361084,0.0,0.08499101549386978,1.0314840078353882,0.20150256156921387,-0.5000078082084656,-0.4999912977218628,0.4999936521053314,0.5000073909759521
304.0,-5.321507930755615,-0.5264212489128113,1.5645439624786377,2.103473424911499,-5.674073219299316,0.0,0.08499477803707123,1.0296865701675415,0.20096564292907715,-0.5000017881393433,-0.4999973773956299,0.4999995529651642,0.5000014305114746
305.0,-5.322432994842529,-0.5268549919128418,1.5673253536224365,2.101127862930298,-5.673158168792725,0.0,0.08499482274055481,1.0278899669647217,0.2004222571849823,-0.5000044107437134,-0.4999940097332001,0.4999977946281433,0.5000037550926208
306.0,-5.3233561515808105,-0.5272886157035828,1.570089340209961,2.0987908840179443,-5.672232627868652,0.0,0.08499419689178467,1.0260958671569824,0.19988664984703064,-0.5000033974647522,-0.49999693036079407,0.49999627470970154,0.5000035166740417
307.0,-5.324285984039307,-0.5277155637741089,1.57285475730896,2.096452474594116,-5.671306133270264,0.0,0.08499577641487122,1.0242992639541626,0.19934788346290588,-0.5000042915344238,-0.4999960660934448,0.4999954104423523,0.5000044107437134
308.0,-5.3252129554748535,-0.5281360149383545,1.5756113529205322,2.0941107273101807,-5.670390605926514,0.0,0.08499207347631454,1.0225090980529785,0.19880735874176025,-0.5000068545341492,-0.4999951720237732,0.49999046325683594,0.5000076293945312
309.0,-5.326148986816406,-0.5285565257072449,1.5783629417419434,2.0917649269104004,-5.669441223144531,0.0,0.08499463647603989,1.0207055807113647,0.19826973974704742,-0.5000025629997253,-0.5000035762786865,0.49998876452445984,0.5000051259994507
310.0,-5.327083587646484,-0.5289528369903564,1.5811015367507935,2.089451313018799,-5.668498992919922,0.0,0.08499719202518463,1.0189125537872314,0.1977233737707138,-0.5000024437904358,-0.49999549984931946,0.5000004768371582,0.5000016093254089
311.0,-5.328057289123535,-0.5306487083435059,1.584342122077942,2.087904691696167,-5.667527675628662,0.0,0.08499760925769806,1.0170502662658691,0.19842703640460968,-0.5000028610229492,-0.4999956786632538,0.49999934434890747,0.5000022649765015
312.0,-5.328997611999512,-0.5310569405555725,1.5870921611785889,2.0855493545532227,-5.666596412658691,0.0,0.08499129116535187,1.015250325202942,0.19788552820682526,-0.5000042915344238,-0.4999980628490448,0.49999237060546875,0.5000052452087402
313.0,-5.329945087432861,-0.5314523577690125,1.5898138284683228,2.0832173824310303,-5.665646553039551,0.0,0.08499772101640701,1.0134552717208862,0.19734542071819305,-0.5000033974647522,-0.5000007152557373,0.4999908208847046,0.5000051259994507
314.0,-5.3308892250061035,-0.5318440794944763,1.5925391912460327,2.0809171199798584,-5.664704322814941,0.0,0.08499826490879059,1.0116651058197021,0.19681188464164734,-0.5000059008598328,-0.4999885559082031,0.5000020265579224,0.5000035762786865
315.0,-5.3318400382995605,-0.5322388410568237,1.5952693223953247,2.0785586833953857,-5.663755893707275,0.0,0.08499488234519958,1.009861707687378,0.19627070426940918,-0.5000051856040955,-0.4999958276748657,0.4999934136867523,0.5000055432319641
316.0,-5.332791328430176,-0.5326211452484131,1.5979794263839722,2.076237678527832,-5.662801265716553,0.0,0.08499646186828613,1.0080679655075073,0.19573315978050232,-0.500004768371582,-0.4999943971633911,0.4999966025352478,0.5000044107437134
317.0,-5.333749294281006,-0.5330001711845398,1.6006947755813599,2.0738980770111084,-5.661846160888672,0.0,0.08499737083911896,1.0062679052352905,0.19519129395484924,-0.5000051856040955,-0.4999949038028717,0.49999475479125977,0.5000051856040955
318.0,-5.334706783294678,-0.5333779454231262,1.6034014225006104,2.0715649127960205,-5.660888671875,0.0,0.08499658852815628,1.0044703483581543,0.1946541666984558,-0.5000050067901611,-0.49999624490737915,0.4999932646751404,0.5000055432319641
319.0,-5.3356614112854,-0.5337480902671814,1.6060922145843506,2.069247007369995,-5.659927845001221,0.0,0.08499451726675034,1.0026789903640747,0.1941194236278534,-0.5000035762786865,-0.4999969005584717,0.4999958276748657,0.5000037550926208
320.0,-5.336626052856445,-0.5341124534606934,1.6087931394577026,2.0669147968292236,-5.658961772918701,0.0,0.08499367535114288,1.0008782148361206,0.1935785412788391,-0.500003457069397,-0.49999573826789856,0.49999767541885376,0.5000031590461731
321.0,-5.337591648101807,-0.5344568490982056,1.6114797592163086,2.0645840167999268,-5.658009052276611,0.0,0.08499375730752945,0.9990867376327515,0.19302590191364288,-0.5000073909759521,-0.49998852610588074,0.49999839067459106,0.5000057816505432
322.0,-5.338596343994141,-0.5361221432685852,1.6146663427352905,2.0630457401275635,-5.657005786895752,0.0,0.08499403297901154,0.9972245693206787,0.1937320977449417,-0.5000067353248596,-0.4999941885471344,0.4999921917915344,0.5000070333480835
323.0,-5.339566707611084,-0.5364744663238525,1.6173447370529175,2.0607171058654785,-5.656027317047119,0.0,0.08499301970005035,0.9954254627227783,0.19319328665733337,-0.5000045299530029,-0.49999716877937317,0.49999332427978516,0.5000050663948059
324.0,-5.340541362762451,-0.5368213057518005,1.6200170516967773,2.0584018230438232,-5.655046463012695,0.0,0.08499521762132645,0.9936283230781555,0.19265694916248322,-0.5000035166740417,-0.4999951124191284,0.4999983310699463,0.5000030398368835
325.0,-5.341520309448242,-0.5371624231338501,1.6226869821548462,2.056081771850586,-5.654078483581543,0.0,0.08499720692634583,0.9918352365493774,0.1921183168888092,-0.5000067353248596,-0.4999893307685852,0.49999868869781494,0.5000052452087402
326.0,-5.342499732971191,-0.5375000238418579,1.62534499168396,2.053759813308716,-5.6530890464782715,0.0,0.08499868959188461,0.990037739276886,0.19158101081848145,-0.5000041127204895,-0.4999925196170807,0.5000006556510925,0.5000028610229492
327.0,-5.343480110168457,-0.5378299951553345,1.627997636795044,2.0514261722564697,-5.652102470397949,0.0,0.08499730378389359,0.9882408380508423,0.19103851914405823,-0.5000019669532776,-0.4999978542327881,0.4999982714653015,0.5000019669532776
328.0,-5.3444671630859375,-0.5381631255149841,1.6306613683700562,2.0490939617156982,-5.651124954223633,0.0,0.08499503880739212,0.9864422678947449,0.1905013620853424,-0.5000042915344238,-0.4999958872795105,0.49999547004699707,0.5000043511390686
329.0,-5.345455169677734,-0.538486659526825,1.6333129405975342,2.046766996383667,-5.650143623352051,0.0,0.08499376475811005,0.984646737575531,0.1899619996547699,-0.5000060796737671,-0.49999386072158813,0.4999939799308777,0.5000060796737671
330.0,-5.346446990966797,-0.5388021469116211,1.6359471082687378,2.0444440841674805,-5.649145603179932,0.0,0.08499683439731598,0.9828508496284485,0.18942201137542725,-0.5000042915344238,-0.4999969005584717,0.499994158744812,0.5000047087669373
331.0,-5.347438335418701,-0.5391180515289307,1.6385881900787354,2.042121171951294,-5.648151397705078,0.0,0.08499330282211304,0.9810531139373779,0.18888503313064575,-0.5000036954879761,-0.4999968409538269,0.49999570846557617,0.5000038146972656
332.0,-5.3484368324279785,-0.5394306778907776,1.6412209272384644,2.039795398712158,-5.647163391113281,0.0,0.08499467372894287,0.979259729385376,0.1883491575717926,-0.5000059604644775,-0.49999627470970154,0.4999910593032837,0.5000067949295044
333.0,-5.349473476409912,-0.5410423278808594,1.6443578004837036,2.0382795333862305,-5.646120548248291,0.0,0.08499551564455032,0.9773955941200256,0.18904100358486176,-0.5000048875808716,-0.4999944865703583,0.49999603629112244,0.5000046491622925
334.0,-5.350465774536133,-0.5413891673088074,1.6469730138778687,2.036017894744873,-5.645129203796387,0.0,0.0849948599934578,0.975616991519928,0.18855559825897217,-0.5000055432319641,-0.4999918043613434,0.49999815225601196,0.5000045895576477
335.0,-5.351464748382568,-0.5417393445968628,1.6495881080627441,2.0337424278259277,-5.644129753112793,0.0,0.08499493449926376,0.9738327860832214,0.18807296454906464,-0.5000049471855164,-0.499995619058609,0.49999454617500305,0.5000050663948059
336.0,-5.3524627685546875,-0.5420777797698975,1.6521884202957153,2.031482458114624,-5.643120288848877,0.0,0.08499564230442047,0.9720513820648193,0.18758894503116608,-0.5000020265579224,-0.4999978244304657,0.4999980628490448,0.5000020861625671
337.0,-5.353471755981445,-0.5424241423606873,1.6547991037368774,2.0292160511016846,-5.64213228225708,0.0,0.08499956876039505,0.9702725410461426,0.18711236119270325,-0.5000072717666626,-0.49999329447746277,0.49999210238456726,0.5000074505805969
338.0,-5.35447359085083,-0.5427491664886475,1.6573961973190308,2.0269436836242676,-5.6411213874816895,0.0,0.08499511331319809,0.9684889912605286,0.18662124872207642,-0.5000050067901611,-0.49999579787254333,0.499994158744812,0.5000051856040955
339.0,-5.355479717254639,-0.5430769324302673,1.6599868535995483,2.0246803760528564,-5.640112400054932,0.0,0.08499372750520706,0.966708779335022,0.1861383020877838,-0.500004231929779,-0.4999966323375702,0.49999475479125977,0.5000044703483582
340.0,-5.356492042541504,-0.5433974862098694,1.662570595741272,2.02242112159729,-5.639095783233643,0.0,0.0849962905049324,0.9649279713630676,0.18565437197685242,-0.5000033974647522,-0.4999963343143463,0.4999971091747284,0.5000032782554626
341.0,-5.359435081481934,-0.5433059930801392,1.670891523361206,2.0186941623687744,-5.643840789794922,0.0,0.08498936891555786,0.9627367258071899,0.1840190291404724,-0.5021550059318542,-0.4964294135570526,0.49970993399620056,0.501685380935669
342.0,-5.362380504608154,-0.5431673526763916,1.67919921875,2.0149950981140137,-5.648578643798828,0.0,0.08497627079486847,0.9605439305305481,0.18238148093223572,-0.5043014287948608,-0.4928322732448578,0.4994350075721741,0.503350019454956
343.0,-5.36531925201416,-0.5429753065109253,1.6874780654907227,2.011343240737915,-5.653299331665039,0.0,0.08495472371578217,0.9583551287651062,0.18074317276477814,-0.5064378976821899,-0.4892064929008484,0.4991803765296936,0.5049918293952942
344.0,-5.368265151977539,-0.5427502393722534,1.6957510709762573,2.0077199935913086,-5.658003330230713,0.0,0.084929458796978,0.9561586380004883,0.17911428213119507,-0.5085672736167908,-0.4855538606643677,0.49893733859062195,0.5066147446632385
345.0,-5.371211528778076,-0.5424538850784302,1.7039884328842163,2.004146099090576,-5.662718296051025,0.0,0.08490502089262009,0.9539791941642761,0.17747093737125397,-0.5106961727142334,-0.4818585515022278,0.4987100660800934,0.5082224607467651
346.0,-5.374154567718506,-0.5421332716941833,1.712255597114563,2.0005698204040527,-5.66741943359375,0.0,0.08485322445631027,0.9517768025398254,0.1758355051279068,-0.512815535068512,-0.4781399667263031,0.4984947443008423,0.5098093152046204
347.0,-5.37710428237915,-0.5417621731758118,1.720493197441101,1.9970333576202393,-5.672122955322266,0.0,0.08480565994977951,0.9495847225189209,0.17420032620429993,-0.5149322748184204,-0.4743879437446594,0.49828729033470154,0.5113810300827026
348.0,-5.380049705505371,-0.5413376688957214,1.7287226915359497,1.993543267250061,-5.676811218261719,0.0,0.08474569022655487,0.9473896622657776,0.17256341874599457,-0.5170406699180603,-0.47059890627861023,0.49810588359832764,0.5129289627075195
349.0,-5.38299036026001,-0.5408617854118347,1.7369121313095093,1.9901002645492554,-5.681472301483154,0.0,0.08468285202980042,0.9452000260353088,0.17092888057231903,-0.5191359519958496,-0.46678805351257324,0.4979422390460968,0.5144516229629517
350.0,-5.385935306549072,-0.540336549282074,1.7451032400131226,1.9866777658462524,-5.686131477355957,0.0,0.08461052179336548,0.9430049657821655,0.1692899614572525,-0.5212269425392151,-0.4629415273666382,0.49779197573661804,0.5159563422203064
351.0,-5.388875484466553,-0.5397632122039795,1.7532583475112915,1.9832985401153564,-5.690781593322754,0.0,0.08453429490327835,0.9408206343650818,0.16765496134757996,-0.5233088731765747,-0.4590696096420288,0.4976535141468048,0.5174398422241211
352.0,-5.391814231872559,-0.5391402840614319,1.7613985538482666,1.9799515008926392,-5.695405960083008,0.0,0.08444897830486298,0.9386305809020996,0.16601932048797607,-0.5253787636756897,-0.45517149567604065,0.4975343942642212,0.5188984274864197
353.0,-5.394758224487305,-0.5384746789932251,1.7695388793945312,1.9766466617584229,-5.70003604888916,0.0,0.0843580812215805,0.9364421963691711,0.164389967918396,-0.5274467468261719,-0.4512307643890381,0.49743103981018066,0.5203394293785095
354.0,-5.397682189941406,-0.5377417206764221,1.7776405811309814,1.9733824729919434,-5.704641342163086,0.0,0.08424928784370422,0.9342598915100098,0.16274935007095337,-0.5294986963272095,-0.44726744294166565,0.49735236167907715,0.5217506885528564
355.0,-5.400615215301514,-0.5369637608528137,1.7857285737991333,1.9701565504074097,-5.709229946136475,0.0,0.08414208143949509,0.9320757985115051,0.16111375391483307,-0.5315427780151367,-0.4432721734046936,0.49728840589523315,0.5231409072875977
356.0,-5.403547763824463,-0.53614342212677,1.7937757968902588,1.9669822454452515,-5.713783264160156,0.0,0.08403711766004562,0.9298956990242004,0.15948890149593353,-0.5335714817047119,-0.4392579197883606,0.49724164605140686,0.5245043039321899
357.0,-5.368168354034424,-0.530434787273407,1.686120629310608,1.985911250114441,-5.62742280960083,0.0,0.08499309420585632,0.9447302222251892,0.16488121449947357,-0.5000043511390686,-0.4999943971633911,0.4999972879886627,0.5000039339065552
358.0,-5.365965843200684,-0.5302188396453857,1.6808992624282837,1.990915298461914,-5.629626274108887,0.0,0.084995336830616,0.9484922289848328,0.1661997139453888,-0.5000045895576477,-0.4999946355819702,0.4999966025352478,0.5000043511390686
359.0,-5.363779544830322,-0.5299928188323975,1.6756608486175537,1.9959144592285156,-5.631811141967773,0.0,0.08499844372272491,0.9522498250007629,0.16752667725086212,-0.5000036358833313,-0.4999995827674866,0.499992311000824,0.5000046491622925
360.0,-5.362691879272461,-0.5298653244972229,1.6730374097824097,1.9984275102615356,-5.632906436920166,0.0,0.08500032871961594,0.9541312456130981,0.16818802058696747,-0.5000062584877014,-0.4999917447566986,0.49999645352363586,0.5000056028366089
361.0,-5.361588478088379,-0.529742956161499,1.6704003810882568,2.0009264945983887,-5.634007930755615,0.0,0.08498512953519821,0.9560200572013855,0.16885527968406677,-0.5000049471855164,-0.4999978244304657,0.4999914765357971,0.5000057816505432
362.0,-5.360507965087891,-0.5295881032943726,1.6677323579788208,2.003434896469116,-5.635079383850098,0.0,0.08499626815319061,0.9579067826271057,0.16950470209121704,-0.5000025033950806,-0.5000016689300537,0.49999210238456726,0.5000038146972656
363.0,-5.359425067901611,-0.5294511318206787,1.66509211063385,2.0059618949890137,-5.636171817779541,0.0,0.084994837641716,0.9597936272621155,0.17017532885074615,-0.5000060796737671,-0.4999910295009613,0.49999791383743286,0.5000051259994507
364.0,-5.358349800109863,-0.5293003916740417,1.6624493598937988,2.008453369140625,-5.637248516082764,0.0,0.08499263972043991,0.9616690278053284,0.17083053290843964,-0.5000064373016357,-0.4999908208847046,0.4999973177909851,0.5000055432319641
365.0,-5.357276916503906,-0.5291487574577332,1.659786581993103,2.0109503269195557,-5.638321876525879,0.0,0.08499449491500854,0.9635511040687561,0.17149204015731812,-0.500005841255188,-0.4999956488609314,0.49999237060546875,0.5000063180923462
366.0,-5.356203556060791,-0.5289847254753113,1.6571228504180908,2.013465166091919,-5.639398097991943,0.0,0.08499273657798767,0.9654358625411987,0.17215165495872498,-0.5000073313713074,-0.49998965859413147,0.4999968409538269,0.5000063180923462
367.0,-5.355138301849365,-0.5288185477256775,1.6544537544250488,2.0159711837768555,-5.640460968017578,0.0,0.08499463647603989,0.9673153162002563,0.1728118509054184,-0.5000067949295044,-0.4999891221523285,0.49999862909317017,0.5000054240226746
368.0,-5.354070663452148,-0.5286473631858826,1.6517642736434937,2.018474578857422,-5.641520023345947,0.0,0.08499570190906525,0.9692003726959229,0.17347341775894165,-0.5000039935112,-0.4999963045120239,0.49999555945396423,0.5000041723251343
369.0,-5.3530120849609375,-0.5284726619720459,1.6490899324417114,2.020977020263672,-5.642582893371582,0.0,0.08499570935964584,0.9710795283317566,0.1741345226764679,-0.5000051856040955,-0.4999943673610687,0.49999547004699707,0.5000050067901611
370.0,-5.35194730758667,-0.5282833576202393,1.6463862657546997,2.0234901905059814,-5.643640041351318,0.0,0.08499439805746078,0.9729686379432678,0.1747925579547882,-0.5000031590461731,-0.4999968409538269,0.49999696016311646,0.5000032186508179
371.0,-5.350896835327148,-0.528102695941925,1.6437064409255981,2.025995969772339,-5.644703388214111,0.0,0.08499475568532944,0.9748484492301941,0.17545826733112335,-0.5000066757202148,-0.4999912977218628,0.49999600648880005,0.5000060796737671
372.0,-5.3498454093933105,-0.5279067754745483,1.6409990787506104,2.028496265411377,-5.645748138427734,0.0,0.08499670773744583,0.9767299890518188,0.17611636221408844,-0.5000044703483582,-0.4999968707561493,0.49999383091926575,0.5000048875808716
373.0,-5.348796367645264,-0.5277117490768433,1.638301968574524,2.031002998352051,-5.646810531616211,0.0,0.08499394357204437,0.9786146283149719,0.17678003013134003,-0.5000080466270447,-0.4999920427799225,0.4999919831752777,0.5000080466270447
374.0,-5.347747802734375,-0.5275056958198547,1.6355831623077393,2.0335195064544678,-5.647832870483398,0.0,0.08499372750520706,0.9804922342300415,0.177442729473114,-0.5000017285346985,-0.4999971091747284,0.49999988079071045,0.5000013113021851
375.0,-5.346706390380859,-0.5272907614707947,1.632861614227295,2.0360233783721924,-5.6488871574401855,0.0,0.08499559015035629,0.9823800325393677,0.17809946835041046,-0.5000048279762268,-0.49999484419822693,0.4999956786632538,0.5000047087669373
376.0,-5.345672130584717,-0.527073860168457,1.6301478147506714,2.038524627685547,-5.64992618560791,0.0,0.08499688655138016,0.984257161617279,0.1787571907043457,-0.5000061988830566,-0.49999210238456726,0.4999960958957672,0.5000056028366089
377.0,-5.344630241394043,-0.5268517136573792,1.627405047416687,2.0410354137420654,-5.650960445404053,0.0,0.08499518036842346,0.98614501953125,0.17941957712173462,-0.5000038146972656,-0.49999743700027466,0.4999946057796478,0.5000042915344238
378.0,-5.343599319458008,-0.5266285538673401,1.6246751546859741,2.0435433387756348,-5.65199613571167,0.0,0.08499570935964584,0.9880261421203613,0.1800832599401474,-0.5000050067901611,-0.4999958872795105,0.49999380111694336,0.500005304813385
379.0,-5.342570781707764,-0.5263914465904236,1.6219412088394165,2.046037197113037,-5.6530351638793945,0.0,0.08499348908662796,0.9899072051048279,0.18073630332946777,-0.5000075697898865,-0.49999427795410156,0.4999900162220001,0.500008225440979
380.0,-5.3415422439575195,-0.5261584520339966,1.619197130203247,2.048560619354248,-5.654064655303955,0.0,0.0849921852350235,0.9917915463447571,0.18140479922294617,-0.5000083446502686,-0.4999898374080658,0.4999942183494568,0.5000076293945312
381.0,-5.340518474578857,-0.5259131789207458,1.6164345741271973,2.0510783195495605,-5.655077934265137,0.0,0.08499574661254883,0.9936745762825012,0.18206751346588135,-0.500005841255188,-0.4999922513961792,0.49999696016311646,0.5000050663948059
382.0,-5.339494228363037,-0.5256609916687012,1.6136623620986938,2.053600549697876,-5.656088352203369,0.0,0.08499689400196075,0.9955599308013916,0.18273043632507324,-0.5000025033950806,-0.49999499320983887,0.5000011324882507,0.5000014901161194
383.0,-5.338480472564697,-0.5254074335098267,1.6109081506729126,2.056095838546753,-5.657112121582031,0.0,0.08499624580144882,0.997438371181488,0.18338817358016968,-0.5000047087669373,-0.49999433755874634,0.49999669194221497,0.5000042915344238
384.0,-5.337470054626465,-0.5251424312591553,1.6081342697143555,2.058602809906006,-5.6581268310546875,0.0,0.0850006639957428,0.9993206858634949,0.18404492735862732,-0.5000057220458984,-0.4999939501285553,0.49999502301216125,0.5000054836273193
385.0,-5.336453914642334,-0.5248638987541199,1.6053496599197388,2.0611186027526855,-5.65914249420166,0.0,0.08499814569950104,1.0012081861495972,0.18469728529453278,-0.5000061392784119,-0.4999905824661255,0.4999985694885254,0.500004768371582
386.0,-5.335444450378418,-0.5246070623397827,1.6025722026824951,2.063622236251831,-5.660153388977051,0.0,0.08499503135681152,1.0030885934829712,0.18536889553070068,-0.5000054836273193,-0.499996155500412,0.4999924302101135,0.5000060796737671
387.0,-5.334440231323242,-0.5243313312530518,1.5997916460037231,2.0661392211914062,-5.661160469055176,0.0,0.08499445766210556,1.0049691200256348,0.18603146076202393,-0.5000069737434387,-0.49999114871025085,0.49999576807022095,0.5000061988830566
388.0,-5.333436489105225,-0.5240524411201477,1.5969969034194946,2.0686521530151367,-5.662163734436035,0.0,0.0849931389093399,1.0068515539169312,0.18669618666172028,-0.5000065565109253,-0.49999234080314636,0.4999949634075165,0.5000061392784119
389.0,-5.332437992095947,-0.5237588286399841,1.5941880941390991,2.071160316467285,-5.663159370422363,0.0,0.08499523252248764,1.0087343454360962,0.18735265731811523,-0.5000054240226746,-0.49999552965164185,0.499993234872818,0.500005841255188
390.0,-5.331441879272461,-0.5234636664390564,1.5913803577423096,2.073681592941284,-5.664149761199951,0.0,0.08499660342931747,1.0106154680252075,0.18801471590995789,-0.5000046491622925,-0.4999938905239105,0.49999743700027466,0.5000040531158447
391.0,-5.330452919006348,-0.5231692790985107,1.5885863304138184,2.0761806964874268,-5.665154933929443,0.0,0.08499433100223541,1.0124924182891846,0.18867450952529907,-0.5000084638595581,-0.4999901354312897,0.4999934136867523,0.5000079870223999
392.0,-5.329461574554443,-0.5228589177131653,1.585744023323059,2.078709602355957,-5.666132926940918,0.0,0.08500083535909653,1.0143803358078003,0.18933746218681335,-0.5000050663948059,-0.49999451637268066,0.499995619058609,0.5000049471855164
393.0,-5.328470706939697,-0.5225455164909363,1.5829142332077026,2.081224203109741,-5.667121887207031,0.0,0.08499821275472641,1.01626455783844,0.18999670445919037,-0.5000045299530029,-0.49999552965164185,0.4999954402446747,0.5000045299530029
394.0,-5.327491283416748,-0.5222330093383789,1.580094337463379,2.0837290287017822,-5.668109893798828,0.0,0.08499927073717117,1.0181413888931274,0.19065730273723602,-0.5000064969062805,-0.4999941885471344,0.4999924898147583,0.5000068545341492
395.0,-5.326505184173584,-0.5219104290008545,1.5772603750228882,2.086247205734253,-5.669100761413574,0.0,0.08499373495578766,1.0200259685516357,0.19131799042224884,-0.5000081658363342,-0.4999907612800598,0.4999935030937195,0.5000076293945312
396.0,-5.325525760650635,-0.5215789079666138,1.5744075775146484,2.088768482208252,-5.67008113861084,0.0,0.08499571681022644,1.0219123363494873,0.191977858543396,-0.5000083446502686,-0.49999043345451355,0.4999935030937195,0.5000078082084656
397.0,-5.324540615081787,-0.5212470293045044,1.5715367794036865,2.0913100242614746,-5.671041965484619,0.0,0.08499349653720856,1.0238003730773926,0.1926485151052475,-0.5000023245811462,-0.49999573826789856,0.5000004172325134,0.5000014901161194
398.0,-5.323575019836426,-0.5209042429924011,1.5686932802200317,2.09381365776062,-5.672025203704834,0.0,0.08499597012996674,1.025678277015686,0.19330109655857086,-0.5000069737434387,-0.49999022483825684,0.49999716877937317,0.5000057220458984
399.0,-5.322603702545166,-0.5205605030059814,1.5658224821090698,2.0963354110717773,-5.672987461090088,0.0,0.08499674499034882,1.027560830116272,0.19396473467350006,-0.5000044107437134,-0.4999943971633911,0.49999749660491943,0.5000038743019104
400.0,-5.321631908416748,-0.5202000141143799,1.5629372596740723,2.098846912384033,-5.673954963684082,0.0,0.08499500155448914,1.0294477939605713,0.19461692869663239,-0.5000024437904358,-0.5,0.49999403953552246,0.5000035166740417
401.0,-5.320672988891602,-0.5198549032211304,1.5600786209106445,2.1013598442077637,-5.674922466278076,0.0,0.08499561250209808,1.0313230752944946,0.19528348743915558,-0.5000047087669373,-0.49999797344207764,0.49999165534973145,0.500005841255188
402.0,-5.319712162017822,-0.5194921493530273,1.5571967363357544,2.1038806438446045,-5.675887107849121,0.0,0.08499585092067719,1.0332056283950806,0.19594338536262512,-0.5000056624412537,-0.499996542930603,0.49999141693115234,0.5000065565109253
403.0,-5.318751335144043,-0.5191211104393005,1.5543032884597778,2.1063966751098633,-5.676844120025635,0.0,0.08499440550804138,1.0350879430770874,0.19660048186779022,-0.5000043511390686,-0.49999961256980896,0.4999900162220001,0.5000061392784119
404.0,-5.317797660827637,-0.5187509059906006,1.551414966583252,2.1089231967926025,-5.677806377410889,0.0,0.08499500900506973,1.0369699001312256,0.19726379215717316,-0.5000070333480835,-0.4999946355819702,0.499990850687027,0.5000076293945312
405.0,-5.3168416023254395,-0.5183736681938171,1.548505425453186,2.1114766597747803,-5.6787519454956055,0.0,0.08499656617641449,1.0388559103012085,0.19793365895748138,-0.5000057220458984,-0.49998998641967773,0.5000007748603821,0.5000036954879761
406.0,-5.315892219543457,-0.5179835557937622,1.5455924272537231,2.1139962673187256,-5.679690837860107,0.0,0.08499820530414581,1.0407344102859497,0.19858917593955994,-0.5000028610229492,-0.49999356269836426,0.5000025033950806,0.5000011920928955
407.0,-5.314944267272949,-0.517600417137146,1.54268479347229,2.1165013313293457,-5.680661201477051,0.0,0.0849941298365593,1.0426195859909058,0.19925078749656677,-0.5000072121620178,-0.4999947249889374,0.4999900162220001,0.5000081062316895
408.0,-5.313998222351074,-0.5172009468078613,1.539753794670105,2.119037389755249,-5.681595325469971,0.0,0.08499609678983688,1.0445023775100708,0.19991172850131989,-0.5000045299530029,-0.499996155500412,0.49999451637268066,0.500004768371582
409.0,-5.313056468963623,-0.5167919397354126,1.536815881729126,2.12158203125,-5.682528972625732,0.0,0.0850001871585846,1.04638671875,0.200571209192276,-0.5000035166740417,-0.499992698431015,0.5000022649765015,0.5000016689300537
