Sungjin-Park-dev/lg_sgu_vision_v2/data/sample/trajectory/124/trajectory_dp_s010.csv
time,ur20-shoulder_pan_joint,ur20-shoulder_lift_joint,ur20-elbow_joint,ur20-wrist_1_joint,ur20-wrist_2_joint,ur20-wrist_3_joint,target-POS_X,target-POS_Y,target-POS_Z,target-ROT_X,target-ROT_Y,target-ROT_Z,target-ROT_W
0.0,1.9927526712417603,-0.743270218372345,1.434114694595337,-0.6908450722694397,-2.7196171283721924,0.0,-0.28499817848205566,1.008939504623413,0.1959955394268036,0.5000049471855164,0.4999951124191284,0.49999529123306274,0.5000046491622925
1.0,1.9776256594394894,-0.7151142012957011,1.355515356048035,-0.640401232624233,-2.734744222849244,0.0,-0.2850379943847656,1.0547038316726685,0.20680572092533112,0.5000046491622925,0.49999526143074036,0.4999951422214508,0.500004768371582
2.0,1.9761846085590846,-0.7113641736444063,1.3472562125446246,-0.6358921102273822,-2.7361853180183027,0.0,-0.285123348236084,1.059415340423584,0.20700034499168396,0.5000047087669373,0.4999952018260956,0.49999526143074036,0.5000047087669373
3.0,1.9628402770717457,-0.6826624527269282,1.2681743981990758,-0.5855119192872887,-2.7495294669059365,0.0,-0.28503620624542236,1.1024364233016968,0.21810351312160492,0.500004768371582,0.4999952018260956,0.4999951422214508,0.5000048875808716
4.0,1.9509858020716717,-0.6521288053533009,1.1885119460579896,-0.5363834565701004,-2.7613841525769613,0.0,-0.2850313186645508,1.1431511640548706,0.22774244844913483,0.500004768371582,0.4999952018260956,0.49999526143074036,0.5000045895576477
5.0,1.940374769771738,-0.6194131687918945,1.1083719019566107,-0.4889587658110288,-2.771995039933601,0.0,-0.28503382205963135,1.1816507577896118,0.23516514897346497,0.500004768371582,0.4999951422214508,0.4999952018260956,0.5000047087669373
6.0,1.9322003673174168,-0.5849488590494993,1.0412133310848846,-0.4390481521972316,-2.7355628523813946,0.0,-0.2845642864704132,1.1931406259536743,0.23456062376499176,0.5054097771644592,0.4910815954208374,0.48632216453552246,0.5166144371032715
7.0,1.9243684660941855,-0.5506039339918672,0.9762336845440791,-0.3883781406102339,-2.6914840871506613,0.0,-0.284227579832077,1.1992344856262207,0.23352879285812378,0.5112388730049133,0.4801388084888458,0.47028207778930664,0.5356643199920654
8.0,1.9249209995761336,-0.552079234215435,0.9804776568751684,-0.39028449606141413,-2.6886972491921277,0.0,-0.28442931175231934,1.1964689493179321,0.23296360671520233,0.5114739537239075,0.47964316606521606,0.46959996223449707,0.5364816188812256
9.0,1.933326498736665,-0.5871042023204446,1.0495573303910428,-0.4414345298729711,-2.7245849431577143,0.0,-0.2848334014415741,1.1851766109466553,0.23274333775043488,0.5065467357635498,0.48903384804725647,0.4833061397075653,0.5202609300613403
10.0,1.9417319978971965,-0.622129170425454,1.1186370039069171,-0.492584563684528,-2.7604726371233013,0.0,-0.28499507904052734,1.1725128889083862,0.23279108107089996,0.5012661218643188,0.49799856543540955,0.49689438939094543,0.5038109421730042
11.0,1.952021947620295,-0.6542153804341458,1.1960811484807456,-0.5418658035958798,-2.760347864673295,0.0,-0.2850457429885864,1.139534592628479,0.22574232518672943,0.500004768371582,0.4999952018260956,0.4999952018260956,0.500004768371582
12.0,1.9178781098659514,-0.685338682765001,1.1833475860193827,-0.5800971273926827,-2.712403829639816,0.0,-0.25142809748649597,1.1420812606811523,0.2617879807949066,0.5464165210723877,0.4674288034439087,0.4898797869682312,0.4929068386554718
13.0,1.869012918188897,-0.7165319567620002,1.1406247218768684,-0.6148675756831672,-2.652582427600936,0.0,-0.2068614363670349,1.1554311513900757,0.31157201528549194,0.6051174402236938,0.4223387539386749,0.47376999258995056,0.48062968254089355
14.0,1.8201477265118429,-0.7477252307589993,1.097901857734354,-0.6496380239736516,-2.592761025562056,0.0,-0.16249966621398926,1.1658556461334229,0.36045536398887634,0.6603363752365112,0.37537527084350586,0.45485901832580566,0.4649219214916229
15.0,1.7712825348347885,-0.7789185047559986,1.0551789935918396,-0.684408472264136,-2.532939623523176,0.0,-0.11861234903335571,1.173811674118042,0.4087428152561188,0.7117314338684082,0.3269672989845276,0.43349555134773254,0.44565948843955994
16.0,1.722417343157734,-0.8101117787529978,1.0124561294493253,-0.7191789205546206,-2.4731182214842957,0.0,-0.07536998391151428,1.1796910762786865,0.456813782453537,0.759003758430481,0.27756375074386597,0.4100536108016968,0.4227617383003235
17.0,1.6735521514806797,-0.841305052749997,0.9697332653068109,-0.7539493688451051,-2.4132968194454154,0.0,-0.03286222368478775,1.1837959289550781,0.5051027536392212,0.8019011616706848,0.2276291847229004,0.38492873311042786,0.3961934447288513
18.0,1.6246869598036253,-0.8724983267469962,0.9270104011642966,-0.7887198171355896,-2.3534754174065355,0.0,0.008877947926521301,1.1863164901733398,0.5540781021118164,0.8402191996574402,0.17763829231262207,0.3585315942764282,0.3659663498401642
19.0,1.5758217681265712,-0.9036916007439953,0.8842875370217822,-0.823490265426074,-2.2936540153676552,0.0,0.0498463436961174,1.187321424484253,0.604220986366272,0.8738030791282654,0.128070667386055,0.33128437399864197,0.3321395218372345
20.0,1.5269565764495168,-0.9348848747409946,0.8415646728792678,-0.8582607137165584,-2.233832613328775,0.0,0.09003753960132599,1.1867512464523315,0.6560017466545105,0.9025486707687378,0.07940543442964554,0.30361443758010864,0.2948201894760132
21.0,1.4780913847724624,-0.9660781487379938,0.7988418087367535,-0.8930311620070429,-2.174011211289895,0.0,0.12941481173038483,1.1844249963760376,0.7098572850227356,0.9264026284217834,0.03211568295955658,0.2759493589401245,0.2541627585887909
22.0,1.429226193095408,-0.997271422734993,0.7561189445942391,-0.9278016102975274,-2.1141898092510147,0.0,0.1678818017244339,1.1800498962402344,0.7661685943603516,0.9453621506690979,-0.013336652889847755,0.2487119734287262,0.21036827564239502
23.0,1.3803610014183536,-1.0284646967319921,0.7133960804517246,-0.9625720585880119,-2.0543684072121344,0.0,0.2052575647830963,1.1732451915740967,0.8252406120300293,0.9594743251800537,-0.05650627985596657,0.22231464087963104,0.16368281841278076
24.0,1.3314958097412992,-1.0596579707289915,0.6706732163092103,-0.9973425068784963,-1.9945470051732546,0.0,0.24125684797763824,1.1635676622390747,0.8872827291488647,0.9688347578048706,-0.09696938842535019,0.19715455174446106,0.11439542472362518
25.0,1.2826306180642448,-1.0908512447259908,0.6279503521666959,-1.032112955168981,-1.9347256031343742,0.0,0.2754770815372467,1.1505435705184937,0.9523932933807373,0.973584771156311,-0.13432873785495758,0.1736089289188385,0.06283551454544067
26.0,1.2337654263871904,-1.12204451872299,0.5852274880241815,-1.0668834034594652,-1.8749042010954942,0.0,0.3073924481868744,1.1337066888809204,1.0205472707748413,0.9739105105400085,-0.1682179570198059,0.15203024446964264,0.009369522333145142
27.0,1.1849002347101363,-1.153237792719989,0.5425046238816673,-1.1016538517499497,-1.815082799056614,0.0,0.3363581597805023,1.112635850906372,1.0915848016738892,-0.9700384140014648,0.19830623269081116,-0.13274209201335907,0.0456017330288887
28.0,1.136035043033082,-1.1844310667169882,0.49978175973915295,-1.1364243000404342,-1.755261397017734,0.0,0.3616202175617218,1.0869933366775513,1.1652089357376099,-0.9622329473495483,0.2243015170097351,-0.11603520810604095,0.10164838284254074
29.0,1.0871698513560275,-1.2156243407139873,0.4570588955966385,-1.1711947483309186,-1.695439994978854,0.0,0.38233667612075806,1.0565611124038696,1.2409822940826416,-0.9507919549942017,0.24595439434051514,-0.10216408967971802,0.1583147794008255
30.0,1.0383046596789731,-1.2468176147109866,0.4143360314541241,-1.2059651966214031,-1.6356185929399738,0.0,0.3976048231124878,1.02127206325531,1.3183307647705078,-0.9360430240631104,0.2630607485771179,-0.09134384989738464,0.21512483060359955
31.0,0.9894394680019187,-1.278010888707986,0.37161316731160976,-1.2407356449118876,-1.5757971909010935,0.0,0.40649640560150146,0.9812365770339966,1.396552562713623,-0.9183388352394104,0.27546441555023193,-0.08374792337417603,0.2715865969657898
32.0,0.9405742763248643,-1.309204162704985,0.3288903031690953,-1.275506093202372,-1.5159757888622134,0.0,0.40809640288352966,0.9367601871490479,1.4748268127441406,-0.8980523347854614,0.2830587327480316,-0.07950568944215775,0.32719796895980835
33.0,0.89170908464781,-1.3403974367019842,0.2861674390265809,-1.3102765414928566,-1.4561543868233333,0.0,0.401547908782959,0.8883541226387024,1.552231788635254,-0.8755718469619751,0.2857881784439087,-0.07870114594697952,0.381451278924942
34.0,0.8428438929707556,-1.3715907106989835,0.24344457488406657,-1.345046989783341,-1.396332984784453,0.0,0.3860955536365509,0.836733877658844,1.627761960029602,-0.8512960076332092,0.2836487293243408,-0.08137215673923492,0.4338398575782776
35.0,0.7939787012937012,-1.4027839846959829,0.2007217107415522,-1.3798174380738255,-1.336511582745573,0.0,0.36113157868385315,0.7828102111816406,1.7003512382507324,-0.8256284594535828,0.27668842673301697,-0.08750997483730316,0.48386260867118835
36.0,0.7451135096166468,-1.433977258692982,0.15799884659903785,-1.41458788636431,-1.2766901807066926,0.0,0.3262358605861664,0.7276685833930969,1.7688965797424316,-0.7989731431007385,0.26500651240348816,-0.09705909341573715,0.5310301780700684
37.0,0.6962483179395924,-1.465170532689981,0.11527598245652326,-1.4493583346547945,-1.2168687786678125,0.0,0.28121450543403625,0.6725398302078247,1.8322840929031372,-0.7717283964157104,0.24875260889530182,-0.10991884022951126,0.5748696327209473
38.0,0.6473831262625385,-1.4963638066869802,0.07255311831400912,-1.484128782945279,-1.1570473766289326,0.0,0.2261284589767456,0.6187627911567688,1.8894164562225342,-0.7442829012870789,0.22812515497207642,-0.1259438842535019,0.6149308681488037
39.0,0.5985179345854841,-1.5275570806839793,0.029830254171494763,-1.5188992312357632,-1.0972259745900526,0.0,0.16131587326526642,0.5677391290664673,1.9392403364181519,-0.7170098423957825,0.20336908102035522,-0.14494673907756805,0.6507905721664429
40.0,0.5496527429084297,-1.5587503546809787,-0.012892609971019597,-1.553669679526248,-1.0374045725511722,0.0,0.08740368485450745,0.5208844542503357,1.980773687362671,-0.6902631521224976,0.17477305233478546,-0.1666995733976364,0.6820573806762695
41.0,0.5007875512313753,-1.589943628677978,-0.05561547411353396,-1.5884401278167322,-0.9775831705122922,0.0,0.005308251827955246,0.47957471013069153,2.0131313800811768,-0.6643729209899902,0.14266666769981384,-0.19093789160251617,0.7083767652511597
42.0,0.4519223595543209,-1.6211369026749771,-0.09833833825604832,-1.6232105761072166,-0.9177617684734121,0.0,-0.08377528935670853,0.44509297609329224,2.0355496406555176,-0.6396408081054688,0.10741628706455231,-0.21736295521259308,0.7294345498085022
43.0,0.40305716787726653,-1.6523301766719762,-0.14106120239856268,-1.6579810243977011,-0.8579403664345318,0.0,-0.17839452624320984,0.4185773730278015,2.047408103942871,-0.6163375973701477,0.06942111253738403,-0.2456463873386383,0.7449607849121094
44.0,0.35419197620021214,-1.6835234506689756,-0.18378406654107726,-1.6927514726881858,-0.7981189643956517,0.0,-0.2768723964691162,0.4009729027748108,2.048245906829834,-0.594698965549469,0.029108908027410507,-0.27543359994888306,0.7547330260276794
45.0,0.30532678452315776,-1.7147167246659747,-0.22650693068359162,-1.7275219209786703,-0.7382975623567716,0.0,-0.3773500323295593,0.39298924803733826,2.037778854370117,-0.5749235153198242,-0.013068914413452148,-0.3063487708568573,0.7585791945457458
46.0,0.25646159284610337,-1.745909998662974,-0.269229794826106,-1.7622923692691548,-0.6784761603178913,0.0,-0.4778374433517456,0.39506638050079346,2.01590895652771,-0.5571698546409607,-0.05664258077740669,-0.33799925446510315,0.7563794851303101
47.0,0.20759640116904898,-1.7771032726599731,-0.31195265896862034,-1.7970628175596393,-0.618654758279011,0.0,-0.5762705206871033,0.4073503315448761,1.982730746269226,-0.5415557026863098,-0.10112880170345306,-0.3699803948402405,0.7480674386024475
48.0,0.1587312094919946,-1.8082965466569725,-0.3546755231111347,-1.8318332658501237,-0.5588333562401311,0.0,-0.6705737709999084,0.4296787977218628,1.9385311603546143,-0.528156042098999,-0.1460365504026413,-0.40188074111938477,0.7336322665214539
49.0,0.10986601781494021,-1.8394898206539716,-0.39739838725364907,-1.8666037141406082,-0.4990119542012508,0.0,-0.7587242126464844,0.46157974004745483,1.8837890625,-0.5170028805732727,-0.1908724159002304,-0.4332876205444336,0.7131181359291077
50.0,0.06100082613788582,-1.870683094650971,-0.4401212513961634,-1.9013741624310927,-0.43919055216237046,0.0,-0.8388137221336365,0.5022803544998169,1.819164752960205,-0.5080852508544922,-0.23514604568481445,-0.46379125118255615,0.6866245269775391
51.0,0.012135634460831435,-1.90187636864797,-0.482844115538678,-1.9361446107215772,-0.3793691501234906,0.0,-0.9091112017631531,0.5507289171218872,1.745488166809082,-0.5013495683670044,-0.2783760726451874,-0.49299097061157227,0.6543051600456238
52.0,-0.03672955721622273,-1.9330696426449692,-0.5255669796811921,-1.9709150590120614,-0.3195477480846107,0.0,-0.9681167602539062,0.6056272983551025,1.663743019104004,-0.49670061469078064,-0.3200947344303131,-0.5204994082450867,0.616366982460022
53.0,-0.08559474889327756,-1.9642629166419687,-0.568289843823707,-2.0056855073025464,-0.25972634604572997,0.0,-1.0146100521087646,0.6654726266860962,1.5750454664230347,-0.49400344491004944,-0.35985392332077026,-0.5459479689598083,0.5730676651000977
54.0,-0.1344599405703315,-1.9954561906389676,-0.6110127079662209,-2.04045595559303,-0.1999049440068501,0.0,-1.0476877689361572,0.7286074161529541,1.4806201457977295,-0.49308541417121887,-0.3972296118736267,-0.5689910054206848,0.5247138738632202
55.0,-0.18332513224738545,-2.0266494646359665,-0.653735572108735,-2.075226403883515,-0.14008354196797068,0.0,-1.0667917728424072,0.7932765483856201,1.3817750215530396,-0.49373874068260193,-0.43182674050331116,-0.5893105268478394,0.47165751457214355
56.0,-0.23219032392444028,-2.0578427386329663,-0.6964584362512496,-2.1099968521739996,-0.08026213992908993,0.0,-1.0717231035232544,0.857686460018158,1.279871940612793,-0.49572351574897766,-0.4632837176322937,-0.6066200733184814,0.41429248452186584
57.0,-0.2810555156014942,-2.0890360126299647,-0.7391813003937637,-2.1447673004644834,-0.02044073789021006,0.0,-1.0626462697982788,0.9200669527053833,1.1762974262237549,-0.49877139925956726,-0.491276353597641,-0.6206685900688171,0.3530510663986206
58.0,-0.32992070727854905,-2.1202292866269645,-0.7819041645362785,-2.179537748754968,0.03938066414867025,0.0,-1.0400766134262085,0.9787324666976929,1.0724328756332397,-0.5025894045829773,-0.5155211091041565,-0.6312432289123535,0.28839874267578125
59.0,-0.378785898955603,-2.1514225606239634,-0.8246270286787927,-2.214308197045453,0.09920206618755012,0.0,-1.0048613548278809,1.032137155532837,0.9696240425109863,-0.5068641901016235,-0.5357787609100342,-0.6381722688674927,0.22083017230033875
60.0,-0.4276510906326578,-2.1826158346209628,-0.8673498928213075,-2.2490786453359375,0.15902346822643088,0.0,-0.9581409096717834,1.078927755355835,0.8691537976264954,-0.5112661719322205,-0.551856279373169,-0.6413280963897705,0.15086379647254944
61.0,-0.47651628230971177,-2.213809108617962,-0.9100727569638214,-2.2838490936264213,0.2188448702653103,0.0,-0.9013108611106873,1.1179858446121216,0.772213876247406,-0.515454888343811,-0.5636093616485596,-0.6406276822090149,0.07903669774532318
62.0,-0.5253814739867666,-2.2450023826149614,-0.9527956211063362,-2.318619541916906,0.27866627230419105,0.0,-0.835966169834137,1.1484615802764893,0.6798807382583618,-0.5190832614898682,-0.5709440112113953,-0.6360350847244263,0.005898853298276663
63.0,-0.5742466656638205,-2.2761956566119603,-0.9955184852488501,-2.3533899902073907,0.3384876743430709,0.0,-0.7638459205627441,1.1697968244552612,0.593095600605011,0.5218030214309692,0.5738169550895691,0.6275610327720642,0.06799216568470001
64.0,-0.6231118573408754,-2.3073889306089597,-1.038241349391365,-2.3881604384978754,0.39830907638195123,0.0,-0.686771810054779,1.1817362308502197,0.5126457214355469,0.5232694149017334,0.5722358822822571,0.6152637004852295,0.14207690954208374
65.0,-0.6719770490179293,-2.3385822046059586,-1.0809642135338788,-2.422930886788359,0.4581304784208311,0.0,-0.6065860390663147,1.1843256950378418,0.4391513466835022,0.5231462717056274,0.5662597417831421,0.5992479920387268,0.21579985320568085
66.0,-0.7208422406949841,-2.369775478602958,-1.1236870776763936,-2.457701335078844,0.5179518804597119,0.0,-0.5250912308692932,1.1779016256332397,0.3730563521385193,0.5211111903190613,0.5559976696968079,0.5796645283699036,0.28861504793167114
67.0,-0.7697074323720381,-2.4009687525999572,-1.1664099418189076,-2.4924717833693286,0.5777732824985913,0.0,-0.4439935088157654,1.1630659103393555,0.3146240711212158,0.5168598890304565,0.5416072607040405,0.5567078590393066,0.3599913716316223
68.0,-0.8185726240490929,-2.4321620265969566,-1.2091328059614224,-2.5272422316598133,0.637594684537472,0.0,-0.36485159397125244,1.1406534910202026,0.2639380097389221,0.5101109147071838,0.523292601108551,0.53061443567276,0.42941814661026
69.0,-0.8674378157261469,-2.4633553005939555,-1.2518556701039363,-2.562012679950297,0.6974160865763519,0.0,-0.28903481364250183,1.1116900444030762,0.22090600430965424,0.5006101727485657,0.5013021230697632,0.5016601085662842,0.49640974402427673
70.0,-0.8696132536895129,-2.43577035558181,-1.3003177680628306,-2.5008734767352854,0.7223856302226725,0.0,-0.27581262588500977,1.0897233486175537,0.21631117165088654,0.5214343070983887,0.4933374226093292,0.4957410991191864,0.48884060978889465
71.0,-0.8904503936287542,-2.4027602861642765,-1.319232402003125,-2.4145186421493814,0.7475825093904064,0.0,-0.256957471370697,1.0896332263946533,0.22102344036102295,0.5668135285377502,0.47791552543640137,0.4853112995624542,0.46345648169517517
72.0,-0.9112875335679955,-2.3697502167467435,-1.3381470359434195,-2.328163807563477,0.7727793885581403,0.0,-0.2395671010017395,1.0906703472137451,0.22576184570789337,0.6104195713996887,0.46127498149871826,0.47333627939224243,0.43653857707977295
73.0,-0.9321246735072368,-2.3367401473292104,-1.3570616698837141,-2.241808972977573,0.7979762677258743,0.0,-0.2235601842403412,1.0929358005523682,0.2308286726474762,0.6520853638648987,0.44352737069129944,0.45991718769073486,0.4080982804298401
74.0,-0.9529618134464781,-2.3037300779116774,-1.3759763038240085,-2.155454138391669,0.8231731468936081,0.0,-0.20882722735404968,1.096495270729065,0.2365318238735199,0.6916525363922119,0.42478927969932556,0.4451620578765869,0.3781554102897644
75.0,-0.9737989533857193,-2.2707200084941443,-1.3948909377643028,-2.0690993038057655,0.8483700260613418,0.0,-0.19523480534553528,1.101375699043274,0.24317821860313416,0.728972315788269,0.4051820635795593,0.4291851222515106,0.3467376232147217
76.0,-0.9946360933249606,-2.2377099390766113,-1.4138055717045972,-1.9827444692198615,0.8735669052290758,0.0,-0.18262749910354614,1.1075628995895386,0.2510695457458496,0.7639060020446777,0.3848305344581604,0.4121059775352478,0.31388136744499207
77.0,-1.0154732332642018,-2.2046998696590783,-1.4327202056448918,-1.8963896346339575,0.8987637843968097,0.0,-0.17083385586738586,1.1149989366531372,0.2604978084564209,0.7963263392448425,0.3638630509376526,0.39404892921447754,0.279630571603775
78.0,-1.0363103732034433,-2.1716898002415452,-1.4516348395851861,-1.8100348000480533,0.9239606635645435,0.0,-0.15966925024986267,1.1235820055007935,0.27173736691474915,0.8261164426803589,0.34241020679473877,0.37514275312423706,0.24403850734233856
79.0,-1.0571475131426846,-2.138679730824012,-1.4705494735254807,-1.723679965462149,0.9491575427322775,0.0,-0.14894157648086548,1.1331658363342285,0.2850431501865387,0.853171169757843,0.32060423493385315,0.35551920533180237,0.20716622471809387
80.0,-1.0807448059471207,-2.1078079032980024,-1.4891109842469041,-1.6568659036791527,1.004936294144487,0.0,-0.13936373591423035,1.1304672956466675,0.29348739981651306,0.8795279860496521,0.29687565565109253,0.32325756549835205,0.1838475465774536
81.0,-1.1054712238239939,-2.0778107891116413,-1.5075280390995551,-1.5980455935411386,1.0732254971149162,0.0,-0.13214267790317535,1.1240034103393555,0.30062514543533325,0.9038200974464417,0.2732056975364685,0.2851211428642273,0.1648448258638382
82.0,-1.111007787120495,-2.0513099667987635,-1.5053463031002479,-1.5563706649376552,1.1111399397793502,0.0,-0.14314714074134827,1.130062222480774,0.3242383599281311,0.9187994599342346,0.2615832984447479,0.2615317106246948,0.13777826726436615
83.0,-1.0589983483533956,-2.0352937272910214,-1.4413934861419981,-1.5661108295041033,1.0579673962485887,0.0,-0.2048855721950531,1.1640337705612183,0.3955628573894501,0.9125081300735474,0.28185582160949707,0.28227949142456055,0.09057770669460297
84.0,-1.006988909586297,-2.0192774877832793,-1.3774406691837495,-1.5758509940705512,1.0047948527178283,0.0,-0.2679257392883301,1.1893922090530396,0.4714175760746002,0.9044492840766907,0.29965588450431824,0.3006013333797455,0.042623091489076614
85.0,-0.9549794708191974,-2.003261248275537,-1.3134878522254998,-1.5855911586369993,0.951622309187067,0.0,-0.3310431241989136,1.205834984779358,0.551304817199707,-0.8948178291320801,-0.3148907423019409,-0.3164025843143463,0.005841032136231661
86.0,-0.9029700320520988,-1.9872450087677949,-1.2495350352672512,-1.5953313232034472,0.8984497656563065,0.0,-0.39297956228256226,1.2132391929626465,0.6346755623817444,-0.8838171362876892,-0.32748764753341675,-0.3296084403991699,0.05456379055976868
87.0,-0.8509605932850002,-1.971228769260053,-1.1855822183090028,-1.605071487769895,0.8452772221255461,0.0,-0.45247113704681396,1.2116687297821045,0.7209336161613464,-0.8716563582420349,-0.33739396929740906,-0.3401644825935364,0.10328935086727142
88.0,-0.7989511545179007,-1.9552125297523106,-1.121629401350753,-1.6148116523363432,0.7921046785947847,0.0,-0.5082762241363525,1.2013741731643677,0.8094418048858643,-0.8585489392280579,-0.3445776402950287,-0.34803617000579834,0.15175899863243103
89.0,-0.746941715750802,-1.9391962902445685,-1.0576765843925044,-1.6245518169027913,0.7389321350640243,0.0,-0.5592041015625,1.1827889680862427,0.8995272517204285,-0.8447110056877136,-0.3490276634693146,-0.35321033000946045,0.1997128278017044
90.0,-0.6949322769837025,-1.9231800507368262,-0.9937237674342547,-1.6342919814692394,0.6857595915332629,0.0,-0.6041421890258789,1.1565234661102295,0.9904876947402954,-0.8303599953651428,-0.3507537841796875,-0.35569438338279724,0.24689187109470367
91.0,-0.6429228382166039,-1.907163811229084,-0.9297709504760061,-1.6440321460356873,0.6325870480025025,0.0,-0.642082691192627,1.1233500242233276,1.0815982818603516,-0.8157114386558533,-0.34978652000427246,-0.3555164933204651,0.2930396497249603
92.0,-0.5909133994495044,-1.8911475717213417,-0.8658181335177565,-1.6537723106021354,0.5794145044717411,0.0,-0.6721470355987549,1.0841894149780273,1.1721198558807373,-0.8009787797927856,-0.3461773097515106,-0.3527253270149231,0.33790409564971924
93.0,-0.5389039606824058,-1.8751313322135998,-0.8018653165595079,-1.6635124751685832,0.5262419609409807,0.0,-0.6936069130897522,1.0400892496109009,1.261304259300232,-0.7863705158233643,-0.3399975597858429,-0.34738972783088684,0.38123929500579834
94.0,-0.48689452191530624,-1.8591150927058573,-0.7379124996012582,-1.6732526397350314,0.47306941741021935,0.0,-0.7059023380279541,0.9922020435333252,1.3484042882919312,-0.7720890641212463,-0.3313383460044861,-0.33959823846817017,0.42280757427215576
95.0,-0.4348850831482076,-1.8430988531981154,-0.6739596826430095,-1.6829928043014792,0.41989687387945895,0.0,-0.7086576819419861,0.9417585730552673,1.4326802492141724,-0.7583287954330444,-0.32030996680259705,-0.3294582664966583,0.46238088607788086
96.0,-0.3828756443811081,-1.827082613690373,-0.6100068656847599,-1.6927329688679273,0.36672433034869756,0.0,-0.7016900777816772,0.8900403380393982,1.5134084224700928,-0.7452746629714966,-0.30704042315483093,-0.31709498167037964,0.4997425079345703
97.0,-0.3308662056140095,-1.811066374182631,-0.5460540487265113,-1.7024731334343755,0.31355178681793716,0.0,-0.6850169897079468,0.8383508324623108,1.5898877382278442,-0.7331002354621887,-0.2916751503944397,-0.30265092849731445,0.5346887707710266
98.0,-0.27885676684690996,-1.7950501346748886,-0.4821012317682616,-1.7122132980008233,0.26037924328717577,0.0,-0.6588563323020935,0.7879847884178162,1.6614501476287842,-0.7219668626785278,-0.2743752896785736,-0.28628432750701904,0.5670302510261536
99.0,-0.22684732807981134,-1.7790338951671467,-0.41814841481001297,-1.7219534625672714,0.20720669975641537,0.0,-0.6236244440078735,0.7401986122131348,1.7274632453918457,-0.7120218873023987,-0.2553170323371887,-0.26816844940185547,0.5965933799743652
100.0,-0.17483788931271182,-1.7630176556594042,-0.35419559785176324,-1.7316936271337195,0.15403415622565397,0.0,-0.5799272656440735,0.6961812973022461,1.787341833114624,-0.7033977508544922,-0.2346896231174469,-0.24848946928977966,0.6232218146324158
101.0,-0.1228284505456132,-1.7470014161516623,-0.29024278089351485,-1.7414337917001674,0.10086161269489358,0.0,-0.5285481810569763,0.6570261716842651,1.8405524492263794,-0.6962106227874756,-0.2126944661140442,-0.22744564712047577,0.6467768549919128
102.0,-0.07081901177851369,-1.73098517664392,-0.22628996393526513,-1.7511739562666155,0.04768906916413207,0.0,-0.4704311192035675,0.6237057447433472,1.8866182565689087,-0.6905596852302551,-0.1895432472229004,-0.2052457183599472,0.6671393513679504
103.0,-0.01880957301141506,-1.7149689371361778,-0.1623371469770165,-1.7609141208330634,-0.005483474366628327,0.0,-0.4066603481769562,0.597048819065094,1.925126314163208,-0.6865258812904358,-0.1654563695192337,-0.1821068674325943,0.6842100620269775
104.0,0.033199865755684455,-1.6989526976284355,-0.09838433001876679,-1.7706542853995115,-0.05865601789738961,0.0,-0.3384367823600769,0.5777212381362915,1.9557304382324219,-0.6841720342636108,-0.140661358833313,-0.15825355052947998,0.6979102492332458
105.0,0.08520930452278308,-1.6829364581206934,-0.03443151306051817,-1.7803944499659594,-0.11182856142815001,0.0,-0.2670508921146393,0.5662100315093994,1.978156328201294,-0.683541476726532,-0.11539087444543839,-0.1339152753353119,0.7081825733184814
106.0,0.1372187432898826,-1.666920218612951,0.029521303897731554,-1.7901346145324075,-0.16500110495891152,0.0,-0.1938547044992447,0.5628124475479126,1.9922046661376953,-0.6846580505371094,-0.08988119661808014,-0.10932524502277374,0.7149913311004639
107.0,0.18922818205698122,-1.650903979105209,0.09347412085598017,-1.7998747790988556,-0.2181736484896719,0.0,-0.12023124098777771,0.5676290988922119,1.9977514743804932,-0.6875259876251221,-0.06437020003795624,-0.08471809327602386,0.7183225750923157
108.0,0.24123762082407985,-1.634887739597467,0.15742693781422878,-1.8096149436653035,-0.2713461920204323,0.0,-0.04756386950612068,0.5805618762969971,1.9947524070739746,-0.6921296119689941,-0.03909563273191452,-0.06032848730683327,0.718184232711792
109.0,0.29324705959117936,-1.6188715000897247,0.2213797547724783,-1.8193551082317516,-0.3245187355511936,0.0,0.022794324904680252,0.6013167500495911,1.9832403659820557,-0.6984336376190186,-0.014293275773525238,-0.03638913482427597,0.7146061062812805
110.0,0.345256498358278,-1.6028552605819826,0.2853325717307269,-1.8290952727981995,-0.377691279081954,0.0,0.08955061435699463,0.6294111013412476,1.9633268117904663,-0.7063831686973572,0.009805003181099892,-0.013128742575645447,0.7076398730278015
111.0,0.3972659371253775,-1.5868390210742402,0.34928538868897663,-1.8388354373646476,-0.4308638226127155,0.0,0.1515006422996521,0.6641854047775269,1.9352000951766968,-0.7159045934677124,0.032972805202007294,0.009229294024407864,0.6973580121994019
112.0,0.4492753758924761,-1.5708227815664983,0.41323820564722524,-1.8485756019310955,-0.4840363661434759,0.0,0.20755542814731598,0.7048194408416748,1.8991228342056274,-0.7269056439399719,0.054991286247968674,0.03046911209821701,0.6838536262512207
113.0,0.5012848146595756,-1.5548065420587558,0.47719102260547497,-1.8583157664975436,-0.5372089096742372,0.0,0.25676339864730835,0.7503522038459778,1.8554292917251587,-0.7392762899398804,0.07565037906169891,0.05038377642631531,0.6672399044036865
114.0,0.5532942534266743,-1.538790302551014,0.5411438395637234,-1.8680559310639917,-0.5903814532049976,0.0,0.29833123087882996,0.7997044920921326,1.8045217990875244,-0.7528895139694214,0.09475088864564896,0.06877685338258743,0.6476489901542664
115.0,0.6053036921937738,-1.5227740630432716,0.6050966565219733,-1.8777960956304396,-0.6435539967357591,0.0,0.3316393792629242,0.8517053127288818,1.7468647956848145,-0.7676030397415161,0.11210562288761139,0.08546421676874161,0.6252309679985046
116.0,0.6573131309608724,-1.5067578235355295,0.6690494734802219,-1.8875362601968877,-0.6967265402665195,0.0,0.3562542200088501,0.905118465423584,1.6829819679260254,-0.7832589745521545,0.12754112482070923,0.10027508437633514,0.6001529693603516
117.0,0.7093225697279719,-1.4907415840277871,0.7330022904384714,-1.8972764247633358,-0.7498990837972808,0.0,0.37193503975868225,0.958673357963562,1.613447904586792,-0.7996864318847656,0.1408989280462265,0.1130538359284401,0.5725975632667542
118.0,0.7613320084950705,-1.4747253445200452,0.79695510739672,-1.9070165893297837,-0.8030716273280412,0.0,0.37863674759864807,1.0110929012298584,1.5388832092285156,-0.8167021870613098,0.1520366072654724,0.12366075813770294,0.5427616834640503
119.0,0.8133414472621701,-1.4587091050123027,0.86090792435497,-1.9167567538962318,-0.8562441708588027,0.0,0.37650829553604126,1.0611238479614258,1.4599469900131226,-0.8341127634048462,0.1608293503522873,0.1319735199213028,0.5108550190925598
120.0,0.8653508860292687,-1.4426928655045606,0.9248607413132182,-1.9264969184626797,-0.9094167143895628,0.0,0.3658853769302368,1.1075661182403564,1.3773300647735596,-0.8517148494720459,0.1671702265739441,0.1378878504037857,0.47709840536117554
121.0,0.9173603247963684,-1.4266766259968184,0.9888135582714681,-1.9362370830291278,-0.9625892579203246,0.0,0.3472805917263031,1.1492984294891357,1.2917468547821045,-0.869297981262207,0.1709715873003006,0.14131847023963928,0.4417223632335663
122.0,0.969369763563467,-1.4106603864890763,1.0527663752297167,-1.9459772475955757,-1.015761801451085,0.0,0.32136771082878113,1.1853045225143433,1.203927993774414,-0.8866461515426636,0.17216551303863525,0.14219985902309418,0.4049651324748993
123.0,1.0213792023305666,-1.394644146981334,1.1167191921879662,-1.9557174121620238,-1.0689343449818463,0.0,0.2889637351036072,1.2146947383880615,1.114612340927124,-0.903538703918457,0.1707044094800949,0.1404867172241211,0.3670712113380432
124.0,1.0733886410976652,-1.378627907473592,1.1806720091462148,-1.9654575767284719,-1.1221068885126066,0.0,0.2510075569152832,1.2367238998413086,1.0245397090911865,-0.9197530150413513,0.1665613055229187,0.13615408539772034,0.32828909158706665
125.0,1.1253980798647647,-1.3626116679658495,1.2446248261044648,-1.9751977412949198,-1.175279432043368,0.0,0.20853537321090698,1.2508090734481812,0.9344418048858643,-0.9350658655166626,0.15973012149333954,0.12919801473617554,0.2888699471950531
126.0,1.1774075186318633,-1.3465954284581074,1.3085776430627134,-1.9849379058613679,-1.2284519755741283,0.0,0.16265498101711273,1.2565373182296753,0.8450369238853455,-0.9492555856704712,0.1502256840467453,0.1196352168917656,0.24906541407108307
127.0,1.2294169573989628,-1.3305791889503653,1.372530460020963,-1.994678070427816,-1.2816245191048896,0.0,0.11451924592256546,1.2536742687225342,0.7570207118988037,-0.962103009223938,0.13808360695838928,0.10750313848257065,0.20912587642669678
128.0,1.2814263961660615,-1.3145629494426232,1.4364832769792115,-2.004418234994264,-1.3347970626356505,0.0,0.06529763340950012,1.242167353630066,0.6710606813430786,-0.9733946323394775,0.12336015701293945,0.09285981208086014,0.1692986935377121
129.0,1.33343583493316,-1.298546709934881,1.5004360939374601,-2.0141583995607117,-1.3879696061664109,0.0,0.016149617731571198,1.222142219543457,0.5877892374992371,-0.9829232096672058,0.1061316505074501,0.07578293979167938,0.1298264116048813
130.0,1.3854452737002596,-1.2825304704271387,1.5643889108957096,-2.02389856412716,-1.4411421496971721,0.0,-0.03180234879255295,1.1938964128494263,0.5077979564666748,-0.9904899001121521,0.08649405837059021,0.05636996403336525,0.09094462543725967
131.0,1.4374547124673582,-1.2665142309193969,1.6283417278539583,-2.033638728693608,-1.4943146932279325,0.0,-0.0774981677532196,1.1578919887542725,0.43163272738456726,-0.9959059357643127,0.06456196308135986,0.034736935049295425,0.05288076400756836
132.0,1.4894641512344577,-1.2504979914116543,1.6922945448122082,-2.043378893260056,-1.5474872367586938,0.0,-0.11996208131313324,1.1147385835647583,0.35978856682777405,-0.9989942908287048,0.04046805202960968,0.01101752556860447,0.015852276235818863
133.0,1.5167219921390287,-1.2126850676825174,1.6757461969486338,-2.033857564679502,-1.5707963705062866,0.0,-0.14060886204242706,1.1226369142532349,0.3298129439353943,-0.9996344447135925,0.027033884078264236,-2.4427034617247045e-08,7.867711815379153e-08
134.0,1.520881114048258,-1.1664454011344307,1.6038262915549586,-1.9898803837140582,-1.571759923282302,0.0,-0.1430068016052246,1.1599823236465454,0.3289828300476074,0.9996467232704163,-0.024949589744210243,0.0002533402293920517,0.009157472290098667
135.0,1.519986821401132,-1.1319933190927394,1.5439399397893212,-1.9178144294785542,-1.574215943035413,0.0,-0.14018754661083221,1.1763737201690674,0.32705214619636536,0.9991504549980164,-0.025333091616630554,0.0008838153444230556,0.03249150514602661
136.0,1.519092528754006,-1.0975412370510473,1.4840535880236827,-1.8457484752430489,-1.576671962788524,0.0,-0.13739871978759766,1.1916056871414185,0.32525140047073364,0.9981109499931335,-0.025644954293966293,0.0014911539619788527,0.05580819025635719
137.0,1.51819823610688,-1.063089155009356,1.4241672362580453,-1.7736825210075446,-1.579127982541635,0.0,-0.1346433460712433,1.2056827545166016,0.3235974609851837,0.9965288043022156,-0.025884520262479782,0.0020736551377922297,0.07909473031759262
138.0,1.5153263671693644,-1.0814155930117653,1.4491544161529797,-1.7778256375885642,-1.5796754145015515,0.0,-0.13189011812210083,1.1894453763961792,0.32637661695480347,0.9963899254798889,-0.027285443618893623,0.0021975801791995764,0.08035940676927567
139.0,1.5154172432309145,-1.1124629755389501,1.5053966787638908,-1.8542357645931384,-1.5768457847824264,0.0,-0.13363921642303467,1.179681420326233,0.3269389271736145,0.9981189370155334,-0.027478959411382675,0.0015040584839880466,0.0547822006046772
140.0,1.5155081192924649,-1.1435103580661354,1.561638941374803,-1.930645891597714,-1.5740161550633012,0.0,-0.13544726371765137,1.168821096420288,0.32799386978149414,0.999193549156189,-0.027581896632909775,0.0008033274207264185,0.029168691486120224
141.0,1.515598995354015,-1.1745577405933205,1.6178812039857142,-2.0070560186022885,-1.5711865253441764,0.0,-0.13731533288955688,1.156838059425354,0.329524427652359,0.9996129870414734,-0.027594292536377907,9.756879444466904e-05,0.0035359570756554604
142.0,1.5124578154620845,-1.1628141552511388,1.5943499949688822,-1.9391710473355759,-1.5748148828253277,0.0,-0.13280640542507172,1.1480711698532104,0.32518136501312256,0.9990760087966919,-0.029087087139487267,0.001086541684344411,0.03162039443850517
143.0,1.5087995369066907,-1.1442244160638437,1.5580557780857731,-1.8482002126016757,-1.5794764577377334,0.0,-0.1273888647556305,1.1389344930648804,0.32168692350387573,0.997194766998291,-0.030625367537140846,0.002215368440374732,0.06826168298721313
144.0,1.502948587730188,-1.163561144804877,1.5769546683362752,-1.8100496032201034,-1.5825659084218364,0.0,-0.12159425020217896,1.1091439723968506,0.3250698745250702,0.9956386685371399,-0.033276818692684174,0.002909682458266616,0.08710746467113495
145.0,1.493851595752781,-1.138970117954373,1.5453899622532354,-1.8031883623019995,-1.5841416002468414,0.0,-0.10924198478460312,1.131524920463562,0.32111409306526184,0.9954795837402344,-0.037737078964710236,0.003299917094409466,0.08709361404180527
146.0,1.5000628565579859,-1.0895958807541588,1.465526109664833,-1.772619174056862,-1.5830659278121353,0.0,-0.11338867992162704,1.1773730516433716,0.3228807747364044,0.995590329170227,-0.034691765904426575,0.0030335173942148685,0.08710389584302902
147.0,1.4936032843824267,-1.0594043048907549,1.4157176801472198,-1.753082777127828,-1.584184741818726,0.0,-0.10318592190742493,1.2059996128082275,0.32384854555130005,0.9954749345779419,-0.03785880282521248,0.0033106012269854546,0.08709441125392914
148.0,1.4862843545153792,-1.104937232174965,1.4961570785727492,-1.7880923639549606,-1.5854515158979263,0.0,-0.09757199883460999,1.1629408597946167,0.31860804557800293,0.9953321218490601,-0.04144679754972458,0.003624469507485628,0.08708086609840393
149.0,1.477941622275554,-1.1610726730322158,1.5744985893021743,-1.810425117914916,-1.586894628095874,0.0,-0.09195423871278763,1.1137763261795044,0.32424992322921753,0.9951533675193787,-0.04553622752428055,0.003982239868491888,0.08706498891115189
150.0,1.4690491405387658,-1.1379640352011655,1.5447235205975265,-1.8039064358487393,-1.5884317638254781,0.0,-0.07940338551998138,1.134561538696289,0.3205825090408325,0.9949443340301514,-0.049894511699676514,0.004363534972071648,0.0870467945933342
151.0,1.476289632689705,-1.0892650959273014,1.4649707650478483,-1.7727302420250057,-1.5871804720507268,0.0,-0.0837361142039299,1.180037260055542,0.32295334339141846,0.9951158761978149,-0.046345923095941544,0.004053159616887569,0.0870622992515564
152.0,1.4692171993470844,-1.0652692914217803,1.4245297311383323,-1.7564324015768586,-1.5883998587577532,0.0,-0.07262736558914185,1.203018069267273,0.3243592083454132,0.9949496984481812,-0.049812451004981995,0.00435566296800971,0.08703309297561646
153.0,1.4633326848384336,-1.0997451333573758,1.483590570492358,-1.8270506487879004,-1.5839899482000146,0.0,-0.06874904781579971,1.1897059679031372,0.32614973187446594,0.9965263605117798,-0.05317561328411102,0.0031500528566539288,0.06401245296001434
154.0,1.4578501493866778,-1.1324971823506909,1.5410974899839067,-1.9014800931289795,-1.5790795760678955,0.0,-0.06550964713096619,1.1780273914337158,0.3277795612812042,0.9976487159729004,-0.05623873695731163,0.001933546387590468,0.03911961242556572
155.0,1.45235658164405,-1.1655228829071167,1.5989038485945775,-1.9753705969886988,-1.5742202188336596,0.0,-0.06255268305540085,1.164794921875,0.32973673939704895,0.9981434345245361,-0.05915442481637001,0.0008563143201172352,0.014478872530162334
156.0,1.4461933723856195,-1.2151587734642157,1.6748856585189915,-2.0165483193363176,-1.5724573801687962,0.0,-0.06129708141088486,1.1233655214309692,0.3305457830429077,0.9980354309082031,-0.062253858894109726,0.00039388201548717916,0.007025483064353466
157.0,1.434686980342327,-1.2614237433786353,1.7457695941439029,-2.055142267037107,-1.570796347136316,0.0,-0.05448948219418526,1.0840498208999634,0.32977208495140076,0.9976851940155029,-0.0680021271109581,1.907040036996932e-08,6.207309155570329e-08
158.0,1.4377201157903703,-1.2102002592465577,1.6721091455485053,-2.0327052315143592,-1.5707963705062866,0.0,-0.05125633627176285,1.1325907707214355,0.329811155796051,-0.9977871179580688,0.06648904085159302,-2.618282657351756e-08,6.398629892601093e-08
159.0,1.4432246763774585,-1.1735128674914623,1.610102434114062,-1.9689110573615032,-1.5753151606762192,0.0,-0.05290764570236206,1.1542247533798218,0.3288952112197876,0.9977819323539734,-0.06368725001811981,0.0010282158618792892,0.01934109628200531
160.0,1.4469821238190896,-1.1422056977164916,1.553474980251287,-1.8931637634577712,-1.5812376839332951,0.0,-0.05344829708337784,1.1658982038497925,0.3281297981739044,0.9970992207527161,-0.0615740604698658,0.0024563756305724382,0.04467322677373886
161.0,1.4507395712607207,-1.1108985279415204,1.4968475263885113,-1.8174164695540378,-1.587160207190371,0.0,-0.05420834571123123,1.1765000820159912,0.32781538367271423,0.9957783818244934,-0.059276282787323,0.003971500787883997,0.06997006386518478
162.0,1.4562612046541297,-1.0712260355675702,1.4330510093145143,-1.759246686573896,-1.590635311557272,0.0,-0.05675079673528671,1.1987382173538208,0.3251218795776367,0.9946119785308838,-0.05616116523742676,0.004910673014819622,0.08699819445610046
163.0,1.4412983626348308,-1.0901288023173885,1.460191068465451,-1.7710223084864107,-1.5928145115038521,0.0,-0.03991590812802315,1.184399127960205,0.32752493023872375,0.9943088293075562,-0.06353490799665451,0.005458655767142773,0.08534298092126846
164.0,1.4372171431782819,-1.1215322974022723,1.5168539908126601,-1.846636559886459,-1.5862863419647553,0.0,-0.039002157747745514,1.1744080781936646,0.3276602625846863,0.9959914684295654,-0.06615752726793289,0.0037292528431862593,0.06008632481098175
165.0,1.433135923721733,-1.152935792487156,1.5735169131598692,-1.9222508112865069,-1.5797581724256582,0.0,-0.03831840679049492,1.1633639335632324,0.3282501995563507,0.9970369338989258,-0.06857965886592865,0.002090996829792857,0.03478232026100159
166.0,1.429054704265184,-1.1843392875720398,1.630179835507078,-1.997865062686555,-1.5732300028865611,0.0,-0.03788118436932564,1.151244044303894,0.32927942276000977,0.997445821762085,-0.0707969143986702,0.0005491230404004455,0.009448383934795856
167.0,1.4233911844301845,-1.208986673688356,1.6681028279268737,-2.019135347007443,-1.5723172336028668,0.0,-0.0347781702876091,1.1308362483978271,0.32957056164741516,0.9972707629203796,-0.0736306756734848,0.00036158598959445953,0.005430000834167004
168.0,1.42520635884371,-1.1743950106910725,1.6078051270683646,-1.947746254179609,-1.578764041058733,0.0,-0.03176967799663544,1.1480326652526855,0.3287677764892578,0.9969545006752014,-0.07258902490139008,0.0019188228761777282,0.028441039845347404
169.0,1.4270215332572356,-1.1398033476937888,1.5475074262098556,-1.8763571613517749,-1.5852108485145988,0.0,-0.028984310105443,1.1641361713409424,0.32805952429771423,0.9961171746253967,-0.07136302441358566,0.0035126309376209974,0.05143324285745621
170.0,1.428836707670761,-1.105211684696505,1.4872097253513463,-1.8049680685239409,-1.5916576559704647,0.0,-0.026415608823299408,1.17914879322052,0.3274608254432678,0.9947590827941895,-0.06995443254709244,0.005138920154422522,0.07439354807138443
171.0,1.4349712715905165,-1.0606811348673764,1.4187174841799728,-1.7558981301978276,-1.594302597101086,0.0,-0.028574146330356598,1.2085115909576416,0.3233789801597595,0.9939676523208618,-0.06658952683210373,0.005822005681693554,0.08694914728403091
172.0,1.4129724731596833,-1.054210129786651,1.4262065064773004,-1.7349521379997304,-1.5060641146324605,0.0,-0.03784291818737984,1.201409101486206,0.30893945693969727,0.9907260537147522,-0.08171013742685318,-0.04025876894593239,0.10081911832094193
173.0,1.3883978141129578,-1.0508172426777196,1.4390521783460144,-1.714111564766966,-1.412475182015297,0.0,-0.04674946516752243,1.1925996541976929,0.2979006767272949,0.9844115972518921,-0.09972734749317169,-0.0892496109008789,0.11411751806735992
174.0,1.3638231550662334,-1.0474243555687883,1.451897850214728,-1.6932709915342026,-1.3188862493981368,0.0,-0.05536676198244095,1.1857863664627075,0.29064127802848816,0.9751542210578918,-0.11902615427970886,-0.13811248540878296,0.12582528591156006
175.0,1.339248496019508,-1.044031468459857,1.464743522083442,-1.6724304183014382,-1.2252973167809733,0.0,-0.06319800019264221,1.1812036037445068,0.2869787812232971,0.9629401564598083,-0.13947534561157227,-0.18665055930614471,0.13584688305854797
176.0,1.3146738369727826,-1.0406385813509256,1.477589193952156,-1.651589845068674,-1.1317083841638098,0.0,-0.06973657757043839,1.1790168285369873,0.2866794168949127,0.9477697014808655,-0.1609370857477188,-0.23466499149799347,0.1440974771976471
177.0,1.290099177926057,-1.037245694241994,1.49043486582087,-1.6307492718359096,-1.0381194515466463,0.0,-0.07447640597820282,1.1793193817138672,0.28946414589881897,0.9296573400497437,-0.18326745927333832,-0.28195568919181824,0.15050333738327026
178.0,1.2655245188793327,-1.0338528071330628,1.5032805376895835,-1.609908698603146,-0.9445305189294861,0.0,-0.07692134380340576,1.1821274757385254,0.29501134157180786,0.9086316823959351,-0.20631778240203857,-0.3283223807811737,0.15500220656394958
179.0,1.2586642264999406,-1.0141691148150813,1.4802171027487934,-1.5896563093715175,-0.8824755187495079,0.0,-0.08203711360692978,1.2037330865859985,0.3014848828315735,0.8951408267021179,-0.21658194065093994,-0.35745272040367126,0.15505725145339966
180.0,1.2513064017188054,-1.0523940160151304,1.5389737459339528,-1.6315450542372387,-0.8758451935307907,0.0,-0.08361650258302689,1.1790637969970703,0.3069300055503845,0.8958571553230286,-0.21722303330898285,-0.36020177602767944,0.14320886135101318
181.0,1.2421475477407795,-1.0814680734391762,1.5960544441171776,-1.7060120255013218,-0.8603231671995516,0.0,-0.08189606666564941,1.1673954725265503,0.30612611770629883,0.897616446018219,-0.21531780064105988,-0.3658907115459442,0.11851963400840759
182.0,1.2329886937627539,-1.110542130863221,1.6531351423004004,-1.7804789967654024,-0.8448011408683129,0.0,-0.08074808120727539,1.1546084880828857,0.30587881803512573,0.8989065885543823,-0.2129705399274826,-0.37122470140457153,0.09382239729166031
183.0,1.212743610352524,-1.1525423726011241,1.7301727556724187,-1.8113670569920366,-0.846956038801697,0.0,-0.0735466256737709,1.1109553575515747,0.2988928556442261,0.8966580033302307,-0.22261665761470795,-0.371409147977829,0.09220344573259354
184.0,1.1944320856587316,-1.1498266956705923,1.744543691163804,-1.758984513185952,-0.8354363455953018,0.0,-0.0660005733370781,1.0887765884399414,0.28733745217323303,0.8842431902885437,-0.24225680530071259,-0.38107621669769287,0.11919049918651581
185.0,1.1773319386385919,-1.1180813282495936,1.7225564830073887,-1.6710569408587819,-0.8140172896315625,0.0,-0.05630297213792801,1.0841623544692993,0.2732280194759369,0.8645151257514954,-0.26627033948898315,-0.39615464210510254,0.1574011594057083
186.0,1.160231791618453,-1.086335960828596,1.7005692748509744,-1.583129368531615,-0.7925982336678239,0.0,-0.0464400053024292,1.0800111293792725,0.2610416114330292,0.842189610004425,-0.290219783782959,-0.4106059670448303,0.19465786218643188
187.0,1.1431316445983133,-1.0545905934075974,1.6785820666945592,-1.4952017962044448,-0.7711791777040846,0.0,-0.036291398108005524,1.0765080451965332,0.2506186068058014,0.8173391222953796,-0.31399041414260864,-0.42433127760887146,0.23088885843753815
188.0,1.1260314975781738,-1.0228452259865988,1.656594858538144,-1.4072742238772746,-0.7497601217403453,0.0,-0.02573525905609131,1.073807716369629,0.24177804589271545,0.7900455594062805,-0.33746710419654846,-0.4372333288192749,0.2660282254219055
189.0,1.1089313505580343,-0.9910998585656001,1.6346076503817288,-1.3193466515501044,-0.728341065776606,0.0,-0.014649912714958191,1.072034478187561,0.2343210130929947,0.7603996992111206,-0.36053574085235596,-0.4492175579071045,0.3000161945819855
190.0,1.0918312035378952,-0.9593544911446026,1.6126204422253145,-1.2314190792229374,-0.7069220098128675,0.0,-0.002918131649494171,1.0712807178497314,0.22803443670272827,0.7285019159317017,-0.38308316469192505,-0.46019238233566284,0.3327990770339966
191.0,1.0747310565177557,-0.9276091237236039,1.5906332340688993,-1.1434915068957672,-0.6855029538491281,0.0,0.009571105241775513,1.0716063976287842,0.2226942777633667,0.6944605708122253,-0.4049977958202362,-0.47006964683532715,0.36432933807373047
192.0,1.057630909497616,-0.8958637563026053,1.5686460259124841,-1.0555639345685972,-0.6640838978853888,0.0,0.02291928231716156,1.0730397701263428,0.21806983649730682,0.6583922505378723,-0.4261704981327057,-0.47876521944999695,0.3945656418800354
193.0,1.0405307624774771,-0.8641183888816077,1.5466588177560698,-0.9676363622414301,-0.6426648419216503,0.0,0.037215784192085266,1.0755791664123535,0.21392719447612762,0.620421826839447,-0.4464946687221527,-0.48619940876960754,0.4234730005264282
194.0,1.0234306154573374,-0.8323730214606091,1.5246716095996546,-0.87970878991426,-0.6212457859579109,0.0,0.052536092698574066,1.0791925191879272,0.21003270149230957,0.5806810259819031,-0.46586674451828003,-0.49229729175567627,0.45102232694625854
195.0,1.0063304684371979,-0.8006276540396104,1.5026844014432394,-0.79178121758709,-0.5998267299941716,0.0,0.06893931329250336,1.0838208198547363,0.2061569094657898,0.5393087267875671,-0.4841867685317993,-0.4969891309738159,0.4771907329559326
196.0,0.9922327827871811,-0.7691904063187838,1.47618833395664,-0.7069979099497951,-0.5785444441489868,0.0,0.08503531664609909,1.0923982858657837,0.20323732495307922,0.49999526143074036,-0.5000047087669373,-0.5000047087669373,0.4999952018260956
197.0,1.0112749174903628,-0.7407818236372297,1.3985929800425194,-0.6578111871578141,-0.5595021826442275,0.0,0.0850544199347496,1.1345902681350708,0.2132166028022766,0.4999951720237732,-0.500004768371582,-0.500004768371582,0.4999951422214508
198.0,1.0049933830952797,-0.7508192074754899,1.4242412762707866,-0.673422429602192,-0.5657836781632639,0.0,0.08525805920362473,1.1207083463668823,0.2106245756149292,0.4999953508377075,-0.500004768371582,-0.5000048279762268,0.49999505281448364
199.0,0.9852045130610335,-0.7791091447936417,1.5015736775707158,-0.722464595733445,-0.5855726084967168,0.0,0.08531438559293747,1.0779070854187012,0.2008383572101593,0.49999523162841797,-0.500004768371582,-0.500004768371582,0.4999951124191284
200.0,0.963471312194001,-0.8058000719360193,1.5780078985835848,-0.7722078866557126,-0.6073058064155257,0.0,0.08521758764982224,1.0336776971817017,0.19040627777576447,0.49999523162841797,-0.500004768371582,-0.500004768371582,0.49999523162841797
201.0,0.9796927707434251,-0.786710806560112,1.5227050697815323,-0.7359941476912746,-0.5910843437834553,0.0,0.08501134812831879,1.0659881830215454,0.19813156127929688,0.4999951720237732,-0.500004768371582,-0.500004768371582,0.49999529123306274
202.0,0.9604953054124801,-0.8085791978921668,1.588610915074202,-0.7800316427230676,-0.6102817974277056,0.0,0.08501087874174118,1.0275728702545166,0.18799439072608948,0.4999951422214508,-0.500004768371582,-0.500004768371582,0.4999951720237732
203.0,0.9386235065055369,-0.815350734461869,1.6563330106910263,-0.8285296973997537,-0.6148137840087831,0.0,0.08474909514188766,0.9927445650100708,0.1642082929611206,0.49128684401512146,-0.5050207376480103,-0.5036013126373291,0.49997687339782715
204.0,0.9130582790098799,-0.8260098229879036,1.7192874551700084,-0.8118604879782609,-0.5443486650523818,0.0,0.0840587466955185,0.9810444712638855,0.1598939597606659,0.442184716463089,-0.5323669910430908,-0.5218164920806885,0.4987640976905823
205.0,0.9240088174407267,-0.8545745280190354,1.7452948017802783,-0.8931516985110262,-0.5496330104539408,0.0,0.07056815922260284,0.9765037298202515,0.16012440621852875,0.4759753942489624,-0.5235287547111511,-0.523848831653595,0.47428616881370544
206.0,0.9383918738358883,-0.8848223786382843,1.767829084798815,-0.9836512850083451,-0.5620378801166978,0.0,0.056796006858348846,0.9735008478164673,0.16100852191448212,0.5164324641227722,-0.5099700093269348,-0.5232774615287781,0.4465519189834595
207.0,0.9527749302310499,-0.9150702292575331,1.7903633678173518,-1.074150871505664,-0.5744427497794546,0.0,0.04398530721664429,0.9714280962944031,0.16225168108940125,0.5555114150047302,-0.49505364894866943,-0.5214511156082153,0.41763344407081604
208.0,0.9671579866262114,-0.945318079876782,1.8128976508358885,-1.1646504580029828,-0.5868476194422116,0.0,0.03206424415111542,0.9702873826026917,0.16403864324092865,0.593083918094635,-0.4788494110107422,-0.51840740442276,0.3875671923160553
209.0,0.9815410430213725,-0.9755659304960297,1.8354319338544245,-1.2551500445002985,-0.5992524891049681,0.0,0.02095046639442444,0.9700613021850586,0.16655121743679047,0.6290278434753418,-0.461431086063385,-0.5141876935958862,0.3563934564590454
210.0,0.995924099416534,-1.0058137811152785,1.8579662168729612,-1.3456496309976174,-0.6116573587677251,0.0,0.010552391409873962,0.9707108736038208,0.16996626555919647,0.663225531578064,-0.4428764879703522,-0.5088366270065308,0.32415664196014404
211.0,1.0103071558116956,-1.0360616317345273,1.8805004998914978,-1.4361492174949364,-0.624062228430482,0.0,0.0007710233330726624,0.9721764326095581,0.17445270717144012,0.6955651640892029,-0.4232671558856964,-0.5024023652076721,0.2909051477909088
212.0,1.0246902122068573,-1.0663094823537762,1.9030347829100347,-1.5266488039922552,-0.636467098093239,0.0,-0.008498646318912506,0.9743768572807312,0.1801697462797165,0.7259411215782166,-0.4026876389980316,-0.4949359893798828,0.25669124722480774
213.0,1.0390732686020183,-1.096557332973024,1.9255690659285705,-1.617148390489571,-0.6488719677559954,0.0,-0.017365798354148865,0.977209746837616,0.1872648000717163,0.754254162311554,-0.3812256157398224,-0.48649144172668457,0.2215709537267685
214.0,1.0534563249971798,-1.1268051835922728,1.9481033489471071,-1.7076479769868897,-0.6612768374187524,0.0,-0.025941915810108185,0.9805519580841064,0.1958705186843872,0.7804114818572998,-0.3589712977409363,-0.4771251976490021,0.1856044977903366
215.0,1.0678393813923415,-1.1570530342115217,1.970637631965644,-1.7981475634842086,-0.6736817070815093,0.0,-0.03433878719806671,0.9842601418495178,0.20610368251800537,0.8043273687362671,-0.3360174000263214,-0.4668958783149719,0.14885549247264862
216.0,1.0822224377875025,-1.1873008848307693,1.9931719149841798,-1.8886471499815243,-0.6860865767442659,0.0,-0.04266618937253952,0.9881730079650879,0.21806271374225616,0.8259234428405762,-0.3124580681324005,-0.4558643400669098,0.1113910898566246
217.0,1.096605494182664,-1.2175487354500183,2.0157061980027167,-1.9791467364788433,-0.6984914464070228,0.0,-0.05103066563606262,0.9921108484268188,0.2318253517150879,0.84512859582901,-0.288389652967453,-0.4440930187702179,0.07328253984451294
218.0,1.1109885505778256,-1.247796586069267,2.038240481021253,-2.069646322976162,-0.7108963160697798,0.0,-0.059532828629016876,0.9958792924880981,0.24744883179664612,0.8618794083595276,-0.2639091908931732,-0.4316459596157074,0.034603726118803024
219.0,1.125371606972987,-1.278044436688516,2.06077476403979,-2.160145909473481,-0.7233011857325367,0.0,-0.06826639175415039,0.9992696046829224,0.26496627926826477,-0.8761204481124878,0.2391147017478943,0.41858839988708496,0.004567602649331093
220.0,1.1451491737316384,-1.3033263012790723,2.0775290941418927,-2.238672880756674,-0.7515758744744335,0.0,-0.0785110741853714,1.0008131265640259,0.2777029275894165,-0.8908442258834839,0.2141587734222412,0.39901208877563477,0.036357518285512924
221.0,1.1839015125605312,-1.3111406949317386,2.073952887869775,-2.2750871060323354,-0.8356714217433003,0.0,-0.09145966172218323,0.9985954165458679,0.26911288499832153,-0.9133861064910889,0.18964260816574097,0.35773682594299316,0.042258281260728836
222.0,1.2226538513894238,-1.3189550885844046,2.0703766815976574,-2.311501331307997,-0.919766969012167,0.0,-0.10204838961362839,0.997938334941864,0.2631223797798157,-0.9328574538230896,0.16578374803066254,0.31583839654922485,0.05038569122552872
223.0,1.2614061902183167,-1.3267694822370706,2.0668004753255396,-2.347915556583658,-1.0038625162810337,0.0,-0.11073217540979385,0.9988523721694946,0.2600148320198059,-0.9492626786231995,0.14278005063533783,0.2735553979873657,0.060676682740449905
224.0,1.300158529047208,-1.3345838758897364,2.063224269053422,-2.384329781859318,-1.0879580635498975,0.0,-0.11796645075082779,1.0012625455856323,0.26002705097198486,-0.9626252055168152,0.12082364410161972,0.23112329840660095,0.07305097579956055
225.0,1.3389108678761008,-1.3423982695424026,2.0596480627813047,-2.4207440071349793,-1.1720536108187642,0.0,-0.1241937130689621,1.005013346672058,0.26334458589553833,-0.972987174987793,0.10009929537773132,0.18877273797988892,0.08741164207458496
226.0,1.3776632067049936,-1.3502126631950686,2.056071856509187,-2.4571582324106402,-1.2561491580876312,0.0,-0.12983107566833496,1.0098748207092285,0.2700994312763214,-0.9804093241691589,0.08078302443027496,0.14672818779945374,0.10364580899477005
227.0,1.4164155455338863,-1.3580270568477346,2.0524956502370695,-2.4935724576863016,-1.3402447053564979,0.0,-0.1352587640285492,1.0155518054962158,0.2803662419319153,-0.9849693775177002,0.0630408450961113,0.10520640015602112,0.12162505090236664
228.0,1.4551678843627778,-1.3658414505004004,2.0489194439649516,-2.5299866829619617,-1.4243402526253615,0.0,-0.14081084728240967,1.021695852279663,0.29416167736053467,-0.9867621660232544,0.04702717810869217,0.0644148737192154,0.14120714366436005
229.0,1.4939202231916706,-1.3736558441530666,2.045343237692834,-2.5664009082376227,-1.5084357998942282,0.0,-0.14676761627197266,1.0279138088226318,0.31144386529922485,-0.9858981370925903,0.03288392350077629,0.024550819769501686,0.16223643720149994
230.0,1.5109097016609243,-1.3960572352857665,2.0826826185323752,-2.6058834779611937,-1.5501865824768775,0.0,-0.1491127759218216,1.0064406394958496,0.3127375841140747,-0.9844198822975159,0.027698498219251633,0.004954461008310318,0.17356759309768677
231.0,1.5105061903527,-1.4121074500275939,2.1173092812507046,-2.6244571122895,-1.550087443220328,0.0,-0.15009009838104248,0.9842211008071899,0.3046445846557617,-0.9844142198562622,0.027888523414731026,0.004968301393091679,0.17356859147548676
232.0,1.496038203825068,-1.3826198622266357,2.051676804495302,-2.5880176109755753,-1.5452553936451823,0.0,-0.13459600508213043,1.0279494524002075,0.3205772340297699,-0.9842002987861633,0.034592241048812866,0.006096131633967161,0.17353925108909607
233.0,1.4730241741744137,-1.4035782572552473,2.0938036461251297,-2.60854772500342,-1.537410509716405,0.0,-0.11663993448019028,1.0034985542297363,0.3116776943206787,-0.9837684035301208,0.0452415905892849,0.007973765023052692,0.1734626740217209
234.0,1.4371540914205603,-1.4097827039932618,2.1031418170997207,-2.6103492483075517,-1.525215195955371,0.0,-0.08622735738754272,1.00052011013031,0.3105941712856293,-0.982864499092102,0.061840299516916275,0.010900664143264294,0.17330358922481537
235.0,1.4096501542438018,-1.4118494859734718,2.1051114938563464,-2.608939890788851,-1.5159003151113166,0.0,-0.06259593367576599,1.0009372234344482,0.3107350468635559,-0.9819818139076233,0.07456847280263901,0.013144619762897491,0.17314240336418152
236.0,1.3855834559976437,-1.4116186385676652,2.1028687349606536,-2.605601723763978,-1.5077768867634584,0.0,-0.04146479070186615,1.003379225730896,0.31163525581359863,-0.9810715317726135,0.08570580184459686,0.015108708292245865,0.17298761010169983
237.0,1.370345442547973,-1.42032789709228,2.1768858929256703,-2.6700027074841017,-1.5026391833172243,0.0,-0.03593860939145088,0.965819239616394,0.2770131230354309,-0.9804269075393677,0.09275591373443604,0.016356011852622032,0.17289254069328308
238.0,1.4322954102805203,-1.4211758028561623,2.2010904996468055,-2.6966210074123986,-1.5235763673315559,0.0,-0.08919595181941986,0.9493542313575745,0.2653558850288391,-0.9827266931533813,0.06409073621034622,0.011295084841549397,0.17324280738830566
239.0,1.4753106736452066,-1.4119553194649623,2.200319898915943,-2.6443787602284887,-1.537583586934189,0.0,-0.1260349005460739,0.9283870458602905,0.24307037889957428,-0.9886969327926636,0.04487629979848862,0.00963632296770811,0.14272886514663696
240.0,1.4753117619513862,-1.4036174535867527,2.208453748844663,-2.545198662049006,-1.5364507855821963,0.0,-0.1303866058588028,0.8875716924667358,0.20547562837600708,-0.9951953291893005,0.04609322547912598,0.013050012290477753,0.0853891372680664
241.0,1.4753128502575659,-1.3952795877085429,2.2165875987733834,-2.4460185638695227,-1.5353179842302034,0.0,-0.13503536581993103,0.8436539769172668,0.1727164089679718,-0.9983633756637573,0.04722120240330696,0.016425443813204765,0.02776508964598179
242.0,1.4753139385637453,-1.386941721830333,2.2247214487021036,-2.34683846569004,-1.5341851828782103,0.0,-0.1399267315864563,0.7972018718719482,0.14510577917099,0.9981905221939087,-0.048256658017635345,-0.019747665151953697,0.029950430616736412
243.0,1.4753150268699249,-1.3786038559521236,2.232855298630824,-2.2476583675105606,-1.5330523815262176,0.0,-0.1450033187866211,0.7488145232200623,0.12288918346166611,0.9946773052215576,-0.04919613525271416,-0.02300172485411167,0.08756482601165771
244.0,1.4753161151761043,-1.370265990073914,2.240989148559544,-2.1484782693310773,-1.5319195801742247,0.0,-0.15020547807216644,0.699115514755249,0.1062411516904831,0.9878357648849487,-0.050036218017339706,-0.026172906160354614,0.14488543570041656
245.0,1.475317203482284,-1.3619281241957042,2.2491229984882644,-2.0492981711515945,-1.5307867788222318,0.0,-0.1554718166589737,0.6487444043159485,0.09526263922452927,0.9776887893676758,-0.05077378451824188,-0.02924698032438755,0.20172083377838135
246.0,1.4753182917884633,-1.3535902583174946,2.2572568484169846,-1.9501180729721117,-1.529653977470239,0.0,-0.16074052453041077,0.5983469486236572,0.08998037129640579,0.964270293712616,-0.05140562728047371,-0.03220982849597931,0.25788119435310364
247.0,1.475319380094643,-1.3452523924392852,2.265390698345705,-1.8509379747926322,-1.528521176118246,0.0,-0.16594988107681274,0.5485679507255554,0.09034541249275208,0.9476253986358643,-0.0519288070499897,-0.0350479818880558,0.3131789565086365
248.0,1.4753204684008223,-1.3369145265610753,2.2735245482744255,-1.7517578766131494,-1.527388374766253,0.0,-0.1710391342639923,0.5000419020652771,0.09623590111732483,0.9278098940849304,-0.052340492606163025,-0.03774828091263771,0.3674294054508209
249.0,1.475321556707002,-1.3285766606828655,2.2816583982031453,-1.6525777784336666,-1.5262555734142602,0.0,-0.17594920098781586,0.4533850848674774,0.1074562519788742,0.9048900008201599,-0.05263796076178551,-0.04029807820916176,0.42045125365257263
250.0,1.4753226450131816,-1.320238794804656,2.289792248131866,-1.5533976802541836,-1.5251227720622673,0.0,-0.18062375485897064,0.4091866910457611,0.12374182045459747,0.8789427876472473,-0.05281882360577583,-0.04268549755215645,0.4720675051212311
251.0,1.475323733319361,-1.3119009289264463,2.2979260980605862,-1.454217582074704,-1.5239899707102744,0.0,-0.1850096583366394,0.36800169944763184,0.14476129412651062,0.8500549793243408,-0.05288073420524597,-0.04489912837743759,0.5221055746078491
252.0,1.4753248216255406,-1.3035630630482367,2.306059947989306,-1.3550374838952213,-1.5228571693582817,0.0,-0.18905773758888245,0.33034271001815796,0.17012150585651398,0.8183234333992004,-0.052821528166532516,-0.046928200870752335,0.5703984498977661
253.0,1.4753259099317202,-1.295225197170027,2.3141937979180267,-1.2558573857157382,-1.5217243680062889,0.0,-0.19272366166114807,0.2966735363006592,0.19937264919281006,0.7838542461395264,-0.052639514207839966,-0.04876294732093811,0.6167849898338318
254.0,1.4753269982378996,-1.2868873312918172,2.322327647846747,-1.1566772875362554,-1.5205915666542957,0.0,-0.19596818089485168,0.267403244972229,0.2320147603750229,0.7467631697654724,-0.05233292654156685,-0.05039406940340996,0.6611100435256958
255.0,1.4753280865440792,-1.2785494654136078,2.330461497775467,-1.057497189356776,-1.519458765302303,0.0,-0.1987580507993698,0.24288056790828705,0.2675035893917084,0.7071740627288818,-0.05190045014023781,-0.05181331932544708,0.7032257914543152
256.0,1.4753291748502586,-1.270211599535398,2.3385953477041874,-0.9583170911772929,-1.5183259639503102,0.0,-0.2010660469532013,0.2233891487121582,0.30525875091552734,0.6652198433876038,-0.051340922713279724,-0.053013138473033905,0.7429914474487305
257.0,1.4753302631564382,-1.2618737336571881,2.3467291976329077,-0.8591369929978101,-1.5171931625983173,0.0,-0.20287159085273743,0.20914368331432343,0.3446709215641022,0.6210407018661499,-0.05065342038869858,-0.05398689582943916,0.7802743315696716
258.0,1.4753313514626178,-1.253535867778979,2.354863047561628,-0.7599568948183306,-1.5160603612463244,0.0,-0.20416104793548584,0.20028769969940186,0.3851103186607361,0.5747848749160767,-0.04983745515346527,-0.054728973656892776,0.8149498701095581
259.0,1.4753324397687972,-1.2451980019007691,2.362996897490348,-0.6607767966388476,-1.5149275598943315,0.0,-0.20492777228355408,0.19689086079597473,0.42593497037887573,0.5266070365905762,-0.048892658203840256,-0.05523454025387764,0.8469023704528809
260.0,1.4753335280749766,-1.2368601360225593,2.3711307474190684,-0.5615966984593648,-1.5137947585423386,0.0,-0.2051720768213272,0.19894832372665405,0.4664996862411499,0.47666844725608826,-0.047819070518016815,-0.055499885231256485,0.8760251998901367
261.0,1.4753346163811563,-1.2285222701443497,2.3792645973477886,-0.46241660027988196,-1.5126619571903457,0.0,-0.20490165054798126,0.20638179779052734,0.5061636567115784,0.42513638734817505,-0.04661707952618599,-0.05552225932478905,0.9022212624549866
262.0,1.4753357046873359,-1.2201844042661403,2.387398447276509,-0.36323650210040237,-1.5115291558383528,0.0,-0.20413099229335785,0.21903903782367706,0.54430091381073,0.3721833825111389,-0.04528723657131195,-0.0552997961640358,0.925402820110321
263.0,1.4753367929935153,-1.2118465383879307,2.395532297205229,-0.2640564039209195,-1.51039635448636,0.0,-0.20288154482841492,0.2366969883441925,0.580306351184845,0.3179866671562195,-0.043830640614032745,-0.05483181029558182,0.9454928040504456
264.0,1.475337881299695,-1.2035086725097208,2.4036661471339493,-0.1648763057414367,-1.5092635531343672,0.0,-0.20118114352226257,0.25906461477279663,0.6136059761047363,0.2627277374267578,-0.04224856570363045,-0.054118528962135315,0.9624241590499878
265.0,1.4753389696058745,-1.195170806631511,2.41179999706267,-0.06569620756195356,-1.5081307517823743,0.0,-0.19906380772590637,0.28578680753707886,0.6436632871627808,0.20659174025058746,-0.04054262861609459,-0.05316121503710747,0.9761403203010559
266.0,1.475340057912054,-1.1868329407533016,2.4199338469913902,0.0334838906175258,-1.5069979504303812,0.0,-0.1965692937374115,0.3164486885070801,0.6699869632720947,0.14976632595062256,-0.03871499001979828,-0.051962241530418396,0.9865957498550415
267.0,1.4753411462182335,-1.178495074875092,2.42806769692011,0.13266398879700858,-1.5058651490783885,0.0,-0.19374248385429382,0.3505821228027344,0.6921373009681702,0.09244173765182495,-0.03676796704530716,-0.050524838268756866,0.9937554001808167
268.0,1.475342234524413,-1.1701572089968821,2.4362015468488307,0.23184408697649173,-1.5047323477263956,0.0,-0.190632626414299,0.38767120242118835,0.7097318172454834,0.0348099023103714,-0.034704290330410004,-0.04885349050164223,0.9975956678390503
269.0,1.4753433228305926,-1.1618193431186725,2.444335396777551,0.3310241851559746,-1.5035995463744027,0.0,-0.187293142080307,0.4271599054336548,0.7224510312080383,-0.022936217486858368,-0.032527193427085876,-0.04695350304245949,0.9981037974357605
270.0,1.4753444111367722,-1.153481477240463,2.4524692467062708,0.4302042833354539,-1.5024667450224098,0.0,-0.18378038704395294,0.4684584438800812,0.7300424575805664,-0.08060344308614731,-0.03024006448686123,-0.04483119398355484,0.9952781796455383
271.0,1.4753454994429516,-1.1451436113622533,2.4606030966349914,0.529384381514937,-1.501333943670417,0.0,-0.18015322089195251,0.5109525918960571,0.7323235869407654,-0.13799859583377838,-0.027846897020936012,-0.042493872344493866,0.9891285300254822
272.0,1.475346587749131,-1.1368057454840435,2.4687369465637117,0.6285644796944199,-1.500201142318424,0.0,-0.17647214233875275,0.5540108680725098,0.729184627532959,-0.1949298232793808,-0.02535187266767025,-0.03994975611567497,0.9796752333641052
273.0,1.4753476760553108,-1.1284678796058338,2.476870796492432,0.7277445778739027,-1.4990683409664312,0.0,-0.172798290848732,0.5969933867454529,0.7205900549888611,-0.25120648741722107,-0.022759538143873215,-0.03720800578594208,0.9669502377510071
274.0,1.4753487643614902,-1.1201300137276242,2.485004646421152,0.8269246760533824,-1.4979355396144383,0.0,-0.1691930592060089,0.6392605304718018,0.7065795063972473,-0.3066402077674866,-0.020075010135769844,-0.034278616309165955,0.9509961009025574
275.0,1.4753498526676696,-1.1117921478494146,2.4931384963498724,0.9261047742328652,-1.4968027382624454,0.0,-0.16571684181690216,0.680181622505188,0.6872661709785461,-0.3610456883907318,-0.017303582280874252,-0.03117239475250244,0.9318662881851196
276.0,1.4753509409738492,-1.1034542819712048,2.5012723462785926,1.025284872412348,-1.4956699369104527,0.0,-0.16242817044258118,0.7191426157951355,0.6628355979919434,-0.41424065828323364,-0.014450864866375923,-0.02790113352239132,0.9096248149871826
277.0,1.4753520292800288,-1.0951164160929951,2.5094061962073133,1.1244649705918313,-1.4945371355584598,0.0,-0.15938355028629303,0.7555556297302246,0.6335445642471313,-0.46604713797569275,-0.011523055844008923,-0.024477142840623856,0.8843461871147156
278.0,1.4753531175862082,-1.0867785502147858,2.517540046136033,1.2236450687713105,-1.4934043342064667,0.0,-0.15663602948188782,0.7888654470443726,0.5997155904769897,-0.5162919163703918,-0.008526412770152092,-0.020913587883114815,0.8561147451400757
279.0,1.4753542058923879,-1.078440684336576,2.5256738960647533,1.3228251669507933,-1.492271532854474,0.0,-0.15423481166362762,0.8185579776763916,0.5617339611053467,-0.5648068785667419,-0.0054677692241966724,-0.01722419075667858,0.8250252604484558
280.0,1.4753552941985673,-1.070102818458366,2.533807745993474,1.4220052651302764,-1.491138731502481,0.0,-0.1522245854139328,0.8441670536994934,0.5200424194335938,-0.6114295721054077,-0.0023541287519037724,-0.013423362746834755,0.7911815047264099
281.0,1.4753563825047469,-1.0617649525801565,2.5419415959221943,1.5211853633097587,-1.4900059301504882,0.0,-0.15064473450183868,0.8652799129486084,0.47513461112976074,-0.6560041904449463,0.0008072174969129264,-0.009526090696454048,0.7546966671943665
282.0,1.4753574708109265,-1.0534270867019468,2.5500754458509145,1.620365461489242,-1.4888731287984953,0.0,-0.14952915906906128,0.8815436363220215,0.4275493323802948,-0.6983817219734192,0.004008526913821697,-0.005547729320824146,0.7156926989555359
283.0,1.475358559117106,-1.045089220823737,2.5582092957796347,1.7195455596687252,-1.4877403274465024,0.0,-0.14890553057193756,0.8926693797111511,0.37786275148391724,-0.7384200692176819,0.0072418805211782455,-0.0015041487058624625,0.6743003726005554
284.0,1.4753596474232853,-1.036751354945527,2.5663431457083554,1.8187256578482112,-1.4866075260945093,0.0,-0.1487947255373001,0.8984363079071045,0.3266807198524475,-0.775985836982727,0.010499238036572933,0.002588284434750676,0.6306576132774353
285.0,1.4753607357294651,-1.0284134890673176,2.574476995637075,1.9179057560276909,-1.4854747247425166,0.0,-0.14921119809150696,0.8986949324607849,0.27463120222091675,-0.8109529614448547,0.013772056438028812,0.0067131477408111095,0.5849105715751648
286.0,1.4753618240356445,-1.0200756231891077,2.582610845565796,2.017085854207174,-1.4843419233905237,0.0,-0.1501622498035431,0.8933685421943665,0.22235533595085144,-0.843204915523529,0.01705176569521427,0.010853543877601624,0.5372121334075928
