Sungjin-Park-dev/lg_sgu_vision_v2/data/sample/trajectory/124/trajectory_dp.csv
time,ur20-shoulder_pan_joint,ur20-shoulder_lift_joint,ur20-elbow_joint,ur20-wrist_1_joint,ur20-wrist_2_joint,ur20-wrist_3_joint,target-POS_X,target-POS_Y,target-POS_Z,target-ROT_X,target-ROT_Y,target-ROT_Z,target-ROT_W
0.0,1.9927538633346558,-0.7432686686515808,1.4341174364089966,-0.6908226013183594,-2.7196197509765625,0.0,-0.2849971055984497,1.0089348554611206,0.19599655270576477,0.49999505281448364,0.499999463558197,0.4999927282333374,0.5000128746032715
1.0,1.9776191590228358,-0.7151033254753207,1.3554826791004664,-0.6403745202953474,-2.7347491220871283,0.0,-0.28503674268722534,1.0547209978103638,0.20681223273277283,0.5000035762786865,0.4999954104423523,0.49999409914016724,0.5000070333480835
2.0,1.9761766217170003,-0.7113528038766777,1.3472167603656315,-0.6358641088093517,-2.7361977119252887,0.0,-0.2851219177246094,1.0594394207000732,0.2070094645023346,0.5000038743019104,0.49999624490737915,0.4999963939189911,0.5000035166740417
3.0,1.9628249986753095,-0.6826396563590439,1.2680995843905274,-0.5854809050967226,-2.749542911023666,0.0,-0.28503310680389404,1.1024798154830933,0.21811680495738983,0.5000123977661133,0.49999183416366577,0.499997615814209,0.4999983310699463
4.0,1.9509724392137109,-0.6520895251122668,1.1884150265852962,-0.5363272388539032,-2.761393057961332,0.0,-0.2850315272808075,1.1431974172592163,0.22775129973888397,0.5000066161155701,0.49999377131462097,0.4999943673610687,0.500005304813385
5.0,1.9403597911764832,-0.6193586269484017,1.1082523606122934,-0.4888794619919225,-2.7720075669712227,0.0,-0.2850330173969269,1.1817035675048828,0.23517048358917236,0.5000006556510925,0.4999966621398926,0.49999237060546875,0.5000103712081909
6.0,1.9322922634566781,-0.5853443221708535,1.0419650166750676,-0.439619677829468,-2.736079048651043,0.0,-0.28456956148147583,1.1930627822875977,0.23457492887973785,0.5053321719169617,0.49120885133743286,0.4865064024925232,0.516396164894104
7.0,1.9245790195540058,-0.5515238028402987,0.9779757171571731,-0.38972758564794285,-2.6926685258647627,0.0,-0.28423410654067993,1.1990857124328613,0.2335515320301056,0.5110849738121033,0.48044225573539734,0.47071316838264465,0.5351602435112
8.0,1.9245811078268469,-0.5506616599414764,0.9776820431654626,-0.3882083698519089,-2.687243410172106,0.0,-0.2844081521034241,1.1968951225280762,0.23297931253910065,0.5116640329360962,0.4792547821998596,0.46904176473617554,0.5371357202529907
9.0,1.9328933148964822,-0.5852987045392616,1.0459943867654031,-0.43879116861098,-2.7227320540314284,0.0,-0.28481805324554443,1.1857908964157104,0.23275034129619598,0.5068085789680481,0.4885600209236145,0.4826008677482605,0.5211052894592285
10.0,1.9412055219661173,-0.6199357491370469,1.1143067303653433,-0.4893739673700511,-2.75822069789075,0.0,-0.2849924862384796,1.1733449697494507,0.2327832579612732,0.5016072392463684,0.4974491000175476,0.49604538083076477,0.5048502087593079
11.0,1.9512810777496203,-0.6521846842004003,1.190836252933138,-0.5386448998169673,-2.761092459181742,0.0,-0.28504297137260437,1.1421394348144531,0.22636161744594574,0.5000016093254089,0.4999971389770508,0.49999499320983887,0.5000064373016357
12.0,1.963173772301538,-0.6826761617051675,1.2705011433953266,-0.5878456570221825,-2.749198707048195,0.0,-0.2850450277328491,1.101346492767334,0.216705784201622,0.5000110864639282,0.4999929368495941,0.49999865889549255,0.49999746680259705
13.0,1.9588239329451398,-0.7081022941646238,1.3004293578908883,-0.6500157931490914,-2.727342589352386,0.0,-0.27795204520225525,1.0881427526474,0.22206035256385803,0.5252078771591187,0.4855514168739319,0.5008411407470703,0.4873957633972168
14.0,1.9479077438721333,-0.7312502036062648,1.3123377516199388,-0.716906457457481,-2.7023112169764087,0.0,-0.26839348673820496,1.0860798358917236,0.23173348605632782,0.5587199926376343,0.465429425239563,0.5007752180099487,0.46950164437294006
15.0,1.9367096570411517,-0.7539844705606821,1.3242195265804353,-0.7839232573887684,-2.6774901366250394,0.0,-0.2590818405151367,1.0847373008728027,0.24045556783676147,0.5912403464317322,0.4448566436767578,0.49944785237312317,0.45065438747406006
16.0,1.9252349618791582,-0.7763799840163554,1.3361462852520616,-0.8510254832243366,-2.65290505123921,0.0,-0.250002920627594,1.0841667652130127,0.24841512739658356,0.6226703524589539,0.42389559745788574,0.49692678451538086,0.43088048696517944
17.0,1.9135709361859503,-0.7984683908661693,1.3481972528520147,-0.9181822238975562,-2.628459893735085,0.0,-0.2412268966436386,1.084333062171936,0.2557368576526642,0.6529205441474915,0.4026176333427429,0.4932596683502197,0.4102301001548767
18.0,1.9017727420333617,-0.8202266527797093,1.36043616994108,-0.9853821159652573,-2.6040853018905006,0.0,-0.23279032111167908,1.0852192640304565,0.26248618960380554,0.6819068789482117,0.381102979183197,0.48849189281463623,0.3887663185596466
19.0,1.8898217570459133,-0.8414851398228436,1.3730108289186354,-1.052628290512233,-2.579743017073,0.0,-0.22463032603263855,1.0867842435836792,0.2685191333293915,0.7095096111297607,0.3594552278518677,0.4826536178588867,0.3666517734527588
20.0,1.8777434533843698,-0.8623555623492613,1.3858458551279844,-1.119902450760617,-2.5554058048162416,0.0,-0.2167656123638153,1.089081883430481,0.2741163372993469,0.7357342839241028,0.33771568536758423,0.4758230745792389,0.3438539505004883
21.0,1.8654733821442857,-0.8827160450804853,1.3990285205713355,-1.1872138931318106,-2.5310959263465773,0.0,-0.20908060669898987,1.0921074151992798,0.27921971678733826,0.7605045437812805,0.31596383452415466,0.46806031465530396,0.3204984962940216
22.0,1.8529685547386279,-0.9025293693684375,1.4125810006354638,-1.254568604676429,-2.5068355831642593,0.0,-0.201486736536026,1.095868706703186,0.2838936150074005,0.7837857007980347,0.29425716400146484,0.4594448208808899,0.29665347933769226
23.0,1.8401942464858034,-0.9217420655859265,1.4265165167807161,-1.3219675786217493,-2.482627317490183,0.0,-0.1939028799533844,1.1003546714782715,0.28818219900131226,0.8055523037910461,0.2726507782936096,0.4500539004802704,0.2723942697048187
24.0,1.827146474396239,-0.9402996129575767,1.4408376175969364,-1.3894022389694003,-2.4584433597661244,0.0,-0.18628618121147156,1.1055315732955933,0.29211971163749695,0.8257899284362793,0.25120559334754944,0.43995964527130127,0.24779506027698517
25.0,1.813755373547198,-0.9578914010805875,1.455703244677207,-1.4568633319974178,-2.4342400056530598,0.0,-0.17850011587142944,1.1112797260284424,0.29534009099006653,0.8444383144378662,0.23002637922763824,0.42921534180641174,0.22312772274017334
26.0,1.8000690976718017,-0.9743916951160282,1.471170565941545,-1.5243466753360548,-2.409993038923732,0.0,-0.1705547273159027,1.117506742477417,0.29773107171058655,0.8614954948425293,0.20921406149864197,0.41790831089019775,0.1985139548778534
27.0,1.7861360559948742,-0.9895297302772513,1.4873956530211094,-1.591845726262426,-2.3856844947364344,0.0,-0.1624482423067093,1.1240583658218384,0.29893237352371216,0.8769446611404419,0.18891218304634094,0.4061261713504791,0.1741892546415329
28.0,1.772068888247723,-1.0023907528415017,1.5049546556411724,-1.6592884366570075,-2.36116324646051,0.0,-0.15424104034900665,1.130481481552124,0.29750484228134155,0.8906960487365723,0.1694786697626114,0.3939100503921509,0.1509057730436325
29.0,1.7583865230290343,-1.011299774987018,1.5249541916487395,-1.726380921024635,-2.335856400915866,0.0,-0.1465148776769638,1.1357935667037964,0.29059547185897827,0.9026563167572021,0.1516789197921753,0.38116106390953064,0.1300821453332901
30.0,1.7315588223581626,-1.037835209728157,1.5372979053359779,-1.756569018278041,-2.256759484481858,0.0,-0.13759610056877136,1.128978967666626,0.2947215735912323,0.9229748249053955,0.12705057859420776,0.34290754795074463,0.11995860189199448
31.0,1.7032350086274577,-1.0666838088798187,1.5485542217048094,-1.7829137914394333,-2.1720939150714353,0.0,-0.13081952929496765,1.1228508949279785,0.3022539019584656,0.9417605996131897,0.10236287862062454,0.3013059198856354,0.10873696953058243
32.0,1.6849104804986834,-1.0850766848681759,1.557481607590919,-1.801585733068862,-2.1167460375749676,0.0,-0.12773306667804718,1.1193053722381592,0.30664950609207153,0.9525462985038757,0.08695165067911148,0.2738147974014282,0.10060106217861176
33.0,1.6785706166639223,-1.0909682871997628,1.5636287320815025,-1.8110436640102447,-2.09655446612498,0.0,-0.12710165977478027,1.117188811302185,0.30565544962882996,0.956118106842041,0.08174580335617065,0.2637649178504944,0.09789741039276123
34.0,1.6722183739210297,-1.096885999326033,1.5697741971622603,-1.8204913574932493,-2.0763516805007773,0.0,-0.1265787035226822,1.1151784658432007,0.3048095107078552,0.959550142288208,0.0765889585018158,0.2536846101284027,0.09508918225765228
35.0,1.665854357954457,-1.1028156619717777,1.575913437229745,-1.8299249941886488,-2.056134635266029,0.0,-0.12616154551506042,1.113276481628418,0.3041016459465027,0.9628412127494812,0.07148507982492447,0.2435752898454666,0.09218350797891617
36.0,1.6594813115571314,-1.1087527265875428,1.582046797312026,-1.839344382233767,-2.0359084593833505,0.0,-0.12584665417671204,1.1114814281463623,0.30353131890296936,0.965990424156189,0.06643781065940857,0.2334415763616562,0.08918286114931107
37.0,1.6531023894628305,-1.1146921345776137,1.5881772874991942,-1.8487492931509233,-2.015675860167227,0.0,-0.12563210725784302,1.1097899675369263,0.30309319496154785,0.9689967036247253,0.061451755464076996,0.2232874035835266,0.0860920175909996
38.0,1.6467189164258376,-1.1206306047904662,1.5943072172550208,-1.8581353493828339,-1.9954338956807447,0.0,-0.12551438808441162,1.1081974506378174,0.30278491973876953,0.9718600511550903,0.05652962252497673,0.21311360597610474,0.08291666209697723
39.0,1.6403316264295444,-1.1265669814511903,1.6004389186653014,-1.8675015310769565,-1.9751822071731655,0.0,-0.12549057602882385,1.1066995859146118,0.302605539560318,0.9745802879333496,0.05167398601770401,0.2029222995042801,0.07965978235006332
40.0,1.6339415945946258,-1.1325013605850802,1.606571022190938,-1.876846489097588,-1.9549190050393617,0.0,-0.12555797398090363,1.1052947044372559,0.3025583028793335,0.9771579504013062,0.046886786818504333,0.19271479547023773,0.07632268220186234
41.0,1.627548770503675,-1.138434090123363,1.6127018916115008,-1.8861672477928162,-1.9346425185124438,0.0,-0.1257120817899704,1.1039811372756958,0.3026474118232727,0.9795932173728943,0.04216917231678963,0.1824924796819687,0.07290671020746231
42.0,1.6211512085829678,-1.1443634010394703,1.6188294285864402,-1.895456653889062,-1.914349967251178,0.0,-0.12594705820083618,1.1027554273605347,0.3028732240200043,0.981886625289917,0.03752199560403824,0.17225609719753265,0.06941696256399155
43.0,1.6147486885570455,-1.1502882080016474,1.6249519633077008,-1.9047236255386628,-1.894045378369157,0.0,-0.1262573003768921,1.101620078086853,0.30323997139930725,0.9840383529663086,0.03294592723250389,0.1620095670223236,0.06584975868463516
44.0,1.6083395354269099,-1.1562076682476314,1.6310679716983192,-1.9139655067649475,-1.873727262631242,0.0,-0.12663716077804565,1.100572943687439,0.30375003814697266,0.9860487580299377,0.02844160981476307,0.15175439417362213,0.06220705434679985
45.0,1.6019182199598627,-1.1621192188658516,1.6371727023232654,-1.9231727935036236,-1.8533899311406614,0.0,-0.1270780712366104,1.0996119976043701,0.30440402030944824,0.9879184365272522,0.024007873609662056,0.14148952066898346,0.05849441885948181
46.0,1.595485355205845,-1.1680252698271343,1.6432656520492877,-1.9323535250896873,-1.8330340384693213,0.0,-0.12757574021816254,1.0987374782562256,0.30520763993263245,0.9896479845046997,0.01964542455971241,0.13121749460697174,0.054707884788513184
47.0,1.589039253157129,-1.1739265252893016,1.649344322954787,-1.9415035697715546,-1.8126576662263507,0.0,-0.1281253695487976,1.097947359085083,0.3061661124229431,0.9912378191947937,0.015355006791651249,0.12093954533338547,0.050848230719566345
48.0,1.5825780070087316,-1.1798237314688664,1.6554062964530343,-1.950619469238622,-1.7922587930670133,0.0,-0.12872099876403809,1.097239375114441,0.30728280544281006,0.9926882386207581,0.011136827059090137,0.11065666377544403,0.04691733792424202
49.0,1.5761035465750617,-1.1857187349992577,1.6614523366504235,-1.9597068005066907,-1.7718411052650413,0.0,-0.12935902178287506,1.096611499786377,0.30856233835220337,0.9939995408058167,0.006992827635258436,0.1003727912902832,0.04291262477636337
50.0,1.5696143374660847,-1.1916110347974427,1.6674834534915437,-1.9687639714097918,-1.7514028689435523,0.0,-0.13003411889076233,1.0960595607757568,0.31000399589538574,0.9951719045639038,0.002923710970208049,0.09008914232254028,0.03883705288171768
51.0,1.563113602054026,-1.1975016409743422,1.6735036466197877,-1.9777962026303766,-1.7309468470988771,0.0,-0.13074463605880737,1.0955791473388672,0.3116084933280945,0.9962058067321777,-0.0010675868252292275,0.07980940490961075,0.03469061106443405
52.0,1.5566043316481044,-1.20339120470872,1.6795158179334129,-1.9868070815034187,-1.7104748843617035,0.0,-0.13148927688598633,1.095165491104126,0.3133762776851654,0.9971014857292175,-0.004978324752300978,0.06953639537096024,0.030473224818706512
53.0,1.5500857308117275,-1.2092812121658518,1.6855176028859802,-1.9957873459706175,-1.6899800992468228,0.0,-0.13226555287837982,1.0948132276535034,0.31531059741973877,0.9978596568107605,-0.00880750548094511,0.05926899239420891,0.026189224794507027
54.0,1.5435628118073095,-1.215170814871796,1.691509935529928,-2.0047473316690163,-1.6694695299767326,0.0,-0.13307195901870728,1.0945206880569458,0.3174114227294922,0.9984805583953857,-0.012551720254123211,0.04901261627674103,0.021836156025528908
55.0,1.5370393694909645,-1.2210583583553398,1.6974960485798065,-2.0136905323082717,-1.6489476915934758,0.0,-0.13390769064426422,1.0942838191986084,0.3196771740913391,0.9989648461341858,-0.01620737463235855,0.038771796971559525,0.01741519197821617
56.0,1.5305197631325114,-1.2269422553702773,1.703478488519727,-2.02262257836604,-1.6284192794866077,0.0,-0.13477173447608948,1.09409761428833,0.32210564613342285,0.999313235282898,-0.01977117359638214,0.028550682589411736,0.01292708981782198
57.0,1.5240082198295062,-1.2328230578187964,1.7094646519298073,-2.0315477499152768,-1.6078920192581216,0.0,-0.13566184043884277,1.0939542055130005,0.3246918320655823,0.9995263814926147,-0.023239824920892715,0.018355228006839752,0.00837524700909853
58.0,1.5175069151195295,-1.2387075485490908,1.7154609984473141,-2.040463963343582,-1.5873759965072942,0.0,-0.1365734189748764,1.0938422679901123,0.3274383544921875,0.9996052384376526,-0.026611100882291794,0.008192203938961029,0.003762295702472329
59.0,1.5138014430094613,-1.2329811632499086,1.7052153208644132,-2.043030401312709,-1.5707961026629593,0.0,-0.13843810558319092,1.1036144495010376,0.32981210947036743,-0.99959397315979,0.028493601828813553,8.823218422548962e-08,1.825147535328142e-07
60.0,1.5212306146402244,-1.1798137861052598,1.6270651780364318,-2.0178426259376065,-1.5708070523228637,0.0,-0.1441115438938141,1.1533068418502808,0.32976198196411133,0.9996929168701172,-0.024780260398983955,2.793824933178257e-06,0.00010268334881402552
61.0,1.5211367420391035,-1.1719487389929937,1.613321795839181,-2.001246649479747,-1.5713709095023767,0.0,-0.14358967542648315,1.157232642173767,0.3293372690677643,0.9996769428253174,-0.024825215339660645,0.00015157611051108688,0.005466792266815901
62.0,1.5209723512491786,-1.164032963583343,1.5995244129214952,-1.984623631052503,-1.5719349430670415,0.0,-0.1429865062236786,1.161138892173767,0.32890039682388306,0.9996310472488403,-0.024901706725358963,0.00029924657428637147,0.01084270142018795
63.0,1.5207723359532694,-1.1560802255510698,1.5857031204631566,-1.967991548986988,-1.5725041035257428,0.0,-0.14234060049057007,1.1650052070617676,0.3284450173377991,0.9995558857917786,-0.024992257356643677,0.00044804782373830676,0.01622927375137806
64.0,1.5205581394786645,-1.1481138996683418,1.5718652700842717,-1.951361045625094,-1.573077519800228,0.0,-0.1416776180267334,1.1688244342803955,0.3279933035373688,0.9994515180587769,-0.02508598379790783,0.0005976604879833758,0.021613622084259987
65.0,1.520344650331296,-1.1401424491450163,1.5580234128286063,-1.934740722625555,-1.5736464953735727,0.0,-0.141018345952034,1.1725891828536987,0.32754695415496826,0.9993183612823486,-0.02517556957900524,0.0007439201581291854,0.026992488652467728
66.0,1.5201372223874194,-1.1321683857603682,1.5441825707864523,-1.9181195512032125,-1.5742094937608953,0.0,-0.14037002623081207,1.1762906312942505,0.32710304856300354,0.9991563558578491,-0.02525843307375908,0.0008859766530804336,0.032372619956731796
67.0,1.5199313104322754,-1.1241914050081352,1.5303406284484202,-1.9014908911449013,-1.5747732320451462,0.0,-0.139724999666214,1.1799278259277344,0.32666197419166565,0.9989652633666992,-0.025336628779768944,0.0010271647479385138,0.03775681555271149
68.0,1.5197224276159558,-1.1162131274967102,1.5164954096451726,-1.8848525110497492,-1.5753422456255943,0.0,-0.13907620310783386,1.1835020780563354,0.3262277841567993,0.9987450242042542,-0.025412390008568764,0.0011695614084601402,0.0431436263024807
69.0,1.5195093400681177,-1.1082395853719542,1.502647928499585,-1.8682035618059143,-1.575913870531188,0.0,-0.13842283189296722,1.187011957168579,0.3258063793182373,0.9984956979751587,-0.025486474856734276,0.0013118191855028272,0.04853105917572975
70.0,1.5192929303882488,-1.1002779823729354,1.4888051594660792,-1.8515502322588928,-1.5764833819077935,0.0,-0.13776876032352448,1.1904544830322266,0.32540279626846313,0.9982174038887024,-0.025558246299624443,0.001451575430110097,0.0539156049489975
71.0,1.519069984246231,-1.0923214182423338,1.4749667751086344,-1.8348973756032418,-1.5770522430937264,0.0,-0.13710875809192657,1.1938328742980957,0.3250092566013336,0.9979100227355957,-0.02562953531742096,0.0015894895186647773,0.05929821729660034
72.0,1.5188342331559337,-1.0843619236624438,1.4611301252828413,-1.8182462045871117,-1.5776257909948455,0.0,-0.13643339276313782,1.1971511840820312,0.32461878657341003,0.9975734353065491,-0.02570313774049282,0.0017278608866035938,0.06468059122562408
73.0,1.5185871518594405,-1.076395856137553,1.447297445037793,-1.8015917294852062,-1.5782037002667686,0.0,-0.13574472069740295,1.2004058361053467,0.3242254853248596,0.9972074031829834,-0.02577824518084526,0.0018662851070985198,0.07006809115409851
74.0,1.518340313840536,-1.0684277770429569,1.4334708155094755,-1.7849268705196781,-1.5787825213233744,0.0,-0.1350579410791397,1.203590750694275,0.323832631111145,0.99681156873703,-0.02584921382367611,0.002003337489441037,0.0754626989364624
75.0,1.5181101070801941,-1.0604709056947772,1.4196485361457123,-1.7682539819549659,-1.5793543838835113,0.0,-0.1343957632780075,1.206705093383789,0.32345789670944214,0.9963868260383606,-0.025908272713422775,0.0021359657403081656,0.08085547387599945
76.0,1.5179093804891213,-1.0525246125395789,1.4058069290911543,-1.7515763156034316,-1.5798865297444942,0.0,-0.13378608226776123,1.2097649574279785,0.32311874628067017,0.9959344863891602,-0.025950457900762558,0.0022488764952868223,0.08623312413692474
77.0,1.5152763987519062,-1.0760518004932997,1.4394852372183533,-1.7646734780448228,-1.5801016188199233,0.0,-0.13157793879508972,1.1910172700881958,0.32629847526550293,0.9960247874259949,-0.027262605726718903,0.0022838106378912926,0.08477173000574112
78.0,1.5151772546591764,-1.0824962228146022,1.4512980716869974,-1.7807055507021277,-1.579398212514562,0.0,-0.131840318441391,1.1891124248504639,0.32626402378082275,0.9964606761932373,-0.02737676165997982,0.0020788940601050854,0.07945060729980469
79.0,1.5150664908681604,-1.088975447320133,1.463099006539266,-1.796742917240047,-1.578692527391159,0.0,-0.13209208846092224,1.1871697902679443,0.32630327343940735,0.9968699216842651,-0.027492545545101166,0.0018734174082055688,0.07410112023353577
80.0,1.5149604490645454,-1.0954827721347111,1.4748977438339559,-1.8128037586893515,-1.577983502040297,0.0,-0.13235363364219666,1.1851871013641357,0.3264020085334778,0.9972525835037231,-0.027601661160588264,0.0016673424979671836,0.06872279942035675
81.0,1.5148660744459876,-1.102005410639661,1.4867055526388928,-1.8288853507575311,-1.5772730572539335,0.0,-0.13263246417045593,1.1831567287445068,0.32653629779815674,0.9976072311401367,-0.027700521051883698,0.001461627776734531,0.06332865357398987
82.0,1.5147917696056723,-1.1085342405517609,1.4985263176539187,-1.8449850977085571,-1.576572831754641,0.0,-0.13293422758579254,1.1810734272003174,0.3266921639442444,0.9979333281517029,-0.02778450772166252,0.0012619192712008953,0.05792715400457382
83.0,1.5147459875056355,-1.1150702600577853,1.510364483473981,-1.861104495830791,-1.5758974544948203,0.0,-0.13326308131217957,1.1789324283599854,0.32686734199523926,0.9982309937477112,-0.027849087491631508,0.00107575545553118,0.05251969024538994
84.0,1.5147326277934106,-1.1216178257243,1.5222263651013954,-1.87724067866034,-1.575254717703697,0.0,-0.13362126052379608,1.176727533340454,0.32706114649772644,0.9984999299049377,-0.02789219468832016,0.0009066261118277907,0.047108616679906845
85.0,1.5147542456462475,-1.1281821591524228,1.534118696064316,-1.8933930334282796,-1.574651751940146,0.0,-0.13400882482528687,1.1744518280029297,0.3272745609283447,0.9987401962280273,-0.027912694960832596,0.0007580636302009225,0.041695307940244675
86.0,1.514807515869934,-1.1347623438169745,1.5460370341518064,-1.9095625522218325,-1.5740859570890358,0.0,-0.1344222128391266,1.1721084117889404,0.32750922441482544,0.9989517331123352,-0.02791273407638073,0.0006284936098381877,0.036278221756219864
87.0,1.5148940755554088,-1.1413616800190054,1.5579780052545251,-1.925761603744181,-1.5735560860546705,0.0,-0.13486380875110626,1.169704794883728,0.327773779630661,0.9991348385810852,-0.027891607955098152,0.000517262436915189,0.03084719181060791
88.0,1.515007155520231,-1.1479802206833247,1.5699359093050769,-1.9419975821503743,-1.5730520888588577,0.0,-0.13532821834087372,1.1672471761703491,0.3280732035636902,0.9992892742156982,-0.027853384613990784,0.0004193390777800232,0.02539610117673874
89.0,1.515138988110004,-1.1546148202572355,1.5819089251391163,-1.9582750374773819,-1.5725606927981153,0.0,-0.1358119398355484,1.1647404432296753,0.3284062147140503,0.9994149208068848,-0.02780202589929104,0.0003276745555922389,0.01992315985262394
90.0,1.5152803347266826,-1.1612582210453095,1.59389514088205,-1.9745842231705393,-1.5720728811052203,0.0,-0.13630735874176025,1.1621829271316528,0.32876455783843994,0.9995108246803284,-0.02774234674870968,0.00023753970162943006,0.014436152763664722
91.0,1.5154190336187274,-1.1679072485287687,1.6058959702563254,-1.990899812691859,-1.5715840574502282,0.0,-0.13680274784564972,1.1595656871795654,0.32913920283317566,0.9995768070220947,-0.02768046408891678,0.00014606736658606678,0.008950026705861092
92.0,1.5155383770320499,-1.174561195393695,1.6179202502846672,-2.007196091400452,-1.5710939140363258,0.0,-0.13727962970733643,1.1568748950958252,0.3295186460018158,0.9996123909950256,-0.027624791488051414,5.250021786196157e-05,0.0034824712201952934
93.0,1.515342897058192,-1.177799405447069,1.623629515182921,-2.012645521646208,-1.5709768186100668,0.0,-0.1372205764055252,1.1547150611877441,0.3294346034526825,0.9996137022972107,-0.027722857892513275,3.49505826306995e-05,0.0019921818748116493
94.0,1.5146510313810704,-1.1749341123048596,1.6180742785438982,-1.9989062343589474,-1.5715010192829093,0.0,-0.13628482818603516,1.1536164283752441,0.32853585481643677,0.9995778203010559,-0.02806546352803707,0.00014115126396063715,0.00752191012725234
95.0,1.5139872625755126,-1.1720859618563049,1.6125603704152287,-1.9852026649124725,-1.572067213541435,0.0,-0.13536913692951202,1.1524693965911865,0.3276721239089966,0.9995117783546448,-0.028389975428581238,0.0002648987574502826,0.013046428561210632
96.0,1.5133422472043234,-1.1692473370837138,1.6070844754627394,-1.9715341081812674,-1.5726591148020803,0.0,-0.1344689279794693,1.1512795686721802,0.32683759927749634,0.9994155168533325,-0.02870085835456848,0.0003980192122980952,0.018567658960819244
97.0,1.5127163811679305,-1.166417736110448,1.601627396525973,-1.957897190285449,-1.573272957375875,0.0,-0.13358551263809204,1.1500591039657593,0.32604631781578064,0.999289333820343,-0.02899765595793724,0.0005389949074015021,0.02407795935869217
98.0,1.5121140713193812,-1.1636031643534595,1.5961779923967805,-1.9442939737491527,-1.5739064336510684,0.0,-0.13272397220134735,1.1488171815872192,0.3253152668476105,0.9991337656974792,-0.029278172180056572,0.000687207852024585,0.029566962271928787
99.0,1.5115332963779855,-1.1608056029623095,1.5907334472585495,-1.930723935008923,-1.5745540488777592,0.0,-0.1318841427564621,1.147556185722351,0.32464730739593506,0.9989491105079651,-0.02954329364001751,0.0008401367231272161,0.035033080726861954
100.0,1.5109678788847767,-1.1580194689545151,1.585294729949246,-1.9171868794317788,-1.5752153038663461,0.0,-0.13105924427509308,1.1462770700454712,0.3240354061126709,0.9987355470657349,-0.029795914888381958,0.000997367431409657,0.04047910496592522
101.0,1.5104152586265316,-1.155239459585537,1.579868909381648,-1.9036789752155088,-1.575899634860938,0.0,-0.1302427351474762,1.144975185394287,0.32346758246421814,0.9984930753707886,-0.030037090182304382,0.0011634723050519824,0.04591326415538788
102.0,1.5098780011256574,-1.1524671513796467,1.5744616623142231,-1.8901862528346784,-1.5766079191888007,0.0,-0.12943768501281738,1.1436406373977661,0.3229392170906067,0.9982215166091919,-0.03026525117456913,0.0013388869119808078,0.051344241946935654
103.0,1.5093654491254143,-1.1497164333022962,1.5690816945426447,-1.876702632700702,-1.577335688519443,0.0,-0.12865719199180603,1.1422637701034546,0.32245898246765137,0.9979208111763,-0.03047564998269081,0.0015216179890558124,0.0567723885178566
104.0,1.508881497108189,-1.146992903967376,1.563729188106109,-1.863222216465568,-1.5780786605607728,0.0,-0.12790727615356445,1.1408412456512451,0.32203245162963867,0.9975911974906921,-0.03066638857126236,0.0017097023082897067,0.06219760701060295
105.0,1.5084254368605903,-1.1442940332687328,1.5584046786634271,-1.8497437692835403,-1.5788460535202145,0.0,-0.12718382477760315,1.1393733024597168,0.32165658473968506,0.9972325563430786,-0.03083718940615654,0.001908112084493041,0.06762206554412842
106.0,1.5079886941308316,-1.1416102023192687,1.5531087389671383,-1.8362807203371383,-1.5796464885442865,0.0,-0.12647293508052826,1.1378672122955322,0.32132142782211304,0.9968448877334595,-0.03099205158650875,0.0021207667887210846,0.0730443224310875
107.0,1.507566328399377,-1.138933049456655,1.5478393639893235,-1.8228679930583613,-1.58047323727537,0.0,-0.12577080726623535,1.1363407373428345,0.3210236728191376,0.9964291453361511,-0.031133290380239487,0.002344897948205471,0.07844936102628708
108.0,1.5071583456321704,-1.1362672677432641,1.5425912457570714,-1.8095331330279787,-1.5813316633924268,0.0,-0.12507405877113342,1.1348092555999756,0.3207738995552063,0.9959872364997864,-0.03126082941889763,0.002583766356110573,0.08381903916597366
109.0,1.5038282086602859,-1.1572963600222501,1.5689272605853506,-1.8082768156786655,-1.5824128214859867,0.0,-0.12226387113332748,1.1144903898239136,0.324090838432312,0.9956530928611755,-0.032845474779605865,0.0028715054504573345,0.0871087908744812
110.0,1.492493382098743,-1.148331301630806,1.557629502950448,-1.80608064369118,-1.5843773222179078,0.0,-0.10825303196907043,1.123519778251648,0.3225337266921997,0.9954540133476257,-0.038402918726205826,0.0033582206815481186,0.0870935320854187
111.0,1.4993434921844009,-1.0962463022149826,1.4785321182474422,-1.7789829801344796,-1.583188770872511,0.0,-0.1129799485206604,1.170667052268982,0.3212161660194397,0.9955780506134033,-0.035044487565755844,0.0030633609276264906,0.0871029645204544
112.0,1.5013346238404905,-1.0522671376574269,1.405526025511735,-1.7499364563557755,-1.5828422030862157,0.0,-0.11260440945625305,1.2112758159637451,0.3228909373283386,0.9956120848655701,-0.03406830132007599,0.002977280179038644,0.08710387349128723
113.0,1.4873398797552555,-1.0962340042021919,1.478797741899205,-1.7794242407414125,-1.5852604145741058,0.0,-0.09811793267726898,1.1718745231628418,0.3210481107234955,0.9953536987304688,-0.040929824113845825,0.003574916161596775,0.0870811715722084
114.0,1.4799545000023213,-1.1481866282730178,1.5577961607933712,-1.806572458426475,-1.5865529830820784,0.0,-0.09330713748931885,1.1248114109039307,0.32230284810066223,0.9951978325843811,-0.04454925283789635,0.00389888696372509,0.08707157522439957
115.0,1.4664524582198162,-1.1539263507511286,1.5656241563441682,-1.8088933822685933,-1.5888707987178852,0.0,-0.07774042338132858,1.120874285697937,0.32295966148376465,0.994879961013794,-0.051167428493499756,0.004470072686672211,0.08703961223363876
116.0,1.4744843906221243,-1.1001642026388732,1.4871508905827997,-1.7840345556356934,-1.5869381699403056,0.0,-0.08279600739479065,1.168847918510437,0.3196294903755188,0.9950752258300781,-0.04725472629070282,0.003854435635730624,0.0870487168431282
117.0,1.4811091543694193,-1.0561377636217182,1.4115759349560024,-1.7524731689475908,-1.5838817674857195,0.0,-0.08797839283943176,1.2099777460098267,0.3230867087841034,0.9952309727668762,-0.044091347604990005,0.0026215887628495693,0.08697468042373657
118.0,1.4677788079247027,-1.0730690652593624,1.4367541196039433,-1.766429038076048,-1.5879795875559224,0.0,-0.07154813408851624,1.1984100341796875,0.32508036494255066,0.9951507449150085,-0.050582341849803925,0.004228835925459862,0.084253691136837
119.0,1.466754987703333,-1.0790836767084955,1.4473172100800398,-1.7801049915286242,-1.587060508238149,0.0,-0.07088569551706314,1.1965138912200928,0.32529887557029724,0.9954967498779297,-0.051186736673116684,0.0039678579196333885,0.07969047129154205
120.0,1.4657352549307174,-1.0850995124840557,1.4578878126076187,-1.793784100185982,-1.5861456558812246,0.0,-0.07023442536592484,1.1945765018463135,0.3255254924297333,0.9958215355873108,-0.05178408697247505,0.0037134496960788965,0.0751267597079277
121.0,1.4647199990924296,-1.0911155604783076,1.468462356536863,-1.8074648503529085,-1.585232455988412,0.0,-0.069596067070961,1.1926006078720093,0.32576194405555725,0.9961254596710205,-0.05237424373626709,0.003464162815362215,0.07056231796741486
122.0,1.4637071984122167,-1.0971323350204965,1.479038378120962,-1.8211479136162305,-1.5843199193649817,0.0,-0.06896837800741196,1.1905871629714966,0.3260102868080139,0.9964084029197693,-0.052958209067583084,0.0032196477986872196,0.06599527597427368
123.0,1.4626955465359974,-1.1031504099768292,1.4896166123651007,-1.834833444438371,-1.5834086801847447,0.0,-0.06834996491670609,1.188536524772644,0.32627072930336,0.9966704249382019,-0.05353652685880661,0.002980148885399103,0.061425935477018356
124.0,1.4616857478391163,-1.1091703262491241,1.500198279748684,-1.8485217621824466,-1.5824993469169328,0.0,-0.06774124503135681,1.1864469051361084,0.32654285430908203,0.9969114065170288,-0.05410895124077797,0.0027459869161248207,0.05685429647564888
125.0,1.4606779137950872,-1.1151923093912532,1.5107830647899956,-1.8622127355530602,-1.5815914500048314,0.0,-0.0671430230140686,1.1843185424804688,0.3268269896507263,0.9971314668655396,-0.05467529594898224,0.0025168913416564465,0.052280642092227936
126.0,1.4596717001385089,-1.1212163224705978,1.5213707433743666,-1.8759071254272417,-1.5806854588016885,0.0,-0.06655458360910416,1.1821523904800415,0.3271229565143585,0.9973304867744446,-0.05523569881916046,0.002293278928846121,0.04770438000559807
127.0,1.4586662557505914,-1.1272421047442547,1.5319595293059036,-1.8896045054911417,-1.579781778032994,0.0,-0.06597453355789185,1.1799489259719849,0.3274322748184204,0.9975085854530334,-0.05579070746898651,0.0020752635318785906,0.043125126510858536
128.0,1.4576620851542539,-1.1332698868054991,1.5425474552494076,-1.9033045592135753,-1.5788806065105037,0.0,-0.06540369242429733,1.1777091026306152,0.3277563750743866,0.9976657032966614,-0.056339919567108154,0.0018630347913131118,0.038541942834854126
129.0,1.4566592654252364,-1.1392998886397208,1.55313237067203,-1.9170069372895095,-1.5779820024921385,0.0,-0.06484214961528778,1.1754341125488281,0.32809704542160034,0.9978019595146179,-0.05688324198126793,0.0016567527782171965,0.033954180777072906
130.0,1.4556581963756694,-1.1453323737046088,1.563714030124788,-1.9307109513614291,-1.5770862882674423,0.0,-0.06429009884595871,1.1731241941452026,0.3284546136856079,0.9979171752929688,-0.057420529425144196,0.0014566307654604316,0.029361849650740623
131.0,1.4546583791673033,-1.1513679656352531,1.5742936325944858,-1.9444166045251605,-1.5761954346895173,0.0,-0.06374660134315491,1.1707780361175537,0.3288291096687317,0.9980114102363586,-0.05795194208621979,0.0012636174215003848,0.02476511523127556
132.0,1.4536589970109564,-1.1574066737234692,1.5848731131254505,-1.9581232851593995,-1.5753096820717853,0.0,-0.0632106363773346,1.168393850326538,0.32921841740608215,0.9980844855308533,-0.05847800523042679,0.001077610650099814,0.020165974274277687
133.0,1.4526634993970329,-1.1634503442143278,1.5954533268406768,-1.9718319375356308,-1.5744315212844187,0.0,-0.06268589943647385,1.165970802307129,0.3296239376068115,0.9981365203857422,-0.058996763080358505,0.0009001493453979492,0.015563222579658031
134.0,1.4475942811034377,-1.2038792020538123,1.6576205887792954,-2.007194714345597,-1.5728576036765631,0.0,-0.061524439603090286,1.132888674736023,0.33050793409347534,0.9980657696723938,-0.06155072897672653,0.0004947633133269846,0.008718322962522507
135.0,1.4414413601260774,-1.253436822424703,1.73348418885916,-2.048307016554584,-1.5710960603177992,0.0,-0.060789722949266434,1.090599536895752,0.33002230525016785,0.9979084134101868,-0.06463217735290527,6.75193514325656e-05,0.0012753745540976524
136.0,1.4344239617934533,-1.2259212941237658,1.695023293303396,-2.0398993420351617,-1.5707964283903093,0.0,-0.04957156255841255,1.117823839187622,0.3298090398311615,-0.9976763129234314,0.0681333988904953,-3.444556639919938e-08,5.229815087659517e-07
137.0,1.4406410078589966,-1.194152858696796,1.6474628740729893,-2.0189210617012203,-1.5712972511801573,0.0,-0.05259912833571434,1.145951509475708,0.3296275734901428,0.9978799223899841,-0.06503088027238846,8.123923180392012e-05,0.0026033634785562754
138.0,1.4412807837626942,-1.1872967470741569,1.635107202943291,-2.0024237398930596,-1.5724105386139595,0.0,-0.05252333730459213,1.1487817764282227,0.32933706045150757,0.997871458530426,-0.06470383703708649,0.0002817607601173222,0.008126616477966309
139.0,1.441957282992236,-1.180461348378102,1.6227968439326463,-1.985948753364336,-1.5735504119194377,0.0,-0.05249316990375519,1.1515308618545532,0.3290560245513916,0.9978339672088623,-0.06435034424066544,0.0004990967572666705,0.013651528395712376
140.0,1.4426621690529122,-1.1736350485001725,1.6105053984517765,-1.9694883696289942,-1.5747024696147551,0.0,-0.05250265821814537,1.1542184352874756,0.32879242300987244,0.9977671504020691,-0.06397435814142227,0.0007266640895977616,0.019173767417669296
141.0,1.4433860556374694,-1.1668218022885746,1.5982294091424827,-1.9530518714359577,-1.575866839177885,0.0,-0.05254056304693222,1.1568495035171509,0.32855528593063354,0.9976708889007568,-0.06358049064874649,0.0009648689883761108,0.0246849674731493
142.0,1.4441285565102633,-1.1600297291134076,1.5859687498688233,-1.9366482489796222,-1.5770518210390936,0.0,-0.05260217562317848,1.1594280004501343,0.3283553123474121,0.9975458383560181,-0.06316898763179779,0.001218853984028101,0.030176371335983276
143.0,1.4448901394760614,-1.1532589089151748,1.573726541274177,-1.9202810263013939,-1.5782652102441272,0.0,-0.05268579348921776,1.1619526147842407,0.3281897008419037,0.9973920583724976,-0.06273920089006424,0.0014923409326002002,0.035648297518491745
144.0,1.4456726893242529,-1.1465033894688679,1.5615056647515324,-1.9039450872591221,-1.5795053228808453,0.0,-0.052793897688388824,1.1644206047058105,0.3280497193336487,0.9972096681594849,-0.06229032948613167,0.0017841898370534182,0.041107114404439926
145.0,1.446479487215863,-1.1397629749455827,1.5493111862911229,-1.8876372125296297,-1.5807728797014868,0.0,-0.052931323647499084,1.1668281555175781,0.3279308080673218,0.9969987273216248,-0.06182022765278816,0.002094815718010068,0.04655655100941658
146.0,1.447307052277423,-1.1330359373661063,1.5371396992639106,-1.871353146809874,-1.5820620793292588,0.0,-0.05309563875198364,1.169176459312439,0.32783329486846924,0.9967592358589172,-0.061330754309892654,0.002421352546662092,0.05199798569083214
147.0,1.4481608025228105,-1.126323361809249,1.5249910346602775,-1.8550955177075092,-1.5833797208846088,0.0,-0.0532902330160141,1.1714661121368408,0.3277580440044403,0.9964914917945862,-0.06081913039088249,0.002767229685559869,0.05742970481514931
148.0,1.4490376759198067,-1.1196235699574748,1.512860125064661,-1.8388609247515622,-1.5847288887023772,0.0,-0.0535106435418129,1.1737004518508911,0.32770824432373047,0.9961954951286316,-0.0602862574160099,0.0031343342270702124,0.06285090744495392
149.0,1.4499360948911517,-1.112938212328774,1.5007444413181843,-1.8226493345336365,-1.5861090090726386,0.0,-0.05375462397933006,1.1758816242218018,0.32768750190734863,0.9958716034889221,-0.059732988476753235,0.0035224498715251684,0.06825963407754898
150.0,1.450856818245006,-1.106273437087034,1.4886451663724072,-1.8064635896061931,-1.5875192089921915,0.0,-0.05402334779500961,1.1780098676681519,0.3277018070220947,0.9955200552940369,-0.05915885418653488,0.00393154751509428,0.07365193217992783
151.0,1.4518006386294422,-1.09963047668428,1.4765665442897977,-1.7903106071637565,-1.5889591292009284,0.0,-0.05431780591607094,1.1800851821899414,0.32775044441223145,0.9951413869857788,-0.05856338143348694,0.004361683968454599,0.0790257379412651
152.0,1.4527782742946498,-1.0930047384517247,1.4645139016668887,-1.7741895235352294,-1.5904285374730414,0.0,-0.054651323705911636,1.182104229927063,0.32782435417175293,0.9947354793548584,-0.05794096738100052,0.0048129200004041195,0.08438580483198166
153.0,1.4584748160607226,-1.060520979405999,1.418121987762301,-1.7549683771781683,-1.5902456337921163,0.0,-0.05853092297911644,1.2077058553695679,0.32353153824806213,0.9946722984313965,-0.055076714605093,0.004811495542526245,0.0870090052485466
154.0,1.441377397847084,-1.0896825743314174,1.459378860887209,-1.7699387407367735,-1.5929137386404129,0.0,-0.03995271399617195,1.1845331192016602,0.32753118872642517,0.9942809343338013,-0.06348554790019989,0.0054878052324056625,0.08570265769958496
155.0,1.4405898098306422,-1.0964639262689921,1.4715861432337725,-1.7862611845984684,-1.5915287602671218,0.0,-0.0398351326584816,1.182478666305542,0.3275412917137146,0.9947040677070618,-0.06402180343866348,0.0051234010607004166,0.08024315536022186
156.0,1.4397852781152085,-1.1032429858608033,1.4837905954380208,-1.802576698676701,-1.5901465653621532,0.0,-0.03970639407634735,1.1803762912750244,0.32757240533828735,0.9950965046882629,-0.06455719470977783,0.004763042088598013,0.07478384673595428
157.0,1.4389676210986786,-1.1100210752108042,1.495992449142486,-1.8188847256502707,-1.588768148028154,0.0,-0.03957056999206543,1.1782240867614746,0.3276255130767822,0.9954586625099182,-0.06508991122245789,0.0044076950289309025,0.06932491809129715
158.0,1.4381372517980293,-1.1167974902310775,1.5081924642727567,-1.835185308421183,-1.5873919428812655,0.0,-0.0394294448196888,1.1760225296020508,0.3276982009410858,0.995790421962738,-0.06561961770057678,0.004056628327816725,0.06386754661798477
159.0,1.4372954302960983,-1.123570329062587,1.520390759229855,-1.8514789399594411,-1.5860154898926324,0.0,-0.03928529471158981,1.1737715005874634,0.32778871059417725,0.9960918426513672,-0.06614592671394348,0.0037086999509483576,0.058412156999111176
160.0,1.4364436295178633,-1.130339978527981,1.532587844422812,-1.8677657950350774,-1.5846356064075182,0.0,-0.03914177417755127,1.1714705228805542,0.3278970420360565,0.9963631629943848,-0.06666794419288635,0.003362596733495593,0.0529588907957077
161.0,1.4355799199303418,-1.1371056889542488,1.5447835537900005,-1.884043855230332,-1.5832498015465781,0.0,-0.03899739310145378,1.1691187620162964,0.3280215859413147,0.9966041445732117,-0.0671868771314621,0.003016984323039651,0.04750924929976463
162.0,1.4347044858013132,-1.1438664005670014,1.5569773382328282,-1.9003130700434798,-1.581856016634324,0.0,-0.03885363042354584,1.1667169332504272,0.3281613290309906,0.9968149662017822,-0.06770242750644684,0.002671082504093647,0.04206336289644241
163.0,1.4338186175187784,-1.1506224665511848,1.5691691975661435,-1.9165746681052527,-1.5804549122250635,0.0,-0.03871181607246399,1.1642651557922363,0.3283168077468872,0.9969956874847412,-0.06821393221616745,0.0023253634572029114,0.03662088140845299
164.0,1.43292123157021,-1.1573736481032866,1.5813577741344875,-1.9328287758644178,-1.579046222273152,0.0,-0.03857109323143959,1.1617642641067505,0.3284887671470642,0.997146487236023,-0.06872178614139557,0.0019798094872385263,0.03118111565709114
165.0,1.4320128517370418,-1.1641197565481516,1.5935431142362864,-1.9490761359120476,-1.5776302292560866,0.0,-0.03843173757195473,1.1592144966125488,0.328676700592041,0.9972675442695618,-0.06922581791877747,0.0016347591299563646,0.025744153186678886
166.0,1.4310906238256553,-1.1708595915564377,1.6057246999727761,-1.9653157890412327,-1.576206176940658,0.0,-0.038291435688734055,1.1566154956817627,0.3288792669773102,0.997358500957489,-0.06972715258598328,0.0012898949207738042,0.020310906693339348
167.0,1.4301547295439836,-1.1775940376481913,1.6179033722179557,-1.9815484396146223,-1.5747737327876299,0.0,-0.03815072029829025,1.153967022895813,0.3290969133377075,0.9974197149276733,-0.07022570073604584,0.0009451985824853182,0.014881182461977005
168.0,1.4292083054043678,-1.1843244183754817,1.630079206114469,-1.9977759415005518,-1.5733334145138398,0.0,-0.03801312670111656,1.151269793510437,0.32933104038238525,0.9974513053894043,-0.07071977853775024,0.0006012450321577489,0.009453557431697845
169.0,1.4282519825846318,-1.1910495270376,1.642251536389509,-2.0139987146684675,-1.5718817494480908,0.0,-0.03788081556558609,1.1485235691070557,0.3295803964138031,0.9974532723426819,-0.07120903581380844,0.0002564713067840785,0.004028203897178173
170.0,1.4245596663484454,-1.209768889811841,1.6714823075581975,-2.0325129606953722,-1.5707950057783049,0.0,-0.03628752380609512,1.133575201034546,0.32980814576148987,-0.9973280429840088,0.07305313646793365,5.353697360988008e-07,1.653316189731413e-06
171.0,1.423368312397532,-1.2101426026455318,1.6701223354148924,-2.0215099082264634,-1.5721216268700267,0.0,-0.03491911292076111,1.130232810974121,0.32959383726119995,0.9972736835479736,-0.073643259704113,0.0003196123579982668,0.004669122397899628
172.0,1.4238168260350188,-1.2020121685318401,1.6559570290020478,-2.004716620809096,-1.573643629753233,0.0,-0.034213580191135406,1.1343698501586914,0.329388827085495,0.9972509145736694,-0.07340560853481293,0.0006845942698419094,0.010089615359902382
173.0,1.424250261524422,-1.1938739459661034,1.6417862152919536,-1.9879153977016013,-1.575160351378228,0.0,-0.03350549936294556,1.13844895362854,0.32918351888656616,0.9971987009048462,-0.07316513359546661,0.0010488091502338648,0.01551426388323307
174.0,1.4246770175156886,-1.1857327445270505,1.6276096551423809,-1.971113213740815,-1.5766777441162951,0.0,-0.03280168026685715,1.1424717903137207,0.32898396253585815,0.9971171617507935,-0.07291766256093979,0.0014154830714687705,0.020937509834766388
175.0,1.425103055844456,-1.1775907324958457,1.613430318690542,-1.954314585961611,-1.5781954574016435,0.0,-0.03210901468992233,1.1464375257492065,0.32879114151000977,0.9970068335533142,-0.07266023755073547,0.0017846323316916823,0.026357261463999748
176.0,1.4255300940474571,-1.1694515769671845,1.5992504810590946,-1.937519410476753,-1.579712112867198,0.0,-0.03142975643277168,1.1503440141677856,0.3286074995994568,0.9968677759170532,-0.07239223271608353,0.00215561012737453,0.03177265822887421
177.0,1.4259579628184442,-1.1613166228890774,1.5850708132081641,-1.9207289333049975,-1.5812258500658554,0.0,-0.03076477348804474,1.1541920900344849,0.32843488454818726,0.9966999292373657,-0.07211365550756454,0.002527445089071989,0.037182118743658066
178.0,1.426384836123528,-1.153184487765966,1.5708912305073994,-1.9039435542828012,-1.5827381552545825,0.0,-0.030111273750662804,1.1579809188842773,0.3282715976238251,0.9965034127235413,-0.07182547450065613,0.0029007154516875744,0.04258664324879646
179.0,1.4268107066147244,-1.1450544436583872,1.556710998168651,-1.88716048269717,-1.5842503787436564,0.0,-0.02946845069527626,1.1617108583450317,0.3281164765357971,0.9962782263755798,-0.07152777165174484,0.003275936469435692,0.04798712953925133
180.0,1.4272373933742324,-1.1369255346995037,1.5425302329242152,-1.8703749884538856,-1.585764471212702,0.0,-0.02883797138929367,1.1653797626495361,0.32796967029571533,0.9960242509841919,-0.07121945917606354,0.003654112573713064,0.053386181592941284
181.0,1.4276647002906666,-1.1287973743908037,1.5283497286612686,-1.8535866014155495,-1.5872810803084136,0.0,-0.028219465166330338,1.168986439704895,0.3278290927410126,0.9957414865493774,-0.07090071588754654,0.0040350984781980515,0.05878493934869766
182.0,1.4280924060898086,-1.120669299810364,1.5141686977687066,-1.836796709664462,-1.5887999756907907,0.0,-0.02761242166161537,1.1725327968597412,0.32769468426704407,0.9954299926757812,-0.0705716535449028,0.004418905358761549,0.06418227404356003
183.0,1.4285188427442934,-1.1125387488818936,1.4999837359287886,-1.8200070189863786,-1.5903187490788795,0.0,-0.027015218511223793,1.1760218143463135,0.32756760716438293,0.9950897097587585,-0.07023320347070694,0.004804410971701145,0.0695764496922493
184.0,1.4289364529254713,-1.1044046162329795,1.4857919177686403,-1.8032175510380133,-1.5918357515266348,0.0,-0.026419274508953094,1.179456353187561,0.3274482488632202,0.9947203397750854,-0.06988921016454697,0.005190391093492508,0.07496649771928787
185.0,1.4293424711203222,-1.0962642385811727,1.4715903404915402,-1.786425252669847,-1.5933487388793028,0.0,-0.025822114199399948,1.1828362941741943,0.32733577489852905,0.9943220615386963,-0.0695410743355751,0.005575487855821848,0.0803537368774414
186.0,1.4297418815087692,-1.0881053673203631,1.4573775797994937,-1.7696304144469148,-1.5948505349393367,0.0,-0.02523127570748329,1.1861648559570312,0.32721662521362305,0.9938943982124329,-0.06918683648109436,0.005955761764198542,0.08574270457029343
187.0,1.4322964524852215,-1.0568657442538365,1.4160857192961482,-1.7513398322452267,-1.5797251007874828,0.0,-0.030920516699552536,1.2095565795898438,0.320360004901886,0.9936423897743225,-0.06852056086063385,-0.0017375872703269124,0.08931253850460052
188.0,1.417865429413816,-1.054841037715966,1.4235668455367008,-1.7391083913619196,-1.5249264898429493,0.0,-0.03598050773143768,1.2034223079681396,0.3116064667701721,0.9916399717330933,-0.07827524095773697,-0.03039124421775341,0.09797771275043488
189.0,1.4034524813911498,-1.0528377004944725,1.4310578502840632,-1.7268954183017147,-1.4701336024996938,0.0,-0.04115743935108185,1.1978477239608765,0.30421915650367737,0.988642156124115,-0.08851069957017899,-0.05907627195119858,0.10612605512142181
190.0,1.3890490962852435,-1.0508429092643705,1.438558732924737,-1.7146873142659103,-1.4153433764763292,0.0,-0.0463482104241848,1.1928924322128296,0.29816052317619324,0.9846410155296326,-0.09920699894428253,-0.08775655925273895,0.11374910920858383
191.0,1.3746516261929431,-1.0488497638053593,1.4460665504464374,-1.7024794093357496,-1.360555031599911,0.0,-0.05145247280597687,1.188615083694458,0.2933962047100067,0.9796311855316162,-0.11034103482961655,-0.11639416217803955,0.12083036452531815
192.0,1.3602554093343235,-1.0468568279346528,1.4535783507238667,-1.6902725376762762,-1.3057686328733211,0.0,-0.056365348398685455,1.1850674152374268,0.2898925244808197,0.9736092686653137,-0.12188902497291565,-0.14494971930980682,0.12734897434711456
193.0,1.3458651825828152,-1.0448667234120432,1.461095197227322,-1.6780690140061099,-1.250986877308104,0.0,-0.06099030748009682,1.1822917461395264,0.28761184215545654,0.9665741324424744,-0.13382171094417572,-0.17338182032108307,0.13328513503074646
194.0,1.3314848433411224,-1.0428792268736173,1.4686190536879105,-1.6658700555395598,-1.1962091383416158,0.0,-0.06523160636425018,1.180321455001831,0.286505788564682,0.9585264325141907,-0.1461094468832016,-0.20165075361728668,0.13862283527851105
195.0,1.317111548433557,-1.040894492499747,1.4761474944777386,-1.6536766264125256,-1.141431612677656,0.0,-0.06898388266563416,1.1791843175888062,0.2865248918533325,0.9494674205780029,-0.15872560441493988,-0.22971802949905396,0.14334435760974884
196.0,1.3027394072137506,-1.0389132822471097,1.4836791328327052,-1.6414858187579284,-1.086653486551336,0.0,-0.0721401795744896,1.1788978576660156,0.28761374950408936,0.9393998980522156,-0.17164380848407745,-0.25754451751708984,0.1474352329969406
197.0,1.2883684353569524,-1.036935195692341,1.4912123419005554,-1.6292950719674173,-1.0318774635369616,0.0,-0.0745985135436058,1.1794698238372803,0.2897107005119324,0.9283291697502136,-0.1848345845937729,-0.28508883714675903,0.15088297426700592
198.0,1.2740033300938547,-1.0349642624223532,1.498749068177228,-1.617107156763242,-0.9771054421033136,0.0,-0.07626546919345856,1.18089759349823,0.2927512526512146,0.9162631034851074,-0.1982649862766266,-0.3123094141483307,0.15367469191551208
199.0,1.259655945442365,-1.033010713211602,1.5062965400801576,-1.6049367518495774,-0.9223338447402197,0.0,-0.07706078886985779,1.1831707954406738,0.296672523021698,0.9032133221626282,-0.21189665794372559,-0.33916643261909485,0.15579362213611603
200.0,1.2575887791537153,-1.016399304854616,1.4841613289986244,-1.5905777252707674,-0.8829431548231912,0.0,-0.08138386905193329,1.2013849020004272,0.30126842856407166,0.8950057625770569,-0.21714280545711517,-0.35735416412353516,0.15527987480163574
201.0,1.2527414028759478,-1.0478283586748802,1.5300246013527585,-1.6198887617827658,-0.8782660938857954,0.0,-0.08393572270870209,1.180801272392273,0.3071027100086212,0.8955374360084534,-0.2174815982580185,-0.3592836558818817,0.14707109332084656
202.0,1.2451626171307837,-1.0718872712232648,1.5772548065019216,-1.6814958815885424,-0.8654252482185281,0.0,-0.08240101486444473,1.171366810798645,0.3063252866268158,0.8970876932144165,-0.2159946709871292,-0.3640601933002472,0.12664981186389923
203.0,1.2375838313856193,-1.0959461837716502,1.6244850116510863,-1.743103001394321,-0.8525844025512604,0.0,-0.08125007152557373,1.161169171333313,0.3059335947036743,0.8983154892921448,-0.21420568227767944,-0.36859604716300964,0.10621808469295502
204.0,1.2284496279045878,-1.1221145464838262,1.6751949139002924,-1.8000180950089166,-0.8418602457415503,0.0,-0.0795823335647583,1.1460660696029663,0.30497169494628906,0.8988261222839355,-0.2136959731578827,-0.3723065257072449,0.08850769698619843
205.0,1.2065631335785134,-1.1679226736418324,1.7547794397433378,-1.8154560935174555,-0.8490154946255514,0.0,-0.07242853939533234,1.0946248769760132,0.2977970242500305,0.8957868218421936,-0.2260982096195221,-0.37104788422584534,0.09364446997642517
206.0,1.1984518602608762,-1.1518464611913573,1.7484150624034855,-1.7511891200159129,-0.8334435690597364,0.0,-0.0728374570608139,1.0837771892547607,0.28710803389549255,0.8831304907798767,-0.24210067093372345,-0.38218367099761963,0.12411068379878998
207.0,1.1892434517209534,-1.136517707669807,1.7363803445958914,-1.6823365910713832,-0.8173410721079981,0.0,-0.07121365517377853,1.0759038925170898,0.2821264863014221,0.8690604567527771,-0.2584127187728882,-0.39311692118644714,0.15302282571792603
208.0,1.1784173655419927,-1.12237334800372,1.722959821622043,-1.6134627401727317,-0.8012652926909075,0.0,-0.06740619242191315,1.0694704055786133,0.2803784906864166,0.8538147807121277,-0.2750663161277771,-0.4036616384983063,0.1799895316362381
209.0,1.1662419556540702,-1.1080213684152391,1.7083391037971045,-1.5447501322878143,-0.7851462172512517,0.0,-0.061676397919654846,1.0645009279251099,0.2802596390247345,0.8372819423675537,-0.2921016216278076,-0.4139350950717926,0.20565377175807953
210.0,1.1532056735989595,-1.0924641453295667,1.6929592459308715,-1.4763235514313087,-0.7690243897788411,0.0,-0.054575733840465546,1.0607513189315796,0.2804258465766907,0.8193400502204895,-0.3094424605369568,-0.42393195629119873,0.2306707501411438
211.0,1.1397149787211922,-1.0753428729198367,1.6771675655933893,-1.4082243175196307,-0.7529250522891566,0.0,-0.046563372015953064,1.0580031871795654,0.28024059534072876,0.7999236583709717,-0.3269510865211487,-0.4335956573486328,0.25538206100463867
212.0,1.1258609041622982,-1.0561543201877008,1.660977802619934,-1.3405585772335131,-0.7368289921446635,0.0,-0.037661440670490265,1.0563088655471802,0.2791289687156677,0.7789366245269775,-0.3445854187011719,-0.442891389131546,0.2799391746520996
213.0,1.1117337292775662,-1.0349123055493425,1.6443511900148973,-1.2733515678944034,-0.7206877964054074,0.0,-0.02789812535047531,1.0557081699371338,0.27702799439430237,0.7563746571540833,-0.3622352182865143,-0.45177534222602844,0.30427342653274536
214.0,1.0973611410582769,-1.011558703629052,1.6271777048460137,-1.206663936034889,-0.7044686752274828,0.0,-0.017205052077770233,1.0562785863876343,0.2738136649131775,0.7322457432746887,-0.37980949878692627,-0.4602014720439911,0.3282921314239502
215.0,1.0828512168396307,-0.9864271669907034,1.6095352107926408,-1.1404357570116723,-0.688185016685615,0.0,-0.005678452551364899,1.0579036474227905,0.26962438225746155,0.7066197395324707,-0.397171288728714,-0.4680924117565155,0.3518993854522705
216.0,1.0682858452700088,-0.9594098292833535,1.5914439634629185,-1.0747208460276334,-0.6718738997372115,0.0,0.006645292043685913,1.0605272054672241,0.2641911208629608,0.679511547088623,-0.41422703862190247,-0.4753633141517639,0.37511304020881653
217.0,1.0538057966352854,-0.9302631831930273,1.572895409377126,-1.0095570768246918,-0.6555778194153425,0.0,0.019659921526908875,1.0640881061553955,0.25712475180625916,0.6509196758270264,-0.4308744966983795,-0.48190757632255554,0.39801499247550964
218.0,1.0394692411644952,-0.8994826486974565,1.5540217394395608,-0.944790774369273,-0.6393121873994609,0.0,0.0332510769367218,1.0683863162994385,0.24869966506958008,0.6209421157836914,-0.4469996392726898,-0.4876471161842346,0.42050281167030334
219.0,1.0253191548586134,-0.8669140286789379,1.53473457474993,-0.8804111019543411,-0.6230454699755843,0.0,0.0474020391702652,1.0734035968780518,0.23866033554077148,0.5895902514457703,-0.4625384211540222,-0.4925142824649811,0.4425734579563141
220.0,1.0114598058130715,-0.8323731585429274,1.5149253482722478,-0.816410768824309,-0.606724163717914,0.0,0.062018558382987976,1.0791243314743042,0.22671526670455933,0.5568857789039612,-0.47741615772247314,-0.49642619490623474,0.4642338752746582
221.0,0.9982384999666961,-0.7961366515552142,1.494971666375973,-0.7527220768719751,-0.5904657726828298,0.0,0.07655557990074158,1.085200548171997,0.21283534169197083,0.5229290723800659,-0.4914659857749939,-0.49918031692504883,0.48561859130859375
222.0,0.9973850170097024,-0.7618957598989223,1.4560171513028681,-0.6941296466416711,-0.5733898311141257,0.0,0.08504713326692581,1.1035654544830322,0.20587480068206787,0.49999725818634033,-0.5000048875808716,-0.5000060200691223,0.49999192357063293
223.0,1.0159588213319533,-0.7331788546908472,1.3782038951452413,-0.6450369905240629,-0.5548181922924392,0.0,0.08503259718418121,1.1453416347503662,0.21577028930187225,0.49999919533729553,-0.5000038743019104,-0.5000057816505432,0.49999111890792847
224.0,1.000155984503758,-0.7586099875978449,1.4446499219871198,-0.686028332071944,-0.5706116752680322,0.0,0.08506527543067932,1.109670639038086,0.2083682119846344,0.49998873472213745,-0.5000081658363342,-0.500006377696991,0.4999968409538269
225.0,0.9795089317726302,-0.7860994032464869,1.5215927549104713,-0.7355045832592951,-0.5912758628045806,0.0,0.0855528935790062,1.0664124488830566,0.19802728295326233,0.5000007748603821,-0.5000022649765015,-0.5000036954879761,0.49999332427978516
226.0,0.9633489403999411,-0.8061874638588062,1.5789336748423912,-0.7727536284328216,-0.6074295291564228,0.0,0.08505093306303024,1.033197283744812,0.1903548538684845,0.49999797344207764,-0.5000041127204895,-0.5000049471855164,0.49999305605888367
227.0,0.9769835775395287,-0.789137021257901,1.5324314093819156,-0.7432888943605417,-0.5937945964657518,0.0,0.0850612223148346,1.0605000257492065,0.19567818939685822,0.4999935030937195,-0.5000050067901611,-0.500004231929779,0.49999722838401794
228.0,0.9542652232798594,-0.815799310914896,1.608536016935541,-0.792716913158894,-0.6165170470045181,0.0,0.0850004032254219,1.0155675411224365,0.1857401430606842,0.4999896287918091,-0.5000046491622925,-0.5000022649765015,0.500003457069397
229.0,0.9334915310300248,-0.8174916484420048,1.6689722735507055,-0.8251790587647272,-0.6006677124861329,0.0,0.0845201388001442,0.9903764724731445,0.16342638432979584,0.48154473304748535,-0.5105712413787842,-0.5074907541275024,0.4998849928379059
230.0,0.911498634363068,-0.8266596445676299,1.7231233404556352,-0.8108214693328799,-0.5400531421193274,0.0,0.08405148237943649,0.9803332090377808,0.1596013456583023,0.4391385316848755,-0.5340098142623901,-0.5228307843208313,0.4986370801925659
231.0,0.9195590332568783,-0.8358981190398428,1.7223880992452383,-0.7460070539921708,-0.49531702676976774,0.0,0.07372153550386429,0.9919717311859131,0.1792805939912796,0.4098925292491913,-0.5465449690818787,-0.5256484746932983,0.5069224834442139
232.0,0.9286349813535126,-0.8442763247847878,1.7202014772202514,-0.6798801640957407,-0.45083007136289344,0.0,0.06358818709850311,1.0042272806167603,0.19758984446525574,0.3805578351020813,-0.5592308640480042,-0.5264797210693359,0.5150298476219177
233.0,0.9377486479552785,-0.852023164389506,1.7180986740228925,-0.6138685582287311,-0.4061833890813894,0.0,0.05403667688369751,1.0163942575454712,0.21394112706184387,0.3508870303630829,-0.572346568107605,-0.5256277918815613,0.5225066542625427
234.0,0.946812573318355,-0.8592819020294548,1.715986935987632,-0.5479249636138908,-0.3614163534642683,0.0,0.04512585699558258,1.028397798538208,0.22842323780059814,0.3210139274597168,-0.5858508944511414,-0.5231015682220459,0.5292388200759888
235.0,0.9557393360841002,-0.8661873043497945,1.7137754761306785,-0.4820090495890811,-0.31655759871867356,0.0,0.03690637648105621,1.0401535034179688,0.2411433756351471,0.29106995463371277,-0.599696159362793,-0.5189314484596252,0.5351195931434631
236.0,0.9644541581722761,-0.872831148219866,1.7113748043966588,-0.41608584415367417,-0.2716360368037871,0.0,0.02941194176673889,1.0515685081481934,0.2521994709968567,0.2611748278141022,-0.6138274073600769,-0.5131568312644958,0.5400681495666504
237.0,0.9729540127346334,-0.8793477252841999,1.7087733169966783,-0.35012049414955154,-0.22668319212715685,0.0,0.022571712732315063,1.0625027418136597,0.26173070073127747,0.23145589232444763,-0.6281766295433044,-0.5058069825172424,0.5440421104431152
238.0,0.9811928952357932,-0.8857944663316486,1.705896473917784,-0.2841116951860915,-0.181714478457503,0.0,0.01638731360435486,1.0728557109832764,0.26984766125679016,0.20202802121639252,-0.6426815986633301,-0.4969412088394165,0.5469868779182434
239.0,0.9891850123104974,-0.8922683608957701,1.7027326486996364,-0.21801484571774893,-0.13676649392756846,0.0,0.010772302746772766,1.0824849605560303,0.27671018242836,0.17300274968147278,-0.6572703123092651,-0.4865991473197937,0.548896312713623
240.0,0.9970205679748555,-0.8987901314880276,1.6993604102445445,-0.15185436839878602,-0.0918454018881725,0.0,0.005539126694202423,1.0912214517593384,0.282380610704422,0.1444707065820694,-0.6718798279762268,-0.4747866094112396,0.5498031377792358
241.0,1.004697986701698,-0.9054208030018439,1.6957012758185532,-0.08561627202952353,-0.04698202518599581,0.0,0.0006529241800308228,1.0989725589752197,0.2870464324951172,0.1165546104311943,-0.6864428520202637,-0.46157634258270264,0.5496895909309387
242.0,1.0123324545352452,-0.9121196546367587,1.6919096240452582,-0.019320275914190183,-0.002161148008558867,0.0,-0.004110641777515411,1.105549693107605,0.29071009159088135,0.0892949104309082,-0.7009148597717285,-0.4469398856163025,0.5486251711845398
243.0,1.0199697351827117,-0.9188784408780627,1.6879688145148675,0.04702641866992628,0.04260857067124167,0.0,-0.008838839828968048,1.1108553409576416,0.29348844289779663,0.06278295069932938,-0.7152436375617981,-0.43091490864753723,0.5466234087944031
244.0,1.0276720938939163,-0.9256429255157234,1.683925252565258,0.11339795571328665,0.08733973741790359,0.0,-0.01364511251449585,1.114776849746704,0.2954333424568176,0.03707878291606903,-0.7293888330459595,-0.41351133584976196,0.5437145233154297
245.0,1.0354550772688929,-0.9323488202061101,1.6798237477529698,0.17979507213637574,0.13204866726889003,0.0,-0.018580518662929535,1.1172113418579102,0.2965967059135437,0.01221384946256876,-0.7433141469955444,-0.39473992586135864,0.5399215817451477
246.0,1.043357029367234,-0.9388837293648938,1.675666701256712,0.24618458672141125,0.17677314065660465,0.0,-0.02369040995836258,1.1180987358093262,0.2969990670681,-0.011765592731535435,-0.7569872736930847,-0.37461069226264954,0.5352557301521301
247.0,1.0513474931784312,-0.9452289757442922,1.6714741852378028,0.31254981966873924,0.22153441469468055,0.0,-0.02894536405801773,1.1173725128173828,0.29675692319869995,-0.034815095365047455,-0.7703683972358704,-0.3531706929206848,0.5297085046768188
248.0,1.0594208174823851,-0.9511737791477959,1.667232202373104,0.3788919959427283,0.2663776220517601,0.0,-0.034314461052417755,1.1150075197219849,0.29581987857818604,-0.05694049596786499,-0.7834250330924988,-0.3303980827331543,0.5232973694801331
249.0,1.0675103255055403,-0.9566812783839044,1.662935563570303,0.44518107516898436,0.31135157017927984,0.0,-0.03969428688287735,1.110981822013855,0.29430171847343445,-0.0781068429350853,-0.7961153388023376,-0.3063514530658722,0.5159928202629089
250.0,1.0755868192859248,-0.9617528130068108,1.6585832688416526,0.5114106378721082,0.3564671295604622,0.0,-0.0450257733464241,1.1052762269973755,0.2923735976219177,-0.0982566773891449,-0.8083847165107727,-0.28108659386634827,0.5077894330024719
251.0,1.0835232294548616,-0.9659511454288178,1.654114813190614,0.5775631192119162,0.4018625378793736,0.0,-0.05008220300078392,1.0979530811309814,0.2897796034812927,-0.11749410629272461,-0.8202022314071655,-0.2545360326766968,0.4986732006072998
252.0,1.0913309576174333,-0.9696118963138924,1.6495903329220554,0.6436447219849375,0.44746151589113564,0.0,-0.05488148704171181,1.088962435722351,0.2870258092880249,-0.13565437495708466,-0.8314818739891052,-0.22684702277183533,0.48864737153053284
253.0,1.0989149705411907,-0.9725236520451376,1.644946434191576,0.7096525649826583,0.49333988539397816,0.0,-0.0592404268682003,1.078384518623352,0.28410765528678894,-0.1527559608221054,-0.842167854309082,-0.19802933931350708,0.4777064621448517
254.0,1.1062933370448087,-0.9748604203216368,1.6401749041508056,0.7756140814533313,0.5394409024898242,0.0,-0.06314967572689056,1.0662569999694824,0.28140950202941895,-0.1686767190694809,-0.8521817326545715,-0.16819748282432556,0.46588003635406494
255.0,1.1134428862427406,-0.9765910549927159,1.635225522110646,0.8415291653307895,0.5857961196882144,0.0,-0.06651380658149719,1.0526812076568604,0.27910614013671875,-0.18336251378059387,-0.8614641427993774,-0.13742128014564514,0.4531812369823456
256.0,1.120485497575061,-0.977988688150718,1.6300841040665135,0.9074719120391983,0.6322790693416623,0.0,-0.06944108009338379,1.0377343893051147,0.27768993377685547,-0.19664642214775085,-0.8699448108673096,-0.10584253817796707,0.4396858811378479
257.0,1.1275944755497074,-0.979190423379898,1.6246613742020173,0.9734855602421724,0.6788248959555074,0.0,-0.0720444768667221,1.0215709209442139,0.27751675248146057,-0.20836734771728516,-0.8775867223739624,-0.07358771562576294,0.4254521429538727
258.0,1.135180082339334,-0.9805783403519276,1.6187591289518573,1.0397145793439373,0.7252024287427699,0.0,-0.0746830627322197,1.004407525062561,0.27924466133117676,-0.21822232007980347,-0.8843768835067749,-0.040879786014556885,0.410591721534729
259.0,1.1530641361691278,-0.9876458893523016,1.613846091915462,1.0415857439062788,0.7684690999138322,0.0,-0.08166497945785522,0.9994858503341675,0.2755253314971924,-0.2091820240020752,-0.8956156969070435,-0.03721601516008377,0.390807569026947
260.0,1.1728819632618461,-0.9958171239995788,1.6092649774858752,1.0303898238807918,0.8111644017466335,0.0,-0.08875147998332977,0.9975039958953857,0.27095726132392883,-0.1967090219259262,-0.9071293473243713,-0.039987362921237946,0.3698958158493042
261.0,1.1926832696364498,-1.0039954019726294,1.6046675151761223,1.019182177027911,0.8538523738650046,0.0,-0.09511831402778625,0.9959876537322998,0.26704850792884827,-0.18438491225242615,-0.9178548455238342,-0.04335687309503555,0.34880512952804565
262.0,1.212459648189594,-1.012156354572981,1.6000423435121134,1.007959024981577,0.896525358762833,0.0,-0.100818932056427,0.9949597120285034,0.2638266980648041,-0.17224225401878357,-0.9277884364128113,-0.047315239906311035,0.3275708556175232
263.0,1.2322013766176876,-1.020290974048079,1.5953832716371057,0.9967248094046627,0.9391751820530211,0.0,-0.10590973496437073,0.9944314360618591,0.2613295316696167,-0.16031338274478912,-0.9369285702705383,-0.05185268819332123,0.30622830986976624
264.0,1.2519201178226278,-1.028400467793737,1.5906964380878437,0.9854783178393319,0.9818057314528653,0.0,-0.1104688048362732,0.9943966865539551,0.2595912516117096,-0.14861977100372314,-0.9452793598175049,-0.05695468187332153,0.2848077416419983
265.0,1.2716113684994568,-1.036481849713959,1.5859729607195583,0.9742099677669901,1.0244114666834478,0.0,-0.11455591022968292,0.994859516620636,0.2586471140384674,-0.1371864527463913,-0.9528433680534363,-0.06261888146400452,0.26334068179130554
266.0,1.2912766333212204,-1.0445417452454748,1.5812195371884614,0.9629200671596727,1.0669926715268547,0.0,-0.11823907494544983,0.9958024024963379,0.25853049755096436,-0.1260388344526291,-0.9596256017684937,-0.06883171945810318,0.24185797572135925
267.0,1.3109179437458347,-1.0525811381648016,1.5764294551064213,0.9516091979759901,1.1095471965551307,0.0,-0.12158428132534027,0.9972123503684998,0.259273886680603,-0.1151992604136467,-0.9656316041946411,-0.07558374106884003,0.2203902155160904
268.0,1.3305336596977622,-1.060595173499879,1.5715996877983054,0.9402736790442658,1.1520754067433192,0.0,-0.12465116381645203,0.9990696907043457,0.2608979344367981,-0.10469331592321396,-0.9708684086799622,-0.08286135643720627,0.1989670991897583
269.0,1.3501266821886209,-1.0685883979107909,1.5667418762269558,0.9289178597580079,1.1945839204891646,0.0,-0.12750381231307983,1.001335620880127,0.26342058181762695,-0.09454461932182312,-0.9753450751304626,-0.09064275771379471,0.1776154786348343
270.0,1.369679590192457,-1.0765539831237245,1.5618493082815086,0.9175390701873709,1.237068956441957,0.0,-0.13018323481082916,1.003984808921814,0.26685643196105957,-0.08478408306837082,-0.9790698289871216,-0.09891417622566223,0.1563650369644165
271.0,1.3892017041431086,-1.0844992082255716,1.5569309363496133,0.9061463545811741,1.2795365840018575,0.0,-0.13275398313999176,1.0069679021835327,0.2712206244468689,-0.07543059438467026,-0.9820545315742493,-0.10765174776315689,0.13524197041988373
272.0,1.4086852372993899,-1.0924226462190678,1.5519780862502526,0.8947354162691968,1.3219808091672764,0.0,-0.13526079058647156,1.0102519989013672,0.27652549743652344,-0.06650826334953308,-0.984309732913971,-0.11684248596429825,0.11427559703588486
273.0,1.428140527836185,-1.1003275678376276,1.5469967965930196,0.8833084659841469,1.364409835696159,0.0,-0.137761652469635,1.0137841701507568,0.2827763259410858,-0.05803298577666283,-0.9858493804931641,-0.1264638900756836,0.0934893786907196
274.0,1.4475676063335985,-1.1082116693548156,1.541984582000341,0.8718614429271152,1.4068225658164024,0.0,-0.14030109345912933,1.017518162727356,0.28997310996055603,-0.05002455413341522,-0.9866864681243896,-0.13649730384349823,0.07290980964899063
275.0,1.4669688236387741,-1.1160782265811433,1.5369408414036603,0.8603956928801483,1.4492088927041666,0.0,-0.1429276466369629,1.0214015245437622,0.29811814427375793,-0.04249965772032738,-0.9868353605270386,-0.14692310988903046,0.052567675709724426
276.0,1.4863474368557528,-1.1239285568920676,1.5318694308263252,0.8489235893321163,1.4915673482883434,0.0,-0.14568358659744263,1.0253708362579346,0.30720412731170654,-0.03547479957342148,-0.9863128662109375,-0.15771155059337616,0.0324888750910759
277.0,1.5057222811578446,-1.1317522112194967,1.5267866204443332,0.8374611333129004,1.5339251102465832,0.0,-0.14861243963241577,1.0293477773666382,0.31719982624053955,-0.0289597250521183,-0.9851399660110474,-0.1688184291124344,0.012686310335993767
278.0,1.5037761004206829,-1.1508117687734456,1.5572417172315542,0.8165586587386362,1.5394156024626073,0.0,-0.14543165266513824,1.0153563022613525,0.3161415755748749,-0.030281148850917816,-0.9843337535858154,-0.17342782020568848,0.009648029692471027
279.0,1.5152560368236174,-1.182082843313365,1.624984730582587,0.7794667347981309,1.5495176949739728,0.0,-0.15512965619564056,0.9780214428901672,0.3024243712425232,-0.025501355528831482,-0.9844788312911987,-0.17354846000671387,0.005661353934556246
280.0,1.5037135077212729,-1.162748021869549,1.5827423280075494,0.8024779002198645,1.5477437374868277,0.0,-0.1430237591266632,1.0020360946655273,0.31113767623901367,-0.031029392033815384,-0.9843196868896484,-0.17355480790138245,0.005534647963941097
281.0,1.4943486599290665,-1.1476600910965262,1.5498408108983834,0.8204895707428873,1.5446755440376878,0.0,-0.1335233747959137,1.0203654766082764,0.3178163766860962,-0.03537369146943092,-0.9841723442077637,-0.17353555560112,0.006235622335225344
282.0,1.4724371940240861,-1.1677323835612046,1.5909256088934667,0.8000927447189408,1.5372092852139851,0.0,-0.11620667576789856,1.0011632442474365,0.3108281195163727,-0.04551301896572113,-0.9837556481361389,-0.17346198856830597,0.008022302761673927
283.0,1.4541474810237707,-1.172198333179958,1.5992995305368445,0.7968202010793621,1.5309863514373965,0.0,-0.10085940361022949,0.9984208941459656,0.3098299205303192,-0.053976479917764664,-0.9833279848098755,-0.17338451743125916,0.009514404460787773
284.0,1.4249813733481964,-1.1573135223809945,1.5664606668670291,0.8160010759480594,1.5210862479985132,0.0,-0.07309873402118683,1.0178475379943848,0.31690171360969543,-0.0674731433391571,-0.9824939370155334,-0.1732385903596878,0.011894610710442066
285.0,1.4068626170343277,-1.1610042168376546,1.5737775812952133,0.8132779685357994,1.5149555672212753,0.0,-0.057707659900188446,1.0150600671768188,0.3158867359161377,-0.07585809379816055,-0.9818823337554932,-0.17312957346439362,0.013372918590903282
286.0,1.383132511699219,-1.1763763768564026,1.6118738208427084,0.7918880442671672,1.506947070811387,0.0,-0.04031810164451599,0.9974380731582642,0.3061809539794922,-0.08683956414461136,-0.9809716939926147,-0.1729712337255478,0.015310760587453842
287.0,1.3695457957038566,-1.1964194380706905,1.6893500794361966,0.7352659276101581,1.5023652813438633,0.0,-0.03552433103322983,0.9638276100158691,0.27536869049072266,-0.09312550723552704,-0.9803915619850159,-0.1728881150484085,0.016423607245087624
288.0,1.4172944029562962,-1.2025368446326237,1.7129037040623212,0.715216997694371,1.518494781374048,0.0,-0.07680868357419968,0.9503899216651917,0.26573729515075684,-0.07103274017572403,-0.9822489023208618,-0.17316150665283203,0.01251887809485197
289.0,1.4753031830353769,-1.2010889597519234,1.71437488187025,0.6996650339949065,1.5374767787616352,0.0,-0.1239224523305893,0.9491353034973145,0.2629360258579254,-0.043998509645462036,-0.9829196929931641,-0.17852471768856049,0.007881375961005688
290.0,1.4752720730907698,-1.218381162729962,1.7593399185695653,0.6123235533077365,1.5333490071600142,0.0,-0.12540003657341003,0.9502043128013611,0.2507801055908203,-0.04282345622777939,-0.9771876335144043,-0.20784606039524078,0.008402303792536259
291.0,1.4752615836357372,-1.2356749283637969,1.8043388139131387,0.5250000994816957,1.5292136249620132,0.0,-0.12696214020252228,0.9506206512451172,0.24014416337013245,-0.041479531675577164,-0.9705942869186401,-0.23695382475852966,0.00889679230749607
292.0,1.4752514810353052,-1.2529597879269925,1.8493543487838724,0.437682419276855,1.5250989933474435,0.0,-0.12858428061008453,0.9503272175788879,0.23103271424770355,-0.039982035756111145,-0.9631450176239014,-0.2658306062221527,0.009345043450593948
293.0,1.4752385381517148,-1.270249208317701,1.8943717768024144,0.3503659805393159,1.5209981463992777,0.0,-0.13027209043502808,0.9492624402046204,0.22346743941307068,-0.03833416476845741,-0.9548429250717163,-0.2944665551185608,0.009745294228196144
294.0,1.4752290259004364,-1.2875552778566928,1.9393914474596017,0.2630536531969193,1.5169052769428388,0.0,-0.13204088807106018,0.9473499655723572,0.2174537479877472,-0.03653492033481598,-0.9456942081451416,-0.3228400647640228,0.010097261518239975
295.0,1.4752257570940186,-1.3048684041500156,1.9844106648131181,0.17574225238258645,1.5128177008980588,0.0,-0.13390113413333893,0.9445207715034485,0.21297341585159302,-0.034585580229759216,-0.9357074499130249,-0.35092347860336304,0.010399316437542439
296.0,1.47522360811191,-1.3221758098146161,2.029429713808495,0.08842939636792604,1.5087346622433269,0.0,-0.13585470616817474,0.9407044649124146,0.20999835431575775,-0.032492026686668396,-0.9248932600021362,-0.37868642807006836,0.010647773742675781
297.0,1.4752202579478209,-1.3394791346699593,2.074448640247299,0.001115614257488129,1.5046518895571646,0.0,-0.137907937169075,0.9358327984809875,0.20850828289985657,-0.030257724225521088,-0.913261353969574,-0.4061044454574585,0.010840639472007751
298.0,1.4752233723988453,-1.3567850068024112,2.119470485088762,-0.08619602104884416,1.5005659872818435,0.0,-0.14007613062858582,0.9298343658447266,0.20848023891448975,-0.02788182906806469,-0.9008222818374634,-0.4331528842449188,0.010977757163345814
299.0,1.4752264688389238,-1.3740965870005153,2.164500139620669,-0.17350274840158816,1.4964862880865037,0.0,-0.14235582947731018,0.9226420521736145,0.2098807841539383,-0.025373270735144615,-0.8875884413719177,-0.4598054885864258,0.011050182394683361
300.0,1.4752287878341086,-1.3914166076886945,2.2095250896560295,-0.2608108520532554,1.4924207565329959,0.0,-0.14474764466285706,0.9142082929611206,0.21268577873706818,-0.022737866267561913,-0.8735666275024414,-0.486047625541687,0.011050487868487835
301.0,1.475263362896387,-1.408740279298034,2.254542924279404,-0.3481230303070394,1.4883779207832706,0.0,-0.14728336036205292,0.9044743776321411,0.21685238182544708,-0.019968146458268166,-0.858769416809082,-0.5118553638458252,0.010980485938489437
302.0,1.4753525892840784,-1.4261064529418945,2.299567461013794,-0.4354229271411896,1.484330177307129,0.0,-0.149999737739563,0.8933653831481934,0.22235333919525146,-0.017052730545401573,-0.8432074785232544,-0.5372081995010376,0.010856417939066887
