Sungjin-Park-dev/lg_sgu_vision_v2/data/sample/trajectory/124/trajectory_dp.csv
time,ur20-shoulder_pan_joint,ur20-shoulder_lift_joint,ur20-elbow_joint,ur20-wrist_1_joint,ur20-wrist_2_joint,ur20-wrist_3_joint,target-POS_X,target-POS_Y,target-POS_Z,target-ROT_X,target-ROT_Y,target-ROT_Z,target-ROT_W
0.0,1.9927538633346558,-0.7432686686515808,1.4341174364089966,-0.6908226013183594,-2.7196197509765625,0.0,-0.2849971055984497,1.0089348554611206,0.19599655270576477,0.49999505281448364,0.499999463558197,0.4999927282333374,0.5000128746032715
1.0,1.9776191319591814,-0.7151032701984635,1.3554825280059584,-0.6403744246562006,-2.7347491491071274,0.0,-0.28503674268722534,1.0547209978103638,0.20681226253509521,0.500003457069397,0.4999954402446747,0.4999940097332001,0.5000070929527283
2.0,1.9761765693969493,-0.7113526964919543,1.3472164584236244,-0.6358639143859022,-2.7361977642666226,0.0,-0.2851219177246094,1.0594395399093628,0.20700938999652863,0.5000038146972656,0.49999627470970154,0.4999963343143463,0.5000036358833313
3.0,1.9628249257982615,-0.6826394844692976,1.2680991286409136,-0.5854806211961664,-2.749542983728358,0.0,-0.28503310680389404,1.1024800539016724,0.2181168794631958,0.500012218952179,0.49999186396598816,0.4999975860118866,0.49999842047691345
4.0,1.9509723524420433,-0.6520892887071624,1.1884144160933963,-0.5363268643213314,-2.7613931446780784,0.0,-0.2850312888622284,1.1431975364685059,0.22775129973888397,0.5000066161155701,0.49999377131462097,0.49999430775642395,0.5000053644180298
5.0,1.9403596931517224,-0.6193582903078803,1.1082515913284263,-0.48887902829861657,-2.7720076646323055,0.0,-0.28503283858299255,1.1817039251327515,0.2351706624031067,0.5000006556510925,0.49999672174453735,0.4999924302101135,0.5000103116035461
6.0,1.932292174960223,-0.5853439341374784,1.0419642825058604,-0.43961910540192095,-2.736078550588565,0.0,-0.28456956148147583,1.1930627822875977,0.23457500338554382,0.5053322315216064,0.4912087321281433,0.48650622367858887,0.5163962244987488
7.0,1.9245789163081417,-0.5515233501346943,0.9779748606264314,-0.3897269178158046,-2.6926679447918715,0.0,-0.2842339277267456,1.1990859508514404,0.23355147242546082,0.511085033416748,0.4804421663284302,0.47071290016174316,0.5351606011390686
8.0,1.9245812349849087,-0.550662189810309,0.9776830881905845,-0.38820914365489456,-2.687243953068491,0.0,-0.2844081521034241,1.1968947649002075,0.23297899961471558,0.5116639733314514,0.47925493121147156,0.46904197335243225,0.5371354818344116
9.0,1.9328934579493016,-0.5852993006416982,1.0459955624186652,-0.4387920391393389,-2.722732664789861,0.0,-0.2848181128501892,1.1857906579971313,0.23275020718574524,0.5068084001541138,0.48856019973754883,0.4826011061668396,0.5211050510406494
10.0,1.9412056809136946,-0.6199364114730875,1.1143080366467457,-0.48937493462378323,-2.7582213765112313,0.0,-0.2849925756454468,1.1733447313308716,0.2327832132577896,0.5016070604324341,0.4974493086338043,0.49604564905166626,0.5048498511314392
11.0,1.9512813149582537,-0.6521853347009219,1.1908379316488538,-0.5386459304451197,-2.7610922222693985,0.0,-0.2850429117679596,1.1421386003494263,0.22636157274246216,0.5000016093254089,0.499997079372406,0.49999505281448364,0.500006377696991
12.0,1.9631740629448389,-0.6826768491029628,1.270502966931526,-0.5878467920446057,-2.749198416091024,0.0,-0.28504514694213867,1.1013457775115967,0.21670573949813843,0.5000110864639282,0.4999929666519165,0.49999868869781494,0.49999725818634033
13.0,1.9583214809330944,-0.7076983861420215,1.30040678634321,-0.6500551794786382,-2.727482444199716,0.0,-0.2774088382720947,1.0883491039276123,0.22161833941936493,0.5251853466033936,0.48550134897232056,0.5007124543190002,0.4876021444797516
14.0,1.9470502438462676,-0.7306606296053515,1.3124310489529558,-0.716970874224471,-2.7027056873311492,0.0,-0.26743531227111816,1.086418867111206,0.231045663356781,0.5586286783218384,0.46537312865257263,0.5006136298179626,0.46983811259269714
15.0,1.9357195530111853,-0.7533389149315678,1.3245503744300924,-0.7839791224388452,-2.678071329748041,0.0,-0.25791916251182556,1.085044503211975,0.23961910605430603,0.5910394787788391,0.44483545422554016,0.49930235743522644,0.4510997235774994
16.0,1.9242701341042476,-0.7757034244336078,1.3367485283914904,-0.851062190304289,-2.653528631232622,0.0,-0.24880290031433105,1.08431875705719,0.2474309206008911,0.6223617196083069,0.42392638325691223,0.496800035238266,0.43144190311431885
17.0,1.9127009098545689,-0.7977681654256037,1.349029904968077,-0.9182044669321443,-2.629054162958715,0.0,-0.24007856845855713,1.0843048095703125,0.2546180486679077,0.6525320410728455,0.4027025103569031,0.49315404891967773,0.4108915627002716
18.0,1.9010158551991847,-0.8195296863839994,1.361411030363513,-0.9854061081600413,-2.604649322028485,0.0,-0.23173435032367706,1.085057020187378,0.261295884847641,0.6814795136451721,0.38123130798339844,0.48842230439186096,0.38947680592536926
19.0,1.8891746005187864,-0.8408559954325463,1.3739707601077709,-1.0526820861120727,-2.5803243880886093,0.0,-0.22369125485420227,1.0865987539291382,0.2674088180065155,0.7091019749641418,0.3595959544181824,0.48264962434768677,0.36730700731277466
20.0,1.8772124701242825,-0.8618386354574752,1.3866945739668302,-1.1200009997756712,-2.5560368920301384,0.0,-0.21596454083919525,1.0889415740966797,0.2731913924217224,0.735374927520752,0.3378506004810333,0.4759005308151245,0.34438255429267883
21.0,1.865074098653672,-0.8823395088580671,1.399663525607884,-1.187365693045199,-2.5317784434511563,0.0,-0.20845019817352295,1.092072606086731,0.27857255935668945,0.7602176070213318,0.31607407331466675,0.46822068095207214,0.3208363652229309
22.0,1.852713344090467,-0.9022690071397893,1.4129405785570408,-1.2547706253777948,-2.507542252760857,0.0,-0.20105181634426117,1.0959689617156982,0.28353574872016907,0.7835745811462402,0.2943369746208191,0.45967039465904236,0.29678255319595337
23.0,1.840083144576255,-0.9215384855827237,1.426595530922686,-1.322207678495853,-2.4833165360878913,0.0,-0.19366875290870667,1.1005865335464478,0.2880522608757019,0.8054042458534241,0.27270758152008057,0.45031532645225525,0.27234336733818054
24.0,1.827150069964066,-0.9400863331167016,1.4406841819921625,-1.3896643391681391,-2.4590875023326597,0.0,-0.18621551990509033,1.1058696508407593,0.2921175956726074,0.8256832361221313,0.25125014781951904,0.44022950530052185,0.24762611091136932
25.0,1.8137940765885572,-0.9576095239677658,1.4554102169671064,-1.4571300545276618,-2.4348318975313443,0.0,-0.17849105596542358,1.1116828918457031,0.29534652829170227,0.8443513512611389,0.23005831241607666,0.42947232723236084,0.22292979061603546
26.0,1.8000652141856077,-0.9740465351531834,1.4708203936404947,-1.5245939059031022,-2.410520756090857,0.0,-0.17050862312316895,1.1179312467575073,0.2976979911327362,0.8614218235015869,0.20921911299228668,0.41813626885414124,0.19834788143634796
27.0,1.786047670117547,-0.9891996285300397,1.4870418578634885,-1.5920350273824178,-2.386088720672637,0.0,-0.1623217761516571,1.124451756477356,0.29889652132987976,0.8768982887268066,0.18887045979499817,0.40629538893699646,0.17407363653182983
28.0,1.7719270716337074,-1.002198107366198,1.5046699166896345,-1.6593830349200764,-2.3613421418481053,0.0,-0.15408295392990112,1.1307592391967773,0.2975265681743622,0.8906940221786499,0.16939575970172882,0.3939779996871948,0.15083366632461548
29.0,1.7583507276612442,-1.0112884883131497,1.5249223427854997,-1.7264220172087794,-2.33584497367713,0.0,-0.14648380875587463,1.1358317136764526,0.2906036674976349,0.9026673436164856,0.15165120363235474,0.3811529576778412,0.1300615817308426
30.0,1.731541654614749,-1.0378526955566116,1.5373047280595362,-1.7565849864774585,-2.2567081666478463,0.0,-0.1375911980867386,1.1289747953414917,0.294725626707077,0.9229870438575745,0.12703531980514526,0.34288260340690613,0.11995242536067963
31.0,1.703217786722718,-1.066701349873104,1.5485610659529063,-1.7829298100158189,-2.17204243533834,0.0,-0.13081592321395874,1.122847557067871,0.30225870013237,0.9417711496353149,0.10234810411930084,0.3012804388999939,0.10872968286275864
32.0,1.684861727808205,-1.085044693032639,1.5574310192371366,-1.8016196808916445,-2.1166783932288897,0.0,-0.1277061253786087,1.1193549633026123,0.3066396117210388,0.95256108045578,0.08691821247339249,0.27377963066101074,0.10058547556400299
33.0,1.6784387383886405,-1.0908406061377058,1.563436874674342,-1.8110766153503677,-2.0963981614936253,0.0,-0.1270224153995514,1.117346167564392,0.30562400817871094,0.956150233745575,0.08166293054819107,0.26368269324302673,0.09787464886903763
34.0,1.6720006349337326,-1.0966599992397004,1.5694574686414973,-1.8204565140704125,-2.0761128895927925,0.0,-0.12643827497959137,1.1154108047485352,0.3047400712966919,0.9595920443534851,0.07646644860506058,0.2535591721534729,0.0950990542769432
35.0,1.6655490305741663,-1.102498057442684,1.5754926869800407,-1.8297942156075897,-2.055802348694559,0.0,-0.1259593963623047,1.113558292388916,0.3039838969707489,0.9628910422325134,0.07132600247859955,0.24340152740478516,0.09224604070186615
36.0,1.6590841108518286,-1.1083492769865158,1.5815365111392026,-1.8391023307782677,-2.0354722349423393,0.0,-0.12558086216449738,1.11179780960083,0.3033595383167267,0.9660471677780151,0.06624171137809753,0.23321442306041718,0.0893092229962349
37.0,1.652609776476409,-1.1142128532942202,1.587583700177488,-1.8483861716845364,-2.0151292780877155,0.0,-0.12530064582824707,1.110133171081543,0.3028743267059326,0.969059944152832,0.06121624633669853,0.22300362586975098,0.086284339427948
38.0,1.6461271286496808,-1.1200872136846451,1.5936382262778372,-1.8576409821215696,-1.994773506367071,0.0,-0.1251145750284195,1.1085575819015503,0.30252504348754883,0.9719287753105164,0.05625264346599579,0.21277129650115967,0.08317776769399643
39.0,1.6396423895556882,-1.1259685046014691,1.599697263592022,-1.8668772749794595,-1.974409732689509,0.0,-0.12502425909042358,1.1070759296417236,0.3023151159286499,0.9746537804603577,0.05135459452867508,0.2025221437215805,0.07998437434434891
40.0,1.6331580297478243,-1.131853582014485,1.6057600026223682,-1.8760988119131106,-1.9540385546754382,0.0,-0.1250278353691101,1.1056880950927734,0.30224454402923584,0.9772351384162903,0.04652491584420204,0.19225889444351196,0.07670432329177856
41.0,1.6266762952674707,-1.1377405421818871,1.6118259409345166,-1.8853068911882624,-1.933660663670102,0.0,-0.1251225620508194,1.1043918132781982,0.30231356620788574,0.9796727895736694,0.041766174137592316,0.1819840967655182,0.07333932816982269
42.0,1.6202032127796488,-1.1436280850105682,1.6178940455777366,-1.8945015312964093,-1.9132832459480387,0.0,-0.12530770897865295,1.1031862497329712,0.30252528190612793,0.981966495513916,0.0370829775929451,0.17170371115207672,0.06988925486803055
43.0,1.6137363125461346,-1.1495150702540256,1.6239635236901093,-1.9036897948763887,-1.8929081065038773,0.0,-0.1255752444267273,1.1020723581314087,0.30288195610046387,0.9841168522834778,0.03247521445155144,0.16142068803310394,0.06635323911905289
44.0,1.6072768320347122,-1.155402653653595,1.6300341417179824,-1.9128723919841697,-1.8725372349162326,0.0,-0.12592153251171112,1.1010478734970093,0.3033878207206726,0.9861243963241577,0.02794492058455944,0.15113797783851624,0.06273066997528076
45.0,1.600827625158428,-1.1612941374984496,1.636106607534569,-1.9220490415934663,-1.8521746868081796,0.0,-0.12634305655956268,1.1001086235046387,0.30404797196388245,0.9879893064498901,0.023494942113757133,0.14086002111434937,0.05902200564742088
46.0,1.594384282716697,-1.1671900872120908,1.6421788993280926,-1.93122249113922,-1.8318170953685968,0.0,-0.1268315613269806,1.0992549657821655,0.30486544966697693,0.9897127747535706,0.019124185666441917,0.13058710098266602,0.0552268922328949
47.0,1.5879458648786984,-1.173093869703398,1.64825268598192,-1.9403906093777052,-1.8114628840910765,0.0,-0.12738215923309326,1.0984810590744019,0.3058445453643799,0.991295337677002,0.014833692461252213,0.12032051384449005,0.051346562802791595
48.0,1.5815115651775506,-1.1790079025361293,1.6543288457326106,-1.9495520643986504,-1.7911095109340502,0.0,-0.12799057364463806,1.0977829694747925,0.3069884777069092,0.9927379488945007,0.010624663904309273,0.11006128042936325,0.04738231375813484
49.0,1.5750798021984571,-1.1849288714912625,1.6604063151181543,-1.9587099762216889,-1.7707529643150814,0.0,-0.12865197658538818,1.0971593856811523,0.30829572677612305,0.9940412044525146,0.006497461814433336,0.09980916976928711,0.04333562031388283
50.0,1.568651516412371,-1.1908583557404424,1.666486710256883,-1.9678612687121837,-1.7503890756139269,0.0,-0.12936507165431976,1.096604585647583,0.3097664713859558,0.9952059388160706,0.0024544131010770798,0.08956447243690491,0.039209432899951935
51.0,1.5622260835168849,-1.1967941743665484,1.6725687570303724,-1.97700492470412,-1.7300171234690906,0.0,-0.13012507557868958,1.0961154699325562,0.31140121817588806,0.9962325096130371,-0.0015033797826617956,0.07932883501052856,0.035006243735551834
52.0,1.5558026969804666,-1.2027344851657797,1.6786507087012046,-1.9861396741409434,-1.7096375899200924,0.0,-0.13092701137065887,1.0956895351409912,0.3132003843784332,0.9971216917037964,-0.005374768283218145,0.06910458952188492,0.030727792531251907
53.0,1.5493827764174588,-1.2086831466435923,1.6847343694577115,-1.995254655939144,-1.6892524613734323,0.0,-0.13176751136779785,1.0953173637390137,0.31516629457473755,0.9978736042976379,-0.00915753934532404,0.05889458581805229,0.02638011798262596
54.0,1.5429659162579314,-1.2146396533316268,1.6908215025710585,-2.00434776914396,-1.6688662185176586,0.0,-0.1326409876346588,1.09499192237854,0.31729644536972046,0.9984890222549438,-0.012850288301706314,0.04870313033461571,0.02196776680648327
55.0,1.536554166872595,-1.2206060910012866,1.6969170715697084,-2.013414312164421,-1.6484810690945477,0.0,-0.13354530930519104,1.0947041511535645,0.3195897340774536,0.9989687204360962,-0.016450857743620872,0.03853316605091095,0.017495274543762207
56.0,1.5301505003227558,-1.226585747919757,1.7030259636065717,-2.022448176174021,-1.6280940382884976,0.0,-0.13448189198970795,1.0944427251815796,0.3220452070236206,0.9993137121200562,-0.019956646487116814,0.028384968638420105,0.012968312948942184
57.0,1.5237555967482401,-1.2325806269517545,1.7091556451845746,-2.03144831210468,-1.6076991533187244,0.0,-0.1354505568742752,1.0941981077194214,0.32465803623199463,0.9995250701904297,-0.023366570472717285,0.018257388845086098,0.008391715586185455
58.0,1.5173785195943603,-1.2385935882807868,1.7153180268652897,-2.040421805465611,-1.587288813021581,0.0,-0.13646148145198822,1.0939589738845825,0.32742244005203247,0.9996038675308228,-0.02667541429400444,0.00814826786518097,0.003768199821934104
59.0,1.5138071550682284,-1.2329421500189623,1.705159131987352,-2.0430132158907317,-1.5707961034397415,0.0,-0.13844238221645355,1.1036509275436401,0.3298119306564331,-0.9995940923690796,0.02849070355296135,9.132001821399172e-08,7.16830044211747e-08
60.0,1.5212269216731682,-1.179806502759769,1.6270513345683861,-2.017829277800145,-1.570807964365872,0.0,-0.1441067010164261,1.1533123254776,0.3297628164291382,0.9996928572654724,-0.024782130494713783,3.084346644754987e-06,0.00010605837451294065
61.0,1.5209935508466033,-1.1718507035149872,1.6131796183202423,-2.0011863834447263,-1.5713813317278607,0.0,-0.1434156745672226,1.1573381423950195,0.3293309211730957,0.9996750354766846,-0.024896789342164993,0.00015612960851285607,0.005475061479955912
62.0,1.5207640666958329,-1.1638881769795892,1.5993165213255618,-1.9845320829807456,-1.5719220490982062,0.0,-0.14274337887763977,1.1612917184829712,0.3288883566856384,0.9996283054351807,-0.02500593662261963,0.0002913047792389989,0.010856693610548973
63.0,1.5205403401791335,-1.155921153666146,1.5854575733700542,-1.9678719711000046,-1.5724511393379035,0.0,-0.14208419620990753,1.165177822113037,0.3284420967102051,0.9995527267456055,-0.025108536705374718,0.0004191731277387589,0.01624513976275921
64.0,1.5203206579315887,-1.1479504534748406,1.5716034922398787,-1.9512119489699566,-1.5729825195189835,0.0,-0.14143000543117523,1.1689977645874023,0.32799360156059265,0.9994479417800903,-0.025205625221133232,0.0005469157476909459,0.021637840196490288
65.0,1.5201042656212347,-1.1399749048895687,1.5577577780936487,-1.9345552158657302,-1.5735212986598088,0.0,-0.1407788097858429,1.1727510690689087,0.3275400400161743,0.9993141889572144,-0.025297213345766068,0.0006769766332581639,0.027034582570195198
66.0,1.5198893311393773,-1.1319978656240568,1.543918485172078,-1.9179015918331155,-1.574067789021993,0.0,-0.14012783765792847,1.176438808441162,0.32708626985549927,0.9991511702537537,-0.025384336709976196,0.000809656863566488,0.03243314102292061
67.0,1.519676511720593,-1.1240234058034375,1.530084579082659,-1.901252784023613,-1.5746231186855348,0.0,-0.13947777450084686,1.1800624132156372,0.326638787984848,0.9989591836929321,-0.025466445833444595,0.0009455199469812214,0.0378299281001091
68.0,1.519467653282221,-1.1160549337061336,1.5162569672216646,-1.8846082536899214,-1.5751869246210775,0.0,-0.13883064687252045,1.1836202144622803,0.32620108127593994,0.9987382888793945,-0.025542737916111946,0.0010844370117411017,0.04322359710931778
69.0,1.519263101210556,-1.1080961746105824,1.5024363639626712,-1.8679686280008003,-1.5757583935533281,0.0,-0.13818787038326263,1.187111735343933,0.3257768154144287,0.9984886050224304,-0.025612782686948776,0.0012260074727237225,0.04861243814229965
70.0,1.5190611546591668,-1.1001481548548073,1.4886204745849112,-1.8513349775426151,-1.5763360489932787,0.0,-0.1375473290681839,1.1905394792556763,0.3253701329231262,0.9982101917266846,-0.025677593424916267,0.0013696892419829965,0.05399397388100624
71.0,1.5188614499967719,-1.0922082029730753,1.474809233150273,-1.8347052462546058,-1.5769184083496974,0.0,-0.13690964877605438,1.1939032077789307,0.32497715950012207,0.9979031085968018,-0.025737250223755836,0.0015145716024562716,0.05937046557664871
72.0,1.5186657291502053,-1.0842730596143728,1.4610023144818993,-1.8180775041127524,-1.5775043575878713,0.0,-0.13627739250659943,1.1972017288208008,0.3245951533317566,0.9975672364234924,-0.025790799409151077,0.0016601860988885164,0.06474392116069794
73.0,1.5184741045490944,-1.0763389959238732,1.447197190362646,-1.8014514885803814,-1.5780929730759636,0.0,-0.13565106689929962,1.2004386186599731,0.3242213726043701,0.9972026348114014,-0.025838248431682587,0.0018058685818687081,0.07011504471302032
74.0,1.5182860508750662,-1.0684052721833055,1.4333905056072431,-1.7848275684833437,-1.5786853579278735,0.0,-0.1350293755531311,1.2036151885986328,0.32385843992233276,0.9968094229698181,-0.025879817083477974,0.0019523975206539035,0.07548211514949799
75.0,1.5181000258532045,-1.0604702596805187,1.4195837916778344,-1.768199261052087,-1.5792798929947152,0.0,-0.13441139459609985,1.2067286968231201,0.32350173592567444,0.9963871240615845,-0.02591635286808014,0.002098547760397196,0.08085004985332489
76.0,1.517915851290679,-1.052519603089641,1.4057799817155032,-1.7515582652820003,-1.579870146114771,0.0,-0.13379979133605957,1.209775447845459,0.32313182950019836,0.9959347248077393,-0.025947917252779007,0.0022410063538700342,0.08623094856739044
77.0,1.5152216206636553,-1.0760328190959663,1.4394551574217194,-1.7646523604975626,-1.5800755124876127,0.0,-0.1315220296382904,1.191037893295288,0.3262971341609955,0.9960236549377441,-0.027291007339954376,0.0022682843264192343,0.08477655798196793
78.0,1.5150630881703946,-1.0824641853165766,1.4511914467864562,-1.7806264712478097,-1.5793026735949092,0.0,-0.13173918426036835,1.1891714334487915,0.32630106806755066,0.9964590668678284,-0.027437446638941765,0.0020267104264348745,0.07945173978805542
79.0,1.5149281051580783,-1.088923989988852,1.4629465784882687,-1.7966328446615358,-1.578543627189627,0.0,-0.1319820135831833,1.187253713607788,0.326349675655365,0.9968678951263428,-0.02756701223552227,0.0017939619719982147,0.07410378754138947
80.0,1.5148148671897794,-1.095403983678385,1.4747209315135892,-1.8126610260538036,-1.5778102466310047,0.0,-0.1322442889213562,1.1852785348892212,0.32643210887908936,0.9972491264343262,-0.027680132538080215,0.0015753409825265408,0.06874281167984009
81.0,1.5147214406596436,-1.1019007787619042,1.4865149790158831,-1.8287052308751575,-1.5771065615663935,0.0,-0.1325220763683319,1.183245062828064,0.3265429139137268,0.9976022839546204,-0.02777775749564171,0.0013726833276450634,0.06337343156337738
82.0,1.5146521275573859,-1.1084149977566058,1.498335678125007,-1.8447719159380438,-1.5764312467061208,0.0,-0.1328209638595581,1.1811490058898926,0.3266780376434326,0.9979274272918701,-0.027857990935444832,0.0011853313772007823,0.05799608305096626
83.0,1.514610120684148,-1.1149472666489484,1.510183563782882,-1.8608668166215176,-1.5757786474766533,0.0,-0.1331469714641571,1.1789920330047607,0.3268381357192993,0.9982243776321411,-0.02791961096227169,0.0010103101376444101,0.05260782688856125
84.0,1.514596459797328,-1.1214962632204293,1.5220555247974477,-1.8769944175624727,-1.5751478225259756,0.0,-0.1335008144378662,1.1767772436141968,0.32702451944351196,0.9984934329986572,-0.027962323278188705,0.00084735790733248,0.04720552638173103
85.0,1.514613908732827,-1.1280629844668983,1.5339518782930874,-1.8931628743499047,-1.5745413130787027,0.0,-0.13388478755950928,1.1745063066482544,0.32723909616470337,0.9987344741821289,-0.027984846383333206,0.0006974851712584496,0.04178517684340477
86.0,1.5146586278465066,-1.1346465687883829,1.5458732058189963,-1.9093661092593988,-1.5739598866332023,0.0,-0.13429412245750427,1.1721765995025635,0.3274797797203064,0.9989469647407532,-0.027989182621240616,0.0005606699851341546,0.03635057806968689
87.0,1.514733413107532,-1.1412486336339733,1.5578222145693261,-1.9256010162316777,-1.5734081876940424,0.0,-0.13472989201545715,1.1697841882705688,0.3277454078197479,0.9991307854652405,-0.027974115684628487,0.0004393187118694186,0.030904090031981468
88.0,1.5148353893849082,-1.1478661204934986,1.5697953764179906,-1.9418612835388072,-1.5728836820316383,0.0,-0.13519006967544556,1.167328119277954,0.32803475856781006,0.9992855191230774,-0.02794121950864792,0.00033150584204122424,0.025448817759752274
89.0,1.5149655901683223,-1.154501107028056,1.5817939017097908,-1.9581451239295296,-1.572386885463717,0.0,-0.13567517697811127,1.1648070812225342,0.32834872603416443,0.9994112253189087,-0.027890319004654884,0.00023731194960419089,0.0199851393699646
90.0,1.5151256448969148,-1.161158951566804,1.5938170294518705,-1.9744524942179877,-1.5719169803266229,0.0,-0.1361873596906662,1.1622192859649658,0.328693687915802,0.9995076656341553,-0.02782069705426693,0.0001564358244650066,0.014510360546410084
91.0,1.515308588569145,-1.167839061027399,1.6058609803744837,-1.9907870914570047,-1.5714721671836782,0.0,-0.1367187649011612,1.1595702171325684,0.32907214760780334,0.9995746612548828,-0.027736138552427292,8.758531475905329e-05,0.009021306410431862
92.0,1.515500371113132,-1.174539959080557,1.6179236996699298,-2.0071483876436225,-1.5710547108886599,0.0,-0.1372520923614502,1.1568617820739746,0.3294840455055237,0.9996117353439331,-0.027643756940960884,3.187272523064166e-05,0.0035180733539164066
93.0,1.5153880693674127,-1.177834463675536,1.6236755618048546,-2.0126737128430037,-1.571028471239431,0.0,-0.13725382089614868,1.1546833515167236,0.3294415771961212,0.9996142983436584,-0.02770034596323967,6.106252840254456e-05,0.001984398113563657
94.0,1.5147886643201893,-1.1750439407156008,1.6182335969256028,-1.9990619564436842,-1.571667277985952,0.0,-0.13638228178024292,1.1535329818725586,0.3285561203956604,0.9995801448822021,-0.027996180579066277,0.00022635675850324333,0.007471167482435703
95.0,1.5141947634207051,-1.1722508089227268,1.612788554340675,-1.9854636379283346,-1.5723092933382021,0.0,-0.13551852107048035,1.1523630619049072,0.327715128660202,0.999515950679779,-0.028284821659326553,0.000390051951399073,0.012951098382472992
96.0,1.5136041948251884,-1.169458614164091,1.6073430460150409,-1.9718752246756883,-1.5729607817522078,0.0,-0.1346573531627655,1.1511712074279785,0.32692021131515503,0.9994219541549683,-0.028567390516400337,0.0005553994560614228,0.018425162881612778
97.0,1.5130174165015895,-1.166667825432333,1.6019008194789266,-1.9582953526407223,-1.5736219511454546,0.0,-0.13379959762096405,1.149953842163086,0.32616880536079407,0.9992980360984802,-0.02884349599480629,0.0007224359433166683,0.02389560639858246
98.0,1.512435014805305,-1.1638785710079183,1.5964662962231444,-1.9447245324852294,-1.5742909948806048,0.0,-0.13294687867164612,1.1487096548080444,0.3254578113555908,0.9991443753242493,-0.029112692922353745,0.0008901946130208671,0.02936394326388836
99.0,1.5118592511644664,-1.1610924891278602,1.591040783455401,-1.9311627445071096,-1.574967697537245,0.0,-0.13210201263427734,1.147437572479248,0.32478800415992737,0.9989609718322754,-0.02937377244234085,0.0010586304124444723,0.03483006730675697
100.0,1.511293872175368,-1.1583085474017276,1.585625393697424,-1.9176111273573637,-1.575650990015435,0.0,-0.13126926124095917,1.14613676071167,0.3241570293903351,0.9987478256225586,-0.029624992981553078,0.0012272654566913843,0.040294356644153595
101.0,1.5107423935383089,-1.1555281237597317,1.580220877979772,-1.9040704453097828,-1.5763400385306194,0.0,-0.13045340776443481,1.1448075771331787,0.323567271232605,0.9985052347183228,-0.029864337295293808,0.0013958974741399288,0.04575575515627861
102.0,1.5102031854233091,-1.1527534581884187,1.5748244044001953,-1.890540615340973,-1.5770362903666744,0.0,-0.12965187430381775,1.1434521675109863,0.32302284240722656,0.9982331991195679,-0.030092565342783928,0.0015653020236641169,0.05121169239282608
103.0,1.5096778618945208,-1.1499877473070859,1.5694360571135926,-1.877023689978824,-1.5777437207781098,0.0,-0.12886446714401245,1.142072081565857,0.3225274682044983,0.9979318976402283,-0.03030884452164173,0.0017377242911607027,0.05665958672761917
104.0,1.5091646666004455,-1.1472319900254437,1.5640537513984485,-1.8635187698210063,-1.5784614285386043,0.0,-0.12808983027935028,1.140668272972107,0.32208451628685,0.9976016879081726,-0.03051386959850788,0.0019126844126731157,0.062098030000925064
105.0,1.5086615946053543,-1.1444879881926115,1.5586784643627503,-1.8500280390898998,-1.579190670700322,0.0,-0.12732508778572083,1.13924241065979,0.3216950595378876,0.9972427487373352,-0.030708447098731995,0.002091085072606802,0.06752527505159378
106.0,1.5081662611252893,-1.1417552688889465,1.5533126101359718,-1.8365537800416474,-1.5799326192848335,0.0,-0.12656696140766144,1.1377943754196167,0.3213569223880768,0.9968550801277161,-0.030893761664628983,0.0022732457146048546,0.07294177263975143
107.0,1.5076793815236937,-1.1390322524248844,1.5479596532177253,-1.8230909035057894,-1.5806836601721215,0.0,-0.12581759691238403,1.1363204717636108,0.3210655748844147,0.9964385032653809,-0.031069526448845863,0.0024573958944529295,0.07835202664136887
108.0,1.5072038508518226,-1.1363192810754015,1.542627410010223,-1.8096318885681542,-1.5814307413029123,0.0,-0.12508654594421387,1.1348122358322144,0.32081419229507446,0.9959925413131714,-0.031234465539455414,0.002636935794726014,0.08376345783472061
109.0,1.5038212897714562,-1.1573455829680621,1.5689903471913131,-1.808290759367248,-1.5824140212219746,0.0,-0.12225852161645889,1.1144483089447021,0.3240985870361328,0.995652973651886,-0.032848868519067764,0.00287185562774539,0.08710884302854538
110.0,1.4925004092220981,-1.1482826997295406,1.557565965083297,-1.806065600738371,-1.5843761265449552,0.0,-0.10825794190168381,1.1235613822937012,0.3225266933441162,0.9954541325569153,-0.03839951008558273,0.00335796014405787,0.08709356188774109
111.0,1.4993471871101594,-1.0962120702168294,1.478465162442623,-1.7789502115475195,-1.5831881239332861,0.0,-0.11298204958438873,1.1707017421722412,0.3212244212627411,0.9955780506134033,-0.035042647272348404,0.003063237527385354,0.08710312098264694
112.0,1.5012772791414164,-1.0522741718462132,1.40553761787423,-1.749941673737403,-1.5828522124999838,0.0,-0.11253156512975693,1.2112759351730347,0.3228912055492401,0.9956111907958984,-0.03409640118479729,0.002979739336296916,0.08710374683141708
113.0,1.487335775468826,-1.096267717319985,1.478864977305168,-1.7794578273873598,-1.585261120643712,0.0,-0.09811572730541229,1.171839952468872,0.3210389316082001,0.9953535795211792,-0.04093183949589729,0.0035751103423535824,0.0870811715722084
114.0,1.4799469702297305,-1.1482355984866166,1.5578602426165704,-1.8065877080131734,-1.5865542915603739,0.0,-0.09330186992883682,1.1247690916061401,0.3223098814487457,0.9951976537704468,-0.04455302283167839,0.00389919918961823,0.08707170188426971
115.0,1.4664608005946218,-1.1538766866985926,1.5655603399600848,-1.808879086773228,-1.5888693412685773,0.0,-0.0777459368109703,1.1209168434143066,0.32295188307762146,0.994880199432373,-0.05116330459713936,0.0044697001576423645,0.08703944832086563
116.0,1.4744878755424968,-1.1001310510917905,1.4870832039226123,-1.7839999445861725,-1.586935782760045,0.0,-0.08279751986265182,1.1688824892044067,0.3196399509906769,0.9950752854347229,-0.04725315049290657,0.0038533711340278387,0.08704867213964462
117.0,1.4811122976186446,-1.0560936336993798,1.411514561307222,-1.7524561576285098,-1.5838737268932728,0.0,-0.08798175305128098,1.2100154161453247,0.3230797052383423,0.995231032371521,-0.044090211391448975,0.0026177207473665476,0.08697429299354553
118.0,1.4677902041996644,-1.0730715642727833,1.436764829783313,-1.7664318745323175,-1.5879667230105472,0.0,-0.07156746089458466,1.1984033584594727,0.32507506012916565,0.9951507449150085,-0.050577159970998764,0.004222743678838015,0.0842561274766922
119.0,1.4667578381087338,-1.0790721160742527,1.447321122671053,-1.7800724694144288,-1.5870131475690654,0.0,-0.0709087997674942,1.196500539779663,0.32527855038642883,0.9954949617385864,-0.051186930388212204,0.00394322257488966,0.0797131359577179
120.0,1.4657285541544645,-1.0850712105126197,1.4578766968226073,-1.7937177751987898,-1.5860607700655618,0.0,-0.0702609047293663,1.194563627243042,0.325493723154068,0.9958184957504272,-0.051790155470371246,0.0036687518004328012,0.07516619563102722
121.0,1.4647020044853567,-1.0910723137860705,1.4684339235499217,-1.8073700557387522,-1.585114874866855,0.0,-0.06962168961763382,1.1925910711288452,0.325722873210907,0.9961214065551758,-0.05238674208521843,0.003402035916224122,0.0706138163805008
122.0,1.4636756765788124,-1.0970780148295105,1.4789940081776,-1.8210310391578945,-1.5841764558433964,0.0,-0.0689876452088356,1.1905829906463623,0.3259679079055786,0.9964036345481873,-0.052977968007326126,0.003143735695630312,0.06605467945337296
123.0,1.4626489656769723,-1.1030894754879255,1.4895586565992258,-1.8346994597717143,-1.5832462772390137,0.0,-0.06835830956697464,1.1885370016098022,0.3262292146682739,0.9966652393341064,-0.053564101457595825,0.0028940015472471714,0.061489883810281754
124.0,1.461624283162474,-1.109105698406471,1.5001270307560128,-1.8483751200218388,-1.5823269635345618,0.0,-0.06773548573255539,1.1864532232284546,0.3265056312084198,0.9969059824943542,-0.05414384603500366,0.0026544402353465557,0.05691953003406525
125.0,1.4606036603838446,-1.1151262847058414,1.5106975538384249,-1.8620571623898277,-1.58141856460999,0.0,-0.06712180376052856,1.1843326091766357,0.32679811120033264,0.9971261024475098,-0.05471623316407204,0.0024249241687357426,0.052343957126140594
126.0,1.459588471374081,-1.1211530619084884,1.5212731339736005,-1.875747808504187,-1.580521592110018,0.0,-0.0665184035897255,1.182173490524292,0.3271064758300781,0.9973254203796387,-0.055280692875385284,0.0022060100454837084,0.04776231572031975
127.0,1.458578543781546,-1.1271860001769007,1.5318543951769485,-1.8894471763646419,-1.5796323025374233,0.0,-0.06592722237110138,1.1799753904342651,0.32743024826049805,0.997503936290741,-0.05583726987242699,0.0019957174081355333,0.04317493364214897
128.0,1.457574767754968,-1.1332230529444212,1.542439901103609,-1.9031544363383004,-1.5787500293887884,0.0,-0.06534919142723083,1.1777387857437134,0.327767938375473,0.9976617097854614,-0.056385695934295654,0.0017937130760401487,0.038582976907491684
129.0,1.4565789609404354,-1.1392624709522043,1.553030901244139,-1.91686892734782,-1.5778752166547332,0.0,-0.06478677690029144,1.1754624843597412,0.3281162977218628,0.9977985620498657,-0.056924931704998016,0.0016000302275642753,0.03398802876472473
130.0,1.455589793423128,-1.1453051892543962,1.563628580637169,-1.9305901143725004,-1.577006062725944,0.0,-0.06423904001712799,1.1731460094451904,0.3284749388694763,0.9979143738746643,-0.057455744594335556,0.0014138336991891265,0.029390813782811165
131.0,1.4546065511311284,-1.1513541825904041,1.5742333606583614,-1.9443229400269615,-1.576142318311339,0.0,-0.063705675303936,1.1707897186279297,0.32884836196899414,0.9980093836784363,-0.05797838792204857,0.0012350617907941341,0.02478725090622902
132.0,1.453629999894819,-1.1574052746716206,1.584842450673846,-1.9580698803892578,-1.5752843959226404,0.0,-0.06318642199039459,1.1683971881866455,0.32923388481140137,0.9980834126472473,-0.05849269777536392,0.001063999836333096,0.020177224650979042
133.0,1.45265929659232,-1.1634550518667075,1.5954540557301304,-1.9718320969522303,-1.5744286978487123,0.0,-0.06268204003572464,1.1659703254699707,0.32962876558303833,0.9981363415718079,-0.05899892747402191,0.0008988404297269881,0.015560994856059551
134.0,1.4475889640370472,-1.203922027430351,1.6576861465525439,-2.0072302416733683,-1.5728560814332218,0.0,-0.06152336299419403,1.132852554321289,0.330508291721344,0.998065710067749,-0.0615534633398056,0.000494389736559242,0.008711823262274265
135.0,1.4414360312939565,-1.2534797425662492,1.7335498917002012,-2.048342622498067,-1.5710945347060017,0.0,-0.06078942492604256,1.0905628204345703,0.33002135157585144,0.9979081749916077,-0.06463479995727539,6.719384691677988e-05,0.0012687803246080875
136.0,1.4344340450124275,-1.225874104428581,1.6949551145040618,-2.0398783505317395,-1.5707964287813139,0.0,-0.04957672581076622,1.1178680658340454,0.3298089802265167,-0.9976765513420105,0.06812833249568939,-3.466076492486536e-08,4.907132620246557e-07
137.0,1.4407705640359838,-1.1942456128961274,1.6476109495048405,-2.0190239033648787,-1.5714271199239576,0.0,-0.05270691588521004,1.1458653211593628,0.3296281397342682,0.997884213924408,-0.06496615707874298,0.0001477883488405496,0.002583928871899843
138.0,1.4416642958551922,-1.1875657817374692,1.6355051236310412,-2.002798822087145,-1.5727878081410145,0.0,-0.05283919721841812,1.1485844850540161,0.3293769061565399,0.9978847503662109,-0.06451114267110825,0.0004794320266228169,0.008015874773263931
139.0,1.4425594582957302,-1.1808958799325187,1.6233942546629578,-1.9866082534496992,-1.574150639586128,0.0,-0.052981290966272354,1.1512688398361206,0.3291656970977783,0.9978563189506531,-0.06404641270637512,0.0008186498307622969,0.013422828167676926
140.0,1.4434467528417472,-1.174218908058418,1.611279562581328,-1.9704185003071717,-1.5755015131026862,0.0,-0.0531298965215683,1.1539080142974854,0.32896941900253296,0.9977987408638,-0.06357656419277191,0.00115635443944484,0.01882985234260559
141.0,1.444324924740938,-1.1675360998070605,1.5991570913288815,-1.9542108136816847,-1.576840290407576,0.0,-0.05328412353992462,1.1564967632293701,0.3287903666496277,0.9977115392684937,-0.06310227513313293,0.001491997973062098,0.02424362115561962
142.0,1.4451954523081274,-1.160842654304844,1.5870183239849858,-1.9379689168908065,-1.5781733326887384,0.0,-0.053442731499671936,1.1590354442596436,0.32862773537635803,0.9975944757461548,-0.06262286007404327,0.001828375388868153,0.02967020496726036
143.0,1.446053806326227,-1.1541326129305087,1.574856669794677,-1.9216896548334728,-1.5795011663724974,0.0,-0.053599707782268524,1.1615276336669922,0.32847967743873596,0.9974473714828491,-0.06214061379432678,0.002165390644222498,0.03511124476790428
144.0,1.4468945636904404,-1.1474069143340284,1.5626729764473752,-1.9053788835597851,-1.5808169924617266,0.0,-0.05375092104077339,1.163975715637207,0.3283476233482361,0.9972696304321289,-0.06165840104222298,0.0024996541906148195,0.04056301712989807
145.0,1.4477110454365685,-1.1406628861862582,1.5504652454866947,-1.8890414532924367,-1.5821129980790087,0.0,-0.05389084294438362,1.1663837432861328,0.32823166251182556,0.9970611333847046,-0.061179909855127335,0.002827045740559697,0.04602301865816116
146.0,1.4485023031896056,-1.1338998229877355,1.5382367240486137,-1.8726845765761106,-1.583386074567433,0.0,-0.05401911213994026,1.168752670288086,0.3281285762786865,0.9968218207359314,-0.06070588156580925,0.0031459168531000614,0.051489368081092834
147.0,1.4492662416241295,-1.1271196831322972,1.5259916454687599,-1.8563111172240383,-1.5846289043713186,0.0,-0.054136306047439575,1.171081304550171,0.3280375897884369,0.996551513671875,-0.06023770198225975,0.00345223699696362,0.05696180835366249
148.0,1.450010407823056,-1.1203299863813339,1.5137356371158954,-1.8399318981034212,-1.585842674681518,0.0,-0.05425078794360161,1.173368215560913,0.3279649317264557,0.9962506294250488,-0.059771742671728134,0.003747066482901573,0.0624333992600441
149.0,1.4507383126902864,-1.1135300146560678,1.50146659759922,-1.8235507976571905,-1.58703239607998,0.0,-0.05436348170042038,1.1756170988082886,0.3279115855693817,0.9959195852279663,-0.05930668115615845,0.004032990895211697,0.06790158152580261
150.0,1.451455424179319,-1.1067205357321146,1.489183707833367,-1.8071605413556089,-1.588206246011881,0.0,-0.054478228092193604,1.1778242588043213,0.32787829637527466,0.9955583214759827,-0.05883948132395744,0.004313867073506117,0.07336964458227158
151.0,1.4521761148595205,-1.0999081329343816,1.4768916245501775,-1.7907518425983244,-1.5893762910312823,0.0,-0.054607704281806946,1.1799813508987427,0.3278678059577942,0.9951666593551636,-0.05836280435323715,0.004595887381583452,0.07884117215871811
152.0,1.4529060383781904,-1.093094582729074,1.4646108864327776,-1.7743299412153215,-1.5905644954446359,0.0,-0.05475175753235817,1.1820752620697021,0.3278682827949524,0.9947444796562195,-0.0578727051615715,0.004889888223260641,0.0843232199549675
153.0,1.4584865533075786,-1.0604693507556628,1.4180496874401838,-1.754947450755429,-1.5902435957844487,0.0,-0.05854080617427826,1.2077484130859375,0.32352375984191895,0.9946725368499756,-0.05507102236151695,0.004810965619981289,0.08700913190841675
154.0,1.4413500330241265,-1.0896850486106777,1.4593795747459677,-1.7699366226995557,-1.5929080318438427,0.0,-0.03992277756333351,1.1845329999923706,0.32753312587738037,0.9942800402641296,-0.06349937617778778,0.005483734887093306,0.08570273220539093
155.0,1.4404607649878955,-1.096439134197981,1.471557912917072,-1.7861936002665664,-1.5915087180617356,0.0,-0.03969110921025276,1.182478666305542,0.32752758264541626,0.9946973919868469,-0.06408626586198807,0.005106154829263687,0.08027466386556625
156.0,1.4395832517547367,-1.1031889912730086,1.483750443081501,-1.802460024672884,-1.5901121504397908,0.0,-0.039483100175857544,1.1803706884384155,0.3275288939476013,0.9950853586196899,-0.06465806812047958,0.004734129644930363,0.07484806329011917
157.0,1.4387108650089155,-1.1099440320943317,1.4959455343273187,-1.81872910289037,-1.5887163189378624,0.0,-0.039291273802518845,1.1782130002975464,0.32755571603775024,0.995444118976593,-0.0652182325720787,0.004366799723356962,0.069416344165802
158.0,1.4378405151702736,-1.1167032961487102,1.5081410655522534,-1.8350015632535006,-1.5873210575530747,0.0,-0.039111800491809845,1.1760073900222778,0.32760870456695557,0.9957737326622009,-0.06576824933290482,0.004004248417913914,0.06397861987352371
159.0,1.4369707534207483,-1.1234636224896077,1.5203362680866725,-1.8512750246235257,-1.5859241476995645,0.0,-0.03894404321908951,1.1737539768218994,0.3276841938495636,0.9960739016532898,-0.06630884110927582,0.003645092947408557,0.05853739380836487
160.0,1.4361005381362477,-1.1302229575064564,1.5325319192175313,-1.8675467094856046,-1.584523994181868,0.0,-0.03878789395093918,1.1714509725570679,0.3277794122695923,0.9963445663452148,-0.06684043258428574,0.0032884380780160427,0.05309540033340454
161.0,1.4352289557619229,-1.136980714577507,1.544727106056934,-1.8838172275629608,-1.583120139097615,0.0,-0.038642268627882004,1.1690988540649414,0.32789409160614014,0.9965856075286865,-0.06736352294683456,0.002934056567028165,0.04765236750245094
162.0,1.4343544169043099,-1.1437379659260871,1.5569213382906926,-1.9000871936869599,-1.5817136074054527,0.0,-0.038505349308252335,1.1666988134384155,0.3280286192893982,0.9967970252037048,-0.06787869334220886,0.002582499524578452,0.042207732796669006
163.0,1.433478869016824,-1.1504940827231203,1.569113591798194,-1.9163565155351494,-1.5803059621084772,0.0,-0.03837847337126732,1.1642500162124634,0.32818469405174255,0.9969790577888489,-0.06838502734899521,0.002234844723716378,0.03676113486289978
164.0,1.4326024918887985,-1.157248982401033,1.581304223822805,-1.932625232232775,-1.5788991375873134,0.0,-0.038261670619249344,1.1617528200149536,0.32836097478866577,0.9971314668655396,-0.06888221949338913,0.0018919638823717833,0.03131333366036415
165.0,1.4317237304134298,-1.1640040502032825,1.5934936632449817,-1.9488947049431866,-1.5774932649134572,0.0,-0.038152970373630524,1.159206509590149,0.32855868339538574,0.9972544312477112,-0.06937111169099808,0.0015540883177891374,0.025863071903586388
166.0,1.4308401968254574,-1.1707603026767326,1.6056809544850028,-1.9651660617214475,-1.5760873193652578,0.0,-0.038050249218940735,1.1566123962402344,0.3287794589996338,0.9973478317260742,-0.0698527917265892,0.0012208704138174653,0.020409349352121353
167.0,1.429954219860343,-1.1775162024938546,1.617868028248046,-1.9814373998894987,-1.5746789771480352,0.0,-0.037957314401865005,1.1539684534072876,0.32902026176452637,0.9974115490913391,-0.07032619416713715,0.000891046249307692,0.014954609796404839
168.0,1.4290680102049906,-1.184270220848167,1.630057613518987,-1.997707285173162,-1.5732647905713653,0.0,-0.03787893429398537,1.151271939277649,0.32927653193473816,0.997445821762085,-0.07078995555639267,0.0005628152284771204,0.009501712396740913
169.0,1.4281808728797547,-1.191022772513446,1.6422488321536592,-2.013975359874969,-1.5718441551841378,0.0,-0.037814222276210785,1.1485239267349243,0.32954853773117065,0.9974507093429565,-0.07124459743499756,0.00023586195311509073,0.004050601273775101
170.0,1.4245484706664528,-1.2098206146107406,1.6715583591199612,-2.032537274464001,-1.570795017019197,0.0,-0.0362820066511631,1.1335268020629883,0.3298081159591675,-0.9973276853561401,0.07305873930454254,5.349735943127598e-07,1.6646523590679863e-06
171.0,1.4233548882388123,-1.2101542257691196,1.670095612964772,-2.0214943228649793,-1.5721230713487604,0.0,-0.03490161523222923,1.1302449703216553,0.32962602376937866,0.997273325920105,-0.07365000247955322,0.00032107732840813696,0.00465778261423111
172.0,1.4237999669535617,-1.2020523156330976,1.6559172509256581,-2.0047179484497124,-1.573654924387669,0.0,-0.0341864675283432,1.1343947649002075,0.3294662833213806,0.9972507357597351,-0.07341404259204865,0.0006931055104359984,0.010049383156001568
173.0,1.4242329050014337,-1.1939453060296485,1.6417376372342953,-1.987941487732018,-1.5751832811918793,0.0,-0.033471547067165375,1.1384859085083008,0.3293061852455139,0.9971991777420044,-0.07317379862070084,0.0010654089273884892,0.015442398376762867
174.0,1.4246586854546863,-1.185831454620132,1.6275559772286927,-1.971160515494647,-1.5767101894725828,0.0,-0.03276139125227928,1.14251708984375,0.3291449546813965,0.9971185922622681,-0.07292692363262177,0.0014387400588020682,0.020839093253016472
175.0,1.4250826434972448,-1.1777102249831877,1.6133731968900655,-1.9543721683167645,-1.5782363113644144,0.0,-0.03206241875886917,1.1464872360229492,0.32897982001304626,0.9970091581344604,-0.07267052680253983,0.0018132401164621115,0.026242073625326157
176.0,1.4255074643795815,-1.1695828030353017,1.599189383646887,-1.9375782596906983,-1.5797620210036096,0.0,-0.03137672692537308,1.150395393371582,0.3288131058216095,0.9968708157539368,-0.07240357995033264,0.002189202466979623,0.03164931759238243
177.0,1.4259342819006355,-1.1614497531705932,1.5850048210582675,-1.920780121375346,-1.5812863615350077,0.0,-0.03070651739835739,1.154242992401123,0.32864582538604736,0.996703565120697,-0.07212527841329575,0.002566130831837654,0.037059564143419266
178.0,1.4263623535449685,-1.1533120278731084,1.5708203985278502,-1.9039795004312883,-1.5828078232783391,0.0,-0.03005100041627884,1.158029317855835,0.328478068113327,0.9965074062347412,-0.07183624058961868,0.002943417988717556,0.04247245565056801
179.0,1.426790946917913,-1.1451691109218702,1.5566367337682472,-1.8871783205278287,-1.584323559471298,0.0,-0.0294105913490057,1.161754846572876,0.3283091187477112,0.9962822794914246,-0.07153686136007309,0.0033193943090736866,0.04788680002093315
180.0,1.4272186591578,-1.1370228541879264,1.5424536071054367,-1.870378839589863,-1.5858335384144602,0.0,-0.028783153742551804,1.1654216051101685,0.3281424641609192,0.9960281848907471,-0.07122794538736343,0.003694329410791397,0.05330018326640129
181.0,1.4276447906526009,-1.1288736981509326,1.5282702625006772,-1.853582481571659,-1.5873387861790418,0.0,-0.028167538344860077,1.1690295934677124,0.32797902822494507,0.9957451224327087,-0.07090985029935837,0.004068673122674227,0.058711618185043335
182.0,1.4280691891988502,-1.1207216014596795,1.5140869787090065,-1.83678954908217,-1.5888406654148055,0.0,-0.027562659233808517,1.1725791692733765,0.3278188407421112,0.9954330325126648,-0.07058276236057281,0.0044430275447666645,0.0641205757856369
183.0,1.4284916757865627,-1.1125672300890213,1.4999039043395102,-1.8199968199282428,-1.5903413134876407,0.0,-0.026967862620949745,1.1760685443878174,0.32766205072402954,0.99509197473526,-0.07024664431810379,0.004818164277821779,0.06952838599681854
184.0,1.4289124654840608,-1.1044094767808526,1.4857217409703052,-1.8032017000245917,-1.5918422984432512,0.0,-0.02638270892202854,1.1794967651367188,0.3275068998336792,0.9947216510772705,-0.06990135461091995,0.0051948679611086845,0.07493734359741211
185.0,1.4293299571014546,-1.0962488640442196,1.4715405079379211,-1.7864061089026129,-1.5933443761657817,0.0,-0.025805147364735603,1.1828635931015015,0.3273544907569885,0.9943221807479858,-0.0695476233959198,0.005573295522481203,0.0803459882736206
186.0,1.429739234296901,-1.088090475429245,1.4573561159618884,-1.7696134187723493,-1.5948475620037916,0.0,-0.025228073820471764,1.1861741542816162,0.32721418142318726,0.9938938021659851,-0.06918817013502121,0.005953786429017782,0.08574780821800232
187.0,1.4322896277253199,-1.056834806643207,1.4161015394698044,-1.7513208455514968,-1.5796613060882814,0.0,-0.030938874930143356,1.2095445394515991,0.3203091323375702,0.9936392307281494,-0.0685265064239502,-0.0017718988237902522,0.08934298157691956
188.0,1.417805894208742,-1.0547139005910056,1.423570273513676,-1.7390205565072505,-1.5248055963226055,0.0,-0.035959504544734955,1.2034034729003906,0.3114483654499054,0.9916247129440308,-0.07831237465143204,-0.030462196096777916,0.09808046370744705
189.0,1.4033312275746899,-1.0526330141781686,1.4309990912053652,-1.7267307336248752,-1.4699578419616373,0.0,-0.04108128324151039,1.1978520154953003,0.3040179908275604,0.9886137843132019,-0.0885862186551094,-0.05918155238032341,0.10626841336488724
190.0,1.3888845064876183,-1.0505710311533523,1.4384038294642092,-1.7144537376626445,-1.4151177236033945,0.0,-0.04623180627822876,1.1929454803466797,0.2979564368724823,0.9846005439758301,-0.09931235015392303,-0.08789120614528656,0.11390377581119537
191.0,1.3744663145036267,-1.0485505211397783,1.4458229418729176,-1.702191779712214,-1.360293700567801,0.0,-0.05131510645151138,1.1887158155441284,0.2932320237159729,0.9795815348625183,-0.11046317964792252,-0.11654751747846603,0.12097363919019699
192.0,1.360072005636829,-1.0465767707752767,1.4532783255160597,-1.689943347551606,-1.3054866483144816,0.0,-0.056230828166007996,1.1851954460144043,0.2897982597351074,0.9735537171363831,-0.12201404571533203,-0.14511162042617798,0.1274697184562683
193.0,1.3456983351768481,-1.0446364020909413,1.460775460982828,-1.6777204533531593,-1.2506977808012505,0.0,-0.06087341904640198,1.1824284791946411,0.28759515285491943,0.9665161371231079,-0.1339396983385086,-0.17354372143745422,0.13337726891040802
194.0,1.3313509416333589,-1.0427165909708913,1.4683098710114673,-1.665522447997893,-1.1959254167228446,0.0,-0.06514965742826462,1.1804509162902832,0.2865641713142395,0.9584696888923645,-0.14620965719223022,-0.20180457830429077,0.13868559896945953
195.0,1.317032338881944,-1.0408132257482572,1.4758825206600754,-1.653343167250002,-1.1411656936443666,0.0,-0.06896301358938217,1.1792848110198975,0.28664714097976685,0.9494158029556274,-0.15879611670970917,-0.2298562377691269,0.1433859020471573
196.0,1.3027275810746652,-1.038920559535296,1.4834916056682466,-1.641192392704453,-1.0864181779055637,0.0,-0.07219526171684265,1.1789530515670776,0.2877824306488037,0.9393581748008728,-0.17167703807353973,-0.25766003131866455,0.1474604308605194
197.0,1.2884118482353724,-1.0370196511807512,1.4911179837381072,-1.6290628059919108,-1.0316877525657913,0.0,-0.07471317052841187,1.1794737577438354,0.28989869356155396,0.928300142288208,-0.18483498692512512,-0.28517577052116394,0.15089671313762665
198.0,1.274069439812116,-1.0350896564137637,1.498735761539624,-1.6169517294723215,-0.9769698215142408,0.0,-0.07639751583337784,1.1808654069900513,0.2929234504699707,0.9162464737892151,-0.19824723899364471,-0.31236711144447327,0.15367941558361053
199.0,1.2596967521343072,-1.0331011836956658,1.5063130312546171,-1.6048685145878727,-0.9222441515466131,0.0,-0.07714495062828064,1.1831462383270264,0.2967793941497803,0.9032031893730164,-0.21188455820083618,-0.3392035663127899,0.15578842163085938
200.0,1.2576107073761698,-1.0163538037638005,1.4840808359365594,-1.5905589312570703,-0.8829336188084635,0.0,-0.0813971757888794,1.201432704925537,0.3012729287147522,0.8950085043907166,-0.2171313762664795,-0.3573561906814575,0.1552753746509552
201.0,1.2527337542631922,-1.0478526392538006,1.5300722667125808,-1.6199509365186977,-0.87825313473122,0.0,-0.08393371105194092,1.180792212486267,0.307101845741272,0.8955391049385071,-0.21748033165931702,-0.35928860306739807,0.1470503807067871
202.0,1.2451549540257323,-1.071911597808087,1.5773025621762242,-1.6815581741307593,-0.8654122645094479,0.0,-0.08239959925413132,1.1713569164276123,0.30632472038269043,0.8970891237258911,-0.21599304676055908,-0.36406487226486206,0.12662920355796814
203.0,1.2375761537882723,-1.0959705563623745,1.6245328576398694,-1.7431654117428232,-0.8525713942876753,0.0,-0.08124907314777374,1.1611584424972534,0.3059332072734833,0.8983165621757507,-0.21420377492904663,-0.3686005771160126,0.10619745403528214
204.0,1.2284270511586963,-1.1221591515807334,1.6752761493578536,-1.8000357225589627,-0.8418674686948223,0.0,-0.07957295328378677,1.1460150480270386,0.30496275424957275,0.898823082447052,-0.21370887756347656,-0.3723052442073822,0.08851289749145508
205.0,1.2065428918462406,-1.1679730693680526,1.754860050459318,-1.815469478872501,-0.8490222330767698,0.0,-0.07242530584335327,1.0945713520050049,0.29779309034347534,0.8957838416099548,-0.2261095494031906,-0.37104663252830505,0.09364920109510422
206.0,1.2001857488478047,-1.1542389116187843,1.750427258897845,-1.7511056088619057,-0.8339496704738334,0.0,-0.0751914381980896,1.0820252895355225,0.28806188702583313,0.8834744691848755,-0.24125729501247406,-0.38183826208114624,0.12436788529157639
207.0,1.1903195241086746,-1.1389244519245953,1.738890085417707,-1.682460859275741,-0.8176251494688388,0.0,-0.07302246242761612,1.0739827156066895,0.28286874294281006,0.8692582249641418,-0.2579200267791748,-0.3929101824760437,0.15326133370399475
208.0,1.178637299346933,-1.1242915907562425,1.7255060417511279,-1.6138334220340904,-0.8012974098954706,0.0,-0.0683349221944809,1.067754864692688,0.28071218729019165,0.85381019115448,-0.2750087380409241,-0.4036373496055603,0.18015344440937042
209.0,1.1660173136793963,-1.109491538476704,1.7107333671126266,-1.5453192560779636,-0.7850440069536186,0.0,-0.06209728121757507,1.0630453824996948,0.2803032398223877,0.8371654748916626,-0.2922593653202057,-0.4140118360519409,0.20574934780597687
210.0,1.152968216592185,-1.093831628462656,1.6951123898258713,-1.4769799746497376,-0.7688851899324582,0.0,-0.05492039769887924,1.0595130920410156,0.28053176403045654,0.8192490935325623,-0.3095747232437134,-0.42401960492134094,0.23065532743930817
211.0,1.1396575333664638,-1.0764256272319044,1.6788810324092214,-1.4089404013144593,-0.7528205682467987,0.0,-0.046960435807704926,1.0570766925811768,0.28032055497169495,0.799909234046936,-0.3269751965999603,-0.4336431920528412,0.25531572103500366
212.0,1.1261785019682105,-1.0569359270424357,1.6623201764976097,-1.341237885127887,-0.736812761975843,0.0,-0.03833659738302231,1.0555938482284546,0.27911731600761414,0.779013991355896,-0.3444474935531616,-0.4428519010543823,0.27995622158050537
213.0,1.1125205516380867,-1.0350960667205178,1.6455208922868263,-1.2739503221685395,-0.7208205479975512,0.0,-0.02900279313325882,1.055053949356079,0.27653616666793823,0.7564555406570435,-0.36196959018707275,-0.45160722732543945,0.30463746190071106
214.0,1.098701164263104,-1.0110705167063094,1.6285289314129967,-1.207090234806217,-0.7048061430394557,0.0,-0.018947839736938477,1.055426836013794,0.27261120080947876,0.732222855091095,-0.3794470429420471,-0.45985448360443115,0.3292471468448639
215.0,1.0846543774906703,-0.9847220969137856,1.6112108227394386,-1.1407517242770235,-0.6887447290484752,0.0,-0.008005544543266296,1.0568022727966309,0.26714831590652466,0.7062953114509583,-0.3968161940574646,-0.46754565834999084,0.35367366671562195
216.0,1.070468669085312,-0.9568612282180843,1.5935368691241385,-1.074829837472398,-0.6726221730101938,0.0,0.003753446042537689,1.0591074228286743,0.26079002022743225,0.6788758039474487,-0.4138789474964142,-0.4746154844760895,0.3775871992111206
217.0,1.0561670776733514,-0.9274961998654917,1.5753316761577687,-1.0093879075915662,-0.656434451623714,0.0,0.016403846442699432,1.0624046325683594,0.25345709919929504,0.6500630378723145,-0.43053126335144043,-0.48101285099983215,0.4008585810661316
218.0,1.0418452701378123,-0.8968005318140897,1.5564603501317062,-0.9444456829034814,-0.6401720555979391,0.0,0.02991461008787155,1.0667023658752441,0.24519646167755127,0.6200143694877625,-0.44664666056632996,-0.48668304085731506,0.4233541488647461
219.0,1.0276014834555074,-0.8647879882567547,1.536846824844443,-0.880016866421305,-0.6238295756678899,0.0,0.04422307014465332,1.0719579458236694,0.23587296903133392,0.5888411998748779,-0.46213462948799133,-0.4915674030780792,0.445038378238678
220.0,1.0135259481426553,-0.8312924524972942,1.5165386907247211,-0.8160965267759154,-0.6074082735997672,0.0,0.05921361595392227,1.0780404806137085,0.22513461112976074,0.5565597414970398,-0.476944237947464,-0.4955902099609375,0.465999960899353
221.0,0.9996893599335119,-0.7959121073975385,1.4958521595029841,-0.7526273713156565,-0.5909355268418074,0.0,0.0746685191988945,1.0846364498138428,0.2123243510723114,0.5229952931404114,-0.49106642603874207,-0.49862682819366455,0.48651933670043945
222.0,0.9973954095774199,-0.7618810468402673,1.455976464720052,-0.694103689837171,-0.5733794336829854,0.0,0.08504701405763626,1.1035878658294678,0.20588023960590363,0.4999972879886627,-0.5000048875808716,-0.5000060200691223,0.4999918043613434
223.0,1.0159682857854468,-0.7331634776184992,1.3781626859121954,-0.6450111462665036,-0.5548087213654903,0.0,0.08503235876560211,1.145363211631775,0.21577535569667816,0.499999076128006,-0.5000039339065552,-0.500005841255188,0.49999117851257324
224.0,1.0001461807062568,-0.7586257763585837,1.444691257514361,-0.6860538663318543,-0.5706214742326158,0.0,0.08506491035223007,1.1096481084823608,0.2083635777235031,0.49998873472213745,-0.5000081062316895,-0.5000063180923462,0.4999968409538269
225.0,0.9794973729027401,-0.7861136055577889,1.5216334152244546,-0.7355310445128603,-0.591287418425155,0.0,0.08555305004119873,1.0663890838623047,0.19802169501781464,0.5000008344650269,-0.5000022649765015,-0.5000037550926208,0.49999332427978516
226.0,0.9633610647825708,-0.8061735553491053,1.5788931327518174,-0.7727269558789513,-0.6074174005994891,0.0,0.08505113422870636,1.0332212448120117,0.19036047160625458,0.4999981224536896,-0.5000040531158447,-0.5000049471855164,0.4999929964542389
227.0,0.9769719843718878,-0.7891513363382701,1.5324723700864316,-0.7433155774998265,-0.5938061702410916,0.0,0.08506131917238235,1.060476303100586,0.19567248225212097,0.4999934434890747,-0.5000050663948059,-0.5000043511390686,0.4999973177909851
228.0,0.9542524917865148,-0.8158141111619819,1.6085768158160092,-0.7927429058654741,-0.6165297834981853,0.0,0.08500022441148758,1.0155431032180786,0.18573564291000366,0.49998965859413147,-0.5000046491622925,-0.500002384185791,0.5000033974647522
229.0,0.9334796675918473,-0.8174965938549212,1.6690014837927305,-0.8251713139743441,-0.6006350156922958,0.0,0.08451954275369644,0.9903711080551147,0.16342440247535706,0.48152220249176025,-0.5105840563774109,-0.5074995160102844,0.4998847544193268
230.0,0.9114867288696628,-0.8266646075117597,1.7231526542463418,-0.8108136970876461,-0.5400203294171767,0.0,0.08405128866434097,0.980327844619751,0.15959908068180084,0.4391153156757355,-0.534022331237793,-0.5228384137153625,0.49863600730895996
231.0,0.9190964889221604,-0.8372833195934957,1.7225997926408396,-0.7461139539279235,-0.4950954158529989,0.0,0.07416002452373505,0.9919782876968384,0.18034857511520386,0.41016989946365356,-0.5466248989105225,-0.5259302258491516,0.5063193440437317
232.0,0.9283922351068385,-0.8459292327932315,1.7208975846898025,-0.6801212994893284,-0.4510234385129042,0.0,0.06358914822340012,1.0038325786590576,0.1987592875957489,0.38097676634788513,-0.559159517288208,-0.5266369581222534,0.5146368145942688
233.0,0.937676962857762,-0.8535510320253317,1.7189981508196077,-0.6141122848734906,-0.40687184336924204,0.0,0.05373331159353256,1.0156992673873901,0.21500129997730255,0.35136672854423523,-0.5721293687820435,-0.5256363153457642,0.5224136710166931
234.0,0.9466479583327966,-0.8606075161455543,1.7167090934588474,-0.548033869362356,-0.3624492249432033,0.0,0.04493533819913864,1.0276479721069336,0.2294430136680603,0.3214977979660034,-0.5855629444122314,-0.5230816006660461,0.5292834043502808
235.0,0.9552528155574508,-0.8673670042807744,1.714052641677486,-0.48189490385075057,-0.3177147980862411,0.0,0.03718145936727524,1.0395665168762207,0.24225564301013947,0.29151469469070435,-0.5994120836257935,-0.5190198421478271,0.5351101160049438
236.0,0.963531802326089,-0.8739400866937825,1.7111005664264198,-0.4157322583787232,-0.2726843684904406,0.0,0.030337221920490265,1.051284909248352,0.25348326563835144,0.26153987646102905,-0.6136063933372498,-0.5134517550468445,0.539862334728241
237.0,0.9716192490075348,-0.8804148223481227,1.7080014474413214,-0.3495645645169696,-0.22745650800566633,0.0,0.024129442870616913,1.0625563859939575,0.2631639540195465,0.23170356452465057,-0.6280492544174194,-0.5063295960426331,0.543597400188446
238.0,0.9796007579878215,-0.886831607189623,1.7048049388511584,-0.28344483227595924,-0.1821096636784111,0.0,0.018374130129814148,1.0731936693191528,0.27134236693382263,0.20214901864528656,-0.6426547765731812,-0.49764445424079895,0.5463337898254395
239.0,0.9875756960163152,-0.8931863827986285,1.701562165580135,-0.21734837771287543,-0.1367536156681028,0.0,0.012863636016845703,1.08299720287323,0.27806517481803894,0.17298690974712372,-0.6573383212089539,-0.4873642325401306,0.5481405258178711
240.0,0.9955855643781523,-0.899496028631237,1.6982797070736055,-0.15127414124683852,-0.0914443061831525,0.0,0.0074785128235816956,1.091814637184143,0.2834228277206421,0.14432725310325623,-0.6720330715179443,-0.47550278902053833,0.5490339994430542
241.0,1.003685117251334,-0.9057552102841778,1.6949036368505577,-0.08522742780332873,-0.046284829436911895,0.0,0.0021029412746429443,1.0995235443115234,0.2875432074069977,0.11631027609109879,-0.6866581439971924,-0.4620872139930725,0.5490427613258362
242.0,1.0118091524389792,-0.9120063079537776,1.6914127349625876,-0.01914793452594502,-0.0012472844402695998,0.0,-0.003237992525100708,1.106022834777832,0.29058122634887695,0.08898128569126129,-0.7011794447898865,-0.44718191027641296,0.5481405854225159
243.0,1.0199380126388988,-0.918256151323254,1.6877281675310594,0.04697661014546993,0.04362226138748705,0.0,-0.008547253906726837,1.1112405061721802,0.2927112877368927,0.062438514083623886,-0.7155351042747498,-0.43085959553718567,0.5463250279426575
244.0,1.028037933178714,-0.9245163825424612,1.683832261756736,0.11315407217620266,0.0883463542160427,0.0,-0.013813555240631104,1.1151018142700195,0.29408347606658936,0.036736126989126205,-0.7296845316886902,-0.41319146752357483,0.5435842275619507
245.0,1.036079265647372,-0.9307970432625166,1.6797352170204225,0.1794083288758698,0.13297018035023234,0.0,-0.019026271998882294,1.1175310611724854,0.29483747482299805,0.011905854567885399,-0.743593692779541,-0.3942360579967499,0.5399118065834045
246.0,1.0440376429923393,-0.9370602094867534,1.6754495229391544,0.24572952373105933,0.1775367496892575,0.0,-0.024167455732822418,1.1184663772583008,0.2950690984725952,-0.012025552801787853,-0.7572270035743713,-0.37404394149780273,0.5353074073791504
247.0,1.051935494491947,-0.9432757478838026,1.6710669012858919,0.31208308538810725,0.22210393568099682,0.0,-0.02928343415260315,1.117815613746643,0.2948436439037323,-0.03503171727061272,-0.7705530524253845,-0.3526347279548645,0.5297826528549194
248.0,1.0597775586989984,-0.9493577785156381,1.666621478655946,0.3784846129998575,0.26674017384293536,0.0,-0.03437291830778122,1.1155247688293457,0.29420238733291626,-0.05710699036717415,-0.7835428714752197,-0.33001071214675903,0.5233473777770996
249.0,1.067602467317518,-0.9551987982415493,1.6622305453733417,0.44486548695250794,0.3115177076029863,0.0,-0.03947988152503967,1.1115126609802246,0.29312244057655334,-0.07823409140110016,-0.7961662411689758,-0.306151419878006,0.5160136818885803
250.0,1.075427281989276,-0.9607850530546668,1.657927901001868,0.5112011861680192,0.35644370025748984,0.0,-0.044606901705265045,1.1057391166687012,0.29173973202705383,-0.09834779053926468,-0.8083713054656982,-0.2810892164707184,0.5077918171882629
251.0,1.0833121852187133,-0.9656221816536799,1.653785212128017,0.5774596348197537,0.40172650377411395,0.0,-0.04975656419992447,1.09818434715271,0.2896538972854614,-0.11753428727388382,-0.8201563358306885,-0.25463733077049255,0.4986874759197235
252.0,1.0912130621583351,-0.969889962433326,1.6497328637082185,0.6436217028872735,0.44724641096970996,0.0,-0.054841384291648865,1.0888774394989014,0.2872931659221649,-0.1356363296508789,-0.8314232230186462,-0.2269538789987564,0.48870253562927246
253.0,1.0991197944747786,-0.9732716917862437,1.6456544463424634,0.7096816332994631,0.49309734850819864,0.0,-0.05974101647734642,1.0779222249984741,0.2845735549926758,-0.15264283120632172,-0.8421257734298706,-0.19800348579883575,0.4778274893760681
254.0,1.1069733614598511,-0.9758571220588801,1.6413678506139406,0.7756836963888292,0.5392103293524021,0.0,-0.0643041804432869,1.0654582977294922,0.281890332698822,-0.16843287646770477,-0.8521775603294373,-0.16794708371162415,0.4660660922527313
255.0,1.1146381157409242,-0.9775106790930479,1.6366047691165244,0.8416374169935885,0.5855940635373834,0.0,-0.06824897229671478,1.051727056503296,0.2794317305088043,-0.18296653032302856,-0.8615059852600098,-0.13692642748355865,0.45341143012046814
256.0,1.1220421982308646,-0.9785669065986446,1.6312282187273042,0.9076240645909619,0.6321161664452212,0.0,-0.0714503675699234,1.0368932485580444,0.2778041958808899,-0.19611936807632446,-0.8700273036956787,-0.1052042692899704,0.4399111568927765
257.0,1.1290391346326236,-0.979306381211521,1.6251628392807231,0.9736641614790125,0.6786963974499449,0.0,-0.07371225953102112,1.0211327075958252,0.2774832546710968,-0.207846000790596,-0.8776770234107971,-0.07304490357637405,0.4256143867969513
258.0,1.1355366214779576,-0.9805238406058404,1.618732829969587,1.039766783547601,0.7251604592123446,0.0,-0.07504719495773315,1.0043933391571045,0.27922898530960083,-0.21807946264743805,-0.8844016194343567,-0.040775198489427567,0.410624623298645
259.0,1.1527748977158183,-0.9874832086826948,1.613558588170664,1.0414178953242188,0.7682612007580465,0.0,-0.08132551610469818,0.9997609257698059,0.2755255103111267,-0.209253191947937,-0.895563006401062,-0.03742662072181702,0.39087003469467163
260.0,1.1722757308718001,-0.9954342080134823,1.608619046378242,1.0300149102093696,0.8107243933800526,0.0,-0.08804084360599518,0.9981288909912109,0.2709372937679291,-0.19686134159564972,-0.90702223777771,-0.04043377563357353,0.37002891302108765
261.0,1.1917907420576876,-1.0033929994406736,1.6036928573982365,1.0186221873271821,0.8531933327572816,0.0,-0.09408846497535706,0.9969469904899597,0.26699960231781006,-0.18462146818637848,-0.9176986813545227,-0.04400265961885452,0.34900981187820435
262.0,1.2113213252174964,-1.011357799270468,1.5987800494443771,1.0072392571314557,0.8956706537629529,0.0,-0.09953141212463379,0.9962231516838074,0.26375293731689453,-0.17255830764770508,-0.927591860294342,-0.04812537133693695,0.3278428316116333
263.0,1.230864655665011,-1.0193271682443157,1.5938783922879813,0.9958652102228617,0.9381564631536792,0.0,-0.10442759096622467,0.9959615468978882,0.2612358033657074,-0.16069835424423218,-0.9367021918296814,-0.0527951605618,0.30655819177627563
264.0,1.2504212569451316,-1.0273028504851436,1.5889897246075557,0.9844988607879084,0.9806517733133521,0.0,-0.10884065926074982,0.9961584210395813,0.2594863176345825,-0.14906559884548187,-0.9450312256813049,-0.058004122227430344,0.28518620133399963
265.0,1.2699900879431352,-1.035285698255511,1.584114662578151,0.973138579580572,1.0231554696817877,0.0,-0.11283288896083832,0.9968045353889465,0.25853800773620605,-0.1376846730709076,-0.9525816440582275,-0.06374280899763107,0.263757586479187
266.0,1.289569883125856,-1.0432747576791486,1.5792519075470417,0.96178454842905,1.065666521757401,0.0,-0.1164642870426178,0.9978864192962646,0.25842148065567017,-0.1265804022550583,-0.9593576192855835,-0.07000064849853516,0.24230247735977173
267.0,1.309161761341677,-1.0512714187857761,1.574404283046793,0.9504396217000752,1.1081861369109132,0.0,-0.1197984516620636,0.9993815422058105,0.25916388630867004,-0.11577582359313965,-0.9653643369674683,-0.07676336914300919,0.2208508998155594
268.0,1.3287621326859453,-1.0592741129720704,1.5695682117964531,0.9391018179447904,1.1507121442184658,0.0,-0.12289059162139893,1.0012682676315308,0.26078933477401733,-0.10529542714357376,-0.9706081748008728,-0.08402013033628464,0.1994326263666153
269.0,1.3483731509516312,-1.0672861059658039,1.564747827812707,0.9277727445517855,1.1932472555177682,0.0,-0.12580062448978424,1.0035128593444824,0.2633177638053894,-0.09516085684299469,-0.9750972390174866,-0.09175506979227066,0.17807552218437195
270.0,1.367992040506203,-1.0753055386913546,1.5599390079170394,0.916449947472665,1.2357900762222525,0.0,-0.1285807341337204,1.0060847997665405,0.26676541566848755,-0.08539474755525589,-0.978840172290802,-0.09995529055595398,0.15680812299251556
271.0,1.3876219168301103,-1.083333408950633,1.5551452408471316,0.905134857388258,1.2783440935536647,0.0,-0.13128693401813507,1.0089417695999146,0.2711446285247803,-0.07601714879274368,-0.9818472862243652,-0.10860267281532288,0.13565748929977417
272.0,1.4072600049814952,-1.0913671129587843,1.5503624982538664,0.8938251048159661,1.3209057093885497,0.0,-0.13396671414375305,1.0120458602905273,0.2764633297920227,-0.06704947352409363,-0.9841292500495911,-0.11768200248479843,0.11465226113796234
273.0,1.4269079352163678,-1.0994078720952933,1.5455927181188167,0.8825222184461191,1.3634748975922575,0.0,-0.13666871190071106,1.0153483152389526,0.282725989818573,-0.05851089954376221,-0.985698401927948,-0.12717388570308685,0.0938192680478096
274.0,1.4465642800349585,-1.1074553407941732,1.5408343045113158,0.8712257830195197,1.406051197969223,0.0,-0.13943512737751007,1.0188013315200806,0.28993523120880127,-0.05042075738310814,-0.9865678548812866,-0.13706067204475403,0.07318464666604996
275.0,1.4662293831041553,-1.1155108552609247,1.5360874861408307,0.8599357267930856,1.4486349608479967,0.0,-0.14230631291866302,1.022351622581482,0.29808759689331055,-0.042796939611434937,-0.9867519736289978,-0.1473226100206375,0.052774034440517426
276.0,1.4859062079763057,-1.1235757737703853,1.531352482618386,0.8486538486439695,1.4912290207733407,0.0,-0.14531934261322021,1.0259438753128052,0.3071784973144531,-0.03565572574734688,-0.9862660765647888,-0.15793856978416443,0.03261052444577217
277.0,1.505596813348292,-1.1316453906380832,1.5266305641531237,0.8373833938274884,1.5338320229104832,0.0,-0.14850936830043793,1.029518485069275,0.3171921670436859,-0.02901225909590721,-0.9851269125938416,-0.16888302564620972,0.012719312682747841
278.0,1.5037768760136978,-1.1508105636016572,1.5572392241219746,0.8165598878293113,1.5394165513437068,0.0,-0.14543215930461884,1.015357494354248,0.31614217162132263,-0.030280763283371925,-0.9843336939811707,-0.17342792451381683,0.009647647850215435
279.0,1.5152553606157815,-1.1820814951266756,1.6249817924720258,0.7794683637654336,1.5495170602819992,0.0,-0.1551293283700943,0.978023111820221,0.3024248480796814,-0.025501573458313942,-0.9844789505004883,-0.17354831099510193,0.005661681294441223
280.0,1.503713890673638,-1.1627495377281691,1.5827455868854945,0.8024761500364955,1.5477438607659826,0.0,-0.14302416145801544,1.002034306526184,0.3111371695995331,-0.0310292299836874,-0.984319806098938,-0.17355479300022125,0.005534588824957609
281.0,1.4943490086968239,-1.1476586154144832,1.5498376987684235,0.8204911976916893,1.5446756632616963,0.0,-0.13352333009243011,1.020366907119751,0.3178168535232544,-0.03537362068891525,-0.9841724038124084,-0.17353546619415283,0.006235549226403236
282.0,1.472436811489671,-1.1677337839019684,1.5909285589873963,0.8000912064700069,1.5372091539085473,0.0,-0.11620644479990005,1.001161813735962,0.31082767248153687,-0.04551320895552635,-0.9837556481361389,-0.17346210777759552,0.008022265508770943
283.0,1.4541478706299305,-1.1721970074405317,1.5992967385842227,0.7968216529713913,1.5309864840772074,0.0,-0.1008596122264862,0.9984224438667297,0.30983060598373413,-0.05397630110383034,-0.9833280444145203,-0.17338451743125916,0.009514435194432735
284.0,1.4249817925897885,-1.1573122739522623,1.566458036978814,0.8160024371392178,1.5210863899528098,0.0,-0.07309892028570175,1.0178489685058594,0.31690213084220886,-0.06747296452522278,-0.9824939370155334,-0.1732385754585266,0.011894643306732178
285.0,1.4068621989722938,-1.1610053900884933,1.5737800532346773,0.8132766916729266,1.514955426500786,0.0,-0.05770757794380188,1.0150586366653442,0.31588631868362427,-0.07585825771093369,-0.9818823337554932,-0.17312955856323242,0.013372979126870632
286.0,1.3831329041811173,-1.1763757978689036,1.6118715827721504,0.7918896799203922,1.50694720316636,0.0,-0.04031822457909584,0.9974390268325806,0.30618181824684143,-0.08683937788009644,-0.9809716939926147,-0.17297132313251495,0.015310688875615597
287.0,1.3695461622049827,-1.1964188974099075,1.6893479895171875,0.7352674549895138,1.5023654049374529,0.0,-0.03552444651722908,0.9638285636901855,0.2753695249557495,-0.0931253433227539,-0.9803916215896606,-0.17288804054260254,0.016423560678958893
288.0,1.4172926367226333,-1.2025368486867178,1.712903652750148,0.7152171434132876,1.5184941840983428,0.0,-0.07680713385343552,0.950390100479126,0.26573747396469116,-0.07103360444307327,-0.9822487831115723,-0.17316153645515442,0.012518992647528648
289.0,1.4753048593269236,-1.2010843714379529,1.7143730278336344,0.6996663382290649,1.5374663401376678,0.0,-0.1239280179142952,0.9491366744041443,0.26293301582336426,-0.043996796011924744,-0.9829199314117432,-0.1785230189561844,0.007886776700615883
290.0,1.4752749376075425,-1.2183297426086555,1.7593357163022598,0.6123151116278024,1.5333191258002425,0.0,-0.12541350722312927,0.9502124786376953,0.2507352828979492,-0.042819537222385406,-0.9771915078163147,-0.20782773196697235,0.008418124169111252
291.0,1.4752482663781978,-1.2355913594554808,1.80431113296336,0.524972948230566,1.5291854873792463,0.0,-0.12695693969726562,0.9506571888923645,0.2400854229927063,-0.04148320481181145,-0.9705972671508789,-0.23694045841693878,0.008909567259252071
292.0,1.475233167002848,-1.2528738351975763,1.849293845741746,0.43763781716981176,1.525069091283937,0.0,-0.12857189774513245,0.9503982067108154,0.23099574446678162,-0.03998658433556557,-0.963141918182373,-0.2658405303955078,0.009356444701552391
293.0,1.4752266137545786,-1.2701684881222415,1.8942801123135204,0.350306392640902,1.5209644346192177,0.0,-0.13026423752307892,0.9493644833564758,0.22345995903015137,-0.03833359107375145,-0.9548322558403015,-0.2945009171962738,0.009757757186889648
294.0,1.4752270417617905,-1.2874705220241764,1.9392698559663053,0.2629777178207541,1.5168706229069024,0.0,-0.13203974068164825,0.9474828243255615,0.2174677848815918,-0.03652799129486084,-0.9456759095191956,-0.3228941261768341,0.010110262781381607
295.0,1.4752278043581966,-1.3047761722607756,1.9842649914289303,0.17565229270105398,1.512781252084581,0.0,-0.13390213251113892,0.9446786642074585,0.21300266683101654,-0.03457506746053696,-0.9356823563575745,-0.3509911894798279,0.010412828996777534
296.0,1.4752268038643073,-1.322087078154685,2.029267484942823,0.08833164762065443,1.5086920684562888,0.0,-0.13585752248764038,0.9408794641494751,0.21004757285118103,-0.03247847035527229,-0.924860954284668,-0.37876608967781067,0.010663341730833054
297.0,1.47522458925593,-1.3394052733332635,2.074282764971753,0.0010188802069055272,1.5046057371785146,0.0,-0.13791286945343018,0.9360106587409973,0.20857809484004974,-0.030241692438721657,-0.913223147392273,-0.4061911702156067,0.010857250541448593
298.0,1.4752241890732816,-1.3567312190614118,2.119308792551674,-0.08628701336211357,1.5005237840144259,0.0,-0.14007668197155,0.9300071001052856,0.20856833457946777,-0.027867158874869347,-0.9007791876792908,-0.433243066072464,0.010991095565259457
299.0,1.4752301784085085,-1.3740675567643506,2.1643459560150506,-0.17358555662491265,1.496451731372984,0.0,-0.14235690236091614,0.9228043556213379,0.20998728275299072,-0.02535805106163025,-0.8875406980514526,-0.45989805459976196,0.01106010191142559
300.0,1.4752505952079722,-1.3914111011267802,2.2093930597045324,-0.26087825318155633,1.4923944360717822,0.0,-0.14476454257965088,0.9143430590629578,0.21279580891132355,-0.02271639183163643,-0.8735198974609375,-0.48613241314888,0.011061408556997776
301.0,1.4752934963222777,-1.4087601048801839,2.254457600756506,-0.3481617731685153,1.4883541405853569,0.0,-0.14731162786483765,0.9045567512512207,0.2169439047574997,-0.019944781437516212,-0.8587331175804138,-0.5119168758392334,0.01099404413253069
302.0,1.4753525892840784,-1.4261064529418945,2.299567461013794,-0.4354229271411896,1.484330177307129,0.0,-0.149999737739563,0.8933653831481934,0.22235333919525146,-0.017052730545401573,-0.8432074785232544,-0.5372081995010376,0.010856417939066887
