Sungjin-Park-dev/lg_sgu_vision_v2/data/sample/trajectory/124/trajectory_dp_ee_s0010_eev50mms_av20dps_jv0p30_corner30d_x2p5.csv
time,ur20-shoulder_pan_joint,ur20-shoulder_lift_joint,ur20-elbow_joint,ur20-wrist_1_joint,ur20-wrist_2_joint,ur20-wrist_3_joint,target-POS_X,target-POS_Y,target-POS_Z,target-ROT_X,target-ROT_Y,target-ROT_Z,target-ROT_W
0.0,1.4421664476394653,-0.7579231858253479,1.128729224205017,-1.1166484355926514,-1.5468637943267822,0.0,-0.06391534209251404,1.1458499431610107,0.1843661665916443,0.9138628244400024,-0.0636630579829216,-0.036702681332826614,0.39931777119636536
0.35455679001459817,1.440646223432222,-0.8134443345139107,1.2059566050295094,-1.2230154725970308,-1.5295920725412626,0.0,-0.06970032304525375,1.1400859355926514,0.19006994366645813,0.9296188950538635,-0.06804871559143066,-0.04268428310751915,0.3596608638763428
0.6687718295959844,1.4392989715309625,-0.862648243236298,1.2743969937230544,-1.3172799844714467,-1.514285540845022,0.0,-0.07495433837175369,1.13411545753479,0.19607670605182648,0.9421611428260803,-0.07128030806779861,-0.048090383410453796,0.3239424228668213
1.1425443613664807,1.4382011176045781,-0.9063800316016942,1.335125022499774,-1.395810563497569,-1.4939922390754394,0.0,-0.08267827332019806,1.126419186592102,0.2028428465127945,0.9512274265289307,-0.07459601759910583,-0.05625755712389946,0.29400140047073364
14.254230039934175,1.451777773119749,-0.878277331147238,1.283057883190191,-0.666601243210513,-0.6423200130847265,0.0,-0.3852347433567047,1.0902447700500488,0.3986912667751312,0.6919266581535339,-0.3142721354961395,-0.3869646489620209,0.522234320640564
22.345473958485,1.4653544286349196,-0.850174630692782,1.2309907438806083,0.06260807707654314,0.20935221290598638,0.0,-0.44603079557418823,1.304094910621643,0.4346112906932831,0.30118435621261597,-0.6736989617347717,-0.4426756799221039,0.5093680024147034
31.745695219203924,1.4789310841500904,-0.8220719302383258,1.1789236045710252,0.7918173973635998,1.0610244388967,0.0,-0.27289241552352905,1.293608546257019,0.23873142898082733,0.009319606237113476,-0.9476450681686401,-0.21383792161941528,0.23697108030319214
39.1012073433998,1.48357445160513,-0.8051083668662969,1.1474918829995273,1.228412770862335,1.570796359349061,0.0,-0.10220007598400116,1.1377264261245728,0.22477209568023682,0.043597083538770676,0.999049186706543,4.740543602110847e-08,2.44300668583719e-08
39.41782725850752,1.474898323333262,-0.8047532110338153,1.1468274843370527,1.2287219541423895,1.5707963315564577,0.0,-0.09229686856269836,1.138865351676941,0.22477209568023682,0.04793061688542366,0.9988505840301514,5.758198895478017e-08,2.410962984811249e-08
39.617192576329025,1.4662376262091916,-0.8043132549434192,1.1460044317334646,1.229105050597436,1.570796325976219,0.0,-0.0823918804526329,1.1399867534637451,0.22477202117443085,0.05225552245974541,0.9986336827278137,6.908529570637256e-08,2.5975127826427524e-08
39.8165581362944,1.4576001135982637,-0.8037458907872163,1.1449430096688977,1.229599197831041,1.570796353768926,0.0,-0.07248886674642563,1.1411255598068237,0.22477203607559204,0.05656789615750313,0.9983987808227539,-9.483242635610623e-09,2.170648549792986e-08
40.015927775452646,1.4489799858520007,-0.803093910389079,1.1437228966292587,1.2301673724220819,1.5707963705062866,0.0,-0.06258364766836166,1.1422468423843384,0.22477203607559204,0.060870517045259476,0.998145580291748,6.749193204313997e-09,2.1489817925157695e-08
40.24282101486019,1.4403861781086222,-0.8023138243211714,1.1422625316807264,1.2308476215272928,1.5707963705062866,0.0,-0.052680809050798416,1.1433862447738647,0.22477209568023682,0.06515887379646301,0.9978748559951782,4.1392076433055536e-09,2.34521344566474e-08
40.46646831098575,1.427935427465984,-0.8019827325680132,1.1435105214649817,1.232086802526927,1.559695231240508,0.0,-0.042888954281806946,1.143306851387024,0.22396275401115417,-0.07137632369995117,-0.9974329471588135,0.0010093526216223836,0.005636920686811209
40.66572011921186,1.4094642981640437,-0.8023391940052809,1.1489300883328128,1.2341942128906869,1.5314507418038752,0.0,-0.033266693353652954,1.1414810419082642,0.222137451171875,-0.08065991848707199,-0.9965350031852722,0.0033920181449502707,0.020009664818644524
40.86514979142327,1.390737301345763,-0.80270059325123,1.1544247286350537,1.2363308157226967,1.5028150013914987,0.0,-0.023578904569149017,1.139663577079773,0.22062945365905762,-0.09014473110437393,-0.9953113794326782,0.0055340006947517395,0.034620609134435654
41.06444850105424,1.3718217678916178,-0.8030656309341745,1.1599746869900456,1.2384889290998322,1.4738909666938607,0.0,-0.013847339898347855,1.1378693580627441,0.21945583820343018,-0.0997919887304306,-0.9937530755996704,0.0074150641448795795,0.04941084608435631
41.26382108319182,1.3527430764490693,-0.8034338172893033,1.1655725171136622,1.2406656575183153,1.444717444593225,0.0,-0.004070588853210211,1.1361082792282104,0.21862679719924927,-0.10958292335271835,-0.9918512105941772,0.009022735990583897,0.06435351818799973
41.60630642605304,1.3335629393109907,-0.8038039613741326,1.171200112159682,1.2428539600916115,1.4153888003108894,0.0,0.005735560320317745,1.1343919038772583,0.21815094351768494,-0.11947914958000183,-0.9896032214164734,0.01034359261393547,0.07939239591360092
41.692214769748674,1.3288930109506107,-0.8055656069975309,1.175314906392223,1.2432609396479193,1.4013962077723934,0.0,0.005176701582968235,1.1330010890960693,0.2189633995294571,-0.12197006493806839,-0.988699734210968,0.010670926421880722,0.08649947494268417
42.02518977468801,1.3371209165799667,-0.8085596885927333,1.1780777088194523,1.2420848712070702,1.4010537321726309,0.0,-0.004567836411297321,1.1317968368530273,0.2206815779209137,-0.11784596741199493,-0.9891998171806335,0.010310114361345768,0.08654368668794632
42.28779399746684,1.3560160882807137,-0.8096815380769964,1.175180075076319,1.2386701112695222,1.4301282767259311,0.0,-0.014394187368452549,1.1321539878845215,0.22105151414871216,-0.10806979238986969,-0.9915173053741455,0.009016805328428745,0.07164543122053146
42.48709393644361,1.3809344713226832,-0.8097482096332844,1.1690894681412445,1.233991530967909,1.4758027653320407,0.0,-0.024243155494332314,1.1336376667022705,0.22136405110359192,-0.0952080637216568,-0.994260847568512,0.006704368628561497,0.04832899942994118
42.686323411554376,1.40556601615844,-0.8098141137260666,1.1630689708422992,1.2293668063109047,1.5209514899526069,0.0,-0.03398890793323517,1.1353464126586914,0.2225179374217987,-0.08264099061489105,-0.9962501525878906,0.003834252478554845,0.025322165340185165
43.1451275010188,1.4296395080592084,-0.8098785246939696,1.1571848740903017,1.2248468595387454,1.5650773238672306,0.0,-0.04357919096946716,1.137230396270752,0.2244608849287033,-0.07052147388458252,-0.9975058436393738,0.0004750553925987333,0.0029002276714891195
43.577080455000846,1.4198292512289845,-0.8121791525421804,1.1696055510500103,1.222946932978373,1.5189412127589224,0.0,-0.05120011419057846,1.1332149505615234,0.2207442820072174,-0.0755094438791275,-0.9967965483665466,0.0028181702364236116,0.02621154487133026
43.79097844493756,1.4038282828932542,-0.8150157916539884,1.1859195484736542,1.2213207515262652,1.4547718157779082,0.0,-0.05916999280452728,1.1283550262451172,0.21728910505771637,-0.08386106789112091,-0.9947319626808167,0.005824076011776924,0.0586664043366909
44.11629379787042,1.3915884075516332,-0.8179018470058821,1.2003067070432412,1.219811193187821,1.3990877763736624,0.0,-0.06794343888759613,1.124337911605835,0.21598583459854126,-0.09048513323068619,-0.9920768737792969,0.007916344329714775,0.08679485321044922
44.449381170942594,1.4000880885441953,-0.8201229676748394,1.201571605453453,1.21929239631233,1.3988302064616085,0.0,-0.07769325375556946,1.1231635808944702,0.21770495176315308,-0.08620712906122208,-0.9924578666687012,0.007541912142187357,0.08682659268379211
44.64873015336614,1.408604672674666,-0.8222863308988068,1.2027254913490026,1.2188226236467887,1.398579346637473,0.0,-0.08743641525506973,1.1219514608383179,0.21942298114299774,-0.08191865682601929,-0.9928208589553833,0.007166840601712465,0.08685942739248276
44.907240345139705,1.4171604209666404,-0.8243158715203767,1.2036221639344178,1.2184664388893869,1.39834403392467,0.0,-0.09718452394008636,1.1207672357559204,0.22114165127277374,-0.07760850340127945,-0.9931672811508179,0.0067896414548158646,0.08688880503177643
45.09196695780157,1.4211650154551212,-0.8302201094595977,1.2130794886792398,1.2142166187286203,1.3982327571161919,0.0,-0.1023767814040184,1.1159796714782715,0.22207263112068176,-0.07559053599834442,-0.9933226704597473,0.0066132741048932076,0.08690478652715683
45.39880765486751,1.4186602758207998,-0.8416037036955026,1.2346668173270932,1.2044493710011268,1.398298898255656,0.0,-0.10111087560653687,1.1060891151428223,0.22183871269226074,-0.07685277611017227,-0.9932257533073425,0.006723843514919281,0.08689641207456589
45.678284461707946,1.4105715903524527,-0.8408053167546898,1.2358699159049231,1.2038547061857585,1.3985264677209677,0.0,-0.09216727316379547,1.1062850952148438,0.2202569842338562,-0.08092790842056274,-0.9929023385047913,0.007080025505274534,0.08686515688896179
45.87767859464991,1.401907273236919,-0.8387520442489664,1.2349733747911158,1.204204756031577,1.398771062893582,0.0,-0.08241547644138336,1.1074434518814087,0.21853776276111603,-0.08529126644134521,-0.9925367832183838,0.007462074048817158,0.08683601766824722
46.077019772590276,1.3933004150364379,-0.8365111084215298,1.2337177823563452,1.2047119616532962,1.3990379364526933,0.0,-0.07267549633979797,1.1086782217025757,0.21682009100914001,-0.0896235927939415,-0.9921551942825317,0.007840791717171669,0.08679983019828796
46.27641681125867,1.3847014054226323,-0.8342464379564156,1.2324163717253473,1.2052392801009602,1.3993075702689375,0.0,-0.0629245862364769,1.1098452806472778,0.21510088443756104,-0.09394998848438263,-0.9917545914649963,0.008219580166041851,0.08676700294017792
46.4757562383126,1.3761571822597858,-0.8318160896926198,1.2307951307268654,1.2059069945712253,1.3995964718461569,0.0,-0.05318348854780197,1.1110706329345703,0.21338331699371338,-0.09824647754430771,-0.9913383722305298,0.008595203049480915,0.08672856539487839
46.672064229012605,1.3676250298744992,-0.8299449059305964,1.2287776112319493,1.2075262427326592,1.3998932513407343,0.0,-0.04345400258898735,1.112123966217041,0.2126285582780838,-0.10253472626209259,-0.9909040927886963,0.008970331400632858,0.08669069409370422
46.8714269391309,1.3591322508244226,-0.8298976453795267,1.2254674818782936,1.2122492723033675,1.4002157275958846,0.0,-0.03380310535430908,1.1128170490264893,0.2150251269340515,-0.10680056363344193,-0.9904539585113525,0.009342706762254238,0.0866440087556839
47.07080970993745,1.3506404170323139,-0.829850390088621,1.2221577209465793,1.2169717761944003,1.400538167958985,0.0,-0.024146011099219322,1.113419771194458,0.21742533147335052,-0.11106371134519577,-0.9899850487709045,0.009715573862195015,0.08660200238227844
47.27017588457572,1.3421507755306474,-0.8298031469973564,1.2188488144778036,1.2216930609023453,1.4008605250794146,0.0,-0.014485285617411137,1.1139318943023682,0.2198285162448883,-0.11532339453697205,-0.9894974827766418,0.010088859125971794,0.08656471222639084
47.45472535035121,1.3349051587294083,-0.8266554658736315,1.2117187102835754,1.226919624131749,1.4011417424376982,0.0,-0.005695464089512825,1.1165356636047363,0.22088003158569336,-0.11895686388015747,-0.9890666604042053,0.010407472029328346,0.08653348684310913
47.700896821049085,1.3266003360574878,-0.8235795170598353,1.2088530589117867,1.2281282033981182,1.401493788060768,0.0,0.004035878926515579,1.1178278923034668,0.21916463971138,-0.1231188103556633,-0.9885573387145996,0.01077131275087595,0.08648678660392761
47.92515542403826,1.3198144954902769,-0.8241933129843296,1.212166004414239,1.2265881340271858,1.4017823327704932,0.0,0.011339221149682999,1.1162303686141968,0.21788723766803741,-0.126517653465271,-0.9881279468536377,0.011069020256400108,0.08645152300596237
48.21992393845418,1.317545382741879,-0.8356918079316178,1.233694123701729,1.2169450868342089,1.4018820313692826,0.0,0.011338782496750355,1.1062613725662231,0.21788686513900757,-0.12765371799468994,-0.9879818558692932,0.011168300174176693,0.08643868565559387
48.444006008429746,1.3233591099521862,-0.8409045628397837,1.2412149994094568,1.2136447746475054,1.4016319978916063,0.0,0.003927390091121197,1.1028211116790771,0.2191837728023529,-0.12474242597818375,-0.9883537888526917,0.010913411155343056,0.0864693820476532
48.641721711827735,1.33145075114313,-0.8447196212432424,1.2454570591890821,1.211836529353462,1.4012848730006329,0.0,-0.005612816661596298,1.1008503437042236,0.22086581587791443,-0.12068840116262436,-0.9888567924499512,0.010559022426605225,0.08651524782180786
48.83306608848117,1.3394119636912,-0.8468413997615228,1.250993493430227,1.2070558102871412,1.4009708304523425,0.0,-0.014913179911673069,1.099017858505249,0.21957086026668549,-0.11669697612524033,-0.9893364310264587,0.010208954103291035,0.08655048906803131
49.03242803491495,1.3479543976855857,-0.8467899373711292,1.2544482178173517,1.2020822976343837,1.400640887936557,0.0,-0.024517416954040527,1.0984658002853394,0.21695995330810547,-0.11241167038679123,-0.989832878112793,0.009833450429141521,0.08658935874700546
49.23181428886793,1.3564996328682561,-0.8467384581054697,1.2579040750588233,1.1971071540945295,1.4003108372278246,0.0,-0.034118134528398514,1.0978219509124756,0.21435248851776123,-0.10812251269817352,-0.9903103709220886,0.00945849809795618,0.08663293719291687
49.431659670231674,1.3650454178250495,-0.8466869755277927,1.26136015463951,1.1921316904692572,1.3999807652846457,0.0,-0.043711788952350616,1.0970866680145264,0.21174940466880798,-0.10383082181215286,-0.9907689094543457,0.009083997458219528,0.08668132871389389
49.631415200113146,1.3736959652246568,-0.8491164382416158,1.2629858644597511,1.1914416992565062,1.3996813845013472,0.0,-0.053463805466890335,1.0959335565567017,0.21343287825584412,-0.09948369860649109,-0.9912150502204895,0.008703366853296757,0.08671752363443375
49.83074756774196,1.3823539727232976,-0.8515479691744893,1.2645594880244204,1.1908039875105367,1.399384529806525,0.0,-0.06320416927337646,1.0947048664093018,0.21515017747879028,-0.09513060003519058,-0.9916420578956604,0.008322905749082565,0.08675720542669296
50.03014630141744,1.3910705035644462,-0.8538102739298562,1.2658076203613184,1.1903077947408487,1.3991078536411141,0.0,-0.07295532524585724,1.0935393571853638,0.2168695330619812,-0.0907457247376442,-0.9920530915260315,0.007938974536955357,0.08679088205099106
50.229491074262945,1.3997998332141373,-0.8560326394646534,1.2669796857853777,1.1898445553715176,1.398836050960678,0.0,-0.08269733935594559,1.0923196077346802,0.21858744323253632,-0.08635227382183075,-0.9924450516700745,0.007554796524345875,0.08682689815759659
50.46773650368442,1.4085772193153177,-0.8581050428205927,1.2678661382248675,1.1895050481043101,1.3985825470455913,0.0,-0.0924466922879219,1.0911437273025513,0.22030633687973022,-0.0819324478507042,-0.9928199052810669,0.007167959585785866,0.0868581086397171
50.669238240297766,1.4136978002372038,-0.8630531101782627,1.2751098598160735,1.1863196128042268,1.3984337203920012,0.0,-0.09864690154790878,1.0871434211730957,0.22141221165657043,-0.07935310900211334,-0.9930290579795837,0.006942514330148697,0.08687914907932281
50.96220586735311,1.411049442167729,-0.87406536020895,1.2957783651487313,1.17712408050975,1.3985072935203142,0.0,-0.09737331420183182,1.0772572755813599,0.221183180809021,-0.08068723231554031,-0.9929215908050537,0.007059214636683464,0.08686978369951248
51.207096818059185,1.4033118655978474,-0.8743820764399639,1.298860034466144,1.1757031320206484,1.3987353085154104,0.0,-0.08920656144618988,1.0764403343200684,0.21973499655723572,-0.08458402007818222,-0.9925974607467651,0.007399908732622862,0.08683843165636063
51.412933301158645,1.3944194439587387,-0.872286053364789,1.297976605743687,1.1760349773825989,1.3989983635885737,0.0,-0.07945526391267776,1.0776035785675049,0.21801576018333435,-0.08906050026416779,-0.9922056198120117,0.0077917431481182575,0.08680671453475952
51.612269636221626,1.385585619266753,-0.8700153764039359,1.2967615940975605,1.1765089713585652,1.3992833998050855,0.0,-0.06971501559019089,1.0788344144821167,0.2162981927394867,-0.0935051366686821,-0.9917968511581421,0.0081804059445858,0.08676836639642715
51.81167680767963,1.3767588808928086,-0.8677240792743708,1.2955073295563142,1.1769998159406272,1.3995710111411857,0.0,-0.05996263399720192,1.0799931287765503,0.2145787477493286,-0.09794402867555618,-0.9913681745529175,0.008568971417844296,0.08673368394374847
52.01100571078847,1.367997775842835,-0.8652513648621474,1.2939056595577345,1.1776402443390042,1.399880886762248,0.0,-0.05022314563393593,1.081227421760559,0.21286150813102722,-0.10234739631414413,-0.9909234046936035,0.008953873999416828,0.0866919532418251
52.207836564608314,1.3592613100499702,-0.8631565250765977,1.2920148110582685,1.1789423590311083,1.4001947210869752,0.0,-0.04050165042281151,1.0823267698287964,0.21179383993148804,-0.10673601180315018,-0.9904601573944092,0.009338043630123138,0.08665284514427185
52.40719644350598,1.3506719623661583,-0.8633179302861379,1.2883973117088734,1.1841953248340253,1.4005321923661316,0.0,-0.030973263084888458,1.0830738544464111,0.21462449431419373,-0.11104793846607208,-0.9899866580963135,0.009714435786008835,0.08660457283258438
52.6065750419874,1.3420839612612019,-0.8634793101916793,1.2847803794861465,1.1894474671130915,1.4008696107388616,0.0,-0.021438483148813248,1.0837280750274658,0.21745990216732025,-0.11535681784152985,-0.9894937872886658,0.010091407224535942,0.08656112104654312
52.80594835055659,1.3334980919336348,-0.8636406500383026,1.281164345085187,1.1946983056664107,1.4012069453550984,0.0,-0.011899380013346672,1.084289312362671,0.22029976546764374,-0.1196620836853981,-0.9889818429946899,0.010468761436641216,0.08652243763208389
52.998498734064796,1.3255359912420188,-0.86032853082038,1.2753477960207582,1.1985653770958158,1.4015347715640962,0.0,-0.0025632577016949654,1.0866398811340332,0.2203277200460434,-0.12365207076072693,-0.9884905815124512,0.010818262584507465,0.08648321777582169
53.333651045682714,1.3171747091342465,-0.8568027818022828,1.2717399695610756,1.2000729123983738,1.4019008410839606,0.0,0.0071068620309233665,1.0883194208145142,0.21862298250198364,-0.12783928215503693,-0.9879578948020935,0.011184501461684704,0.08643534034490585
53.55418694810184,1.3121732849977534,-0.8616099575504172,1.2819079943251723,1.19556109086806,1.4021329322467233,0.0,0.011346301063895226,1.0833734273910522,0.2178928554058075,-0.13034242391586304,-0.9876312017440796,0.011402945965528488,0.08640217036008835
53.82637941428744,1.3105842078709065,-0.8721712880654311,1.3012369912196364,1.1870586309809978,1.4022231808241186,0.0,0.010612666606903076,1.073998212814331,0.2180042862892151,-0.13113725185394287,-0.9875267744064331,0.011471213772892952,0.08638352900743484
54.11490883075965,1.3189685404746596,-0.8759240841777253,1.305213475631915,1.1854076403927092,1.4018496793236621,0.0,0.0009678173810243607,1.072136640548706,0.21970495581626892,-0.12694071233272552,-0.9880750179290771,0.011104002594947815,0.08643130958080292
54.372846950099486,1.339447353399259,-0.8812824426430699,1.3086737264660042,1.1779948983546142,1.4347143648772378,0.0,-0.00860569067299366,1.0694822072982788,0.2203541398048401,-0.11630032956600189,-0.9907347559928894,0.009292845614254475,0.06951544433832169
54.572164658710975,1.362300147738127,-0.8870037203045658,1.312111082346977,1.1694936069391237,1.4736795267115086,0.0,-0.018148129805922508,1.0668054819107056,0.22140097618103027,-0.10450392216444016,-0.9932682514190674,0.006772836670279503,0.0495094358921051
54.77150388087394,1.3854443792977835,-0.8927979603021464,1.3155922741558435,1.160883900215356,1.5131416036408951,0.0,-0.02763490378856659,1.064253568649292,0.2230829894542694,-0.09268783032894135,-0.9952570796012878,0.003743223613128066,0.029294881969690323
54.99077836009093,1.4052812157097048,-0.8968862696054626,1.3178254724092453,1.1546000908548404,1.542914432945456,0.0,-0.037191618233919144,1.0625256299972534,0.22470490634441376,-0.08268781751394272,-0.996475100517273,0.0012107641668990254,0.014088782481849194
55.212772716028155,1.4160397097384902,-0.8963623752048574,1.3166932340077604,1.1546127713227594,1.5464161094203235,0.0,-0.04715956747531891,1.0626096725463867,0.2246965765953064,-0.0773204043507576,-0.9969295859336853,0.0011249869130551815,0.012313559651374817
55.41213579867548,1.4267916841127999,-0.8958387982846044,1.3155616817434936,1.1546254441063066,1.5499156638769382,0.0,-0.05712771788239479,1.062602162361145,0.2246929109096527,-0.07195459306240082,-0.9973516464233398,0.00102021056227386,0.010540826246142387
55.611545857233466,1.4375397602388413,-0.8953154111930054,1.314430539736125,1.154638112295195,1.5534139495310404,0.0,-0.0670977234840393,1.0625026226043701,0.22469410300254822,-0.06658919900655746,-0.9977415204048157,0.0008965397719293833,0.008770199492573738
55.81088159625,1.4482775620758295,-0.8947925244170166,1.3133004790087737,1.154650768374322,1.5569088911077857,0.0,-0.07706267386674881,1.0623114109039307,0.22470025718212128,-0.06122772395610809,-0.9980989694595337,0.0007538506761193275,0.007002966478466988
56.0102674963004,1.4590116426284043,-0.89426981885227,1.312170809914406,1.1546634200673678,1.5604026214802444,0.0,-0.08702795207500458,1.0620286464691162,0.22471100091934204,-0.055867042392492294,-0.998424232006073,0.0005923477001488209,0.0052380929701030254
56.209640190196694,1.4697385550742723,-0.8937474623448317,1.3110418952012426,1.1546760633117457,1.5638940187761072,0.0,-0.09698953479528427,1.0616540908813477,0.22472664713859558,-0.050509076565504074,-0.9987174868583679,0.00041204041917808354,0.0034763880539685488
56.408997852546634,1.480458241423789,-0.8932254577185588,1.3099137409721915,1.1546886980391056,1.567383064120895,0.0,-0.10694649815559387,1.0611881017684937,0.22474706172943115,-0.04515409842133522,-0.9989784955978394,0.0002129561617039144,0.0017180045833811164
56.73539465303603,1.4909027124155871,-0.8929530935835416,1.3092402835610735,1.154509179675655,1.5707962530031965,0.0,-0.11666079610586166,1.0604323148727417,0.22477248311042786,-0.039936210960149765,-0.9992021918296814,2.9507578602760987e-08,3.846213303404511e-08
57.069095647747524,1.4889397872812224,-0.9040503241847226,1.3292732599131292,1.1455733941958874,1.570796332460982,0.0,-0.11540842801332474,1.0505496263504028,0.22478652000427246,0.04091686010360718,0.9991625547409058,6.854325107497061e-08,2.4789239105871275e-08
57.26017643316349,1.4831033611983504,-0.9092854465392539,1.338724300573489,1.141357411601146,1.5707963705062866,0.0,-0.10969782620668411,1.0463969707489014,0.22477209568023682,0.04383241757750511,0.9990389347076416,6.129106111529836e-08,2.5037028450469734e-08
57.52995087756458,1.4736553470527614,-0.9091342496973217,1.338452277267484,1.141478150722938,1.5707963705062866,0.0,-0.09979313611984253,1.047525405883789,0.2247721552848816,0.04855139181017876,0.9988206028938293,1.2760939682721073e-07,2.7957058890137887e-08
57.72930617435518,1.4642296498958116,-0.9088752921144603,1.3379863196907413,1.1416851525623866,1.5707963705062866,0.0,-0.08988983184099197,1.0486571788787842,0.22477197647094727,0.053258102387189865,0.9985807538032532,9.027240110981438e-08,2.681890620692684e-08
57.92868246315661,1.4548248505904242,-0.908515426295069,1.3373387601215276,1.1419729316741694,1.5707963705062866,0.0,-0.0799851045012474,1.0497857332229614,0.22477200627326965,0.05795327574014664,0.9983193278312683,4.3599410304295816e-08,2.566687129501588e-08
58.12803770406786,1.4454456928741872,-0.9080481657354511,1.3364976822347752,1.142346837422585,1.5707963705062866,0.0,-0.07008176296949387,1.050917148590088,0.2247718870639801,0.06263431906700134,0.9980365633964539,-1.2965272189191523e-09,2.082205519116087e-08
58.37078153792307,1.4360907194319357,-0.907479614112825,1.3354740844587463,1.1428019748827158,1.5707963705062866,0.0,-0.06017721816897392,1.0520458221435547,0.2247718870639801,0.06730189919471741,0.9977325797080994,-7.051542638691899e-08,1.7534738105950964e-08
58.61236784421003,1.4183445055833113,-0.9059849873434253,1.3356558859165606,1.1466294099022494,1.5484587675946067,0.0,-0.05031844601035118,1.052656650543213,0.22384455800056458,-0.07617773115634918,-0.9970279335975647,0.0018933374667540193,0.011345610953867435
58.81166174821651,1.3924323417701028,-0.9035926265974965,1.3369929755082643,1.1537138291383746,1.5045699814591968,0.0,-0.04043523594737053,1.0530036687850952,0.22262108325958252,-0.08928108215332031,-0.9954227209091187,0.005173389334231615,0.033700697124004364
59.010957719759105,1.366513647233857,-0.901199662897467,1.3383304020908064,1.1608000338826587,1.4606701338968537,0.0,-0.03049646131694317,1.0535788536071777,0.22218850255012512,-0.1025426834821701,-0.9931128025054932,0.007864510640501976,0.05612463504076004
59.21024896018302,1.3409083513813556,-0.8988356339754906,1.3396516570359231,1.1678005550198272,1.4173011060647782,0.0,-0.020570408552885056,1.0543828010559082,0.2225344032049179,-0.11577318608760834,-0.9901335835456848,0.009936857968568802,0.07831506431102753
59.445648893601295,1.325964050675401,-0.896142922714776,1.338688969677248,1.1709448596832446,1.4015978932739672,0.0,-0.010776792652904987,1.0555264949798584,0.22177588939666748,-0.123436339199543,-0.9885212779045105,0.01079433411359787,0.08644411712884903
59.68297850420681,1.3171326377103856,-0.8932365772011824,1.3363834567223924,1.1718600058862108,1.4019421445522455,0.0,-0.0010268129408359528,1.0567055940628052,0.22005662322044373,-0.1278597116470337,-0.9879570603370667,0.011183759197592735,0.08641500771045685
60.037070782645614,1.3086679798538587,-0.8894314341730236,1.3323730625675185,1.1735080916695908,1.4023108583846997,0.0,0.008591254241764545,1.0586421489715576,0.21836107969284058,-0.13209594786167145,-0.9873991012573242,0.011554937809705734,0.08637211471796036
60.28884644411633,1.304473748941921,-0.896023488574982,1.3452706550578852,1.1679150551582609,1.4025029165390344,0.0,0.011345332488417625,1.052137017250061,0.21789398789405823,-0.13419382274150848,-0.9871160984039307,0.011738523840904236,0.0863478034734726
60.51856238216426,1.3043424864262108,-0.905435912569661,1.361831414965627,1.1607888602082737,1.402509602421562,0.0,0.009209200739860535,1.0437936782836914,0.2182520627975464,-0.13425946235656738,-0.9871072173118591,0.011744268238544464,0.08634671568870544
60.78339545351118,1.3128499642391496,-0.9094107069617399,1.3660911138118543,1.1590493861189606,1.4022047334463463,0.0,-0.0003564879298210144,1.0416935682296753,0.21993839740753174,-0.13000261783599854,-0.9876805543899536,0.011372950859367847,0.08635471761226654
61.028146444856695,1.3218568868078475,-0.912336390123576,1.3683533518592272,1.1581578590067314,1.402012487776876,0.0,-0.010104530490934849,1.0405081510543823,0.22165733575820923,-0.12549158930778503,-0.9882727861404419,0.01098091620951891,0.08630289882421494
61.270988873115705,1.3391208040634102,-0.9150416865670836,1.3688575068971076,1.1542225376494755,1.4231457277527677,0.0,-0.019921477884054184,1.039406180381775,0.22216087579727173,-0.11660826951265335,-0.9902622699737549,0.009921316988766193,0.07539743185043335
61.4703185212826,1.365100263273368,-0.9175600988526119,1.3675663347682216,1.1471094752822468,1.4664498945325277,0.0,-0.029856178909540176,1.0386276245117188,0.22199860215187073,-0.10320085287094116,-0.9932057857513428,0.007718391250818968,0.053218692541122437
61.669593612573074,1.3913356378687565,-0.9201033192161496,1.3662624437135742,1.1399263444011745,1.5101806368788784,0.0,-0.039785806089639664,1.0380805730819702,0.22261475026607513,-0.08979694545269012,-0.9954696297645569,0.004894835874438286,0.0308651365339756
61.86889703469627,1.417513234480736,-0.9226409386631296,1.364961424209148,1.1327590328793935,1.5538150713148322,0.0,-0.04964695870876312,1.0377609729766846,0.22401480376720428,-0.07658172398805618,-0.9970248937606812,0.0014850619481876493,0.008629518561065197
62.1009781293156,1.433465940649796,-0.9239758387020862,1.365076219942202,1.1296958753744908,1.570796353615387,0.0,-0.0595097616314888,1.0370473861694336,0.22477209568023682,0.06861123442649841,0.9976434111595154,4.917343687793618e-08,2.5482901122586554e-08
62.50663308334024,1.4429520608780364,-0.9245473465641423,1.3660982251424665,1.1292452887105744,1.5707963258225348,0.0,-0.0694124773144722,1.0359071493148804,0.22477209568023682,0.0638786107301712,0.9979575872421265,7.63171925655115e-08,2.763548501150126e-08
62.616591316635315,1.4346129697338121,-0.925220776306904,1.3695641709951427,1.13063351236207,1.554584327186735,0.0,-0.06740976125001907,1.034374475479126,0.22400213778018951,-0.06805358082056046,-0.9976465702056885,0.0015338050434365869,0.008229294791817665
62.8159945020327,1.4144830586092336,-0.9259678327067152,1.3746697515218385,1.1332432900418286,1.527563015570291,0.0,-0.057648204267024994,1.0326308012008667,0.22296498715877533,-0.07817775756120682,-0.9966894388198853,0.003868534928187728,0.021983807906508446
63.01533176841826,1.3941316712804244,-0.9267231084779263,1.3798315054011363,1.1358817813930395,1.5002444061916704,0.0,-0.04786066710948944,1.0308984518051147,0.22222915291786194,-0.08847855776548386,-0.9954119920730591,0.005944527685642242,0.03593169525265694
63.214671065087025,1.3735914659845212,-0.927485391615928,1.3850411494737844,1.1385447523811951,1.4726723377144948,0.0,-0.03805084526538849,1.0291874408721924,0.22180461883544922,-0.0989338755607605,-0.9938045740127563,0.007747650146484375,0.050044164061546326
63.41402846666664,1.3529058536882763,-0.9282530710634074,1.3902876733490706,1.141226574915273,1.4449050826891454,0.0,-0.02822587639093399,1.0275089740753174,0.22169895470142365,-0.10951519757509232,-0.9918609261512756,0.009264815598726273,0.06428427994251251
63.61335936280579,1.3321303198847394,-0.9290240876561472,1.395557004155481,1.143920055481083,1.4170171218616436,0.0,-0.018396921455860138,1.025873064994812,0.2219168245792389,-0.12018706649541855,-0.9895787835121155,0.010484972968697548,0.07860603928565979
63.85118846717568,1.3166609325135479,-0.9281020977738211,1.3973967740805822,1.145790623511698,1.401946197068001,0.0,-0.008612790144979954,1.0255759954452515,0.22139421105384827,-0.1280958503484726,-0.9879257678985596,0.011202381923794746,0.08642051368951797
64.0930450637137,1.3076198969419799,-0.9251420883144077,1.3950998269169443,1.1466654168068284,1.4023533578422689,0.0,0.0011335471644997597,1.0267714262008667,0.2196759283542633,-0.13262006640434265,-0.9873285889625549,0.011598224751651287,0.08636830747127533
64.45949813416989,1.2992628313025463,-0.9207819101337064,1.3901583407776068,1.1486692381081525,1.4027457193078894,0.0,0.010570773854851723,1.0292431116104126,0.21801181137561798,-0.136799156665802,-0.9867583513259888,0.011966187506914139,0.08631697297096252
65.42088104245994,1.2952724896340462,-0.9604164114543614,1.4628311640974467,0.9928902679136447,1.3779298492871728,0.0,0.007802482694387436,1.0397188663482666,0.19970378279685974,-0.1329921931028366,-0.9857203960418701,-0.05041845515370369,0.090145543217659
65.98719511457887,1.291623474392086,-1.0040615232948917,1.542591432091299,0.8229960462779682,1.3508723098029136,0.0,0.00408922228962183,1.050813913345337,0.18601123988628387,-0.12618659436702728,-0.9805039167404175,-0.1179889440536499,0.09363485872745514
66.55350918669778,1.2879744591501259,-1.0477066351354212,1.6223517000851495,0.6531018246422953,1.3238147703186551,0.0,0.00024478230625391006,1.0609970092773438,0.17877891659736633,-0.11699973791837692,-0.9710248112678528,-0.1848001778125763,0.09628497064113617
67.19340279083094,1.2843254439081657,-1.0913517469759504,1.702111968079,0.4832076030066226,1.2967572308343964,0.0,-0.004005907103419304,1.069344401359558,0.17796190083026886,-0.10548102855682373,-0.9573532342910767,-0.2504991292953491,0.09797307103872299
67.83329639496411,1.2806764286662056,-1.1349968588164798,1.7818722360728507,0.3133133813709498,1.269699691350138,0.0,-0.008943062275648117,1.074964165687561,0.183368518948555,-0.09169958531856537,-0.939580500125885,-0.3147391080856323,0.09858385473489761
68.87821747524458,1.2770190267830217,-1.1785870973632775,1.8615317997090237,0.14362627773284878,1.2426655395117285,0.0,-0.014826337806880474,1.077020287513733,0.19464999437332153,-0.07576847821474075,-0.9178462028503418,-0.37710827589035034,0.09801377356052399
69.24652823293322,1.2662699285582013,-1.1757767893696054,1.8560363285829986,0.14907698034150144,1.2354078486055777,0.0,-0.005250026471912861,1.079637050628662,0.1955539882183075,-0.07961709797382355,-0.9175279140472412,-0.376677006483078,0.09958962351083755
69.54229428290697,1.2555529110492725,-1.1729748687485695,1.8505572587070316,0.15451141531187038,1.228171818299704,0.0,0.004353570286184549,1.0821465253829956,0.19647245109081268,-0.08346077054738998,-0.9171798229217529,-0.3762710690498352,0.1011698916554451
69.87854915704031,1.2587364438525641,-1.1717542316595349,1.8360986504878634,0.16690885849134057,1.2303124490501107,0.0,0.003947919700294733,1.0890259742736816,0.20352202653884888,-0.08231436461210251,-0.9172825217247009,-0.37639912962913513,0.10070142149925232
70.17607818366253,1.2685628130301378,-1.1741202150250443,1.8393400802637294,0.1635257532535765,1.2369544076184738,0.0,-0.004652889911085367,1.0875710248947144,0.20350632071495056,-0.07879522442817688,-0.9175980687141418,-0.3767673671245575,0.09925330430269241
70.38721133855475,1.2792267969907367,-1.176941163258306,1.84483419162071,0.1581348007429966,1.244163983251875,0.0,-0.014232916757464409,1.084968090057373,0.20260071754455566,-0.07498280704021454,-0.9179123044013977,-0.3771883249282837,0.09769006818532944
70.59776427338487,1.305713682121506,-1.1800967263870488,1.8472145537460578,0.15066663853747056,1.2935862877147855,0.0,-0.024009354412555695,1.0840911865234375,0.20102617144584656,-0.07136546075344086,-0.919671356678009,-0.3779330253601074,0.07923385500907898
70.79700842613941,1.3351053627516776,-1.183369156515164,1.8491854656699023,0.14273189178063353,1.3503043948721243,0.0,-0.033881720155477524,1.083024263381958,0.2002238929271698,-0.06783342361450195,-0.9210243225097656,-0.3791492283344269,0.057952605187892914
70.99624354506498,1.3647770789091995,-1.1866727654216613,1.8511751558788982,0.13472154502594672,1.4075628959337099,0.0,-0.04371892660856247,1.08146333694458,0.20039552450180054,-0.06443820148706436,-0.9216783046722412,-0.3808140754699707,0.03656988590955734
71.19392845893866,1.3854150695822625,-1.1882625378359972,1.8534723283181225,0.12885711097694316,1.4400932005043368,0.0,-0.05343411862850189,1.0796914100646973,0.19997882843017578,-0.060858990997076035,-0.9218782186508179,-0.381839394569397,0.025207705795764923
71.39329705501562,1.3972182775485675,-1.1881695815410127,1.8560787693127254,0.1250885873480807,1.4483715150720888,0.0,-0.06310976296663284,1.0779969692230225,0.1982816606760025,-0.056949127465486526,-0.9221282005310059,-0.38194215297698975,0.02358810231089592
71.59265812600619,1.4090827194660502,-1.187950728635322,1.858506464016733,0.12143510840187365,1.4567007218306913,0.0,-0.07278390973806381,1.076295018196106,0.19658568501472473,-0.05302553251385689,-0.9223616123199463,-0.38204050064086914,0.021963216364383698
71.79202776516443,1.4210155108799392,-1.1875805536653834,1.860718090777733,0.11792162889594233,1.465087418513698,0.0,-0.08246028423309326,1.0746054649353027,0.19488750398159027,-0.049086589366197586,-0.9225805997848511,-0.38212844729423523,0.020331423729658127
71.99075950423843,1.4331940102923806,-1.1870021298103255,1.8618848174003673,0.11528968646566062,1.4736532071737216,0.0,-0.09222917258739471,1.0733131170272827,0.1936090588569641,-0.04507208243012428,-0.9227842688560486,-0.3822158873081207,0.018668871372938156
72.25627814480502,1.4457159994328503,-1.1861185784856958,1.8615147019987817,0.11395667931796609,1.4824698059298838,0.0,-0.10215317457914352,1.0726529359817505,0.1929372400045395,-0.040951237082481384,-0.922977864742279,-0.3822920024394989,0.01696174032986164
72.444684115737,1.4525220050419905,-1.184086566469752,1.8684560940483785,0.09597434997599025,1.4867063328574757,0.0,-0.10769503563642502,1.072822093963623,0.18854480981826782,-0.038343243300914764,-0.9214383363723755,-0.38629692792892456,0.015989037230610847
72.6968754719477,1.4509668528619037,-1.1802755703420524,1.8865484458972506,0.05253633212938439,1.4842078182832108,0.0,-0.10686463117599487,1.0741136074066162,0.17869886755943298,-0.03789756819605827,-0.9172260761260986,-0.39623457193374634,0.016065167263150215
72.89639332178048,1.4493378833128612,-1.1762836802087053,1.9054995753170936,0.007036470926773668,1.481590708387838,0.0,-0.10603658109903336,1.0750890970230103,0.16880537569522858,-0.03739246726036072,-0.9127017855644226,-0.4065925180912018,0.016115082427859306
73.0957282971125,1.4476287311261782,-1.1720952975870544,1.9253835346624815,-0.04070302629950837,1.478844776701702,0.0,-0.10521567612886429,1.0756996870040894,0.15889127552509308,-0.03682038187980652,-0.907832145690918,-0.41740211844444275,0.01613442599773407
73.29508309098891,1.44582620354434,-1.1676780928128734,1.9463538060259526,-0.09105065547141294,1.4759488276805035,0.0,-0.10440491139888763,1.0758875608444214,0.14895834028720856,-0.03617044538259506,-0.902561366558075,-0.4287361800670624,0.01611783541738987
73.49431068482808,1.4439180006070422,-1.1630019240764473,1.9685534848629878,-0.14434997518214304,1.4728831001520073,0.0,-0.10361078381538391,1.0755788087844849,0.1390334665775299,-0.03543027862906456,-0.8968315124511719,-0.4406583607196808,0.016058655455708504
73.69373083892278,1.4418846866945068,-1.1580191631953625,1.992208681567111,-0.20114385500394938,1.4696163687609731,0.0,-0.10283982753753662,1.0746800899505615,0.12913301587104797,-0.0345827080309391,-0.8905574679374695,-0.45327362418174744,0.0159480981528759
73.89611109594125,1.4397110232988595,-1.1526924672682333,2.017496678110877,-0.26185793210949265,1.466124151251258,0.0,-0.10210506618022919,1.0730739831924438,0.11932633817195892,-0.033609505742788315,-0.8836596608161926,-0.46665525436401367,0.015775403007864952
74.11350329096966,1.4373761243131864,-1.1469706536046516,2.044660459585956,-0.32707559061801383,1.4623728919083852,0.0,-0.10142259299755096,1.0706130266189575,0.10969490557909012,-0.03248707205057144,-0.8760327100753784,-0.4809056520462036,0.01552665326744318
74.34754041779024,1.4348624505819294,-1.140810741424491,2.0739040732730922,-0.3972867286641869,1.4583344122451662,0.0,-0.10081606358289719,1.0671228170394897,0.10038040578365326,-0.031189801171422005,-0.8675724267959595,-0.4960993528366089,0.015185047872364521
74.59855895902994,1.4321663881163516,-1.1342038744259313,2.1052695636465493,-0.47259229103609657,1.4540029060108384,0.0,-0.1003188043832779,1.0624231100082397,0.09161408245563507,-0.029696406796574593,-0.8582145571708679,-0.5122194290161133,0.014733050018548965
74.86470339664093,1.429307866091956,-1.127198890280066,2.1385250783770933,-0.5524356223193932,1.4494103915095178,0.0,-0.09997129440307617,1.0563777685165405,0.08371315151453018,-0.02799821086227894,-0.8479759693145752,-0.5291053652763367,0.014156279154121876
75.14031795950864,1.426347630269357,-1.1199446502118224,2.1729639125592928,-0.635119991179705,1.444654463156827,0.0,-0.09981318563222885,1.0489869117736816,0.0770513117313385,-0.026115786284208298,-0.8370342254638672,-0.5463612079620361,0.013452624902129173
75.41653591364972,1.4233809137280184,-1.1126745287434574,2.2074781422205803,-0.7179853774220306,1.4398881228518976,0.0,-0.09986716508865356,1.0404517650604248,0.07193306088447571,-0.024103764444589615,-0.8257279396057129,-0.56341153383255,0.012638134881854057
75.6843557855502,1.4205043967161644,-1.1056254467733408,2.240943007295599,-0.7983313389921709,1.4352666975217825,0.0,-0.1001281812787056,1.0311236381530762,0.06846334785223007,-0.02203398570418358,-0.8144450187683105,-0.5797033309936523,0.011743386276066303
75.93786119365564,1.417781624078579,-1.0989531248544238,2.272619238853162,-0.8743829614238023,1.4308922786034766,0.0,-0.10056912899017334,1.0213651657104492,0.06653417646884918,-0.019967814907431602,-0.803479015827179,-0.5949000120162964,0.010800866410136223
76.17506149277507,1.4152339763226744,-1.0927099572359642,2.302258100037951,-0.9455430511596326,1.42679921611755,0.0,-0.10115591436624527,1.0114381313323975,0.06592152267694473,-0.01794111542403698,-0.7929704785346985,-0.6089164018630981,0.00983447302132845
76.396134109284,1.412859547802003,-1.0868912740140606,2.3298817607870776,-1.0118648361123137,1.4229844484437422,0.0,-0.10185680538415909,1.0015116930007935,0.06638582795858383,-0.015971681103110313,-0.7829640507698059,-0.6217987537384033,0.008860078640282154
76.60267259848348,1.4106412229496723,-1.0814551324386807,2.3556893404293646,-1.073826382872154,1.4194204776343433,0.0,-0.10264752060174942,0.9916664958000183,0.0677194744348526,-0.014062140136957169,-0.7734328508377075,-0.6336730122566223,0.007885404862463474
76.80199466568462,1.4085615266125466,-1.0763587085715747,2.3798841416532452,-1.1319158018784254,1.41607922802875,0.0,-0.10350935161113739,0.9819487929344177,0.06975582242012024,-0.012211468070745468,-0.7643397450447083,-0.644661009311676,0.00691513204947114
77.00134498921267,1.4066021200949155,-1.0715570623102648,2.402679513441219,-1.1866453237679604,1.412931236594923,0.0,-0.1044289767742157,0.9723735451698303,0.07236739248037338,-0.01041465625166893,-0.7556346654891968,-0.6548833250999451,0.00595100736245513
77.2008423872017,1.4047462958614776,-1.0670092508112456,2.424269828158296,-1.238481618121959,1.4099496609305662,0.0,-0.10539662837982178,0.9629388451576233,0.07545739412307739,-0.008665850386023521,-0.7472683191299438,-0.6644470691680908,0.0049930051900446415
77.40004455593458,1.4029845875648623,-1.0626920762076888,2.444765215532965,-1.2876890959551663,1.4071192923588869,0.0,-0.10640279948711395,0.9536627531051636,0.0789424329996109,-0.006963727064430714,-0.7392182946205139,-0.6734176874160767,0.004043337889015675
77.59946398359767,1.4013010615043566,-1.0585664919853712,2.464351045282254,-1.3347128123463134,1.4044145317237617,0.0,-0.10744401067495346,0.944515585899353,0.08277198672294617,-0.00529928645119071,-0.7314283847808838,-0.681890606880188,0.0030991057865321636
77.7989188760244,1.3996880590471796,-1.054613730193321,2.4831164165185986,-1.379766685799108,1.4018230746308897,0.0,-0.10851509869098663,0.9354987144470215,0.08689562976360321,-0.0036701625213027,-0.7238770127296448,-0.6899158954620361,0.0021609258837997913
77.99818325710527,1.3981392922190625,-1.0508183817636034,2.501134482367687,-1.4230263500180975,1.3993348187921768,0.0,-0.10961107164621353,0.9266149401664734,0.09127091616392136,-0.002074511256068945,-0.716546356678009,-0.6975352764129639,0.0012291939929127693
78.2668967173795,1.39664597580389,-1.0471589179834508,2.5185074484033905,-1.4647371908756628,1.3969356498394063,0.0,-0.11073070764541626,0.9178450703620911,0.09587256610393524,-0.0005070976330898702,-0.7094050645828247,-0.7048007845878601,0.00030226411763578653
78.46732794086523,1.3833017113866135,-1.0493326216739274,2.525787430453858,-1.476454810654624,1.3833017487227595,0.0,-0.1045621931552887,0.9150872826576233,0.09897288680076599,-1.2024431228496724e-08,0.7071066498756409,0.7071068286895752,1.2984688879669193e-08
78.68244216746392,1.3641515002710225,-1.054309191713091,2.52835557986627,-1.4740464756237603,1.3641515103703545,0.0,-0.09486135840415955,0.9150585532188416,0.10126808285713196,-9.564332437150824e-09,0.7071066498756409,0.7071068286895752,1.1717697923074866e-08
78.88178051418366,1.3450327145435046,-1.0592658703676296,2.5305775317333152,-1.4713118172394128,1.3450327145435046,0.0,-0.08516251295804977,0.9150843024253845,0.10356398671865463,-2.416874700372773e-08,0.7071066498756409,0.7071068286895752,1.963664075788074e-08
79.08115304044189,1.3259086678902543,-1.064216983372741,2.53259797744297,-1.4683812082877536,1.3259086678902543,0.0,-0.07546171545982361,0.915063738822937,0.10585911571979523,-3.953101845866058e-09,0.7071067094802856,0.7071068286895752,1.0567157815444261e-08
79.28048702857198,1.3068404488312935,-1.0691426591915523,2.534291766747341,-1.465149277741627,1.3068404488312935,0.0,-0.06576298922300339,0.9150805473327637,0.10815466195344925,-2.3698889961565328e-08,0.7071066498756409,0.7071068286895752,1.8329451734189206e-08
79.75362715927345,1.2878009070738612,-1.0740531143849885,2.5357548526831426,-1.4617017918197768,1.2878009070738612,0.0,-0.05606229975819588,0.9150683879852295,0.11045005917549133,-1.945256844493315e-09,0.7071067690849304,0.7071067094802856,7.284461478462845e-09
79.87228513988828,1.2895151752122451,-1.0738971808193978,2.5354480437427425,-1.4615508558041506,1.2895151752122451,0.0,-0.05690208822488785,0.915189802646637,0.11039792746305466,-7.3020820501312755e-09,-0.7071067094802856,-0.7071067094802856,7.85542653147786e-09
80.07167344275092,1.308766445536371,-1.0694593985926706,2.5336461248404043,-1.4641867060120768,1.308766445536371,0.0,-0.06665884703397751,0.9153950810432434,0.10836009681224823,-1.4803405168350992e-09,0.7071067094802856,0.7071067094802856,2.0513308829350763e-09
80.27107487726187,1.3279603224210856,-1.0650348466401571,2.5318495779639947,-1.466814698010822,1.3279603224210856,0.0,-0.07641763985157013,0.9154110550880432,0.10631851851940155,-1.1827425261401459e-08,0.7071067094802856,0.7071067094802856,5.349003018295662e-09
80.47041521701192,1.3470907187030712,-1.0606249281682292,2.530058972872001,-1.4694339983566485,1.3470907187030712,0.0,-0.08617118746042252,0.9152387380599976,0.10427400469779968,-1.5048607693302074e-08,0.7071067094802856,0.7071068286895752,3.5705007839226255e-09
80.66966557237481,1.3662047761550868,-1.056055195277634,2.528035458911757,-1.4719801823898464,1.366204750547081,0.0,-0.09590431302785873,0.9150477051734924,0.10215704143047333,-3.0928195560164795e-09,-0.7071067094802856,-0.7071067094802856,3.1544724610199637e-09
80.86904147002076,1.385361149308422,-1.0510674827012547,2.525422930590948,-1.4743552771311978,1.3853610341861973,0.0,-0.10560531914234161,0.915092408657074,0.09986240416765213,3.769724798985408e-08,-0.7071067094802856,-0.7071067094802856,3.987631913560108e-08
81.0683092038629,1.4044922133425235,-1.046073964344262,2.522551530828356,-1.476477340136141,1.4044920378660375,0.0,-0.11530079692602158,0.9151352047920227,0.0975678563117981,8.067486589879991e-08,-0.7071068286895752,-0.7071066498756409,9.443184723068043e-08
81.26768275457596,1.4237083031866167,-1.0410194963739037,2.518847173000426,-1.4778275001436514,1.4237081578912838,0.0,-0.12499424070119858,0.9155763983726501,0.09528377652168274,3.084969790734249e-08,-0.7071068286895752,-0.7071066498756409,4.5236948409410616e-08
81.46705941590642,1.442815716205679,-1.0359936140073647,2.5151637652123213,-1.4791700243051549,1.4428156009208097,0.0,-0.13469351828098297,0.9158270359039307,0.09299492835998535,4.0079246588220485e-08,-0.7071067094802856,-0.7071067094802856,4.358671645832146e-08
81.6664376046059,1.4618166046676255,-1.0309957511269106,2.5115008925632707,-1.4805050638431994,1.4618165192259103,0.0,-0.1443948596715927,0.915887176990509,0.09070156514644623,-2.4808315401969594e-09,-0.7071067094802856,-0.7071067094802856,7.004306579183606e-10
81.86581961172794,1.4807132778014263,-1.0260253003288526,2.50785810989453,-1.4818327810087233,1.4807132220391823,0.0,-0.15409468114376068,0.9157583713531494,0.08840377628803253,-2.5875246389972517e-10,-0.7071067690849304,-0.7071067094802856,3.560250705358925e-10
82.06520320209836,1.4995076319902965,-1.0210817628016062,2.504235051633183,-1.483153309045315,1.49950760574682,0.0,-0.16378925740718842,0.9154414534568787,0.08610175549983978,5.105008327177529e-08,-0.7071066498756409,-0.7071068286895752,3.914643897928727e-08
82.45455390833145,1.514211485187087,-1.017217462228022,2.501457498129253,-1.4842400961648556,1.5142114947021108,0.0,-0.17140640318393707,0.9150198101997375,0.08428701758384705,-3.7222291915384176e-09,0.7071066498756409,0.7071068286895752,3.929493175292009e-09
82.94947886187875,1.4954157804338724,-1.02219228577256,2.505614776359815,-1.483422519829565,1.4954158791399963,0.0,-0.16170702874660492,0.9150984883308411,0.08658413589000702,3.7585888179592075e-08,0.7071067094802856,0.7071067094802856,4.2964632740449815e-08
83.14883125294291,1.4765092944200118,-1.0271943411916582,2.509762901613307,-1.4825685604216485,1.4765094716066718,0.0,-0.1520073413848877,0.9150117039680481,0.08887803554534912,4.261147168449497e-08,0.7071067094802856,0.7071067094802856,3.60427634404914e-08
83.3481920445367,1.4575624589406522,-1.032175859179666,2.513417151061637,-1.4812412918819708,1.457562546935638,0.0,-0.14230813086032867,0.9150987267494202,0.09117576479911804,3.9205005464282294e-08,0.7071067094802856,0.7071067094802856,4.2383462073303235e-08
83.82684995704669,1.4385252982841115,-1.0369692250325868,2.51708826547746,-1.4801190292192876,1.438525293045009,0.0,-0.13261526823043823,0.9150003790855408,0.09336031228303909,-2.181759217734225e-09,0.7071067094802856,0.7071067094802856,3.0625324498601003e-09
84.15161950997256,1.4508296003871688,-1.0317071082409524,2.5147451118419597,-1.483037980235959,1.4508295926730188,0.0,-0.1388726830482483,0.9150952696800232,0.0908525288105011,-6.8936101271788175e-09,0.7071066498756409,0.7071068286895752,5.277299042205641e-09
84.35098167992376,1.4698056419799452,-1.0267316432937448,2.5111281268740187,-1.484396576663021,1.469805692489693,0.0,-0.14857237040996552,0.9150388836860657,0.08855555951595306,4.121261554246303e-08,0.7071067094802856,0.7071067094802856,4.38899547816618e-08
84.55032093933963,1.4887333349404475,-1.0217444980067987,2.5071054621379245,-1.4853610168061726,1.4887333743219304,0.0,-0.1582714468240738,0.915093719959259,0.08626094460487366,3.512302626518249e-08,0.7071066498756409,0.7071068286895752,4.653036356216944e-08
84.74968666694306,1.5075647154455754,-1.0167756966384687,2.5029834700192928,-1.486207740649155,1.50756472377358,0.0,-0.1679713875055313,0.9150452017784119,0.08396409451961517,4.742072334806835e-08,0.7071068286895752,0.7071066498756409,4.0685478097657324e-08
84.9491267327144,1.5264587290147358,-1.0124392788898968,2.498505060502049,-1.4860657259758812,1.5264587290147358,0.0,-0.1777479201555252,0.9150508046150208,0.08199934661388397,1.2351916364727877e-11,-0.7071067094802856,-0.7071067094802856,1.513705549793798e-10
85.14113227389001,1.5438179414917579,-1.0056662849228488,2.4941520030677995,-1.4884856736103156,1.5438179414917579,0.0,-0.18677879869937897,0.9150673747062683,0.07874231040477753,-3.186986230474531e-10,-0.7071067094802856,-0.7071067690849304,7.569043725119684e-10
85.34049267432832,1.5571284195763924,-0.9916203799655025,2.490450339294211,-1.4988299559969203,1.5571284195763924,0.0,-0.19373713433742523,0.9151971936225891,0.07160605490207672,1.3365916706753467e-10,-0.7071067094802856,-0.7071067094802856,7.548517366728902e-11
85.53986005968594,1.5703452931566089,-0.9776732513228968,2.4867747070726707,-1.509101493331078,1.5703452931566089,0.0,-0.20068275928497314,0.9151370525360107,0.0644560158252716,-1.7088636061757256e-10,0.7071066498756409,0.7071068286895752,1.6560477988925015e-10
85.75198410466167,1.6053428011349602,-0.9583872641232793,2.476351784345723,-1.528698368377395,1.633982506649332,0.0,-0.20818333327770233,0.9165571928024292,0.05883033946156502,0.010310575366020203,0.7032337188720703,0.7108144760131836,0.009939831681549549
86.42287363244762,1.6755993773579805,-0.9308521490353047,2.4549907777580575,-1.5632218024303022,1.7798802818511434,0.0,-0.21742329001426697,0.9167774319648743,0.055491022765636444,0.03900475054979324,0.6923636794090271,0.7196582555770874,0.03468552604317665
86.80723102380452,1.6926744982427515,-0.9308360801385182,2.4269038675899415,-1.5129928388853633,1.8189150088597161,0.0,-0.2200585901737213,0.9283225536346436,0.04815361648797989,0.045702215284109116,0.6997916102409363,0.7115550637245178,0.04350082576274872
87.19382745464715,1.692173249802883,-0.9403781179067928,2.395005820003097,-1.4306869613739535,1.8228797549418088,0.0,-0.22010952234268188,0.9449844360351562,0.04056340456008911,0.04460420832037926,0.7138636112213135,0.6972297430038452,0.04774685576558113
87.5334844483939,1.6916720013630144,-0.9499201556750677,2.3631077724162513,-1.3483810838625419,1.8268445010239018,0.0,-0.2200467884540558,0.9608343839645386,0.03446485102176666,0.043437372893095016,0.7276249527931213,0.6826192140579224,0.052021097391843796
87.84725633700761,1.691170752923146,-0.9594621934433422,2.3312097248294075,-1.2660752063511338,1.8308092471059945,0.0,-0.21986712515354156,0.975835919380188,0.029876423999667168,0.042200952768325806,0.7410696148872375,0.6677296161651611,0.056320421397686005
88.13624422316822,1.6906695044832774,-0.9690042312116169,2.299311677242562,-1.1837693288397222,1.8347739931880873,0.0,-0.21956752240657806,0.9899538159370422,0.026813708245754242,0.0408942736685276,0.754192054271698,0.6525676250457764,0.06064166873693466
88.41059714820626,1.6901682560434088,-0.9785462689798918,2.2674136296557164,-1.1014634513283106,1.8387387392701804,0.0,-0.21914544701576233,1.0031542778015137,0.025289390236139297,0.03951656445860863,0.7669869065284729,0.637139618396759,0.06498155742883682
88.6849500732443,1.6896670076035403,-0.9880883067481663,2.2355155820688726,-1.0191575738169028,1.842703485352273,0.0,-0.2185983657836914,1.0154051780700684,0.025313381105661392,0.03806727007031441,0.7794485688209534,0.6214524507522583,0.0693369209766388
88.95930299828234,1.6891657591636717,-0.9976303445164411,2.203617534482027,-0.936851696305491,1.8466682314343659,0.0,-0.21792413294315338,1.0266751050949097,0.026892872527241707,0.0365457609295845,0.7915721535682678,0.6055126786231995,0.07370444387197495
89.23365592332038,1.6886645107238032,-1.0071723822847158,2.1717194868951815,-0.8545458187940794,1.850632977516459,0.0,-0.217120960354805,1.0369354486465454,0.030032042413949966,0.034951452165842056,0.8033522963523865,0.589327335357666,0.07808084040880203
89.50800884835841,1.6881632622839347,-1.0167144200529903,2.1398214393083377,-0.7722399412826714,1.8545977235985516,0.0,-0.21618691086769104,1.046158790588379,0.03473278507590294,0.033283986151218414,0.8147844076156616,0.5729033946990967,0.08246281743049622
89.78236177339646,1.6876620138440661,-1.0262564578212652,2.107923391721492,-0.6899340637712598,1.8585624696806444,0.0,-0.21512067317962646,1.0543192625045776,0.0409933440387249,0.03154294192790985,0.8258636593818665,0.5562480092048645,0.08684711158275604
90.05671469843449,1.6871607654041976,-1.0357984955895396,2.0760253441346483,-0.6076281862598518,1.8625272157627373,0.0,-0.21392105519771576,1.0613927841186523,0.04881000146269798,0.029727928340435028,0.8365854024887085,0.5393682718276978,0.09123031795024872
90.33106762347253,1.686659516964329,-1.0453405333578145,2.044127296547803,-0.5253223087484402,1.8664919618448301,0.0,-0.21258743107318878,1.067357063293457,0.058175183832645416,0.02783854492008686,0.8469452857971191,0.5222713947296143,0.09560903906822205
90.60542054851058,1.6861582685244607,-1.0548825711260894,2.0122292489609572,-0.4430164312370286,1.870456707926923,0.0,-0.21111860871315002,1.0721914768218994,0.06907933950424194,0.02587471716105938,0.8569391965866089,0.5049648284912109,0.09998008608818054
90.87977347354861,1.6856570200845922,-1.0644246088943636,1.9803312013741132,-0.36071055372562055,1.8744214540090158,0.0,-0.20951461791992188,1.0758781433105469,0.08150989562273026,0.023836206644773483,0.8665629625320435,0.48745620250701904,0.10433996468782425
91.16525472532483,1.6851557716447236,-1.0739666466626385,1.948433153787268,-0.27840467621420895,1.8783862000911087,0.0,-0.20777514576911926,1.078399896621704,0.09545134007930756,0.02172284945845604,0.8758127689361572,0.46975278854370117,0.10868530720472336
91.47736589814993,1.684654523204855,-1.0835086844309134,1.9165351062004223,-0.19609879870279734,1.8823509461732015,0.0,-0.2059004008769989,1.0797425508499146,0.11088559031486511,0.019534600898623466,0.8846845626831055,0.4518623650074005,0.11301267892122269
91.81787698920341,1.6841532747649866,-1.0930507221991879,1.8846370586135783,-0.11379292119138928,1.8863156922552944,0.0,-0.2038908302783966,1.0798927545547485,0.12779146432876587,0.01727139577269554,0.8931751251220703,0.4337926506996155,0.1173187792301178
92.18805849011513,1.683652026325118,-1.1025927599674628,1.852739011026733,-0.03148704367997768,1.8902804383373872,0.0,-0.20174680650234222,1.0788402557373047,0.1461457908153534,0.014933424070477486,0.9012808799743652,0.41555148363113403,0.1216002032160759
92.91826360191338,1.6831507778852495,-1.1121347977357372,1.8208409634398888,0.050818833831430155,1.89424518441948,0.0,-0.19946932792663574,1.0765761137008667,0.16592220962047577,0.012520682066679,0.9089986681938171,0.397146612405777,0.1258534938097
97.13943467207432,1.6813458272080781,-1.1137391027608359,1.7985570412333869,-0.0526706893273835,1.6571291554108096,0.0,-0.2946999967098236,1.13720703125,0.19179753959178925,-0.02973949909210205,0.8907605409622192,0.45329877734184265,0.01346439216285944
100.94701037474155,1.6785521275360293,-1.1093233020847584,1.7835646281878332,-0.29707046822499505,1.2371735429183535,0.0,-0.4590551555156708,1.1930732727050781,0.2699667513370514,0.13710416853427887,-0.809441089630127,-0.5460078120231628,0.16698171198368073
104.37213240665145,1.6757584278639805,-1.1049075014086809,1.7685722151422802,-0.5414702471225957,0.817217930425916,0.0,-0.5921962857246399,1.1673227548599243,0.3649113178253174,0.27999594807624817,-0.682675838470459,-0.6008263826370239,0.30751192569732666
107.44697972888864,1.6729647281919315,-1.1004917007326034,1.7535798020967266,-0.7858700260202072,0.3972623179334598,0.0,-0.6723265051841736,1.0764778852462769,0.42392560839653015,0.44407832622528076,-0.5264822244644165,-0.6071616411209106,0.3961889147758484
110.14068572453525,1.6701710285198827,-1.0960759000565257,1.738587389051173,-1.0302698049178187,-0.022693294558996158,0.0,-0.6884381771087646,0.9660192728042603,0.41556283831596375,0.6122152805328369,-0.3598366975784302,-0.5597470998764038,0.4270751178264618
112.90634546199072,1.667377328847834,-1.0916600993804484,1.72359497600562,-1.2746695838154194,-0.44264890705143367,0.0,-0.6407327651977539,0.8901383280754089,0.34362345933914185,0.7663907408714294,-0.20251958072185516,-0.4592839479446411,0.4008604884147644
116.06576473134466,1.664583629175785,-1.0872442987043707,1.7086025629600663,-1.519069362713031,-0.8626045195438898,0.0,-0.5391095280647278,0.8874071836471558,0.24539242684841156,0.8897368311882019,-0.07287563383579254,-0.3124116361141205,0.32474035024642944
119.58107096893302,1.6617899295037362,-1.0828284980282932,1.6936101499145126,-1.7634691416106425,-1.282560132036346,0.0,-0.40062692761421204,0.9630926847457886,0.17490559816360474,0.9684401154518127,0.014254328794777393,-0.1310063749551773,0.21156075596809387
123.52113677007667,1.6589962298316874,-1.0784126973522157,1.6786177368689597,-2.007868920508243,-1.7025157445287835,0.0,-0.24669867753982544,1.0859854221343994,0.17861562967300415,0.9933112859725952,0.04920071363449097,0.06911364942789078,0.07832839339971542
128.0348349681007,1.6614427535293497,-1.0746121483906923,1.6707336877868737,-2.1336502683958303,-1.918332165152423,0.0,-0.1735914945602417,1.1494617462158203,0.21501921117305756,0.9836623668670654,0.04749200865626335,0.17343558371067047,0.008533325977623463
128.46983881327722,1.66943594588055,-1.071462830714247,1.6703736957520503,-2.133876446857227,-1.9180714500108045,0.0,-0.1828971654176712,1.1483176946640015,0.211632639169693,0.9834546446800232,0.05164194107055664,0.17339850962162018,0.009107501246035099
128.66576250303004,1.6771915657900398,-1.0668176646702086,1.6673755920694036,-2.132887703758741,-1.9177831375051393,0.0,-0.1920991688966751,1.1486972570419312,0.2082943320274353,0.983235776424408,0.05567985773086548,0.17335553467273712,0.009739433415234089
128.86500041592333,1.6846480356247802,-1.0602889335638386,1.6610555909016758,-2.1303691372815994,-1.9174600745315407,0.0,-0.20121002197265625,1.1510138511657715,0.20499810576438904,0.9830092787742615,0.05957693234086037,0.17330355942249298,0.010443628765642643
129.06470633703682,1.6921009012918051,-1.05376335819234,1.6547386445768795,-2.127851788181606,-1.9171371677140272,0.0,-0.21035930514335632,1.153238296508789,0.20167416334152222,0.9827657341957092,0.06347067654132843,0.173258975148201,0.011148134246468544
129.263738092365,1.6995079558754373,-1.0472778940600458,1.6484605270956185,-2.125349912658449,-1.9168162457318518,0.0,-0.21949385106563568,1.1553573608398438,0.19834193587303162,0.982506513595581,0.06733894348144531,0.17322196066379547,0.01184867974370718
129.72255278414752,1.7069150104590696,-1.0407924299277518,1.6421824096143574,-2.122848037135292,-1.9164953237496765,0.0,-0.228668674826622,1.1573853492736816,0.19498103857040405,0.9822304844856262,0.07120562344789505,0.17319220304489136,0.012549825012683868
129.90173681698462,1.704723520962299,-1.0444268569800583,1.6468561747302763,-2.1247068197908106,-1.916602283189228,0.0,-0.22571519017219543,1.1550853252410889,0.1960652619600296,0.9823132157325745,0.07006034255027771,0.17320559918880463,0.012333279475569725
130.10104310758135,1.698161485134579,-1.0526704514333336,1.6565187330789124,-2.1285519641422574,-1.916904080352959,0.0,-0.2172796130180359,1.1507632732391357,0.19914233684539795,0.9825531840324402,0.06663232296705246,0.17324136197566986,0.011698747985064983
130.3004083695235,1.6915794551665557,-1.0609391636379326,1.6662107326790716,-2.1324088244241977,-1.9172067970750395,0.0,-0.20888128876686096,1.1463357210159302,0.2021806240081787,0.982780396938324,0.06319259107112885,0.17328301072120667,0.011062869802117348
130.49902576081178,1.6842607447480031,-1.0678335056812964,1.6731349916637737,-2.1350636091234803,-1.917492192321693,0.0,-0.19990330934524536,1.1436406373977661,0.20546004176139832,0.9830204844474792,0.05937308445572853,0.17331315577030182,0.010397723875939846
130.69828902430555,1.6767420103973847,-1.0743546778874982,1.6793077520028357,-2.1373920055162574,-1.9177728844306132,0.0,-0.19079571962356567,1.141349196434021,0.20878656208515167,0.9832507967948914,0.055449385195970535,0.1733456254005432,0.009724919684231281
130.89773847780845,1.669194347673506,-1.0809009403409249,1.6855042620724785,-2.139729360427425,-1.9180546565040222,0.0,-0.18169750273227692,1.1389577388763428,0.2120961844921112,0.9834643602371216,0.05150929465889931,0.17338548600673676,0.009050119668245316
131.14000813150295,1.6616282796445907,-1.0874631661411136,1.6917158826024274,-2.1420724150805777,-1.9183371156909326,0.0,-0.17262248694896698,1.1364688873291016,0.21538415551185608,0.9836610555648804,0.047558244317770004,0.17343267798423767,0.008373981341719627
131.2314736879122,1.6610999944046654,-1.0895866683235997,1.6948442186664885,-2.1432438877585147,-1.918367234667127,0.0,-0.17183297872543335,1.134592890739441,0.21565912663936615,0.9836729764938354,0.047284264117479324,0.1734418272972107,0.008337191306054592
131.5961831281823,1.6691920387332069,-1.0862733359809005,1.694195949364032,-2.1429803313874403,-1.9180882711034122,0.0,-0.1811428964138031,1.1334900856018066,0.21227090060710907,0.9834606647491455,0.051514193415641785,0.1734035611152649,0.009083006531000137
131.7955466019851,1.6772763518931608,-1.0828959363989785,1.6934335759217163,-2.14267222237842,-1.917790029827957,0.0,-0.19045090675354004,1.1323730945587158,0.20888301730155945,0.9832301735877991,0.05573827400803566,0.17336414754390717,0.00982778612524271
132.05845772523102,1.6853493928678096,-1.07942512560965,1.6925048365550435,-2.1422991548078287,-1.9174636812959454,0.0,-0.19976091384887695,1.1312739849090576,0.20549505949020386,0.9829822778701782,0.05995440110564232,0.17331911623477936,0.0105711305513978
132.25238441939652,1.6905597535229961,-1.0807563313164827,1.6976347073437519,-2.144216409774127,-1.9172528140040845,0.0,-0.20533360540866852,1.126922845840454,0.20347684621810913,0.9828116297721863,0.0626746267080307,0.17329443991184235,0.011051150038838387
132.55545987459166,1.6907714851506512,-1.0904458350410788,1.713300940298093,-2.150116759839391,-1.917243594458736,0.0,-0.20438499748706818,1.117003321647644,0.20381514728069305,0.982804536819458,0.06278512626886368,0.17329321801662445,0.011070615611970425
132.8201800957702,1.6837258912051691,-1.094792407255021,1.7162180157472466,-2.1512313930115137,-1.9175289178461916,0.0,-0.196206733584404,1.1166664361953735,0.2067890763282776,0.9830337762832642,0.059106651693582535,0.1733272820711136,0.010421620681881905
133.11556197667377,1.6755480047366682,-1.0983078322412132,1.7171499065482414,-2.151600842268624,-1.9178601958465678,0.0,-0.18689537048339844,1.117745280265808,0.21017616987228394,0.983280599117279,0.054835397750139236,0.1733749955892563,0.009668724611401558
133.36400917081397,1.674153687772633,-1.1069488207447054,1.7300766578138418,-2.156390073657235,-1.9179168782060323,0.0,-0.18446210026741028,1.109773874282837,0.21107792854309082,0.9833205342292786,0.05410701408982277,0.17338411509990692,0.009540426544845104
133.60934469157348,1.6768794184273157,-1.1123710880572981,1.7402381836099696,-2.160145110372606,-1.9178063849965163,0.0,-0.18683044612407684,1.1027261018753052,0.2102004438638687,0.9832417964935303,0.05553092435002327,0.1733667105436325,0.009791280142962933
133.93598136947762,1.6851649402483675,-1.1088096315771783,1.7393028021674586,-2.159779431553117,-1.9174700025012186,0.0,-0.1961410939693451,1.1016348600387573,0.20681294798851013,0.9829882383346558,0.05985806882381439,0.1733194887638092,0.010553998872637749
134.14944507424278,1.6911888758017937,-1.108959548677708,1.7429322994887577,-2.161083888307056,-1.9172252343423841,0.0,-0.2025713473558426,1.0980162620544434,0.20448052883148193,0.9827906489372253,0.06300301104784012,0.1732906699180603,0.01110895723104477
134.43893309424377,1.691411934154556,-1.1186080599644708,1.7582375995595478,-2.166660177416688,-1.9172154548011466,0.0,-0.20162321627140045,1.088098406791687,0.2048235833644867,0.9827831387519836,0.06311943382024765,0.17328934371471405,0.01112955529242754
134.67288524262614,1.6849001547112559,-1.1235336338558357,1.7623113945845417,-2.168159750584256,-1.9174802252393763,0.0,-0.1941438913345337,1.0868380069732666,0.20753991603851318,0.9829967021942139,0.05971980839967728,0.17332060635089874,0.01052961777895689
134.95381524502713,1.6765041812011945,-1.1271427537104621,1.7632506387322877,-2.168521581932337,-1.9178218057039442,0.0,-0.18483290076255798,1.0879234075546265,0.21092748641967773,0.983252763748169,0.05533486604690552,0.17336910963058472,0.009756602346897125
135.17385898833396,1.674365739871075,-1.1352666599982986,1.7747003174697955,-2.172619427631047,-1.9179089340368571,0.0,-0.18169984221458435,1.0808666944503784,0.21208417415618896,0.9833144545555115,0.05421781539916992,0.17338302731513977,0.009559948928654194
135.4411482570148,1.676461079689928,-1.1417548108942117,1.7859651242413352,-2.17663944029506,-1.917823666919414,0.0,-0.1832101047039032,1.0730786323547363,0.21151800453662872,0.9832539558410645,0.0553123839199543,0.17336946725845337,0.009752625599503517
135.77611327770435,1.6849705359582792,-1.1380964041656325,1.7850213863816857,-2.176281694139618,-1.9174768340643094,0.0,-0.1925211250782013,1.0719953775405884,0.20813074707984924,0.9829944968223572,0.05975652113556862,0.1733199954032898,0.010536039248108864
136.0209421250642,1.6918507778990228,-1.137057468160455,1.787215432019682,-2.1770305116355018,-1.9171962537684424,0.0,-0.1998085081577301,1.069109320640564,0.20548349618911743,0.9827684760093689,0.0633484497666359,0.17328673601150513,0.011169873178005219
136.3159413520226,1.692086476536685,-1.1466858104094297,1.8021820279734104,-2.182283707464341,-1.9171858773619672,0.0,-0.1988612711429596,1.059192180633545,0.2058316171169281,0.9827605485916138,0.0634714663028717,0.1732853502035141,0.011191635392606258
136.52295363569212,1.6861384862985391,-1.1521783258739167,1.8073582747641814,-2.1841150105980147,-1.917428547422565,0.0,-0.19208067655563354,1.0570087432861328,0.2082909792661667,0.9829572439193726,0.06036638841032982,0.17331354320049286,0.010643653571605682
136.7874209941615,1.6775124269602735,-1.1558876807907017,1.808306798135209,-2.184468671560817,-1.917780807747891,0.0,-0.182770237326622,1.0581014156341553,0.21167850494384766,0.9832231402397156,0.055861543864011765,0.1733628213405609,0.009849393740296364
136.9830756902969,1.6745892479323639,-1.1635286701614969,1.818350386968133,-2.187926711792624,-1.9179004162540516,0.0,-0.17893776297569275,1.0519615411758423,0.21308976411819458,0.9833080768585205,0.05433458462357521,0.17338186502456665,0.009580463171005249
137.27690139095256,1.676019686315035,-1.1711136773938382,1.8306825803120226,-2.192157443676307,-1.9178421790628908,0.0,-0.17958979308605194,1.0434298515319824,0.21283520758152008,0.9832667708396912,0.0550818145275116,0.1733725219964981,0.00971207581460476
137.61898869476315,1.6847655001575366,-1.1673517985716866,1.829729037990038,-2.191808070223026,-1.9174842267050665,0.0,-0.18890133500099182,1.0423551797866821,0.20944851636886597,0.9830011129379272,0.05964945629239082,0.17332062125205994,0.010517161339521408
137.8215768654873,1.693298528416705,-1.1633199182803564,1.8290139988061167,-2.192045419776786,-1.9171271834771404,0.0,-0.19798648357391357,1.0412425994873047,0.20568537712097168,0.982719898223877,0.06410392373800278,0.17327551543712616,0.011302788741886616
138.02559910423898,1.7001662125993835,-1.1571748997759137,1.8301655794466085,-2.196874695479921,-1.9167772554591225,0.0,-0.20534156262874603,1.0404736995697021,0.1990039050579071,0.98248291015625,0.06768621504306793,0.17321515083312988,0.01193232461810112
138.22502372868203,1.7070338967820622,-1.151029881271471,1.8313171600871003,-2.201703971183056,-1.9164273274411046,0.0,-0.21268947422504425,1.0396091938018799,0.1923191249370575,0.9822313189506531,0.07126709073781967,0.1731608510017395,0.012562342919409275
138.42435410328054,1.713895367068712,-1.1448904227935328,1.8324676987748496,-2.2065288773467193,-1.916077716038741,0.0,-0.22002223134040833,1.038649559020996,0.1856377124786377,0.9819655418395996,0.07484325021505356,0.173112690448761,0.013192305341362953
138.62375663675212,1.7207562063339987,-1.1387515289364847,1.8336181316522606,-2.2113533397834937,-1.9157281367887085,0.0,-0.2273445427417755,1.0375940799713135,0.17895391583442688,0.9816852807998657,0.07841759920120239,0.17307063937187195,0.013822857290506363
138.823113554044,1.7276127822390062,-1.132616449819181,1.8347678496448532,-2.2161748042748672,-1.9153787747689932,0.0,-0.23465116322040558,1.0364439487457275,0.1722719669342041,0.9813908934593201,0.08198809623718262,0.17303480207920074,0.01445338036864996
139.0768619041958,1.734467532089869,-1.126483004605856,1.8359172614427306,-2.2209949847061883,-1.9150295057919235,0.0,-0.24194367229938507,1.0351990461349487,0.1655898094177246,0.981082022190094,0.0855560153722763,0.17300498485565186,0.01508425734937191
139.2527209678411,1.7376247154254927,-1.1188528942733968,1.8292463479845744,-2.22082484150633,-1.9148320796950646,0.0,-0.24612018465995789,1.039395809173584,0.1620291769504547,0.980938196182251,0.08719807863235474,0.17297519743442535,0.015374034643173218
139.48630901779887,1.736938969983701,-1.1096434826189003,1.814412009060675,-2.215456352469686,-1.914792284811024,0.0,-0.2470565140247345,1.0493111610412598,0.1616743803024292,0.9809770584106445,0.08683986961841583,0.17294059693813324,0.015309296548366547
139.68573831748125,1.7363050055387528,-1.1004196599388538,1.7994330208530955,-2.209927892757952,-1.9148295087707128,0.0,-0.24800841510295868,1.0592315196990967,0.16134199500083923,0.9810062050819397,0.08651015162467957,0.1729453206062317,0.015251187607645988
139.8851091487324,1.7356792269813432,-1.091178035233417,1.7843571959120887,-2.204317383541588,-1.9148668727040468,0.0,-0.24895614385604858,1.0691488981246948,0.160996675491333,0.9810349345207214,0.08618471771478653,0.1729504019021988,0.015193856321275234
140.08442171644327,1.7350614766141221,-1.0819181099884332,1.7691822719381025,-2.1986232153620273,-1.91490368663624,0.0,-0.2498999387025833,1.0790632963180542,0.16063931584358215,0.9810630083084106,0.08586341142654419,0.17295533418655396,0.015137292444705963
140.28386129792688,1.73437364921306,-1.0726980548972629,1.7538897221002432,-2.192796972573222,-1.9149443733436085,0.0,-0.2507533133029938,1.0889942646026611,0.16034267842769623,0.9810943007469177,0.08550559729337692,0.17296084761619568,0.015074101276695728
140.48302947338578,1.7333326054637557,-1.063661924009584,1.7386245104162754,-2.186940497093839,-1.9150056234824737,0.0,-0.25118541717529297,1.0989420413970947,0.16018477082252502,0.9811414480209351,0.08496400713920593,0.1729690134525299,0.014978554099798203
140.68233328666446,1.731930475770399,-1.0548149919448948,1.7233895008391433,-2.1810541915359543,-1.9150878927317099,0.0,-0.25117647647857666,1.1089072227478027,0.16017475724220276,0.9812042713165283,0.08423455059528351,0.17298027873039246,0.014850062318146229
140.97149320634708,1.7305655263435251,-1.0459425412128887,1.7080021812252217,-2.17502797375041,-1.9151670190775438,0.0,-0.25118520855903625,1.118878960609436,0.1601845920085907,0.9812649488449097,0.08352428674697876,0.1729908287525177,0.014724746346473694
141.23366129139703,1.744133940637611,-1.0232055175295236,1.6835950523899885,-2.1327137290459555,-1.9604658110441655,0.0,-0.2506712079048157,1.1210561990737915,0.1521148979663849,0.9753879904747009,0.09431237727403641,0.19682355225086212,0.03136555105447769
141.59975333902716,1.7719137004156504,-0.9873044225139922,1.6506524350206244,-2.055893748630753,-2.0487853989858205,0.0,-0.2506757378578186,1.11715829372406,0.13937555253505707,0.9607162475585938,0.11811263114213943,0.24327653646469116,0.062370188534259796
141.96205207198875,1.7996934601936896,-0.9514033274984608,1.6177098176512605,-1.9790737682155513,-2.137104986927475,0.0,-0.2524271309375763,1.115482211112976,0.13024315237998962,0.9418647885322571,0.144449844956398,0.2893586754798889,0.09108514338731766
142.34073577864072,1.8274732199717276,-0.9155022324829309,1.584767200281898,-1.9022537878003525,-2.2254245748691264,0.0,-0.2564765214920044,1.1164592504501343,0.12419971078634262,0.9188407063484192,0.17306731641292572,0.33469194173812866,0.11730590462684631
142.7236613238701,1.8552529797497668,-0.8796011374673995,1.551824582912534,-1.8254338073851502,-2.3137441628107815,0.0,-0.2633892297744751,1.1203702688217163,0.12062157690525055,0.8916867971420288,0.20369285345077515,0.37889766693115234,0.14085520803928375
143.098273119686,1.8830327395278048,-0.8437000424518697,1.5188819655431713,-1.7486138269699514,-2.4020637507524323,0.0,-0.2737204432487488,1.1273326873779297,0.11879996955394745,0.8604814410209656,0.2360410839319229,0.42160022258758545,0.1615845263004303
143.47663484845305,1.910812499305844,-0.8077989474363383,1.4859393481738075,-1.6717938465547493,-2.4903833386940875,0.0,-0.2879908084869385,1.1372928619384766,0.11796274036169052,0.8253380656242371,0.269816517829895,0.4624292552471161,0.17937487363815308
143.9288349482789,1.938592259083883,-0.7718978524208069,1.4529967308044434,-1.5949738661395472,-2.578702926635742,0.0,-0.3066627085208893,1.1500259637832642,0.11729896068572998,0.786405086517334,0.30471667647361755,0.5010243654251099,0.1941370666027069
