Sungjin-Park-dev/lg_sgu_vision_v2/data/sample/trajectory/124/trajectory_dp_ee_s0005.csv
time,ur20-shoulder_pan_joint,ur20-shoulder_lift_joint,ur20-elbow_joint,ur20-wrist_1_joint,ur20-wrist_2_joint,ur20-wrist_3_joint,target-POS_X,target-POS_Y,target-POS_Z,target-ROT_X,target-ROT_Y,target-ROT_Z,target-ROT_W
0.0,1.9927528540240687,-0.6606019178973597,1.445325255393982,-0.784722626209259,-2.7196171283721924,0.0,-0.2849985361099243,1.0089396238327026,0.09099575132131577,0.5000044107437134,0.49999532103538513,0.4999951422214508,0.5000049471855164
1.0,1.9911151293430145,-0.658100684757148,1.4373422667586382,-0.7792407831727179,-2.721254794692307,0.0,-0.28503262996673584,1.0138167142868042,0.09212581813335419,0.5000044107437134,0.49999532103538513,0.49999508261680603,0.5000050067901611
2.0,1.9894774046619603,-0.6555994516169364,1.4293592781232947,-0.7737589401361769,-2.722892461012422,0.0,-0.2850445508956909,1.0186785459518433,0.0932679995894432,0.5000044703483582,0.49999532103538513,0.49999508261680603,0.5000050067901611
3.0,1.987831772200117,-0.6530861412310168,1.4213377434949035,-0.7682506279296011,-2.724538034831529,0.0,-0.28503426909446716,1.0235481262207031,0.09442777186632156,0.5000044107437134,0.49999532103538513,0.4999951422214508,0.5000050067901611
4.0,1.9861857876950137,-0.6505722931831329,1.413314492853206,-0.7627411373528653,-2.726183960681351,0.0,-0.2850014865398407,1.0284029245376587,0.0955999568104744,0.5000044703483582,0.49999529123306274,0.49999499320983887,0.5000051259994507
5.0,1.984590798769351,-0.6479509291757962,1.4051398675603362,-0.7571881663057339,-2.727778945208331,0.0,-0.2850303649902344,1.0332789421081543,0.09673329442739487,0.5000045895576477,0.49999523162841797,0.4999951124191284,0.5000050663948059
6.0,1.9829999441496722,-0.645320848650686,1.396952970044402,-0.751631670216414,-2.7293697998280098,0.0,-0.2850438952445984,1.038141131401062,0.09787435829639435,0.5000045895576477,0.49999526143074036,0.4999951422214508,0.5000048875808716
7.0,1.9814011976367392,-0.6426777208524325,1.3887254590616682,-0.7460476095253622,-2.7309685463409425,0.0,-0.2850351333618164,1.0430107116699219,0.09903302788734436,0.500004768371582,0.4999951422214508,0.4999951422214508,0.500004768371582
8.0,1.979801393812991,-0.6400328450549905,1.3804925069184542,-0.7404598558862955,-2.732568350164691,0.0,-0.28500378131866455,1.0478663444519043,0.100204236805439,0.5000048875808716,0.4999951124191284,0.4999951720237732,0.500004768371582
9.0,1.9782477916195553,-0.6372865370697406,1.3721140118547008,-0.7348277179972563,-2.7341220019444514,0.0,-0.2850278615951538,1.0527411699295044,0.10134077817201614,0.5000048279762268,0.4999951720237732,0.4999951720237732,0.5000047087669373
10.0,1.9767023343565355,-0.6345223475052904,1.3637098588877026,-0.7291877555655519,-2.7356675175354175,0.0,-0.2850433588027954,1.057604193687439,0.10248088091611862,0.5000048279762268,0.4999952018260956,0.4999952018260956,0.5000046491622925
11.0,1.9751491311388776,-0.6317443036030401,1.3552635836380564,-0.7235195251938652,-2.7372207793733656,0.0,-0.28503644466400146,1.0624734163284302,0.10363834351301193,0.500004768371582,0.49999526143074036,0.49999526143074036,0.5000046491622925
12.0,1.973594067720161,-0.6289629325635878,1.3468071926675678,-0.7178445062397069,-2.7387759014825797,0.0,-0.28500688076019287,1.06732976436615,0.10480864346027374,0.500004768371582,0.49999523162841797,0.49999529123306274,0.5000047087669373
13.0,1.9732457604210183,-0.627413582413097,1.3448837679514927,-0.717470396254027,-2.739124147321045,0.0,-0.28501272201538086,1.0684514045715332,0.10393332690000534,0.5000048279762268,0.4999951720237732,0.4999951720237732,0.500004768371582
14.0,1.9747968427992815,-0.630203916664441,1.3533595652410044,-0.7231557859272161,-2.73757303559679,0.0,-0.28503894805908203,1.0635920763015747,0.10276472568511963,0.5000047087669373,0.4999952018260956,0.49999526143074036,0.5000047087669373
15.0,1.9763445729116251,-0.6329882203254393,1.361817044273024,-0.7288288880918181,-2.736025276201879,0.0,-0.28504252433776855,1.0587246417999268,0.10161018371582031,0.5000047087669373,0.49999526143074036,0.49999526143074036,0.500004768371582
16.0,1.9778859807656337,-0.6357611505002678,1.3702399757008612,-0.7344788164374456,-2.734483839184918,0.0,-0.2850238084793091,1.0538586378097534,0.10047200322151184,0.5000047087669373,0.4999952018260956,0.4999952018260956,0.5000047087669373
17.0,1.978506221600157,-0.6368808173421728,1.373563303449968,-0.7366824312259367,-2.7338635780137954,0.0,-0.2850227355957031,1.0519251823425293,0.10005772113800049,0.500004768371582,0.4999951720237732,0.4999951720237732,0.500004768371582
18.0,1.977004022656282,-0.6341912380997741,1.3651367514564714,-0.7309454740792889,-2.735365776957671,0.0,-0.285091757774353,1.0567716360092163,0.10129646956920624,0.5000047087669373,0.49999523162841797,0.49999523162841797,0.500004768371582
19.0,1.9754988570315497,-0.6314963472285231,1.3566935579318433,-0.7251971870611789,-2.736870942582403,0.0,-0.28513872623443604,1.0616090297698975,0.10255011916160583,0.5000047087669373,0.4999952018260956,0.4999952018260956,0.5000047087669373
20.0,1.9739876467996529,-0.6287906339225842,1.3482164573160402,-0.7194258154493715,-2.7383821528142995,0.0,-0.28516364097595215,1.0664470195770264,0.10382112860679626,0.500004768371582,0.4999951720237732,0.4999951720237732,0.500004768371582
21.0,1.972473082377697,-0.626078915180418,1.339720541444745,-0.7136416340531418,-2.7398967172362556,0.0,-0.28516626358032227,1.0712770223617554,0.10510723292827606,0.500004768371582,0.4999951422214508,0.4999952018260956,0.5000047087669373
22.0,1.9709527462834844,-0.6233568626738998,1.3311922495046475,-0.7078354104124164,-2.7414170533304683,0.0,-0.2851465940475464,1.0761057138442993,0.10641056299209595,0.5000047087669373,0.49999526143074036,0.4999952018260956,0.5000047087669373
23.0,1.969428531319771,-0.6206278653303245,1.3226421991312511,-0.7020143732157419,-2.7429412682941816,0.0,-0.2851043939590454,1.0809271335601807,0.10772950947284698,0.5000047087669373,0.4999952018260956,0.4999952018260956,0.500004768371582
24.0,1.9678989079052114,-0.617889184544227,1.3140618101715793,-0.6961726809314959,-2.7444708917087413,0.0,-0.28503942489624023,1.0857458114624023,0.10906551778316498,0.500004768371582,0.4999951720237732,0.49999523162841797,0.500004768371582
25.0,1.966402660428462,-0.6150010190869172,1.3053358801893327,-0.6903349041744407,-2.7459671606170843,0.0,-0.2850162982940674,1.090588927268982,0.11030617356300354,0.500004768371582,0.4999952018260956,0.4999952018260956,0.500004768371582
26.0,1.9649426288396545,-0.6119506493454161,1.2964520251356002,-0.6845013761157975,-2.7474272368926873,0.0,-0.2850402593612671,1.095458984375,0.11144164204597473,0.500004768371582,0.4999951720237732,0.4999951720237732,0.500004768371582
27.0,1.9634777990785903,-0.6088902550266533,1.2875389746403592,-0.6786486770524278,-2.7488921114874034,0.0,-0.2850416898727417,1.1003235578536987,0.1125919297337532,0.500004768371582,0.49999523162841797,0.49999523162841797,0.500004768371582
28.0,1.9620067231606273,-0.6058168109299606,1.27858791815062,-0.6727710215896167,-2.750363232430193,0.0,-0.28501999378204346,1.1051870584487915,0.11375827342271805,0.5000047087669373,0.49999526143074036,0.49999526143074036,0.5000047087669373
29.0,1.960556486588788,-0.6026902225030969,1.2695558385647532,-0.666865510290918,-2.7518134895208144,0.0,-0.28501343727111816,1.110050082206726,0.11491402983665466,0.5000047087669373,0.4999952018260956,0.4999952018260956,0.5000047087669373
30.0,1.9591369100990397,-0.5994854449854595,1.2604045529940238,-0.6609190158342083,-2.7532330504745994,0.0,-0.28503942489624023,1.1149219274520874,0.11604854464530945,0.500004768371582,0.49999523162841797,0.4999951720237732,0.500004768371582
31.0,1.9577130626400623,-0.5962710255032909,1.251225734663094,-0.654954630622736,-2.7546568823508712,0.0,-0.28504234552383423,1.1197853088378906,0.11719737946987152,0.500004768371582,0.4999952018260956,0.4999952018260956,0.500004768371582
32.0,1.9562815779101794,-0.5930393644323311,1.2419976827420467,-0.6489582534830853,-2.7560883514144656,0.0,-0.2850222587585449,1.1246507167816162,0.11836321651935577,0.500004768371582,0.4999952018260956,0.4999952018260956,0.500004768371582
33.0,1.9548668669716278,-0.5897624398365722,1.2326992233330922,-0.6429367371408806,-2.757503037770876,0.0,-0.28501033782958984,1.1295109987258911,0.11952203512191772,0.500004768371582,0.49999523162841797,0.49999523162841797,0.500004768371582
34.0,1.9534862610189123,-0.5863934840570644,1.2232576092651566,-0.636864107002748,-2.7588836010134647,0.0,-0.2850383520126343,1.1343852281570435,0.12065549194812775,0.5000047087669373,0.49999523162841797,0.4999951720237732,0.500004768371582
35.0,1.9521020388665207,-0.5830157040241384,1.2137912649244997,-0.6307755709190458,-2.7602677803438596,0.0,-0.28504323959350586,1.1392467021942139,0.12180256843566895,0.500004768371582,0.4999951720237732,0.4999951720237732,0.500004768371582
36.0,1.950708645561734,-0.5796155445376063,1.204262201397891,-0.6246466952899957,-2.7616611305429326,0.0,-0.2850245237350464,1.14411461353302,0.12296779453754425,0.500004768371582,0.4999952018260956,0.4999951422214508,0.5000048279762268
37.0,1.9493281038782388,-0.5761786376074421,1.1946747071843065,-0.6184961403010172,-2.763041640099443,0.0,-0.2850067913532257,1.1489719152450562,0.12412998825311661,0.500004768371582,0.4999952018260956,0.49999526143074036,0.5000047087669373
38.0,1.9479851698138095,-0.5726341968626414,1.1849162276166054,-0.6122821451365713,-2.764384574163872,0.0,-0.28503739833831787,1.153848648071289,0.12526249885559082,0.5000048875808716,0.4999951422214508,0.4999952018260956,0.500004768371582
39.0,1.946639384644484,-0.569082231122661,1.1751370303907471,-0.606054957401837,-2.765730359333198,0.0,-0.28504419326782227,1.158707857131958,0.1264077126979828,0.5000048279762268,0.4999951422214508,0.4999952018260956,0.5000046491622925
40.0,1.9452826651520516,-0.5655014061398,1.1652783785055325,-0.5997771746060986,-2.7670870788256305,0.0,-0.28502702713012695,1.1635782718658447,0.12757247686386108,0.5000048279762268,0.4999951124191284,0.4999951124191284,0.500004768371582
41.0,1.9439305394088953,-0.5618066593311682,1.1553525190535585,-0.5935460847116776,-2.7684392074721247,0.0,-0.2850031852722168,1.1684479713439941,0.12863650918006897,0.5000048875808716,0.4999952018260956,0.49999526143074036,0.5000046491622925
42.0,1.9425993754720239,-0.5575920741291462,1.1451199837447743,-0.5875280598962209,-2.7697703875605995,0.0,-0.28503501415252686,1.1734150648117065,0.12920032441616058,0.5000047087669373,0.4999951720237732,0.4999951720237732,0.500004768371582
43.0,1.9412591889456836,-0.5533489225943032,1.1348180926168003,-0.5814692450880218,-2.7711105903480178,0.0,-0.2850419282913208,1.1783853769302368,0.129774808883667,0.500004768371582,0.4999952018260956,0.4999952018260956,0.500004768371582
44.0,1.9399116010583641,-0.5490823376824039,1.1244593079046086,-0.575376969657276,-2.7724581945862194,0.0,-0.28502392768859863,1.1833516359329224,0.13035891950130463,0.500004768371582,0.4999952018260956,0.4999951422214508,0.5000048279762268
45.0,1.9375468953720771,-0.5401434778361355,1.1054112846784716,-0.5617287283870305,-2.765653417511985,0.0,-0.28489625453948975,1.1882938146591187,0.13047479093074799,0.5011455416679382,0.49820011854171753,0.4971933364868164,0.5034365653991699
46.0,1.9321730914803015,-0.5174894638457408,1.060721038299672,-0.5259456061309358,-2.73540947046792,0.0,-0.28456243872642517,1.1931626796722412,0.12943962216377258,0.5054308772087097,0.49104467034339905,0.4862666130065918,0.5166812539100647
47.0,1.9259571325235667,-0.491285228632561,1.0090271650487077,-0.48455473594527043,-2.7004258467068647,0.0,-0.28427988290786743,1.1980926990509033,0.128600612282753,0.5100967884063721,0.48240774869918823,0.4735463559627533,0.531825065612793
48.0,1.9216509771359735,-0.4728740537841528,0.9730863847869548,-0.4554481473900822,-2.6747364074486453,0.0,-0.28421103954315186,1.2004870176315308,0.12808537483215332,0.513294517993927,0.4758763313293457,0.4642382264137268,0.542727530002594
49.0,1.925676579228142,-0.48887437612830364,1.0060778072769792,-0.48062652842333875,-2.6919237783649757,0.0,-0.2844703793525696,1.195497989654541,0.12779778242111206,0.5110456347465515,0.48050469160079956,0.4708367884159088,0.5350330471992493
50.0,1.929476416902348,-0.5039773660042836,1.0372189998819623,-0.5043928517298096,-2.708147244577764,0.0,-0.2846705913543701,1.1905031204223633,0.1276244819164276,0.508847713470459,0.4847849905490875,0.4770422577857971,0.5277196764945984
51.0,1.9330788720043928,-0.5182958310545638,1.0667425632028684,-0.5269246333460166,-2.7235279828203063,0.0,-0.2848183512687683,1.1855120658874512,0.12754951417446136,0.5066969990730286,0.4887632429599762,0.4829040467739105,0.5207419991493225
52.0,1.9365246868832882,-0.5319917074820577,1.094982397118202,-0.5484766988518656,-2.738239943187131,0.0,-0.2849191725254059,1.1805049180984497,0.12755995988845825,0.5045789480209351,0.4924953877925873,0.4884907305240631,0.5140282511711121
53.0,1.939814266008524,-0.5450666029077041,1.1219418164175312,-0.5690515780271751,-2.752284852567033,0.0,-0.2849771976470947,1.1755129098892212,0.1276455670595169,0.502501904964447,0.4959910809993744,0.49380505084991455,0.5075837969779968
54.0,1.9429794471789588,-0.5576470611460178,1.147881744622168,-0.5888484023838437,-2.7657986429387846,0.0,-0.28499603271484375,1.1705149412155151,0.12779822945594788,0.5004525780677795,0.4992923140525818,0.49890029430389404,0.5013508796691895
55.0,1.944720816455152,-0.5631708828677071,1.1612110558746023,-0.5980401709688667,-2.767648973575823,0.0,-0.2850261926651001,1.1656208038330078,0.12692058086395264,0.500004768371582,0.4999951720237732,0.49999523162841797,0.500004768371582
56.0,1.9460724954127597,-0.5667609056440749,1.171087263937013,-0.604326429677415,-2.7662973533562196,0.0,-0.28504419326782227,1.1607575416564941,0.1257566213607788,0.5000048279762268,0.4999952018260956,0.4999952018260956,0.500004768371582
57.0,1.9474182048839548,-0.5703350736258819,1.1809198552149003,-0.6105849260717416,-2.7649517023636214,0.0,-0.2850383520126343,1.1558871269226074,0.12460825592279434,0.500004768371582,0.49999523162841797,0.49999523162841797,0.5000047087669373
58.0,1.9487553982951011,-0.573886623182383,1.1906902228557026,-0.6168038167917008,-2.7636145670610017,0.0,-0.2850087881088257,1.1510196924209595,0.12347742915153503,0.500004768371582,0.49999523162841797,0.49999529123306274,0.5000046491622925
59.0,1.9501298000195824,-0.577339928479331,1.2003092546534964,-0.6229694918902067,-2.7622401823766785,0.0,-0.28502368927001953,1.1461635828018188,0.12231745570898056,0.500004768371582,0.49999526143074036,0.4999952018260956,0.5000047087669373
60.0,1.9515196402817379,-0.5807524700983144,1.2098654939217626,-0.6291130866710891,-2.760850342114523,0.0,-0.28504323959350586,1.1412967443466187,0.12115177512168884,0.500004768371582,0.4999952018260956,0.4999952018260956,0.5000046491622925
61.0,1.9529007369152167,-0.5841435430654153,1.2193616139015153,-0.6352180314624963,-2.7594692454810446,0.0,-0.2850393056869507,1.1364346742630005,0.12000380456447601,0.5000046491622925,0.49999526143074036,0.49999526143074036,0.5000047087669373
62.0,1.9542776954329406,-0.5875244555179434,1.2288292810976285,-0.6413046842911174,-2.7580922869633206,0.0,-0.28501200675964355,1.131561517715454,0.11887002736330032,0.5000047087669373,0.49999529123306274,0.49999529123306274,0.5000047087669373
63.0,1.95568676291806,-0.5908182723136264,1.2381612383170724,-0.6473428243116358,-2.7566831551323654,0.0,-0.28502118587493896,1.1266998052597046,0.11771274358034134,0.500004768371582,0.4999952018260956,0.4999952018260956,0.5000046491622925
64.0,1.9571145430653247,-0.5940613309649952,1.247414105638924,-0.6533526917385032,-2.755255273139402,0.0,-0.2850421667098999,1.1218351125717163,0.1165463775396347,0.5000047087669373,0.4999952018260956,0.49999526143074036,0.500004768371582
65.0,1.958535093290899,-0.5972879675781876,1.2566201187540722,-0.6593321266993162,-2.7538346215838505,0.0,-0.2850397825241089,1.1169713735580444,0.11539682745933533,0.500004768371582,0.4999951720237732,0.4999951720237732,0.500004768371582
66.0,1.9599508819965694,-0.6005037888789893,1.2657952743790073,-0.6652915192863592,-2.752418731887849,0.0,-0.28501462936401367,1.1121002435684204,0.11426208168268204,0.5000048279762268,0.4999951124191284,0.4999951720237732,0.500004768371582
67.0,1.9613953947136322,-0.6036461593910171,1.2748583411639234,-0.6712122659070882,-2.750974207124539,0.0,-0.28501856327056885,1.1072361469268799,0.1131080687046051,0.5000048279762268,0.4999951422214508,0.4999951422214508,0.5000048279762268
68.0,1.9628627650127857,-0.6067300802871088,1.2838322114982743,-0.6771022593946477,-2.749506895557786,0.0,-0.2850409746170044,1.1023733615875244,0.11194127798080444,0.5000048279762268,0.4999951422214508,0.4999952018260956,0.5000047087669373
69.0,1.9643242492420907,-0.6098016306358256,1.292770084901495,-0.682968626321757,-2.7480454698252883,0.0,-0.28504061698913574,1.097508192062378,0.11079016327857971,0.5000048875808716,0.4999951124191284,0.4999951720237732,0.5000047087669373
70.0,1.9657804539863297,-0.6128620852752154,1.3016756710119726,-0.6888138015069643,-2.7465893233665417,0.0,-0.28501760959625244,1.0926388502120972,0.10965431481599808,0.5000048279762268,0.4999951720237732,0.49999523162841797,0.5000047087669373
71.0,1.963472336496854,-0.6192898341773877,1.3103005455968237,-0.7088188971983949,-2.739800669376749,0.0,-0.28199005126953125,1.0894014835357666,0.11026137322187424,0.5080814361572266,0.4953131675720215,0.5000790357589722,0.49642622470855713
72.0,1.9571170912767186,-0.6293378549750263,1.318623619398123,-0.7440477180086268,-2.72727888794384,0.0,-0.27585718035697937,1.088005781173706,0.11261730641126633,0.5247001647949219,0.4854964017868042,0.5000399947166443,0.48881784081459045
73.0,1.9507618460565834,-0.639385875772665,1.326946693199422,-0.779276538818859,-2.714757106510931,0.0,-0.2698689103126526,1.0867152214050293,0.11482531577348709,0.5411199331283569,0.4755495488643646,0.4997166395187378,0.4809626638889313
74.0,1.944406600836448,-0.6494338965703037,1.3352697670007212,-0.814505359629091,-2.7022353250780218,0.0,-0.264026403427124,1.0855419635772705,0.11689606308937073,0.5573313236236572,0.46547991037368774,0.49911245703697205,0.47286030650138855
75.0,1.9380513556163128,-0.6594819173679423,1.3435928408020203,-0.8497341804393228,-2.6897135436451127,0.0,-0.25832992792129517,1.084498405456543,0.11884109675884247,0.5733250379562378,0.4552948772907257,0.4982317388057709,0.4645104706287384
76.0,1.9316961103961774,-0.6695299381655809,1.3519159146033195,-0.8849630012495547,-2.6771917622122032,0.0,-0.2527797222137451,1.0835955142974854,0.12067260593175888,0.5890920758247375,0.44500184059143066,0.497078537940979,0.45591309666633606
77.0,1.9253408651760422,-0.6795779589632196,1.3602389884046187,-0.9201918220597867,-2.664669980779294,0.0,-0.2473757266998291,1.0828442573547363,0.12240324914455414,0.6046232581138611,0.4346083402633667,0.49565738439559937,0.44706809520721436
78.0,1.9189856199559068,-0.6896259797608583,1.3685620622059178,-0.9554206428700186,-2.652148199346385,0.0,-0.2421165108680725,1.082255244255066,0.12404613196849823,0.6199098229408264,0.42412203550338745,0.4939728081226349,0.437976211309433
79.0,1.9126303747357716,-0.6996740005584968,1.376885136007217,-0.9906494636802505,-2.639626417913476,0.0,-0.23700103163719177,1.0818376541137695,0.1256151646375656,0.6349431276321411,0.4135504364967346,0.49202942848205566,0.4286375343799591
80.0,1.9062751295156364,-0.7097220213561355,1.3852082098085161,-1.0258782844904824,-2.627104636480567,0.0,-0.2320275604724884,1.0816010236740112,0.1271245926618576,0.6497146487236023,0.40290141105651855,0.4898323714733124,0.41905295848846436
81.0,1.899919884295501,-0.7197700421537742,1.393531283609815,-1.0611071053007142,-2.614582855047658,0.0,-0.2271937131881714,1.0815529823303223,0.12858900427818298,0.664216160774231,0.3921828269958496,0.48738670349121094,0.40922337770462036
82.0,1.8935646390753658,-0.7298180629514128,1.4018543574111142,-1.0963359261109462,-2.602061073614749,0.0,-0.22249677777290344,1.0817009210586548,0.1300238072872162,0.6784393191337585,0.3814023435115814,0.4846976697444916,0.39914971590042114
83.0,1.8872093938552303,-0.7398660837490514,1.4101774312124133,-1.131564746921178,-2.58953929218184,0.0,-0.21793389320373535,1.0820527076721191,0.13144433498382568,0.6923764944076538,0.3705679178237915,0.48177072405815125,0.3888331651687622
84.0,1.8808541486350951,-0.74991410454669,1.4185005050137125,-1.16679356773141,-2.577017510748931,0.0,-0.21350117027759552,1.0826128721237183,0.13286644220352173,0.7060196399688721,0.3596873879432678,0.47861146926879883,0.3782752752304077
85.0,1.8744989034149597,-0.7599621253443287,1.4268235788150117,-1.202022388541642,-2.5644957293160213,0.0,-0.20919495820999146,1.0833876132965088,0.1343061476945877,0.7193614840507507,0.3487689197063446,0.475225567817688,0.36747780442237854
86.0,1.8681436581948245,-0.7700101461419673,1.4351466526163108,-1.2372512093518737,-2.5519739478831123,0.0,-0.20501121878623962,1.084380030632019,0.13577988743782043,0.7323944568634033,0.3378203213214874,0.4716190695762634,0.35644248127937317
87.0,1.8617884129746893,-0.780058166939606,1.44346972641761,-1.2724800301621058,-2.539452166450203,0.0,-0.2009449154138565,1.085593819618225,0.1373041570186615,0.7451116442680359,0.3268495500087738,0.46779772639274597,0.34517133235931396
88.0,1.855433167754554,-0.7901061877372447,1.451792800218909,-1.307708850972338,-2.526930385017294,0.0,-0.19699156284332275,1.0870314836502075,0.1388958841562271,0.7575058937072754,0.31586483120918274,0.4637680947780609,0.33366650342941284
89.0,1.8490779225344185,-0.8001542085348834,1.4601158740202083,-1.34293767178257,-2.514408603584385,0.0,-0.19314569234848022,1.0886942148208618,0.14057159423828125,0.7695705890655518,0.3048740327358246,0.4595361351966858,0.32193055748939514
90.0,1.8427226773142833,-0.810202229332522,1.4684389478215074,-1.3781664925928019,-2.501886822151476,0.0,-0.18940185010433197,1.0905826091766357,0.14234842360019684,0.7812991738319397,0.2938852906227112,0.45510855317115784,0.309966117143631
91.0,1.8363674320941479,-0.8202502501301606,1.4767620216228066,-1.4133953134030337,-2.4893650407185666,0.0,-0.1857547163963318,1.092695713043213,0.14424297213554382,0.7926856279373169,0.28290653228759766,0.45049169659614563,0.29777583479881287
92.0,1.8300121868740127,-0.8302982709277993,1.4850850954241057,-1.4486241342132655,-2.4768432592856575,0.0,-0.18219804763793945,1.0950326919555664,0.14627215266227722,0.8037235736846924,0.27194592356681824,0.44569236040115356,0.28536292910575867
93.0,1.8236569416538773,-0.8403462917254378,1.4934081692254049,-1.4838529550234976,-2.4643214778527485,0.0,-0.17872580885887146,1.0975902080535889,0.14845284819602966,0.814407467842102,0.2610113024711609,0.44071701169013977,0.27273041009902954
94.0,1.817301696433742,-0.8503943125230765,1.501731243026704,-1.5190817758337296,-2.4517996964198394,0.0,-0.17533209919929504,1.1003655195236206,0.150801420211792,0.8247315287590027,0.25011083483695984,0.4355730414390564,0.2598818242549896
95.0,1.8109464512136069,-0.8604423333207152,1.5100543168280032,-1.5543105966439614,-2.4392779149869304,0.0,-0.17201027274131775,1.103353500366211,0.15333442389965057,0.8346903920173645,0.23925238847732544,0.4302670359611511,0.24682071805000305
96.0,1.8045912059934714,-0.8704903541183537,1.5183773906293023,-1.5895394174541932,-2.4267561335540213,0.0,-0.16875404119491577,1.1065491437911987,0.1560680866241455,0.8442789912223816,0.22844386100769043,0.424806147813797,0.2335508018732071
97.0,1.7982359607733363,-0.8805383749159925,1.5267004644306013,-1.624768238264425,-2.4142343521211123,0.0,-0.1655571162700653,1.1099454164505005,0.15901820361614227,0.8534924983978271,0.2176932692527771,0.4191974997520447,0.22007602453231812
98.0,1.7918807155532008,-0.8905863957136311,1.5350235382319004,-1.659997059074657,-2.401712570688203,0.0,-0.16241270303726196,1.1135351657867432,0.1622002124786377,0.8623262047767639,0.20700837671756744,0.41344839334487915,0.2064007669687271
99.0,1.7855254703330656,-0.9006344165112697,1.5433466120331996,-1.695225879884889,-2.389190789255294,0.0,-0.15931451320648193,1.1173099279403687,0.1656293272972107,0.8707758784294128,0.19639700651168823,0.40756598114967346,0.19252920150756836
100.0,1.7791702251129302,-0.9106824373089084,1.5516696858344987,-1.730454700695121,-2.3766690078223847,0.0,-0.15625619888305664,1.1212600469589233,0.16932043433189392,0.8788371086120605,0.18586698174476624,0.4015578329563141,0.1784658432006836
101.0,1.772814979892795,-0.9207304581065472,1.559992759635798,-1.7656835215053532,-2.3641472263894756,0.0,-0.15323130786418915,1.125375747680664,0.17328761518001556,0.8865060806274414,0.17542585730552673,0.3954312205314636,0.16421541571617126
102.0,1.7664597346726598,-0.9307784789041856,1.568315833437097,-1.8009123423155848,-2.3516254449565666,0.0,-0.15023350715637207,1.1296449899673462,0.17754480242729187,0.8937792778015137,0.16508132219314575,0.3891937732696533,0.1497829258441925
103.0,1.7601044894525244,-0.9408264997018244,1.5766389072383962,-1.836141163125817,-2.3391036635236575,0.0,-0.14725710451602936,1.134055733680725,0.18210481107234955,0.9006531238555908,0.15484100580215454,0.38285282254219055,0.13517339527606964
104.0,1.7518448547890806,-0.9512085517117606,1.5833411546243084,-1.8577693693434107,-2.317400200924649,0.0,-0.14398202300071716,1.1345272064208984,0.18535324931144714,0.9078789949417114,0.14529430866241455,0.3722582757472992,0.12676402926445007
105.0,1.7414898934716672,-0.9623785510815855,1.588906335213997,-1.8682273579323145,-2.286447212429903,0.0,-0.1405538022518158,1.1315878629684448,0.18750998377799988,0.9157547950744629,0.13592804968357086,0.3573288321495056,0.12342076003551483
106.0,1.7305067700885453,-0.9742261550955061,1.5948091158417836,-1.8793197585208183,-2.253616525641875,0.0,-0.13730421662330627,1.1287381649017334,0.19000980257987976,0.9237198233604431,0.12611694633960724,0.341375470161438,0.11957783252000809
107.0,1.7188928709172282,-0.9867541832018658,1.6010509012292504,-1.8910492108367882,-2.218900327636925,0.0,-0.13427773118019104,1.1260275840759277,0.19291171431541443,0.93170565366745,0.1158905178308487,0.3243856728076935,0.11518563330173492
108.0,1.7067429001299195,-0.9998604770717815,1.6075807934729915,-1.9033200684435192,-2.1825817075607077,0.0,-0.13153579831123352,1.1235252618789673,0.19625484943389893,0.939578652381897,0.10536673665046692,0.30649325251579285,0.11023437231779099
109.0,1.6942659989269377,-1.013319434020303,1.6142863915207146,-1.9159211092785278,-2.1452858290395085,0.0,-0.12914134562015533,1.121308445930481,0.20004022121429443,0.9471502304077148,0.09475819766521454,0.2880089581012726,0.10477626323699951
110.0,1.6760265177860125,-1.0309508848919444,1.6295348149259836,-1.9400567004096296,-2.0887239135346425,0.0,-0.12678901851177216,1.1163620948791504,0.20031921565532684,0.957438588142395,0.07976102083921432,0.2598617672920227,0.09706376492977142
111.0,1.6517061680343867,-1.0529601785112934,1.6538648360955555,-1.9764341621569237,-2.0118067508169544,0.0,-0.12539607286453247,1.1093685626983643,0.19786977767944336,0.9694830775260925,0.06057998538017273,0.2213498055934906,0.08623648434877396
112.0,1.627385818282761,-1.0749694721306424,1.6781948572651273,-2.0128116239042173,-1.9348895880992663,0.0,-0.12543419003486633,1.1038572788238525,0.19736281037330627,0.9794772267341614,0.042304471135139465,0.1826229840517044,0.07405028492212296
113.0,1.6030654685311359,-1.096978765749991,1.7025248784346985,-2.0491890856515105,-1.85797242538158,0.0,-0.12663927674293518,1.0997233390808105,0.19893664121627808,0.9874340891838074,0.025025786831974983,0.14380192756652832,0.06056782230734825
114.0,1.57874511877951,-1.11898805936934,1.72685489960427,-2.0855665473988045,-1.7810552626638916,0.0,-0.1287570297718048,1.096827507019043,0.20270323753356934,0.9933744668960571,0.008830956183373928,0.10500530898571014,0.045857664197683334
115.0,1.554424769027885,-1.1409973529886883,1.7511849207738415,-2.1219440091460973,-1.7041380999462052,0.0,-0.1315472275018692,1.0949978828430176,0.20874759554862976,0.9973263144493103,-0.006197634618729353,0.06634914875030518,0.029994217678904533
116.0,1.5301044192762592,-1.1630066466080373,1.775514941943413,-2.1583214708933913,-1.627220937228517,0.0,-0.13478687405586243,1.0940362215042114,0.21712535619735718,0.999324381351471,-0.019982587546110153,0.02794651873409748,0.013057593256235123
117.0,1.5124698770230023,-1.1778380964617394,1.791308387263848,-2.184266661308395,-1.5707963705062866,0.0,-0.13747745752334595,1.095080852508545,0.22477996349334717,0.9995747208595276,-0.02915908396244049,2.0025217040142707e-08,3.8286685821731226e-08
118.0,1.51324411964831,-1.1729059827061126,1.7835971192875495,-2.1814875070877235,-1.5707963705062866,0.0,-0.13803265988826752,1.1000527143478394,0.2247999757528305,-0.9995859861373901,0.02877211384475231,-2.446821945056854e-08,9.460231353841664e-08
119.0,1.5140193517201257,-1.1679675659356754,1.7758759966650144,-2.1787048012356256,-1.5707963705062866,0.0,-0.13859710097312927,1.1050180196762085,0.22480356693267822,0.9995970129966736,-0.028384661301970482,2.0751146578845692e-08,5.87697748244409e-08
120.0,1.5147973126535694,-1.1630117656532335,1.768127695245298,-2.175912300098351,-1.5707963705062866,0.0,-0.13917206227779388,1.109987497329712,0.22479109466075897,-0.9996079802513123,0.027995839715003967,-2.3725732489765505e-08,6.375687888748871e-08
121.0,1.5155666566157047,-1.1580610940373,1.7603581779785675,-2.173093442415985,-1.5707963705062866,0.0,-0.13974562287330627,1.1149518489837646,0.2247801125049591,-0.9996187090873718,0.027611300349235535,-2.3980012642255133e-08,6.908629757162998e-08
122.0,1.5163133216827056,-1.1531239204922958,1.7525328229989785,-2.1702052172840984,-1.5707963705062866,0.0,-0.1403011828660965,1.1199238300323486,0.22479945421218872,0.9996289014816284,-0.027238136157393456,2.0287899360482697e-08,3.0814902629572316e-08
123.0,1.5170610419631847,-1.1481797695590377,1.744696408950993,-2.167312910410315,-1.5707963705062866,0.0,-0.1408657729625702,1.1248888969421387,0.22480277717113495,0.9996390342712402,-0.0268644317984581,2.1476763478744942e-08,2.615744598699621e-08
124.0,1.517811548442764,-1.1432171954410117,1.736830794398033,-2.1644098260532676,-1.5707963705062866,0.0,-0.14144080877304077,1.1298584938049316,0.2247905731201172,0.9996490478515625,-0.026489295065402985,2.1085826418243414e-08,3.583861030165281e-08
125.0,1.5185535100277863,-1.1382589424562324,1.7289426298135842,-2.161479886970275,-1.5707963665540898,0.0,-0.14201398193836212,1.1348228454589844,0.22478002309799194,0.9996588230133057,-0.0261184424161911,2.0679662426914547e-08,4.0374779075591505e-08
126.0,1.5192739594843507,-1.1333115681046362,1.720997694584292,-2.1584823399945954,-1.5707963526520732,0.0,-0.142569899559021,1.1397948265075684,0.224798783659935,0.9996681213378906,-0.02575831301510334,1.9591787747685885e-08,1.006777878842513e-07
127.0,1.5199955349038599,-1.1283564616905877,1.7130403425191172,-2.155480108267213,-1.5707963387283297,0.0,-0.14313462376594543,1.1447596549987793,0.2248021960258484,0.9996773600578308,-0.02539764530956745,2.0810819734151664e-08,3.45677655388954e-08
128.0,1.5207199591646867,-1.1233817920936695,1.7050515741491044,-2.152466023472834,-1.570796324749614,0.0,-0.14370961487293243,1.1497297286987305,0.22478991746902466,0.9996864795684814,-0.025035543367266655,2.0881428142160985e-08,3.479971155684325e-08
129.0,1.5211579060275602,-1.1172485319374625,1.6945096396169155,-2.1441962626611257,-1.5709996755042097,0.0,-0.14388518035411835,1.1546746492385864,0.22456413507461548,0.9996901154518127,-0.024816444143652916,5.370597864384763e-05,0.00193249830044806
130.0,1.5209037463849788,-1.1082647046425271,1.6777053364352743,-2.1231229706077093,-1.57169768997482,0.0,-0.14307814836502075,1.1595607995986938,0.223870187997818,0.9996522665023804,-0.024938950315117836,0.0002370945003349334,0.008565498515963554
131.0,1.5206444604487734,-1.0990996773108235,1.6605620974911333,-2.101624639072839,-1.5724097831051806,0.0,-0.14225725829601288,1.1644470691680908,0.22319385409355164,0.9995683431625366,-0.025058019906282425,0.0004223303112667054,0.015331792645156384
132.0,1.520379781332441,-1.0897440162563978,1.6430622770179737,-2.0796791395345924,-1.5731366878623319,0.0,-0.1414218544960022,1.1693323850631714,0.22253674268722534,0.9994354844093323,-0.025173373520374298,0.0006095562712289393,0.02223826013505459
133.0,1.520109384478775,-1.080186249296406,1.6251844162285398,-2.057259561785146,-1.5738792955979632,0.0,-0.14057114720344543,1.1742165088653564,0.22190052270889282,0.9992507100105286,-0.025284767150878906,0.0007987494464032352,0.029292918741703033
134.0,1.5198329635765528,-1.0704155491921328,1.6069082627074607,-2.0343405084569754,-1.5746384475536808,0.0,-0.13970428705215454,1.1790986061096191,0.2212870866060257,0.9990103244781494,-0.025391893461346626,0.0009900601580739021,0.03650318831205368
135.0,1.5195499556385095,-1.0604120159299095,1.588196593359053,-2.0108753002466906,-1.575415689896507,0.0,-0.13882002234458923,1.1839805841445923,0.2206983119249344,0.9987105131149292,-0.025494452565908432,0.001183559070341289,0.04388337582349777
136.0,1.5192593215338248,-1.050138919162909,1.5689807038478714,-1.9867777790726064,-1.576213876456192,0.0,-0.13791534304618835,1.1888723373413086,0.2201354056596756,0.9983460903167725,-0.025592276826500893,0.0013797297142446041,0.051459912210702896
137.0,1.5189613411585552,-1.0396061524281437,1.549279100094616,-1.9620711521256096,-1.5770322385367468,0.0,-0.13699138164520264,1.1937600374221802,0.21960243582725525,0.9979128837585449,-0.025684677064418793,0.001578211784362793,0.05922499671578407
138.0,1.5186555863104905,-1.0287985799838966,1.5290634706030448,-1.936719915617037,-1.577871952136596,0.0,-0.1360473334789276,1.1986405849456787,0.21910278499126434,0.9974057078361511,-0.025771118700504303,0.001778970705345273,0.06718891859054565
139.0,1.5183409615029897,-1.0176774794638448,1.5082613849532227,-1.910633238800957,-1.578736025858993,0.0,-0.1350802630186081,1.2035208940505981,0.21863871812820435,0.9968177080154419,-0.025851178914308548,0.001982465386390686,0.07537955045700073
140.0,1.5180161721529686,-1.0061970910033193,1.4867872490420793,-1.883703783127681,-1.5796280150981667,0.0,-0.1340866982936859,1.2084094285964966,0.21821406483650208,0.9961404204368591,-0.025924380868673325,0.0021890674252063036,0.08382924646139145
141.0,1.517465939089392,-1.0051721248428653,1.4834831462191715,-1.8748142918999346,-1.580049773301808,0.0,-0.13332195580005646,1.2072796821594238,0.2186148762702942,0.9958510994911194,-0.02615801990032196,0.0022869606036692858,0.08712731301784515
142.0,1.5167778199182191,-1.0107935193918127,1.4917439058821387,-1.8774600456363555,-1.5801690515209543,0.0,-0.13271400332450867,1.2023930549621582,0.21949513256549835,0.9958420991897583,-0.026495449244976044,0.0023164895828813314,0.0871264860033989
143.0,1.5160924054453104,-1.0163928186748303,1.4999721960786871,-1.8800954000613808,-1.5802878609091107,0.0,-0.1321161538362503,1.197506308555603,0.22035124897956848,0.995833158493042,-0.026831600815057755,0.002345836255699396,0.08712568879127502
144.0,1.5154079629684638,-1.021984177511492,1.508188817619283,-1.8827270172526234,-1.5804065018119753,0.0,-0.1315268725156784,1.1926075220108032,0.22118550539016724,0.9958239793777466,-0.027167271822690964,0.002375224372372031,0.08712492138147354
145.0,1.5153435959243666,-1.0356128938355897,1.5344986080953293,-1.9185927541751253,-1.579143908697212,0.0,-0.13221414387226105,1.1876981258392334,0.22128573060035706,0.9967646598815918,-0.027328643947839737,0.0020679619628936052,0.07555843889713287
146.0,1.515389703062887,-1.0499308870299935,1.5625844674554146,-1.9583607029147967,-1.577707428353785,0.0,-0.13310013711452484,1.1827772855758667,0.22143596410751343,0.9976617693901062,-0.027429550886154175,0.0017161226132884622,0.06257501989603043
147.0,1.5154333348638642,-1.0634801952174464,1.5891624912756792,-1.9959936439380705,-1.5763480678195223,0.0,-0.13395246863365173,1.1778616905212402,0.22175228595733643,0.998355507850647,-0.027503585442900658,0.001381280948407948,0.05027865990996361
148.0,1.51547478854468,-1.0763531155253854,1.6144137275637132,-2.0317479307284896,-1.575056567206707,0.0,-0.1347750723361969,1.1729542016983032,0.22220847010612488,0.9988746047019958,-0.027554549276828766,0.001061666989699006,0.038589078933000565
149.0,1.5155143345748903,-1.0886336388801134,1.638502931066334,-2.065856846456851,-1.5738244999633058,0.0,-0.13557139039039612,1.1680551767349243,0.22278401255607605,0.9992426633834839,-0.027585575357079506,0.0007556608179584146,0.027432266622781754
150.0,1.515552210451828,-1.1003955170974775,1.6615747717173308,-2.098525235363001,-1.5726444667958344,0.0,-0.1363448053598404,1.1631613969802856,0.22346235811710358,0.9994786381721497,-0.027599241584539413,0.00046168919652700424,0.016743462532758713
151.0,1.5155886005679908,-1.1116960109534229,1.6837415709906836,-2.1299121381429136,-1.5715107229062626,0.0,-0.13709810376167297,1.1582717895507812,0.22423002123832703,0.9995981454849243,-0.027597449719905853,0.00017859780928120017,0.0064722285605967045
152.0,1.5150485341907352,-1.1162750347006518,1.692240345225942,-2.1354863026044657,-1.5715137634425476,0.0,-0.13671909272670746,1.1539044380187988,0.22382834553718567,0.999595582485199,-0.027867833152413368,0.00020145635062363,0.005645389668643475
153.0,1.5134235270603624,-1.1089401517778144,1.6764573139654806,-2.094493688626043,-1.5735844182553607,0.0,-0.134257510304451,1.1503124237060547,0.22137580811977386,0.999348521232605,-0.028645005077123642,0.0007647676975466311,0.021939124912023544
154.0,1.5117877247053764,-1.101556541863457,1.660569433092765,-2.053228753088472,-1.5756688288132301,0.0,-0.1318044513463974,1.146475076675415,0.21931760013103485,0.9988318085670471,-0.02938506379723549,0.0013041130732744932,0.0383358970284462
155.0,1.5101512820246037,-1.094170041675826,1.644675332996933,-2.0119476646200583,-1.5777540553020866,0.0,-0.12937572598457336,1.1424272060394287,0.21767497062683105,0.9980462789535522,-0.03008236363530159,0.0018151900731027126,0.05472961440682411
156.0,1.5085240110544773,-1.0868249403365653,1.6288703139845824,-1.9708979427635243,-1.579827594798046,0.0,-0.12698595225811005,1.1382085084915161,0.21645857393741608,0.9969988465309143,-0.03073235973715782,0.002294485457241535,0.07101753354072571
157.0,1.5069151081419014,-1.0795627478960645,1.6132436964211254,-1.930311575607808,-1.581877728915617,0.0,-0.1246478259563446,1.1338614225387573,0.2156684398651123,0.9957026243209839,-0.031332045793533325,0.0027394015341997147,0.08710341900587082
158.0,1.5061358350360794,-1.0850630555001364,1.6208688973709522,-1.9324257638929812,-1.5820137375078196,0.0,-0.12403332442045212,1.128985047340393,0.21656078100204468,0.9956896901130676,-0.03171402961015701,0.00277300295419991,0.0871119573712349
159.0,1.5053574098875062,-1.0905685970587153,1.6285047039599716,-1.9345647386197298,-1.5821485319350443,0.0,-0.12342870980501175,1.1240954399108887,0.21743223071098328,0.9956774711608887,-0.032095734030008316,0.0028063601348549128,0.08711090683937073
160.0,1.5045815900721744,-1.0960557119638656,1.6361149540510218,-1.9366965543512076,-1.5822828752149716,0.0,-0.12283480912446976,1.1192070245742798,0.21827948093414307,0.9956651329994202,-0.03247614577412605,0.002839598571881652,0.08710982650518417
161.0,1.5037993610351008,-1.1015466423351503,1.6437002995084293,-1.9387998102232422,-1.582418350399042,0.0,-0.12224139273166656,1.1143125295639038,0.2191246896982193,0.9956525564193726,-0.032859716564416885,0.0028730963822454214,0.08710868656635284
162.0,1.502995675672463,-1.1070503458459602,1.6512022710479008,-1.9408074554787296,-1.5825576148893317,0.0,-0.1216297522187233,1.1094319820404053,0.22001314163208008,0.995639443397522,-0.0332537405192852,0.0029075697530061007,0.0871075838804245
163.0,1.502192948956564,-1.1125474844649994,1.6586952941345485,-1.942812705987881,-1.5826967132630592,0.0,-0.12102756649255753,1.1045433282852173,0.2208789736032486,0.9956262111663818,-0.033647339791059494,0.002942022169008851,0.08710640668869019
164.0,1.5013920140988608,-1.118032352291634,1.6661715911865893,-1.944813480347817,-1.582835501139383,0.0,-0.12043557316064835,1.0996516942977905,0.22172114253044128,0.9956128597259521,-0.03404006361961365,0.002976438030600548,0.08710521459579468
165.0,1.4990056875447175,-1.1208821046054283,1.6701201748938495,-1.945942782277074,-1.5832487763341754,0.0,-0.11783868074417114,1.0973156690597534,0.22211408615112305,0.9955722689628601,-0.03521011769771576,0.0030787326395511627,0.08710081875324249
166.0,1.494762762581128,-1.1206459625747323,1.669937573229312,-1.9460515324194718,-1.5839834943118625,0.0,-0.11288321763277054,1.097969651222229,0.22200068831443787,0.9954966306686401,-0.037290360778570175,0.003260752884671092,0.08709344267845154
167.0,1.4905198376175384,-1.120409820544036,1.6697549715647744,-1.9461602825618696,-1.5847182122895493,0.0,-0.10792437195777893,1.0986013412475586,0.221887469291687,0.9954164028167725,-0.03937045857310295,0.003442761953920126,0.08708710968494415
168.0,1.4886284794938878,-1.1177527058407508,1.6662058283858172,-1.945292552119541,-1.5850457573700047,0.0,-0.10552174597978592,1.101195216178894,0.22144603729248047,0.9953792095184326,-0.04029765725135803,0.003523942781612277,0.08708486706018448
169.0,1.4894814178338436,-1.1122702975370307,1.6587279055457025,-1.9432852613764242,-1.5848981285693817,0.0,-0.10611236095428467,1.1060880422592163,0.22060590982437134,0.9953961372375488,-0.03987952694296837,0.0034873320255428553,0.0870862528681755
170.0,1.4903360454842323,-1.1067770308991127,1.65123517210032,-1.9412739950385483,-1.5847502073784867,0.0,-0.1067136898636818,1.1109768152236938,0.21974194049835205,0.9954127669334412,-0.03946056589484215,0.003450673772022128,0.08708769083023071
171.0,1.4911919292025542,-1.1012756906678942,1.6437314263945584,-1.9392597726915246,-1.5846020687840658,0.0,-0.10732551664113998,1.1158581972122192,0.2188551127910614,0.995429277420044,-0.0390409417450428,0.0034140129573643208,0.08708924055099487
172.0,1.4920273326592584,-1.095785703582088,1.6361526993654896,-1.9371597597041357,-1.5844574483937048,0.0,-0.10792059451341629,1.120750904083252,0.21800494194030762,0.9954453110694885,-0.03863145038485527,0.003378132125362754,0.08709061145782471
173.0,1.492853625901424,-1.090300766704737,1.6285406184684628,-1.9350215845509628,-1.5843143930025791,0.0,-0.10851351171731949,1.1256407499313354,0.2171594500541687,0.9954609274864197,-0.03822632133960724,0.0033426997251808643,0.08709191530942917
174.0,1.493682410882624,-1.084799289656631,1.6209055828646357,-1.9328769615966708,-1.58417090621896,0.0,-0.10911744087934494,1.1305299997329712,0.21628981828689575,0.9954764246940613,-0.037820007652044296,0.0033071881625801325,0.08709339797496796
175.0,1.494511803896025,-1.079293776489056,1.6132649458712949,-1.9307307652550165,-1.5840273141672836,0.0,-0.10973132401704788,1.135407567024231,0.21539831161499023,0.9954918026924133,-0.037413351237773895,0.003271596971899271,0.0870947614312172
176.0,1.495314863505032,-1.0738001996072084,1.6055217489033338,-1.9284708539962356,-1.5838881846294057,0.0,-0.11032003909349442,1.1403061151504517,0.214562326669693,0.9955065250396729,-0.037019677460193634,0.0032371210400015116,0.08709607273340225
177.0,1.4961158265468097,-1.0683068567932252,1.5977688685695688,-1.9262010894015558,-1.5837494099555216,0.0,-0.11091513931751251,1.1451926231384277,0.21371176838874817,0.995521068572998,-0.03662697970867157,0.003202739404514432,0.08709728717803955
178.0,1.4969199618338958,-1.0627917573811734,1.589985282651425,-1.9239223353158377,-1.583610085659139,0.0,-0.11152175813913345,1.1500824689865112,0.2128368318080902,0.9955354928970337,-0.03623270243406296,0.0031682015396654606,0.0870986059308052
179.0,1.4976793011719638,-1.0574701273427953,1.5820117639806768,-1.9212607586269244,-1.583478532639028,0.0,-0.1120830774307251,1.1549557447433472,0.2122645378112793,0.9955489635467529,-0.035860393196344376,0.0031356406398117542,0.08709987998008728
180.0,1.4981910122649906,-1.0532179797581294,1.5729883130005482,-1.9164829707298656,-1.5833899385816579,0.0,-0.11235135048627853,1.1598083972930908,0.2134704291820526,0.9955580234527588,-0.03560953587293625,0.003113717306405306,0.08710063993930817
181.0,1.498703621494581,-1.0489583689598023,1.5639490243898382,-1.9116967970345267,-1.583301189027244,0.0,-0.11262679845094681,1.1646473407745361,0.21467310190200806,0.9955669045448303,-0.035358209162950516,0.0030917138792574406,0.08710145950317383
182.0,1.4992198251227389,-1.0446688899147347,1.5548463525933471,-1.906877062851236,-1.5832118171639584,0.0,-0.11291080713272095,1.1694974899291992,0.21587854623794556,0.9955758452415466,-0.03510512784123421,0.0030695670284330845,0.08710242807865143
183.0,1.4997372520835772,-1.0403692453853277,1.5457221086976292,-1.90204590655075,-1.583122233501462,0.0,-0.11320221424102783,1.1743367910385132,0.21708157658576965,0.9955847263336182,-0.034851398319005966,0.0030474236700683832,0.08710328489542007
184.0,1.500258095765966,-1.03604120904561,1.5365376147509715,-1.8971828487122815,-1.5830320582918422,0.0,-0.11350222676992416,1.179184913635254,0.21828702092170715,0.9955936074256897,-0.0345960333943367,0.0030250651761889458,0.08710423111915588
185.0,1.500780570939547,-1.031699615561189,1.5273243512876826,-1.8923045578273134,-1.5829416006173196,0.0,-0.11380990594625473,1.184024691581726,0.21949034929275513,0.9956024885177612,-0.03433983772993088,0.0030027227476239204,0.0871051475405693
186.0,1.5013061487334363,-1.0273322403424494,1.5180563765964368,-1.8873972981317053,-1.582850605776952,0.0,-0.11412626504898071,1.1888697147369385,0.2206951379776001,0.9956114292144775,-0.034082137048244476,0.002980157732963562,0.08710619062185287
187.0,1.5029365461596518,-1.0230102104719219,1.5101058796672018,-1.883749451969891,-1.582568188985994,0.0,-0.1158742755651474,1.193097710609436,0.22109317779541016,0.9956384301185608,-0.03328270465135574,0.0029102489352226257,0.08710859715938568
188.0,1.5041347112060401,-1.017680776626993,1.5022674775778493,-1.8812267163199867,-1.5823605737628066,0.0,-0.11706669628620148,1.1977158784866333,0.22030456364154816,0.9956578016281128,-0.032695263624191284,0.00285887299105525,0.08711039274930954
189.0,1.5048894366388146,-1.012091953376015,1.494052535505943,-1.8785920898059367,-1.5822297679810629,0.0,-0.11769361048936844,1.2025978565216064,0.2194555699825287,0.9956699013710022,-0.0323251448571682,0.0028264469001442194,0.08711134642362595
190.0,1.5056479277454575,-1.0064752449037944,1.4857966052927256,-1.8759443179230073,-1.5820983095488415,0.0,-0.11833207309246063,1.2074846029281616,0.21858158707618713,0.995681881904602,-0.03195326402783394,0.002793938620015979,0.0871124118566513
191.0,1.5053458572645668,-1.0022299453581607,1.4795842563367996,-1.8739813556546032,-1.5821505934853906,0.0,-0.11770188063383102,1.211260199546814,0.21789084374904633,0.9956771731376648,-0.03210139274597168,0.0028068418614566326,0.087111696600914
192.0,1.5014114991718865,-1.0026815457505343,1.4803709114668175,-1.8743637786127747,-1.582832171503199,0.0,-0.11270065605640411,1.2112762928009033,0.217890664935112,0.9956132769584656,-0.0340304858982563,0.002975630806759,0.08710509538650513
193.0,1.4974771410792063,-1.0031331461429078,1.4811575665968355,-1.8747462015709462,-1.5835137495210074,0.0,-0.10770108550786972,1.2112716436386108,0.21789079904556274,0.9955453872680664,-0.03595951572060585,0.003144393675029278,0.08709938079118729
194.0,1.4943180722664013,-1.0048861041228163,1.483826192049154,-1.875700155589137,-1.5840609939726664,0.0,-0.10378184914588928,1.2100282907485962,0.2181159257888794,0.995488166809082,-0.03750831261277199,0.003279963042587042,0.08709550648927689
195.0,1.4934543119854709,-1.010491839706162,1.4920665474990886,-1.878346174946481,-1.5842105327053078,0.0,-0.10306259244680405,1.2051596641540527,0.21899449825286865,0.9954720735549927,-0.03793179988861084,0.003316975897178054,0.08709400147199631
196.0,1.4925930104296137,-1.0160816183591685,1.5002834464773562,-1.8809846623134312,-1.5843596457705047,0.0,-0.10235534608364105,1.2002856731414795,0.2198498696088791,0.9954559206962585,-0.0383540540933609,0.003353916807100177,0.08709272742271423
197.0,1.4916522968996164,-1.0216338147089843,1.5084436058213146,-1.8836051108624372,-1.584522519487921,0.0,-0.10155496746301651,1.1954351663589478,0.22068065404891968,0.9954380989074707,-0.03881528973579407,0.0033942507579922676,0.08709117770195007
198.0,1.489652275616068,-1.026650908832556,1.516114920636134,-1.8862868444139476,-1.5848689453527998,0.0,-0.09940189123153687,1.1910500526428223,0.22122478485107422,0.9953992962837219,-0.03979574516415596,0.0034801329020410776,0.08708776533603668
199.0,1.4890696465153062,-1.0309274150787642,1.5253951083965838,-1.8912991192881687,-1.5849697323683505,0.0,-0.0990670844912529,1.1862443685531616,0.21991394460201263,0.995387852191925,-0.04008134827017784,0.0035051361192017794,0.08708653599023819
200.0,1.4884884710630648,-1.0351932515232587,1.534652142265149,-1.8962988886319492,-1.585070267922215,0.0,-0.0987405776977539,1.1814264059066772,0.21860159933567047,0.9953764081001282,-0.040366314351558685,0.003530019661411643,0.08708532154560089
201.0,1.4879108411820863,-1.039433063422066,1.5438527018398738,-1.9012681559329518,-1.5851701901398327,0.0,-0.09842376410961151,1.1766142845153809,0.2172924280166626,0.9953648447990417,-0.04064945504069328,0.0035547674633562565,0.0870840772986412
202.0,1.4873354547861268,-1.0436564081075386,1.5530175269101132,-1.906218122853014,-1.5852697242646496,0.0,-0.09811558574438095,1.1717976331710815,0.21598367393016815,0.9953533411026001,-0.040931545197963715,0.0035794281866401434,0.08708293735980988
203.0,1.4867627057907635,-1.047860394233494,1.5621403431402512,-1.9111454005927309,-1.5853688021545573,0.0,-0.09781642258167267,1.1669799089431763,0.21467646956443787,0.9953417778015137,-0.041212283074855804,0.0036039738915860653,0.08708178997039795
204.0,1.4861928781728149,-1.0520429374058715,1.5712166273127028,-1.916047546140125,-1.5854673746853771,0.0,-0.09752599895000458,1.1621642112731934,0.2133713662624359,0.9953301548957825,-0.04149167612195015,0.0036284022498875856,0.08708062022924423
205.0,1.4856248955472646,-1.0562119383066633,1.5802635242199943,-1.920933819481634,-1.5855656280572719,0.0,-0.09724409133195877,1.157341480255127,0.21206606924533844,0.9953184723854065,-0.041770074516534805,0.003652797779068351,0.08707957714796066
206.0,1.4848430767339498,-1.061389387979576,1.588363510839453,-1.9238679257712092,-1.5857008988268333,0.0,-0.09671231359243393,1.1524770259857178,0.21241207420825958,0.9953023791313171,-0.04215329885482788,0.0036862848792225122,0.08707805722951889
207.0,1.4839902392290951,-1.066901760908601,1.5961490121963822,-1.9261536836631408,-1.5858484637135595,0.0,-0.09610429406166077,1.147588849067688,0.21328914165496826,0.9952845573425293,-0.04257141053676605,0.003722869325429201,0.08707646280527115
208.0,1.4831404172372709,-1.0723946428650775,1.6039069851195171,-1.9284313594378246,-1.5859955068316767,0.0,-0.0955083891749382,1.1427017450332642,0.2141418159008026,0.9952666759490967,-0.04298793151974678,0.003759353654459119,0.08707501739263535
209.0,1.4822910465953085,-1.0778846074911759,1.6116608376974015,-1.9307078255137053,-1.5861424718535668,0.0,-0.0949225127696991,1.1378018856048584,0.21497339010238647,0.995248556137085,-0.04340427741408348,0.0037957376334816217,0.08707353472709656
210.0,1.481412083654013,-1.0833870467684485,1.619305481880821,-1.9328635731930115,-1.5862944640313332,0.0,-0.09430757910013199,1.1329246759414673,0.2158653736114502,0.9952296614646912,-0.04383516684174538,0.003833406837657094,0.08707177639007568
211.0,1.4805328845732206,-1.0888876656446072,1.62694518105053,-1.935016209610194,-1.586446495324407,0.0,-0.09370223432779312,1.128035068511963,0.2167373150587082,0.9952107071876526,-0.04426611587405205,0.003871131455525756,0.08707009255886078
212.0,1.4796566436940755,-1.0943697768355627,1.6345591752676754,-1.9371616031483363,-1.5865980150846197,0.0,-0.09310898184776306,1.123146891593933,0.21758493781089783,0.9951914548873901,-0.04469558224081993,0.003908688668161631,0.08706846088171005
213.0,1.4787737674540877,-1.0998552552576057,1.6421501119695265,-1.9392807933430505,-1.5867506859662093,0.0,-0.09251701086759567,1.1182516813278198,0.21842911839485168,0.9951719045639038,-0.045128390192985535,0.003946493845432997,0.08706679195165634
214.0,1.4778662100671707,-1.1053532585637038,1.64965528303838,-1.941302516559772,-1.5869076386037597,0.0,-0.09190347045660019,1.1133718490600586,0.21931801736354828,0.9951516389846802,-0.045573215931653976,0.003985445015132427,0.08706486970186234
215.0,1.4769596636639826,-1.1108451373073607,1.6571520936377535,-1.9433219876552434,-1.5870644164021592,0.0,-0.09130094945430756,1.1084831953048706,0.2201842963695526,0.9951311945915222,-0.04601750895380974,0.004024327266961336,0.08706307411193848
216.0,1.4760551665023955,-1.1163246016987582,1.6646319577508792,-1.9453368937508801,-1.5872208398054772,0.0,-0.0907098799943924,1.1035914421081543,0.2210269570350647,0.9951106309890747,-0.046460866928100586,0.004063117783516645,0.08706127107143402
217.0,1.473686219922039,-1.119217503660573,1.6686307512092322,-1.946483181239688,-1.5876302184302187,0.0,-0.08819356560707092,1.1011544466018677,0.22143703699111938,0.9950557947158813,-0.04762193188071251,0.004164713900536299,0.08705567568540573
218.0,1.4694720724084114,-1.1188513463828802,1.6682434083226587,-1.9465350124479068,-1.5883583197125435,0.0,-0.08323851972818375,1.101809024810791,0.22132360935211182,0.9949548244476318,-0.04968727007508278,0.004345307592302561,0.0870460569858551
219.0,1.465257924894784,-1.1184851891051875,1.667856065436085,-1.9465868436561256,-1.5890864209948683,0.0,-0.07827945053577423,1.1024411916732788,0.22121047973632812,0.9948495030403137,-0.051752422004938126,0.004526024218648672,0.08703752607107162
220.0,1.4633356837018856,-1.115853756239532,1.6643234340278958,-1.9457186337765926,-1.5894185725331684,0.0,-0.07577504217624664,1.1049574613571167,0.22078187763690948,0.9948000311851501,-0.05269434675574303,0.00460845697671175,0.08703417330980301
221.0,1.4642911577536881,-1.1103780456501453,1.6568415815517377,-1.9436952212432563,-1.5892535699756798,0.0,-0.07636434584856033,1.1098510026931763,0.2199416160583496,0.9948247671127319,-0.052226096391677856,0.004567508120089769,0.08703630417585373
222.0,1.465248393987297,-1.1048922362019173,1.6493459302871305,-1.941668076928041,-1.5890882631037995,0.0,-0.07696536183357239,1.1147395372390747,0.2190784215927124,0.9948492050170898,-0.051757071167230606,0.004526515491306782,0.08703836053609848
223.0,1.4662070401189997,-1.0993983467918003,1.6418392387964416,-1.9396379468640563,-1.5889227127540448,0.0,-0.07757844030857086,1.1196208000183105,0.21819208562374115,0.994873583316803,-0.05128728225827217,0.004485409241169691,0.08704059571027756
224.0,1.4671434757336812,-1.0939147782361185,1.634258888926196,-1.937524580773712,-1.5887609594240857,0.0,-0.07817340642213821,1.1245132684707642,0.21734082698822021,0.9948970675468445,-0.05082840844988823,0.004445257596671581,0.08704263716936111
225.0,1.4680691667687296,-1.0884362025062349,1.6266429060121979,-1.9353709483486081,-1.588601042943828,0.0,-0.07876526564359665,1.1294032335281372,0.2164956033229828,0.9949201345443726,-0.05037473142147064,0.004405542742460966,0.08704458177089691
226.0,1.468997568005881,-1.0829415868160364,1.6190046253205068,-1.9332110106024987,-1.5884406582663375,0.0,-0.07936938107013702,1.134292483329773,0.21562646329402924,0.9949430227279663,-0.04991975426673889,0.004365765023976564,0.08704667538404465
227.0,1.469926708252801,-1.0774425973976416,1.6113602645377747,-1.9310493535403979,-1.5882801459222318,0.0,-0.07998461276292801,1.139170527458191,0.21473556756973267,0.9949658513069153,-0.04946440830826759,0.004325966350734234,0.08704870194196701
228.0,1.4708271361304326,-1.0719545597363422,1.6036147173933064,-1.9287766011540752,-1.5881245338989363,0.0,-0.08057243376970291,1.1440688371658325,0.21389839053153992,0.9949876666069031,-0.049023158848285675,0.004287318326532841,0.08705046027898788
229.0,1.4717245919494686,-1.066467322170391,1.595857988410764,-1.926491975907438,-1.5879694289893334,0.0,-0.08116679638624191,1.148955225944519,0.21304824948310852,0.9950093030929565,-0.04858329892158508,0.004248843993991613,0.0870523527264595
230.0,1.4726256183095165,-1.0609582535500797,1.588070399169295,-1.9241982612460715,-1.5878137069925946,0.0,-0.08177385479211807,1.1538453102111816,0.21217381954193115,0.9950307607650757,-0.0481417290866375,0.00421022716909647,0.08705420047044754
231.0,1.4734892329565332,-1.0556430503077965,1.580109870790337,-1.9215383795084717,-1.5876644499900467,0.0,-0.08234670013189316,1.1587108373641968,0.21159210801124573,0.9950510859489441,-0.04771842807531357,0.00417320616543293,0.08705607801675797
232.0,1.4741134126680264,-1.0515685853404444,1.5710425320603083,-1.9165350287558107,-1.5875565689455045,0.0,-0.08264225721359253,1.1635029315948486,0.2130078375339508,0.9950657486915588,-0.04741251468658447,0.00414644181728363,0.0870574340224266
233.0,1.474739383492533,-1.047482428504401,1.5619491741757014,-1.9115173206530476,-1.5874483783312354,0.0,-0.08294688165187836,1.1682859659194946,0.2144239842891693,0.995080292224884,-0.04710572212934494,0.0041195787489414215,0.08705884963274002
234.0,1.475368497665174,-1.0433757527991654,1.5528101534767582,-1.9064744158433695,-1.5873396444316372,0.0,-0.08326126635074615,1.1730700731277466,0.2158437818288803,0.9950947761535645,-0.04679739847779274,0.004092613700777292,0.08706022799015045
235.0,1.4760006958099259,-1.0392489458142748,1.5436263325075554,-1.9014067902779554,-1.5872303775090544,0.0,-0.08358555287122726,1.177854299545288,0.21726709604263306,0.9951093196868896,-0.046487558633089066,0.0040654889307916164,0.08706167340278625
236.0,1.476634909769375,-1.0351089801729707,1.5344132281855958,-1.8963230061803171,-1.5871207621800894,0.0,-0.08391920477151871,1.1826300621032715,0.21869127452373505,0.9951237440109253,-0.046176716685295105,0.004038330167531967,0.08706317842006683
237.0,1.4772735995576278,-1.0309397976133257,1.5251351043586538,-1.8912033443682934,-1.5870103732644831,0.0,-0.08426371961832047,1.1874150037765503,0.22012171149253845,0.9951382279396057,-0.04586365446448326,0.0040109604597091675,0.08706460893154144
238.0,1.478053474457178,-1.0266111364145671,1.516036932667818,-1.8864209850387363,-1.5868755584434813,0.0,-0.08479434251785278,1.1921651363372803,0.2212585210800171,0.9951558113098145,-0.04548139497637749,0.003977517131716013,0.08706644922494888
239.0,1.4797677395954494,-1.021253047676863,1.5082059218062895,-1.883921136876462,-1.5865790874610957,0.0,-0.0865180492401123,1.1967878341674805,0.22044411301612854,0.9951937794685364,-0.04464116320014,0.0039039994589984417,0.08706974238157272
240.0,1.4808824149941726,-1.015722865348106,1.5000837816745638,-1.8813120083702017,-1.5863862759476393,0.0,-0.08748370409011841,1.2016100883483887,0.21961070597171783,0.9952181577682495,-0.044094767421483994,0.0038562195841223,0.08707187324762344
241.0,1.4818650479526532,-1.010145809595064,1.4918842380727013,-1.8786744996313662,-1.5862162923021814,0.0,-0.08828965574502945,1.2064696550369263,0.21875587105751038,0.9952393770217896,-0.04361310228705406,0.003814069088548422,0.08707372099161148
242.0,1.4827832122292386,-1.0046368320161119,1.4837861147011124,-1.8760714956255833,-1.5860574421140132,0.0,-0.08902976661920547,1.2112555503845215,0.2178906500339508,0.9952589869499207,-0.04316304996609688,0.003774658776819706,0.08707541227340698
243.0,1.4788489471523745,-1.0049716649060272,1.4843766024448337,-1.8764003764635522,-1.5867366306378152,0.0,-0.08402851223945618,1.2112747430801392,0.2178906798362732,0.9951740503311157,-0.045091621577739716,0.003943051211535931,0.08706153184175491
244.0,1.4749146820755104,-1.0053064977959423,1.484967090188555,-1.876729257301521,-1.5874158191616172,0.0,-0.07902854681015015,1.211273193359375,0.2178908735513687,0.9950851798057556,-0.04702005535364151,0.004111452493816614,0.08704870194196701
245.0,1.471092742995793,-1.0058501536517652,1.4858607703603708,-1.877150355517538,-1.5880756255862654,0.0,-0.07419178634881973,1.2110594511032104,0.2179262638092041,0.9949952363967896,-0.04889330267906189,0.004275147337466478,0.08703717589378357
246.0,1.4699659492010548,-1.011404299031461,1.494029236991047,-1.879784113651588,-1.588270378733183,0.0,-0.07324762642383575,1.2062350511550903,0.2187924087047577,0.9949679374694824,-0.0494455024600029,0.004323508590459824,0.08703473955392838
247.0,1.4688391554063167,-1.0169584444111568,1.5021977036217236,-1.8824178717856381,-1.5884651318801006,0.0,-0.07231635600328445,1.2013919353485107,0.21963869035243988,0.9949403405189514,-0.04999770596623421,0.004371820483356714,0.08703229576349258
248.0,1.4668525087068638,-1.0275960921475487,1.5214237347183253,-1.9051411669582567,-1.5871424673223773,0.0,-0.07095730304718018,1.1966300010681152,0.22019881010055542,0.9954769015312195,-0.05113153159618378,0.00399808818474412,0.07996993511915207
249.0,1.4644167948290296,-1.040922337133063,1.5466169726411243,-1.9390770315117143,-1.584960912876134,0.0,-0.06941810250282288,1.191892385482788,0.22067755460739136,0.9962304830551147,-0.05255240947008133,0.0034057185985147953,0.06892980635166168
250.0,1.4620789664909086,-1.0537130320711656,1.5707977543334792,-1.9716490944923872,-1.582867029907369,0.0,-0.0679851770401001,1.1871421337127686,0.22124779224395752,0.9968379735946655,-0.05388918146491051,0.0028605039697140455,0.05832379683852196
251.0,1.4598248896466595,-1.0660455069632278,1.5941122719992131,-2.003054280124264,-1.5808481592154968,0.0,-0.06664619594812393,1.1823714971542358,0.2218988537788391,0.997316300868988,-0.055152613669633865,0.0023568386677652597,0.0480901375412941
252.0,1.4576456520983334,-1.077968522106718,1.6166527068774246,-2.03341675863326,-1.578896318563672,0.0,-0.06539276242256165,1.1775803565979004,0.22262202203273773,0.9976785182952881,-0.05635005235671997,0.0018905785400420427,0.03819042071700096
253.0,1.4555421215650992,-1.089477330048198,1.6384100839174445,-2.062724440421969,-1.5770122851271722,0.0,-0.06422239542007446,1.1727875471115112,0.22340673208236694,0.9979347586631775,-0.05748312547802925,0.0014601899310946465,0.028630031272768974
254.0,1.4535021637121335,-1.1006383199970329,1.6595099117789776,-2.091146388509962,-1.5751851907525884,0.0,-0.06312576681375504,1.1679810285568237,0.22424811124801636,0.9980956315994263,-0.05856025218963623,0.001061379094608128,0.019354991614818573
255.0,1.4520976096199225,-1.1090351349524645,1.6747728385149079,-2.1083506092008424,-1.5741459747760653,0.0,-0.0624859519302845,1.163084864616394,0.2247777283191681,0.9981401562690735,-0.05928496643900871,0.0008359187049791217,0.014165825210511684
256.0,1.4513440563179385,-1.11465354029481,1.6841109367037823,-2.1138837180624486,-1.573930446311472,0.0,-0.0622987262904644,1.1580904722213745,0.22490715980529785,0.9981300830841064,-0.05966475233435631,0.0007771622622385621,0.01325457077473402
257.0,1.4505932840866929,-1.1202512102987892,1.6934145716217024,-2.1193964063816635,-1.5737157132782102,0.0,-0.062122344970703125,1.1530944108963013,0.2250182330608368,0.9981191754341125,-0.060042884200811386,0.0007192514021880925,0.012346815317869186
258.0,1.4498455980266807,-1.1258258701707715,1.7026799624367441,-2.124886433899904,-1.5735018629399689,0.0,-0.06195664778351784,1.1480987071990967,0.22511163353919983,0.9981073141098022,-0.060419194400310516,0.0006622950313612819,0.01144266128540039
259.0,1.4491005146827343,-1.131381124495981,1.7119131001674797,-2.1303573504789597,-1.57328875702073,0.0,-0.061801422387361526,1.143100619316101,0.22518736124038696,0.9980944991111755,-0.060793936252593994,0.0006062460015527904,0.010541656985878944
260.0,1.448358535614539,-1.1369132337040246,1.7211077694425734,-2.1358054733211644,-1.5730765389746975,0.0,-0.06165676563978195,1.13810396194458,0.22524523735046387,0.9980807304382324,-0.06116688996553421,0.0005510105984285474,0.009644383564591408
261.0,1.447618928128019,-1.1424276606762929,1.7302730498708667,-2.1412361823725337,-1.5728649992394834,0.0,-0.061522383242845535,1.1331045627593994,0.2252858579158783,0.998066246509552,-0.06153840571641922,0.0004966916749253869,0.008749857544898987
262.0,1.4468825610217309,-1.1479179277522986,1.7393981752249377,-2.1466430983139433,-1.5726543863055644,0.0,-0.06139832362532616,1.1281081438064575,0.2253093719482422,0.9980508089065552,-0.0619080625474453,0.000443229015218094,0.007859068922698498
263.0,1.4461482308657512,-1.1533930075648857,1.748498058513266,-2.152035057559159,-1.5724443559724663,0.0,-0.06128436326980591,1.123106837272644,0.22531548142433167,0.9980344176292419,-0.0622764527797699,0.0003905542253050953,0.006970997899770737
264.0,1.4454173154956045,-1.1588426271334331,1.7575556254779627,-2.1574019430880202,-1.5722353023234936,0.0,-0.06118044629693031,1.11811101436615,0.2253050059080124,0.9980173707008362,-0.06264295428991318,0.00033883668947964907,0.006086757872253656
265.0,1.4446880466026395,-1.1642799707605578,1.7665927891539364,-2.1627567390441054,-1.5720267195936952,0.0,-0.06108662113547325,1.1131081581115723,0.22527733445167542,0.9979994297027588,-0.06300831586122513,0.00028780678985640407,0.005204687360674143
266.0,1.4439624529232573,-1.1696899124247766,1.775584409262903,-2.168084549043404,-1.571819188034582,0.0,-0.061002738773822784,1.108113169670105,0.2252333164215088,0.9979805946350098,-0.06337164342403412,0.00023769114341121167,0.0043268585577607155
267.0,1.4432380561428555,-1.1750909301500951,1.784561197295398,-2.173403570583629,-1.5716119988079869,0.0,-0.060928501188755035,1.1031088829040527,0.225172758102417,0.9979608654975891,-0.06373414397239685,0.00018829341570381075,0.003450546646490693
268.0,1.4425176662202954,-1.1804620732116788,1.7934883319963313,-2.1786931710058366,-1.5714059556077127,0.0,-0.06086420640349388,1.0981152057647705,0.2250959277153015,0.9979405403137207,-0.06409438699483871,0.00013982420205138624,0.0025790163781493902
269.0,1.4417979631229632,-1.1858280953846398,1.8024069554991822,-2.1839777282827932,-1.571200108850592,0.0,-0.060809485614299774,1.0931096076965332,0.22500279545783997,0.9979191422462463,-0.06445401906967163,9.199584746966138e-05,0.0017081446712836623
270.0,1.4410826381684907,-1.191161474636167,1.8112713246741683,-2.1892301382106627,-1.5709955143133287,0.0,-0.060764379799366,1.088118076324463,0.22489379346370697,0.9978971481323242,-0.06481128931045532,4.5102486183168367e-05,0.0008426636923104525
271.0,1.4402667867149963,-1.1963443776487908,1.8198868570042481,-2.194338794715036,-1.570796315359579,0.0,-0.06059885770082474,1.0832597017288208,0.2247718870639801,-0.997870922088623,0.0652184709906578,-2.3390722247995654e-08,3.758788480467956e-08
272.0,1.4357392626145606,-1.1959713471972564,1.8193147530416651,-2.1941397397693567,-1.5707963339249478,0.0,-0.055642176419496536,1.0839033126831055,0.22477209568023682,-0.9977208375930786,0.06747721135616302,-2.1850180331739466e-08,2.2038857849793203e-08
273.0,1.4312117385141245,-1.195598316745722,1.8187426490790823,-2.193940684823677,-1.5707963524903168,0.0,-0.05068076774477959,1.0845242738723755,0.2247721552848816,-0.9975654482841492,0.06973565369844437,-2.1460737187339873e-08,3.3718567493679075e-08
274.0,1.4268528065994601,-1.1950907019083545,1.8179624241299601,-2.1936680905519976,-1.5707963696241831,0.0,-0.045877933502197266,1.0852525234222412,0.22477293014526367,-0.9974110722541809,0.07190962880849838,-2.3288835748758174e-08,2.6448125467481987e-08
275.0,1.4280223738384656,-1.1901697765739965,1.8103574659188568,-2.1909839841471177,-1.5707963398160139,0.0,-0.046424251049757004,1.0902272462844849,0.22479689121246338,-0.997452974319458,0.071326345205307,-2.155890399535565e-08,1.002686467188596e-08
276.0,1.4291920846687607,-1.185248247082826,1.8027515740241482,-2.1882995482064174,-1.570796310004185,0.0,-0.04698396474123001,1.0951910018920898,0.22480443120002747,-0.9974945187568665,0.07074298709630966,3.669489956337202e-08,1.9103499226957865e-08
277.0,1.4303664406826024,-1.180307173096363,1.795115477430148,-2.1856044517696858,-1.5707962800739668,0.0,-0.04755937680602074,1.1001627445220947,0.22479569911956787,0.9975359439849854,-0.07015728950500488,-4.757935556654047e-08,1.5616720361322223e-07
278.0,1.4315389942415477,-1.1753668363745444,1.7874763475275108,-2.18290558936512,-1.5707962524453238,0.0,-0.04814610630273819,1.1051234006881714,0.22477297484874725,0.9975768327713013,-0.06957243382930756,-3.908859014245536e-08,2.666154230723805e-08
279.0,1.4326665712116524,-1.1704448965895111,1.7797615275891956,-2.180112754907663,-1.5707962822478077,0.0,-0.048692964017391205,1.1100982427597046,0.22479623556137085,0.9976159334182739,-0.06900999695062637,-4.577692891416518e-08,1.0762484947690609e-07
280.0,1.4337943433342184,-1.1655221049525089,1.7720453724284189,-2.1773194370876214,-1.5707963120554493,0.0,-0.0492529533803463,1.115061640739441,0.22480380535125732,0.9976547360420227,-0.06844742596149445,2.0402998401891637e-08,2.245965369240821e-08
281.0,1.434926983666361,-1.1605780632944136,1.7642959092440624,-2.174514061462381,-1.5707963419917603,0.0,-0.04982839897274971,1.120033621788025,0.2247949242591858,0.9976932406425476,-0.06788243353366852,1.375255198610148e-08,1.0342630218929116e-07
282.0,1.4360574945928728,-1.1556347699006422,1.7565426235637436,-2.1717041135573245,-1.5707963705062866,0.0,-0.05041435733437538,1.124993920326233,0.22477328777313232,0.9977315068244934,-0.06731848418712616,1.6168867134069842e-08,9.407300893826687e-08
283.0,1.4371452993474956,-1.1507064832788834,1.7487126760359812,-2.1688024665579775,-1.5707963705062866,0.0,-0.05096181109547615,1.1299693584442139,0.22479617595672607,-0.9977679252624512,0.06677575409412384,-2.3989937147916862e-08,2.300572710112192e-08
284.0,1.4382333516378134,-1.1457770751995753,1.7408809467624644,-2.165900159273589,-1.5707963705062866,0.0,-0.0515219122171402,1.134932279586792,0.22480320930480957,-0.9978041648864746,0.06623295694589615,-2.4338971726933778e-08,1.3071869808811698e-08
285.0,1.4393264067046168,-1.1408250021003552,1.7330132078307747,-2.1629845074148966,-1.5707963705062866,0.0,-0.05209736153483391,1.1399047374725342,0.2247946709394455,-0.997840166091919,0.0656876266002655,-2.8676197416643845e-08,9.813310697381894e-08
286.0,1.440438997400845,-1.1355391952292682,1.7243844356675861,-2.1585518999983413,-1.5709243478220065,0.0,-0.05265728011727333,1.1448663473129272,0.22473448514938354,0.9978764057159424,-0.06513247638940811,2.8415353881428018e-05,0.0005478620296344161
287.0,1.4418920459375755,-1.1245675279911862,1.702822375597006,-2.128460810603366,-1.5732146563056593,0.0,-0.052770305424928665,1.149831771850586,0.22411656379699707,0.9978708624839783,-0.06439164280891418,0.0005435144994407892,0.010351455770432949
288.0,1.4433975063288222,-1.1132001097423523,1.680482566176062,-2.0972843274588095,-1.5755875768370229,0.0,-0.05292563512921333,1.1547999382019043,0.22358402609825134,0.997764527797699,-0.06359414011240005,0.0010919751366600394,0.0205068439245224
289.0,1.4449604948304065,-1.101398308699343,1.657289086323962,-2.064916498349458,-1.5780511737056344,0.0,-0.05312689393758774,1.1597696542739868,0.2231481522321701,0.9975457787513733,-0.0627342164516449,0.0016768979839980602,0.03104698844254017
290.0,1.4465931349907328,-1.089070582470092,1.63306203242953,-2.0311062574852774,-1.5806245561601262,0.0,-0.05337958410382271,1.1647582054138184,0.2228207290172577,0.997199535369873,-0.06180145591497421,0.002304420806467533,0.04205216467380524
291.0,1.448297106407731,-1.0762042487600199,1.6077764806237134,-1.9958188221799524,-1.5833103715982215,0.0,-0.05368804931640625,1.169745922088623,0.22261987626552582,0.9967095255851746,-0.06079070270061493,0.0029769674874842167,0.053531236946582794
292.0,1.4500813835584985,-1.062731543159435,1.58129925695576,-1.9588683405601452,-1.5861227656733603,0.0,-0.054058413952589035,1.1747322082519531,0.222564697265625,0.9960558414459229,-0.05969197675585747,0.0037000065203756094,0.06554220616817474
293.0,1.4519552143775605,-1.0485826364384867,1.5534931295887897,-1.9200632977400842,-1.5890763150650993,0.0,-0.054497942328453064,1.1797107458114624,0.2226792275905609,0.9952144622802734,-0.05849408358335495,0.004479468334466219,0.0781439021229744
294.0,1.4535727589476557,-1.0368505830029413,1.5313704122217946,-1.8920494201121925,-1.591092740782895,0.0,-0.05502552166581154,1.1846507787704468,0.22259452939033508,0.9945391416549683,-0.05747899040579796,0.005024372600018978,0.08696424216032028
295.0,1.454503798662399,-1.0312894314667191,1.5232887024019948,-1.8894915533812688,-1.5909343465015526,0.0,-0.05561238154768944,1.1895464658737183,0.22175675630569458,0.9945645332336426,-0.057022616267204285,0.0049850353971123695,0.08697592467069626
296.0,1.4554367815717981,-1.0257166731217078,1.515190125057554,-1.8869283480671648,-1.5907756216318194,0.0,-0.05621183291077614,1.1944345235824585,0.22089630365371704,0.9945899248123169,-0.05656525120139122,0.00494555477052927,0.08698771893978119
297.0,1.4563722584616823,-1.0201290180937863,1.507069899198813,-1.8843582909833567,-1.590616472470576,0.0,-0.05682402849197388,1.199317455291748,0.2200125753879547,0.9946149587631226,-0.05610669031739235,0.004906009417027235,0.08699961751699448
298.0,1.4575139756153501,-1.0145832331520668,1.498955026610719,-1.8817585115996,-1.5904205200320336,0.0,-0.057711753994226456,1.2041569948196411,0.21915149688720703,0.9946460127830505,-0.05554722622036934,0.004857333842664957,0.08700648695230484
299.0,1.4588197770200382,-1.0090707599488438,1.4908444130716991,-1.879135085226472,-1.5901952869958043,0.0,-0.05882374569773674,1.2089567184448242,0.21830442547798157,0.9946815371513367,-0.0549074225127697,0.00480143167078495,0.08700969815254211
300.0,1.4574019799569955,-1.0065342357457718,1.4871483934365457,-1.8780043939019384,-1.5904397584515866,0.0,-0.05676053464412689,1.211266040802002,0.21789062023162842,0.9946430325508118,-0.05560208484530449,0.004862168803811073,0.08700559288263321
301.0,1.4534729437725316,-1.0067416253908974,1.4875227612127262,-1.8782500488694012,-1.5911173114756774,0.0,-0.05176019296050072,1.2112760543823242,0.21789056062698364,0.9945335388183594,-0.057527076452970505,0.005030445754528046,0.08699537068605423
302.0,1.4495439075880676,-1.0069490150360227,1.4878971289889067,-1.878495703836864,-1.591794864499768,0.0,-0.04676065221428871,1.2112653255462646,0.21789062023162842,0.9944203495979309,-0.0594518780708313,0.005198847036808729,0.08698613196611404
303.0,1.446920062816258,-1.0100160900273347,1.4924436522584923,-1.8800286205549481,-1.5922472200544522,0.0,-0.04374323785305023,1.2086691856384277,0.21835310757160187,0.9943426251411438,-0.06073721498250961,0.005311308894306421,0.08698005974292755
304.0,1.4453779899812276,-1.0154533364169032,1.5004481516416859,-1.882628448703502,-1.5925129268921163,0.0,-0.042381417006254196,1.2039282321929932,0.21918411552906036,0.994296133518219,-0.06149258092045784,0.00537737924605608,0.08697604387998581
305.0,1.44433936000969,-1.0210486291457326,1.5086160360075727,-1.8853155022908366,-1.5926938517723905,0.0,-0.04168372601270676,1.1990677118301392,0.22006995975971222,0.9942684769630432,-0.06200195476412773,0.0054257698357105255,0.08692755550146103
306.0,1.4433635867463026,-1.026663519830609,1.5168041260998677,-1.8880133810710005,-1.5928641911740857,0.0,-0.04107877239584923,1.194176435470581,0.22094446420669556,0.9942429661750793,-0.06248069927096367,0.0054720561020076275,0.08687353134155273
307.0,1.4423924362309173,-1.0322518098433104,1.5249534249293388,-1.8906984785891547,-1.5930337235889958,0.0,-0.04048869386315346,1.1892905235290527,0.22179383039474487,0.9942173361778259,-0.06295710802078247,0.005518164951354265,0.08681982755661011
308.0,1.44129223172214,-1.0388732379571133,1.5354392495289584,-1.8976015282266676,-1.592804704719899,0.0,-0.039914343506097794,1.1843857765197754,0.22250044345855713,0.9943118095397949,-0.06353896856307983,0.005455940496176481,0.08530523627996445
309.0,1.4392055179529921,-1.0534350685419325,1.5639710904185693,-1.9373178332564231,-1.589466873610938,0.0,-0.039418403059244156,1.1794151067733765,0.22233521938323975,0.9952511787414551,-0.06490452587604523,0.004560799337923527,0.0723983645439148
310.0,1.437221069096069,-1.0672832582102985,1.5911046531890967,-1.9750877360014887,-1.5862926217194178,0.0,-0.03900095820426941,1.1744328737258911,0.22234909236431122,0.9959900379180908,-0.0661550834774971,0.0037308945320546627,0.06011058762669563
311.0,1.435328195209619,-1.080492405176425,1.6169861024567393,-2.011114697518021,-1.5832648498050585,0.0,-0.038653820753097534,1.169446587562561,0.2225167155265808,0.996554434299469,-0.06730370968580246,0.0029593519866466522,0.04837954044342041
312.0,1.4335169627535138,-1.0931318292150647,1.641751260484518,-2.0455877823128934,-1.5803676685399848,0.0,-0.038369618356227875,1.1644586324691772,0.22281748056411743,0.9969661831855774,-0.06836207211017609,0.0022399630397558212,0.03714634105563164
313.0,1.4317844894361684,-1.1052216439816624,1.665439537126402,-2.078561848878674,-1.5775964675158776,0.0,-0.03814329206943512,1.1594874858856201,0.22323265671730042,0.9972427487373352,-0.06933670490980148,0.0015694783069193363,0.026395756751298904
314.0,1.4301181280296522,-1.1168501063292693,1.6882238591634016,-2.1102776111885344,-1.5749310166889956,0.0,-0.03796868026256561,1.1545193195343018,0.22374844551086426,0.9974005818367004,-0.07023915648460388,0.0009413068182766438,0.016051318496465683
315.0,1.4285101323999139,-1.1280712715353345,1.7102101402419123,-2.140882500973337,-1.5723589256263073,0.0,-0.03784157335758209,1.1495500802993774,0.2243533879518509,0.9974522590637207,-0.07107705622911453,0.00035096611827611923,0.0060665360651910305
316.0,1.4271042478775955,-1.1367374515472024,1.726507459892716,-2.1605663848195675,-1.5707963652835628,0.0,-0.03756294772028923,1.1445947885513306,0.22478249669075012,-0.9974201917648315,0.07178425043821335,-2.323523595748611e-08,4.304876455307749e-08
317.0,1.4259564121320494,-1.141685155142142,1.734374886211254,-2.1634861235097875,-1.5707963513102878,0.0,-0.03697934374213219,1.1396303176879883,0.22480010986328125,-0.9973787665367126,0.0723566859960556,-2.7482673914391853e-08,7.156455694712349e-08
318.0,1.424810661641562,-1.1466238703221538,1.7422280199007354,-2.166400557956872,-1.5707963373623979,0.0,-0.03641033172607422,1.134661316871643,0.22480200231075287,-0.9973371624946594,0.0729280337691307,-2.771732177109243e-08,8.286903607768181e-08
319.0,1.4236682710630846,-1.1515481027255183,1.7500581242846058,-2.169306445828256,-1.5707963234554103,0.0,-0.03585636988282204,1.1296935081481934,0.2247883528470993,-0.9972953796386719,0.0734976977109909,-2.70120796841411e-08,6.803866625659793e-08
320.0,1.4231535965940085,-1.151275502712138,1.7486338355914601,-2.163358629555596,-1.5714731479691146,0.0,-0.035188227891922,1.1285091638565063,0.22462669014930725,0.9972735643386841,-0.07375328242778778,0.00016061333008110523,0.0024164177011698484
321.0,1.4236551338595347,-1.14255778732289,1.732164074737716,-2.1429844577412984,-1.5732543881998786,0.0,-0.03432442620396614,1.133420467376709,0.22426366806030273,0.9972570538520813,-0.07349071651697159,0.0005854909541085362,0.008775759488344193
322.0,1.424165898157011,-1.1336796877628998,1.7153913114551356,-2.12223545209668,-1.5750683987981697,0.0,-0.03346291929483414,1.1383342742919922,0.22392308712005615,0.9971994161605835,-0.0732087716460228,0.0010213522473350167,0.01525137573480606
323.0,1.4246863469400288,-1.1246332525787215,1.6983005236271602,-2.101093029280642,-1.5769168044383597,0.0,-0.032603923231363297,1.143249750137329,0.22360646724700928,0.9970982670783997,-0.07290635257959366,0.0014686825452372432,0.021848969161510468
324.0,1.4252170109543523,-1.1154092563531648,1.6808742823279637,-2.0795356285715396,-1.578801490096444,0.0,-0.03174753859639168,1.1481667757034302,0.22331541776657104,0.9969511032104492,-0.07258234173059464,0.0019279782427474856,0.0285746231675148
325.0,1.425758428664879,-1.1059983394951374,1.6630949051464896,-2.0575413756699126,-1.5807243681633933,0.0,-0.030893774703145027,1.1530852317810059,0.22305217385292053,0.9967549443244934,-0.07223553210496902,0.0023997733369469643,0.03543504700064659
326.0,1.4263111389551646,-1.0963911351364273,1.6449446959235374,-2.0350883792689465,-1.5826873525170706,0.0,-0.03004266507923603,1.1580034494400024,0.2228185385465622,0.9965070486068726,-0.07186469435691833,0.002884678775444627,0.04243653640151024
327.0,1.4268758620632205,-1.0865751241076171,1.626400003081005,-2.0121473808189756,-1.584693001126763,0.0,-0.02919445000588894,1.1629219055175781,0.2226170301437378,0.9962037205696106,-0.07146820425987244,0.003383352654054761,0.04958738014101982
328.0,1.4274546387845855,-1.0765148333224697,1.6073938098351401,-1.9886354761735006,-1.5867485620024702,0.0,-0.028347216546535492,1.1678509712219238,0.2224494218826294,0.9958406090736389,-0.0710434839129448,0.0038977868389338255,0.056913312524557114
329.0,1.428047299774406,-1.0662132063314087,1.587931677226807,-1.9645595447039377,-1.588853433705604,0.0,-0.02750270999968052,1.1727817058563232,0.22231954336166382,0.9954137802124023,-0.07058936357498169,0.004427847918123007,0.06441111117601395
330.0,1.4286544074204042,-1.0556604677170691,1.5679951372538916,-1.9398967402832856,-1.591009613590506,0.0,-0.026661455631256104,1.1777098178863525,0.22223013639450073,0.9949191212654114,-0.07010412961244583,0.004974106792360544,0.07208747416734695
331.0,1.4292767752212066,-1.044842477255015,1.547557475794117,-1.9146140157943476,-1.5932199908472353,0.0,-0.02582378499209881,1.182633876800537,0.22218483686447144,0.9943515062332153,-0.06958568841218948,0.005537446588277817,0.0799516811966896
332.0,1.4299656477656717,-1.0344879002374043,1.528315963502868,-1.891803458366922,-1.595161097466157,0.0,-0.02517690509557724,1.1875560283660889,0.22207437455654144,0.9938002824783325,-0.06904073059558868,0.006034962832927704,0.08693663775920868
333.0,1.430982850583954,-1.0289415290575135,1.5202403627593983,-1.88925015502578,-1.594986144521744,0.0,-0.025760287418961525,1.1924550533294678,0.2212403416633606,0.9938347339630127,-0.06854263693094254,0.005991429090499878,0.08693946897983551
334.0,1.4320012099072237,-1.0233888519513934,1.512155580491488,-1.886693948715834,-1.5948109926652267,0.0,-0.026356909424066544,1.1973422765731812,0.22038477659225464,0.9938690066337585,-0.06804396957159042,0.005947772413492203,0.08694242686033249
335.0,1.4330231461209808,-1.017816671593851,1.5040424011930549,-1.884128763973792,-1.5946352256044345,0.0,-0.026967957615852356,1.2022286653518677,0.21950551867485046,0.9939031004905701,-0.06754358857870102,0.005904030054807663,0.08694545924663544
336.0,1.4343577609066873,-1.0123495658120427,1.4960496310081188,-1.881574135885697,-1.5944070020679586,0.0,-0.028000736609101295,1.2070077657699585,0.2186429500579834,0.993947446346283,-0.06688997149467468,0.005847600754350424,0.08694823086261749
337.0,1.4348626075097037,-1.0072236577431415,1.4894105043217627,-1.878171254356972,-1.589429311486906,0.0,-0.030054207891225815,1.2106950283050537,0.21705912053585052,0.9938945174217224,-0.06684095412492752,0.003331013023853302,0.08771973848342896
338.0,1.419086356640262,-1.0039618774797505,1.4962961579150684,-1.8645148948881898,-1.5293478076471585,0.0,-0.03564266860485077,1.203848958015442,0.20727461576461792,0.9918428063392639,-0.07744134962558746,-0.028073186054825783,0.09727565199136734
339.0,1.4033101057708206,-1.0007000972163598,1.5031818115083742,-1.8508585354194074,-1.469266303807411,0.0,-0.04135672375559807,1.1976752281188965,0.19911405444145203,0.9885929226875305,-0.08863325417041779,-0.05952407047152519,0.10623101890087128
340.0,1.387533854901379,-0.9974383169529687,1.5100674651016799,-1.8372021759506252,-1.4091847999676634,0.0,-0.04707256704568863,1.1922587156295776,0.19254949688911438,0.9841361045837402,-0.10038479417562485,-0.09097083657979965,0.11455665528774261
341.0,1.3717576040319366,-0.9941765366895776,1.5169531186949858,-1.8235458164818423,-1.3491032961279132,0.0,-0.05266185849905014,1.187674880027771,0.1875440627336502,0.9784658551216125,-0.1126628890633583,-0.12236209213733673,0.12222514301538467
342.0,1.3559813531624951,-0.9909147564261866,1.5238387722882916,-1.8098894570130601,-1.2890217922881657,0.0,-0.05799349769949913,1.1839885711669922,0.18405118584632874,0.9715781211853027,-0.1254330277442932,-0.1536458283662796,0.1292106658220291
343.0,1.3402051022930537,-0.9876529761627957,1.5307244258815973,-1.7962330975442777,-1.2289402884484182,0.0,-0.06293408572673798,1.1812525987625122,0.182015523314476,0.9634708762168884,-0.1386595368385315,-0.18476974964141846,0.13548943400382996
344.0,1.324428851423612,-0.9843911958994047,1.537610079474903,-1.7825767380754955,-1.1688587846086704,0.0,-0.06734888255596161,1.1795085668563843,0.18137362599372864,0.9541449546813965,-0.1523056924343109,-0.21568098664283752,0.14103932678699493
345.0,1.3086526005541699,-0.9811294156360136,1.544495733068209,-1.7689203786067127,-1.1087772807689202,0.0,-0.07110345363616943,1.1787854433059692,0.18205365538597107,0.9436031579971313,-0.16633367538452148,-0.2463267594575882,0.14584022760391235
346.0,1.2928763496847282,-0.9778676353726227,1.5513813866615147,-1.7552640191379305,-1.0486957769291727,0.0,-0.07406396418809891,1.1790990829467773,0.1839766502380371,0.9318508505821228,-0.1807049810886383,-0.2766539752483368,0.14987391233444214
347.0,1.2771000988152867,-0.9746058551092318,1.5582670402548204,-1.741607659669148,-0.9886142730894252,0.0,-0.07609908282756805,1.180452823638916,0.187056764960289,0.9188960194587708,-0.1953801065683365,-0.30660974979400635,0.153124138712883
348.0,1.261323847945845,-0.9713440748458408,1.5651526938481262,-1.727951300200366,-0.9285327692496775,0.0,-0.07708083093166351,1.1828358173370361,0.1912018358707428,0.9047489762306213,-0.21031896770000458,-0.33614131808280945,0.15557663142681122
349.0,1.2508408177214259,-0.9678135199741624,1.5676635842746178,-1.7176796402588388,-0.8858775800207257,0.0,-0.07743598520755768,1.1865475177764893,0.19485025107860565,0.8941442370414734,-0.220657080411911,-0.3567436635494232,0.15668551623821259
350.0,1.2530256616772293,-0.963639726675644,1.559704676995325,-1.7155083318092619,-0.8849275029945177,0.0,-0.07868650555610657,1.1913686990737915,0.1953127682209015,0.8944253325462341,-0.21952056884765625,-0.3569399416446686,0.1562298685312271
351.0,1.2552129409554285,-0.9594612810850162,1.5517368983707382,-1.7133346031245547,-0.8839763669710053,0.0,-0.07996517419815063,1.1961784362792969,0.19577085971832275,0.8947045803070068,-0.21838171780109406,-0.35713791847229004,0.15577450394630432
352.0,1.2574064125436235,-0.9552710060811737,1.5437465625191378,-1.71115472049234,-0.8830225382282026,0.0,-0.08127425611019135,1.2009847164154053,0.19622497260570526,0.8949823975563049,-0.21723821759223938,-0.3573375940322876,0.155318483710289
353.0,1.2597084029789354,-0.9530813001951866,1.5379883463951034,-1.7092900168761813,-0.8820244432720237,0.0,-0.08320212364196777,1.2043743133544922,0.19754494726657867,0.8952726125717163,-0.21603606641292572,-0.3575471043586731,0.15483935177326202
354.0,1.2622925802115268,-0.9560937707707318,1.538034418961936,-1.7082448884718264,-0.8809112407440983,0.0,-0.08668011426925659,1.204105257987976,0.20112600922584534,0.8955979943275452,-0.2146831601858139,-0.3577806353569031,0.1542993187904358
355.0,1.2644539930511862,-0.9592138681289526,1.5387869278828086,-1.7074843360913778,-0.8799802661620449,0.0,-0.08973205089569092,1.2034177780151367,0.20434880256652832,0.8958678841590881,-0.21355025470256805,-0.3579773008823395,0.15384835004806519
356.0,1.2622767606846694,-0.9634384918676322,1.5467892827040626,-1.709644262404394,-0.8809194169193227,0.0,-0.08840630948543549,1.198622226715088,0.20389828085899353,0.895596444606781,-0.21469123661518097,-0.35777854919433594,0.15430232882499695
357.0,1.2601002696940091,-0.9676616770671419,1.5547889126197219,-1.7118034532344895,-0.8818582478835884,0.0,-0.08710760623216629,1.193811058998108,0.2034425139427185,0.895322859287262,-0.21583060920238495,-0.3575811982154846,0.1547568440437317
358.0,1.2579318324022657,-0.9718692351575966,1.5627589413970966,-1.713954654381685,-0.8827936048789964,0.0,-0.08584035933017731,1.1890006065368652,0.20298287272453308,0.8950482606887817,-0.216964453458786,-0.35738590359687805,0.15521030128002167
359.0,1.2556214659440674,-0.9766160069355535,1.5719835927963322,-1.7184450512512373,-0.8831580103910656,0.0,-0.08461453020572662,1.1841766834259033,0.20249514281749725,0.8948637843132019,-0.21796825528144836,-0.35740146040916443,0.15483133494853973
360.0,1.2515135280898186,-0.9882317465345327,1.5972086230152858,-1.752892649670525,-0.8761960775059044,0.0,-0.08366140723228455,1.1793155670166016,0.20180806517601013,0.895811915397644,-0.2172609269618988,-0.3600691258907318,0.14376643300056458
361.0,1.2475494602823078,-0.9994406744780546,1.6215502108830324,-1.7861338088080034,-0.8694779685648032,0.0,-0.08284337818622589,1.1744139194488525,0.2013058066368103,0.8966360092163086,-0.21649466454982758,-0.3625776767730713,0.1330832839012146
362.0,1.243715358241589,-1.010282106963418,1.6450937364355567,-1.8182851246465952,-0.8629801192716995,0.0,-0.08215029537677765,1.1694743633270264,0.20096951723098755,0.8973488211631775,-0.21567505598068237,-0.36494180560112,0.12274663895368576
363.0,1.2400032283883125,-1.020778646897356,1.6678882847096344,-1.8494136282907454,-0.8566889824978593,0.0,-0.0815737247467041,1.1645052433013916,0.20078247785568237,0.8979604244232178,-0.2148078978061676,-0.3671717047691345,0.11273691058158875
364.0,1.2364212994022494,-1.0309070265954838,1.6898833270207374,-1.879450317173632,-0.8506185038087547,0.0,-0.08110814541578293,1.1595348119735718,0.20073029398918152,0.8984776735305786,-0.21390216052532196,-0.3692678213119507,0.10307781398296356
365.0,1.2329427687259213,-1.0407430338470294,1.711243446024773,-1.9086199473089547,-0.8447232595361269,0.0,-0.08074352145195007,1.1545425653457642,0.200799360871315,0.8989118933677673,-0.212957501411438,-0.3712504804134369,0.09369825571775436
366.0,1.230015888344608,-1.0481753428207694,1.7271792168709643,-1.9272681620123453,-0.8413637908007274,0.0,-0.08022923022508621,1.149607539176941,0.20058491826057434,0.8990384340286255,-0.21280087530612946,-0.3723941147327423,0.0881371721625328
367.0,1.227873235095494,-1.051958665458411,1.7348439848794484,-1.9293390417619671,-0.8420491007806569,0.0,-0.07934573292732239,1.1447614431381226,0.1997348964214325,0.898749053478241,-0.2140243500471115,-0.3722715377807617,0.08864281326532364
368.0,1.2257330409203584,-1.0557376460634567,1.7424999562095302,-1.9314075448104095,-0.8427336242460444,0.0,-0.0784895122051239,1.1399080753326416,0.1988833099603653,0.8984576463699341,-0.21524527668952942,-0.3721504211425781,0.08914841711521149
369.0,1.2235978022146279,-1.0595078767041348,1.7501382006753234,-1.9334712583852187,-0.8434165627453902,0.0,-0.07766129076480865,1.1350528001785278,0.19803142547607422,0.8981644511222839,-0.21646225452423096,-0.3720308840274811,0.08965335041284561
370.0,1.2214404138837949,-1.0632680814560551,1.7577490629033052,-1.9355033445317704,-0.8441110455257883,0.0,-0.07682777941226959,1.1301952600479126,0.19717907905578613,0.8978671431541443,-0.21768967807292938,-0.37190917134284973,0.09016232937574387
371.0,1.2192275566219357,-1.067003178544554,1.765291352256872,-1.9374562266453683,-0.844834438453715,0.0,-0.07594157755374908,1.1253502368927002,0.19632910192012787,0.8975629210472107,-0.2189452201128006,-0.3717801868915558,0.09068109095096588
372.0,1.2170163725908938,-1.0707354513751752,1.772827938580607,-1.9394076321058664,-0.84555728439501,0.0,-0.0750827044248581,1.1204967498779297,0.19547760486602783,0.8972565531730652,-0.2201986312866211,-0.37165266275405884,0.09120000898838043
373.0,1.2148103233271366,-1.0744590571965562,1.7803470235944774,-1.941354506051675,-0.8462784517579328,0.0,-0.07425262033939362,1.1156424283981323,0.19462601840496063,0.8969483375549316,-0.22144784033298492,-0.3715268075466156,0.0917181745171547
374.0,1.2126681848232537,-1.0782928730544337,1.787878679738654,-1.9432597686004294,-0.846981186266695,0.0,-0.07353129982948303,1.1107571125030518,0.19387836754322052,0.8966473937034607,-0.22265921533107758,-0.37140464782714844,0.09222101420164108
375.0,1.2107818665168655,-1.0825678345559875,1.795460655250713,-1.9449984702158856,-0.8476101382637008,0.0,-0.07316367328166962,1.1057840585708618,0.1935512274503708,0.8963834643363953,-0.22372286021709442,-0.3712930977344513,0.09266061335802078
376.0,1.2088970239523225,-1.0868394515851092,1.8030366990817333,-1.9467358115759061,-0.8482385982065409,0.0,-0.0728202760219574,1.1008048057556152,0.19321683049201965,0.8961179852485657,-0.224784716963768,-0.3711825907230377,0.09310023486614227
377.0,1.207017670222253,-1.091098629273541,1.8105906807780505,-1.948468093638493,-0.8488652280163691,0.0,-0.07250171899795532,1.0958293676376343,0.19287580251693726,0.8958514928817749,-0.22584262490272522,-0.37107348442077637,0.09353899955749512
378.0,1.2042796436412562,-1.0920381496152802,1.8146140909654704,-1.9430979301870892,-0.8477709202856738,0.0,-0.07154733687639236,1.091582179069519,0.1913938820362091,0.8944005966186523,-0.22844372689723969,-0.3721478283405304,0.0967831090092659
379.0,1.1984346598120186,-1.0809660715422749,1.8058627468001056,-1.9120288121849502,-0.8404497016196609,0.0,-0.06821667402982712,1.0900096893310547,0.1859574019908905,0.888478696346283,-0.23663915693759918,-0.37746721506118774,0.11011724174022675
380.0,1.192589675982781,-1.0698939934692702,1.7971114026347415,-1.8809596941828124,-0.8331284829536484,0.0,-0.06488378345966339,1.0884556770324707,0.1807626485824585,0.8822444081306458,-0.2448437362909317,-0.3827280104160309,0.1233510673046112
381.0,1.1867446921535436,-1.0588219153962655,1.788360058469377,-1.8498905761806748,-0.8258072642876358,0.0,-0.061544716358184814,1.0869284868240356,0.17580512166023254,0.8756999373435974,-0.2530527710914612,-0.38792598247528076,0.13648146390914917
382.0,1.1808997083243062,-1.0477498373232605,1.779608714304013,-1.8188214581785371,-0.8184860456216233,0.0,-0.05819498747587204,1.0854374170303345,0.17107944190502167,0.8688477277755737,-0.26126164197921753,-0.3930571377277374,0.14950531721115112
383.0,1.1750547244950684,-1.0366777592502554,1.7708573701386483,-1.787752340176398,-0.8111648269556104,0.0,-0.05482969433069229,1.0839899778366089,0.16658025979995728,0.8616905212402344,-0.26946592330932617,-0.3981175124645233,0.162419393658638
384.0,1.169209740665831,-1.0256056811772505,1.762106025973284,-1.7566832221742603,-0.8038436082895979,0.0,-0.05144482105970383,1.0825949907302856,0.16230162978172302,0.8542306423187256,-0.27766090631484985,-0.4031030833721161,0.17522093653678894
385.0,1.1633647568365937,-1.0145336031042458,1.7533546818079198,-1.7256141041721227,-0.7965223896235853,0.0,-0.04803527891635895,1.0812602043151855,0.15823781490325928,0.8464710116386414,-0.28584203124046326,-0.40800973773002625,0.18790680170059204
386.0,1.157519773007356,-1.0034615250312404,1.744603337642555,-1.6945449861699835,-0.7892011709575725,0.0,-0.04459644854068756,1.0799922943115234,0.15438197553157806,0.8384147882461548,-0.29400473833084106,-0.4128337800502777,0.20047438144683838
387.0,1.1516747891781185,-0.9923894469582357,1.7358519934771908,-1.663475868167846,-0.7818799522915599,0.0,-0.04112359881401062,1.0787980556488037,0.1507277488708496,0.8300648927688599,-0.3021443784236908,-0.417571097612381,0.2129206657409668
388.0,1.1458298053488811,-0.981317368885231,1.7271006493118264,-1.6324067501657082,-0.7745587336255474,0.0,-0.03761192411184311,1.0776841640472412,0.1472678780555725,0.8214246034622192,-0.3102564215660095,-0.42221787571907043,0.22524318099021912
389.0,1.1399848215196438,-0.9702452908122262,1.7183493051464622,-1.6013376321635706,-0.7672375149595348,0.0,-0.034056685864925385,1.0766569375991821,0.14399506151676178,0.8124972581863403,-0.31833615899086,-0.42677024006843567,0.23743927478790283
390.0,1.134139837690406,-0.959173212739221,1.7095979609810974,-1.5702685141614316,-0.759916296293522,0.0,-0.030452996492385864,1.075721263885498,0.14090201258659363,0.8032861351966858,-0.3263791501522064,-0.4312243163585663,0.249506413936615
391.0,1.1282948538611686,-0.9481011346662161,1.7008466168157332,-1.5391993961592938,-0.7525950776275094,0.0,-0.026796013116836548,1.0748827457427979,0.13798066973686218,0.7937950491905212,-0.3343808054924011,-0.43557631969451904,0.2614421844482422
392.0,1.1224498700319312,-0.9370290565932115,1.6920952726503689,-1.5081302781571562,-0.7452738589614968,0.0,-0.023081131279468536,1.074146032333374,0.13522328436374664,0.7840276956558228,-0.34233641624450684,-0.4398225247859955,0.27324429154396057
393.0,1.1166048862026936,-0.9259569785202066,1.6833439284850047,-1.4770611601550185,-0.7379526402954842,0.0,-0.019303739070892334,1.07351553440094,0.13262154161930084,0.7739877104759216,-0.35024166107177734,-0.44395920634269714,0.2849104702472687
394.0,1.110759902373456,-0.9148849004472014,1.67459258431964,-1.4459920421528794,-0.7306314216294714,0.0,-0.01545889675617218,1.0729947090148926,0.13016705214977264,0.7636791467666626,-0.35809192061424255,-0.44798266887664795,0.2964385151863098
395.0,1.1049149185442186,-0.9038128223741966,1.6658412401542757,-1.414922924150742,-0.7233102029634588,0.0,-0.011542275547981262,1.072587490081787,0.12785132229328156,0.7531061768531799,-0.3658825755119324,-0.4518892467021942,0.30782631039619446
396.0,1.099069934714981,-0.8927407443011919,1.6570898959889115,-1.383853806148604,-0.7159889842974463,0.0,-0.0075494349002838135,1.0722965002059937,0.12566567957401276,0.7422728538513184,-0.3736093044281006,-0.4556754529476166,0.3190719783306122
397.0,1.0932249508857437,-0.8816686662281871,1.6483385518235472,-1.3527846881464665,-0.7086677656314337,0.0,-0.0034758001565933228,1.0721244812011719,0.12360135465860367,0.7311834692955017,-0.38126757740974426,-0.4593377709388733,0.33017346262931824
398.0,1.087379967056506,-0.8705965881551818,1.6395872076581826,-1.3217155701443275,-0.7013465469654209,0.0,0.0006828829646110535,1.0720736980438232,0.12164923548698425,0.7198426127433777,-0.38885298371315,-0.4628725051879883,0.3411288857460022
399.0,1.0815349832272685,-0.859524510082177,1.6308358634928182,-1.2906464521421896,-0.6940253282994083,0.0,0.004930511116981506,1.0721454620361328,0.11980050802230835,0.7082546353340149,-0.3963611125946045,-0.46627649664878845,0.3519367277622223
400.0,1.0756899993980311,-0.8484524320091722,1.622084519327454,-1.259577334140052,-0.6867041096333958,0.0,0.009271256625652313,1.072340965270996,0.11804579943418503,0.6964242458343506,-0.4037875235080719,-0.46954619884490967,0.3625951111316681
401.0,1.0698450155687935,-0.837380353936167,1.6133331751620894,-1.228508216137913,-0.6793828909673829,0.0,0.013709001243114471,1.0726616382598877,0.1163761243224144,0.6843562126159668,-0.4111279547214508,-0.4726783335208893,0.3731025159358978
402.0,1.0640000317395564,-0.8263082758631628,1.6045818309967255,-1.1974390981357765,-0.6720616723013707,0.0,0.01824738085269928,1.0731072425842285,0.11478211730718613,0.6720553636550903,-0.4183781147003174,-0.47566962242126465,0.3834574520587921
403.0,1.0581550479103186,-0.8152361977901574,1.5958304868313609,-1.1663699801336376,-0.6647404536353578,0.0,0.0228898823261261,1.0736784934997559,0.1132548451423645,0.6595267653465271,-0.42553362250328064,-0.4785170257091522,0.3936583995819092
