Sungjin-Park-dev/lg_sgu_vision_v2/data/sample/trajectory/124/trajectory_dp_s015.csv
time,ur20-shoulder_pan_joint,ur20-shoulder_lift_joint,ur20-elbow_joint,ur20-wrist_1_joint,ur20-wrist_2_joint,ur20-wrist_3_joint,target-POS_X,target-POS_Y,target-POS_Z,target-ROT_X,target-ROT_Y,target-ROT_Z,target-ROT_W
0.0,1.9927538633346558,-0.7432686686515808,1.4341174364089966,-0.6908226013183594,-2.7196197509765625,0.0,-0.2849971055984497,1.0089348554611206,0.19599655270576477,0.49999505281448364,0.499999463558197,0.4999927282333374,0.5000128746032715
1.0,1.9747182983836788,-0.7083554202029179,1.3394879052252187,-0.6311092640689472,-2.7376521361608925,0.0,-0.2850385308265686,1.0638405084609985,0.20783208310604095,0.4999970495700836,0.4999983608722687,0.49999216198921204,0.5000124573707581
2.0,1.9629481784230642,-0.6829301913928362,1.2688699109067367,-0.5859607653526194,-2.7494200225996934,0.0,-0.2850345969200134,1.1020722389221191,0.21801972389221191,0.500012218952179,0.49999189376831055,0.49999767541885376,0.4999982714653015
3.0,1.9457005402154623,-0.6369228682504808,1.1495904014651117,-0.5126852996768556,-2.766676268749765,0.0,-0.28503331542015076,1.1620804071426392,0.23222018778324127,0.5000090599060059,0.4999942481517792,0.49999943375587463,0.4999973475933075
4.0,1.9324418437607471,-0.5860001919487411,1.0432059393011157,-0.4405872181294148,-2.736920894089889,0.0,-0.2845778167247772,1.1929347515106201,0.2345990091562271,0.5052159428596497,0.4914117753505707,0.48681142926216125,0.5160291790962219
5.0,1.9209093729827562,-0.5354333803973806,0.947532220680786,-0.36599096493211386,-2.67201557127018,0.0,-0.2841404974460602,1.2015520334243774,0.23320680856704712,0.5136516690254211,0.4751141667366028,0.46315664052963257,0.5439803004264832
6.0,1.9326515212082527,-0.5842911479790713,1.044007249850711,-0.43731976620600266,-2.721699725310894,0.0,-0.2848093807697296,1.186132788658142,0.23275305330753326,0.5069547891616821,0.48829516768455505,0.4822080135345459,0.521574854850769
7.0,1.9454774528625136,-0.6355208580310279,1.1481441525373484,-0.5126138674789473,-2.7668937812191645,0.0,-0.2850411832332611,1.1629074811935425,0.23128001391887665,0.5000013113021851,0.49999693036079407,0.4999941885471344,0.5000076293945312
8.0,1.9626825151842677,-0.6815142940202453,1.2674189284142163,-0.5859271960024227,-2.749690494680711,0.0,-0.2850411832332611,1.1029773950576782,0.21709348261356354,0.5000115036964417,0.49999284744262695,0.4999990463256836,0.4999966025352478
9.0,1.9533051433421749,-0.71790895355567,1.305640553681483,-0.6806302670809139,-2.7159662047027893,0.0,-0.272988885641098,1.0874333381652832,0.22579506039619446,0.5405861735343933,0.4763586223125458,0.5007964968681335,0.4796373248100281
10.0,1.936506144478533,-0.751853822597412,1.3232461148685248,-0.7807260608630189,-2.678704093536504,0.0,-0.2587984502315521,1.08521568775177,0.23908811807632446,0.5896760821342468,0.44573429226875305,0.4993147850036621,0.451982319355011
11.0,1.9192408804217334,-0.7851212265869965,1.3410552738540975,-0.8809688421469138,-2.641715646769844,0.0,-0.2452828586101532,1.0845149755477905,0.2506784200668335,0.6363493204116821,0.4142374098300934,0.4951111674308777,0.4222935736179352
12.0,1.9015728954180577,-0.8176827123297364,1.359217284118974,-0.9813505188850151,-2.6049861725439527,0.0,-0.2324526011943817,1.0854653120040894,0.260886013507843,0.6803128123283386,0.382108598947525,0.4883858859539032,0.3907005190849304
13.0,1.883567946072335,-0.8494470806116503,1.3779451349822562,-1.0818623408556507,-2.568563430846637,0.0,-0.22026437520980835,1.0881130695343018,0.26994630694389343,0.7212687134742737,0.34963342547416687,0.479373574256897,0.3573920428752899
14.0,1.8653075156447003,-0.8804141261687888,1.3972984333827034,-1.1824767567398953,-2.5323211780293815,0.0,-0.20870713889598846,1.0924468040466309,0.2782401144504547,0.7590664029121399,0.31703925132751465,0.46828076243400574,0.32251736521720886
15.0,1.8466521504655695,-0.9102606253411591,1.4174801316883723,-1.28320257851247,-2.496193813305095,0.0,-0.19748622179031372,1.0983901023864746,0.2856869697570801,0.7935251593589783,0.2845606803894043,0.455287367105484,0.2864551842212677
16.0,1.8273957566204044,-0.9386387325102045,1.4386439410165812,-1.384030237167703,-2.4601436684175066,0.0,-0.18622486293315887,1.1058423519134521,0.2921641767024994,0.8245319128036499,0.25239768624305725,0.44060927629470825,0.2496119737625122
17.0,1.8073426157502515,-0.964786420771953,1.4611864089404387,-1.4849547626053994,-2.424129814252745,0.0,-0.17451781034469604,1.1145062446594238,0.29686683416366577,0.8519371747970581,0.22085174918174744,0.42448797821998596,0.21269160509109497
18.0,1.7867459722225254,-0.9881120448652356,1.48541310220845,-1.5859020707260312,-2.387977752192343,0.0,-0.16250617802143097,1.123944878578186,0.2990976870059967,0.8757261633872986,0.19034795463085175,0.40719062089920044,0.17625921964645386
19.0,1.766083717478608,-1.0066605868571499,1.5125050989457132,-1.6866853248915066,-2.3510733893301037,0.0,-0.15062804520130157,1.1330583095550537,0.2957821488380432,0.8958269357681274,0.16178792715072632,0.38880160450935364,0.14195868372917175
20.0,1.734298003812471,-1.0350452765457712,1.5362093127709198,-1.754021228819045,-2.2649474481421357,0.0,-0.13837957382202148,1.129671573638916,0.2940841615200043,0.9210163354873657,0.12948830425739288,0.34689444303512573,0.1209382638335228
21.0,1.6919496017273958,-1.0781783125161823,1.553039214849655,-1.7934106647645758,-2.1383595666427055,0.0,-0.12874123454093933,1.1209309101104736,0.30577582120895386,0.9484992623329163,0.09281139820814133,0.28456518054008484,0.10372104495763779
22.0,1.6792062841274478,-1.090484646727159,1.5629978325763887,-1.8096706801935942,-2.0985405408424875,0.0,-0.12715564668178558,1.1172422170639038,0.30584046244621277,0.9557523727416992,0.08230151981115341,0.26475849747657776,0.098319873213768
23.0,1.6696786137085857,-1.0994047817861603,1.5721992359821084,-1.8234300145746039,-2.068165433896881,0.0,-0.1264089047908783,1.1141023635864258,0.3046128749847412,0.960857093334198,0.07461682707071304,0.24960283935070038,0.0942581295967102
24.0,1.6601413919335442,-1.1083082776417759,1.5813853556850586,-1.8371914463430987,-2.0377864654133018,0.0,-0.1259099841117859,1.1112185716629028,0.303657203912735,0.9656422138214111,0.0670585185289383,0.23439684510231018,0.08997996896505356
25.0,1.6505915876160961,-1.117198831358994,1.590555147122604,-1.8509522569686618,-2.007402366866452,0.0,-0.12563911080360413,1.1085869073867798,0.3029884397983551,0.9701085090637207,0.05963066220283508,0.21914774179458618,0.08548770099878311
26.0,1.6410300411856407,-1.1260817084974155,1.599709641714202,-1.8647100657801674,-1.977010391920986,0.0,-0.12558063864707947,1.1062002182006836,0.30262085795402527,0.974256157875061,0.05233891308307648,0.20386157929897308,0.08078393340110779
27.0,1.6314555316383061,-1.1349574049791373,1.6088474299312308,-1.8784625944598192,-1.9466094311945845,0.0,-0.12571769952774048,1.1040534973144531,0.3025659918785095,0.9780859351158142,0.04518873989582062,0.18854539096355438,0.07587213814258575
28.0,1.6218664821064994,-1.1438233933566317,1.6179680145390407,-1.8922088305222373,-1.9161981609573346,0.0,-0.12603260576725006,1.1021397113800049,0.30282872915267944,0.9815981984138489,0.038185108453035355,0.17320585250854492,0.07075761258602142
29.0,1.6122614895204257,-1.1526784240191907,1.6270720876923093,-1.90594815511324,-1.8857766382269336,0.0,-0.12650726735591888,1.1004517078399658,0.30341583490371704,0.9847935438156128,0.03133304789662361,0.1578504890203476,0.06544562429189682
30.0,1.6026407028567848,-1.1615208373206223,1.6361590748638515,-1.91968038534475,-1.8553441607881274,0.0,-0.12712661921977997,1.0989822149276733,0.30433422327041626,0.9876729846000671,0.02463812567293644,0.14248649775981903,0.05993964523077011
31.0,1.5930050749717448,-1.1703503448741066,1.6452292212029462,-1.93340573890989,-1.824900139344812,0.0,-0.1278754621744156,1.097720742225647,0.3055889308452606,0.9902373552322388,0.01810592971742153,0.12712086737155914,0.05424485355615616
32.0,1.5833559436630402,-1.1791669793644732,1.654285167290749,-1.9471244017346931,-1.794443182255841,0.0,-0.12874099612236023,1.0966564416885376,0.30718517303466797,0.9924881458282471,0.011742513626813889,0.11176026612520218,0.04836571589112282
33.0,1.5736948961213049,-1.1879721747915313,1.6633290937256993,-1.960836671876444,-1.7639737147022811,0.0,-0.12970982491970062,1.0957765579223633,0.3091282546520233,0.9944265484809875,0.005553871858865023,0.09641219675540924,0.04230692610144615
34.0,1.5640240681325681,-1.1967670963651837,1.672362803023045,-1.9745420000584848,-1.733492778546258,0.0,-0.13076896965503693,1.0950685739517212,0.3114231824874878,0.9960541725158691,-0.0004542032547760755,0.08108425885438919,0.036073245108127594
35.0,1.554344806736207,-1.2055508970985918,1.681386347983157,-1.9882436306587146,-1.703002002778155,0.0,-0.13190512359142303,1.0945215225219727,0.3140738010406494,0.9973729848861694,-0.006276119500398636,0.06578469276428223,0.029668161645531654
36.0,1.5446564465342005,-1.2143249815902681,1.6903992284891924,-2.0019456957164206,-1.6725034771701115,0.0,-0.13310302793979645,1.0941243171691895,0.31708553433418274,0.998384952545166,-0.011907744221389294,0.05052121356129646,0.023093774914741516
37.0,1.5349571871847958,-1.223090088998213,1.699400999953794,-2.015651381239316,-1.6419971483318998,0.0,-0.13434696197509766,1.0938657522201538,0.3204631805419922,0.9990924000740051,-0.01734541356563568,0.03530096635222435,0.016352517530322075
38.0,1.5252446086804607,-1.2318420881957401,1.7083879942745221,-2.029362289244785,-1.6114808893259476,0.0,-0.13562263548374176,1.0937364101409912,0.3242078721523285,0.999497652053833,-0.022585390135645866,0.020129986107349396,0.009448922239243984
39.0,1.5155124288900477,-1.2405769849207287,1.7173564913861703,-2.0430838644913423,-1.5809568019246536,0.0,-0.13690893352031708,1.0937278270721436,0.32831981778144836,0.9996029138565063,-0.027626557275652885,0.005016154609620571,0.00238537834957242
40.0,1.5199605013816138,-1.1893086965737552,1.6412328122715227,-2.0227190766804792,-1.5707957612201924,0.0,-0.14310728013515472,1.144518494606018,0.3298109769821167,0.9996770024299622,-0.025415148586034775,-2.965275029964687e-07,6.146646001070621e-07
41.0,1.5208482800852745,-1.1694250215380395,1.6090180101839986,-1.9960800075743468,-1.571424688004761,0.0,-0.1431732177734375,1.1585065126419067,0.329140305519104,0.9996626377105713,-0.024968508630990982,0.00013536636834032834,0.007160101551562548
42.0,1.520436097662866,-1.157488111042197,1.5882803056992765,-1.9711190897431772,-1.5721665514328669,0.0,-0.1421147882938385,1.1643637418746948,0.3284463584423065,0.9995670914649963,-0.02516414225101471,0.0003012386441696435,0.015246483497321606
43.0,1.5200535927473802,-1.1455429470270575,1.567549385914725,-1.946180764521624,-1.5729370516137935,0.0,-0.14108240604400635,1.1700814962387085,0.327754408121109,0.9994066953659058,-0.02533678710460663,0.0004783316398970783,0.023328490555286407
44.0,1.5196994478022692,-1.1336029276071902,1.5468337440331426,-1.9212653694056718,-1.5737352125046937,0.0,-0.14007525146007538,1.1756539344787598,0.3270738124847412,0.9991816282272339,-0.025486934930086136,0.0006667034467682242,0.03140295296907425
45.0,1.5193705625356109,-1.1216752807466408,1.5261364496583967,-1.8963763174699557,-1.574564144063068,0.0,-0.13908925652503967,1.1810804605484009,0.3264114260673523,0.9988922476768494,-0.025615785270929337,0.0008679705206304789,0.039465613663196564
46.0,1.519068116708279,-1.109763944101933,1.505464140203599,-1.8715154336000608,-1.5754255455988815,0.0,-0.13812610507011414,1.1863564252853394,0.325767457485199,0.998538613319397,-0.025722166523337364,0.0010835044085979462,0.0475165992975235
47.0,1.518790524376156,-1.0978696467292393,1.484807777579562,-1.846671444013495,-1.576312663065203,0.0,-0.1371869593858719,1.1914857625961304,0.3251493573188782,0.9981212019920349,-0.025806739926338196,0.0013098448980599642,0.05555565655231476
48.0,1.5185299457779258,-1.085991995437375,1.4641576733283421,-1.8218358516634874,-1.5772172475465291,0.0,-0.13626563549041748,1.1964726448059082,0.32456493377685547,0.997640073299408,-0.02587347850203514,0.001543036662042141,0.06358195841312408
49.0,1.5182856834183263,-1.07413503966085,1.4435140128498398,-1.7970083110191466,-1.5781376841362829,0.0,-0.13536250591278076,1.2013174295425415,0.324018269777298,0.9970954656600952,-0.025922531262040138,0.0017822891240939498,0.07159339636564255
50.0,1.5180634988464192,-1.0623069363524602,1.4228911175018135,-1.7721921873450426,-1.5790720133965908,0.0,-0.13448631763458252,1.2060102224349976,0.3235103487968445,0.9964877963066101,-0.025950809940695763,0.00202708737924695,0.0795905664563179
51.0,1.5173158696808458,-1.0560264829209138,1.4102471737163476,-1.7507209515929874,-1.580066707159457,0.0,-0.1331905871629715,1.2062486410140991,0.3238072395324707,0.9958490133285522,-0.026231970638036728,0.0022887405939400196,0.08712936192750931
52.0,1.5151642805277319,-1.0809059865577744,1.4483233272534788,-1.7766349292008048,-1.579563603025089,0.0,-0.13173414766788483,1.1895853281021118,0.32630613446235657,0.9963530898094177,-0.027367861941456795,0.0021231428254395723,0.08079101890325546
53.0,1.5150512267976182,-1.0905989192297467,1.4658904723309634,-1.8006251729758398,-1.578416111177941,0.0,-0.13220617175102234,1.1867318153381348,0.3264314830303192,0.9969693422317505,-0.02751828171312809,0.0017731022089719772,0.07274441421031952
54.0,1.5149150901287882,-1.1003166835068532,1.4835235869027654,-1.824578565322706,-1.5773211224919204,0.0,-0.1326402872800827,1.1837131977081299,0.32658135890960693,0.9975180625915527,-0.027667434886097908,0.001447669812478125,0.06473267823457718
55.0,1.51480985391792,-1.1100708208322128,1.5012017087622838,-1.848556388550735,-1.5762846855434605,0.0,-0.13309641182422638,1.1805583238601685,0.32679083943367004,0.9980032444000244,-0.02778906561434269,0.001152920420281589,0.056709449738264084
56.0,1.5147643957913062,-1.1198384591618153,1.518933225096795,-1.8726258807261698,-1.5753108718669975,0.0,-0.13360534608364105,1.1772856712341309,0.32703346014022827,0.9984262585639954,-0.02786940336227417,0.0008918710518628359,0.04865749180316925
57.0,1.514778316734142,-1.1296329694379252,1.5367346067731666,-1.8968230395286618,-1.5744323190416398,0.0,-0.134153351187706,1.1738940477371216,0.3273165822029114,0.9987870454788208,-0.027908654883503914,0.000680834345985204,0.0405612476170063
58.0,1.5148424285594628,-1.1394726437742433,1.5545886295611953,-1.9211274603926733,-1.5736434528450443,0.0,-0.13473142683506012,1.170384407043457,0.32767289876937866,0.9990845918655396,-0.02791256085038185,0.0005162659217603505,0.032414041459560394
59.0,1.5149735284237655,-1.1493528522431413,1.5725132318260162,-1.945485406833195,-1.5729102284929228,0.0,-0.135374054312706,1.1667201519012451,0.32807645201683044,0.9993171691894531,-0.02787393145263195,0.0003798718680627644,0.02425338514149189
60.0,1.5151384192501218,-1.159277304015976,1.590474058617449,-1.9698468458773328,-1.5722118944309984,0.0,-0.13604900240898132,1.162907600402832,0.3285503685474396,0.9994838237762451,-0.027810413390398026,0.0002601660671643913,0.016085736453533173
61.0,1.5153445902213956,-1.1692492176366247,1.6084242590762576,-1.994162261256078,-1.5715186433707187,0.0,-0.13677601516246796,1.1589586734771729,0.32912641763687134,0.999584436416626,-0.027718616649508476,0.00014185068721417338,0.007911491207778454
62.0,1.5155882116711878,-1.1786827038494048,1.6253244825524316,-2.0167962507137958,-1.5708533426428883,0.0,-0.13753274083137512,1.1550228595733643,0.329721063375473,0.9996190667152405,-0.027600571513175964,1.959747532964684e-05,0.0003215144679415971
63.0,1.514949859454378,-1.1747105981424653,1.6174217791006067,-1.996778988092584,-1.5721079326999339,0.0,-0.13641394674777985,1.1532113552093506,0.3284841775894165,0.9995751976966858,-0.02791307121515274,0.0004218924732413143,0.008379075676202774
64.0,1.514227169579316,-1.1706434034430884,1.6094371562367251,-1.9766535624480384,-1.573240838814886,0.0,-0.13524886965751648,1.1513816118240356,0.3272823989391327,0.9994643926620483,-0.028256811201572418,0.0007558684446848929,0.01649557054042816
65.0,1.5134632782342137,-1.1665423253295286,1.6014231240065695,-1.9564748872751487,-1.5743246556037656,0.0,-0.13406126201152802,1.1495060920715332,0.3261539041996002,0.9992863535881042,-0.028610527515411377,0.0010577439097687602,0.0246390700340271
66.0,1.512690056204472,-1.1624268448950208,1.5933946952772429,-1.9362744190874692,-1.5753953829189784,0.0,-0.13287395238876343,1.1475811004638672,0.32511404156684875,0.9990417957305908,-0.028958139941096306,0.0013462802162393928,0.032791875302791595
67.0,1.5119036770273997,-1.1582940378612716,1.5853425129325727,-1.9160670694527049,-1.5764421506202948,0.0,-0.13168592751026154,1.145621418952942,0.324169397354126,0.998730480670929,-0.029302028939127922,0.0016157928621396422,0.04094257205724716
68.0,1.5110994283813406,-1.1541463679133632,1.5772609081299054,-1.8958409849535518,-1.5774610223113683,0.0,-0.13049384951591492,1.1436282396316528,0.3233262598514557,0.9983524680137634,-0.029644645750522614,0.0018640158232301474,0.04909246414899826
69.0,1.510269288549014,-1.149995261266533,1.5691586837976388,-1.8755872237263942,-1.5784594877496994,0.0,-0.1292857825756073,1.1415929794311523,0.3225902318954468,0.9979074597358704,-0.029990313574671745,0.002094054128974676,0.05724448338150978
70.0,1.5094205804991436,-1.1458398080228607,1.5610390601476798,-1.8553110554865615,-1.5794434300259468,0.0,-0.12806850671768188,1.1395167112350464,0.3219592869281769,0.9973954558372498,-0.03033505752682686,0.0023087942972779274,0.0653969943523407
71.0,1.5085499793789323,-1.1416622745979093,1.5528948245033758,-1.8349996415988594,-1.5804073955706328,0.0,-0.12683998048305511,1.137401819229126,0.32141798734664917,0.99681556224823,-0.030680954456329346,0.0025046253576874733,0.0735614076256752
72.0,1.507610195413819,-1.137435795602485,1.5447105726037662,-1.8146000895559553,-1.5813352504951717,0.0,-0.12555399537086487,1.135248064994812,0.3209444284439087,0.9961640238761902,-0.031051836907863617,0.002670251065865159,0.08176851272583008
73.0,1.502591209639073,-1.166096723388631,1.5802062494159175,-1.8107697490894596,-1.5826273172351284,0.0,-0.12132532894611359,1.1069746017456055,0.32545602321624756,0.9956328868865967,-0.033452004194259644,0.002924698404967785,0.08710706233978271
74.0,1.4977337807707432,-1.111159629772847,1.5077017227998766,-1.7932587658703616,-1.583470612923583,0.0,-0.11211144179105759,1.1554663181304932,0.3173971474170685,0.9955499768257141,-0.03583359718322754,0.0031338874250650406,0.08710090070962906
75.0,1.494213151727914,-1.0552904999135828,1.4099631105972288,-1.7514319934622447,-1.5840835553035,0.0,-0.10369282960891724,1.2094296216964722,0.32322630286216736,0.9954861998558044,-0.037559594959020615,0.0032865230459719896,0.08709655702114105
76.0,1.4832522065538105,-1.126514932497012,1.529275163066116,-1.7996712597421227,-1.5859761408142672,0.0,-0.09558596462011337,1.1433476209640503,0.31903377175331116,0.9952688217163086,-0.04293318837881088,0.003754284232854843,0.08707854151725769
77.0,1.4676431286829654,-1.1464116032244975,1.5557912112848797,-1.8065558858050974,-1.5886132953160752,0.0,-0.0784970372915268,1.1273351907730103,0.32185986638069153,0.9949100017547607,-0.05058618262410164,0.004393305163830519,0.08704010397195816
78.0,1.478125332286884,-1.0751333366975646,1.4380242383585744,-1.75987267911096,-1.5858302141904475,0.0,-0.085118867456913,1.1939771175384521,0.32593199610710144,0.9951587915420532,-0.045491043478250504,0.003460039384663105,0.08704932034015656
79.0,1.4676897313886499,-1.073784170568533,1.438024773708738,-1.7680552163059868,-1.5878764116164967,0.0,-0.07150687277317047,1.1981741189956665,0.3250942528247833,0.9951931834220886,-0.05063779652118683,0.0042016105726361275,0.08371876925230026
80.0,1.4661991420450462,-1.082792602255281,1.4538571269704452,-1.7885300369222752,-1.5865221414552009,0.0,-0.07056230306625366,1.195298671722412,0.3254186809062958,0.9957001805305481,-0.051518213003873825,0.003825220512226224,0.07689324021339417
81.0,1.4646933778608353,-1.0918000406644321,1.469684046506244,-1.8090051984058508,-1.5851645163364156,0.0,-0.06961806118488312,1.1923463344573975,0.32577380537986755,0.9961597919464111,-0.05239532142877579,0.0034562444780021906,0.07006099820137024
82.0,1.4631824182332642,-1.1008063874870124,1.4855095832298777,-1.8294783555305427,-1.5838065449213765,0.0,-0.06868578493595123,1.1893125772476196,0.3261551856994629,0.9965720772743225,-0.05326405167579651,0.00309617817401886,0.0632256418466568
83.0,1.461666933462375,-1.1098110736797269,1.5013329178122379,-1.8499509325205596,-1.582449978318498,0.0,-0.06776582449674606,1.186197280883789,0.32656288146972656,0.996937096118927,-0.05412383750081062,0.0027464258018881083,0.05638687685132027
84.0,1.4601516591585115,-1.1188156395413418,1.5171481494029675,-1.8704232931713727,-1.5810961994510935,0.0,-0.06686325371265411,1.183004379272461,0.3270033597946167,0.997255265712738,-0.05497227981686592,0.0024079291615635157,0.04954100400209427
85.0,1.4586381595265807,-1.1278212483737375,1.5329555146138505,-1.8908939486845293,-1.5797448724633651,0.0,-0.06598043441772461,1.1797325611114502,0.3274765908718109,0.9975263476371765,-0.05580851435661316,0.0020806824322789907,0.042688898742198944
86.0,1.4571242845722898,-1.13682660139974,1.548758348298034,-1.9113634371496464,-1.5783989522355677,0.0,-0.0651143416762352,1.1763790845870972,0.32797911763191223,0.9977503418922424,-0.05663340911269188,0.0017662127502262592,0.03583275154232979
87.0,1.4556096311265947,-1.1458363960620102,1.5645608006714318,-1.9318313952579924,-1.577060822139755,0.0,-0.06426471471786499,1.1729412078857422,0.32851189374923706,0.9979270696640015,-0.05744696408510208,0.0014656251296401024,0.0289730466902256
88.0,1.4540946211822188,-1.1548533708847846,1.5803696141624899,-1.9523045634743117,-1.575723204261258,0.0,-0.06343507021665573,1.1694159507751465,0.3290736973285675,0.9980565905570984,-0.05824924632906914,0.0011754618026316166,0.02210833877325058
89.0,1.4525954615947065,-1.1638700780901345,1.5961836502434288,-1.972778062394404,-1.574376703990208,0.0,-0.06264861673116684,1.165801763534546,0.3296552300453186,0.9981392621994019,-0.059031952172517776,0.0008911109180189669,0.015244408510625362
90.0,1.4441240702351537,-1.2318294054531638,1.700407208414583,-2.0303818084868595,-1.5718641036899668,0.0,-0.06102726608514786,1.1091792583465576,0.3304409086704254,0.9979849457740784,-0.06329073011875153,0.0002482289564795792,0.004520861431956291
91.0,1.4351110543645829,-1.2227056851919205,1.6903774409569758,-2.0384689351289027,-1.5707964550342015,0.0,-0.04992344230413437,1.1208388805389404,0.3297975957393646,-0.9976996183395386,0.06779058277606964,-2.505676377495547e-08,3.62889153393553e-07
92.0,1.441100407487514,-1.1904505647768122,1.6406792397784038,-2.00986672360559,-1.5720066196949676,0.0,-0.05264302343130112,1.1474965810775757,0.32953596115112305,0.9978826642036438,-0.06479817628860474,0.0002422117831883952,0.005606642458587885
93.0,1.4422473564583806,-1.180365159430072,1.6223264924607894,-1.985410426491905,-1.5738680943634424,0.0,-0.052688345313072205,1.1516281366348267,0.3292469084262848,0.997842013835907,-0.06420325487852097,0.0006542596383951604,0.013743490912020206
94.0,1.4434031333311548,-1.1702686662872015,1.60404265900927,-1.9609670863388744,-1.5757696436152728,0.0,-0.05275816470384598,1.1555997133255005,0.32893574237823486,0.9977352619171143,-0.06358417868614197,0.0010934025049209595,0.021913904696702957
95.0,1.4445762126555757,-1.1601621119384917,1.585800243286102,-1.9365210998636777,-1.5776712591266944,0.0,-0.05287577211856842,1.159428596496582,0.32862532138824463,0.9975621104240417,-0.06293678283691406,0.0015400371048599482,0.030109191313385963
96.0,1.4457731131620895,-1.1500546759796884,1.567579069787883,-1.9120841321799615,-1.5795699620330956,0.0,-0.05304700881242752,1.1631321907043457,0.3283441662788391,0.9973227381706238,-0.06225807964801788,0.0019942671060562134,0.03830821067094803
97.0,1.446984816810508,-1.139940139623348,1.5493782241884968,-1.887658175157562,-1.5814775661147276,0.0,-0.05325615406036377,1.1667137145996094,0.3280870318412781,0.9970164895057678,-0.061552394181489944,0.002461993834003806,0.04651246964931488
98.0,1.4482089723429312,-1.1298316389386591,1.5311907381767897,-1.8632644784597645,-1.583396192994009,0.0,-0.05349746346473694,1.170186996459961,0.3278777003288269,0.9966443181037903,-0.06082122400403023,0.0029452878516167402,0.05470077693462372
99.0,1.4494484719308764,-1.1197421546193114,1.5130023814929543,-1.8389130674231025,-1.5853212883816865,0.0,-0.05377501621842384,1.1735645532608032,0.32774320244789124,0.9962078332901001,-0.060063138604164124,0.003443219931796193,0.06285389512777328
100.0,1.4507020975706801,-1.109676115520417,1.4948103334680647,-1.8145885662959935,-1.5872481799617648,0.0,-0.05408859625458717,1.1768440008163452,0.3276897668838501,0.9957072138786316,-0.059279441833496094,0.003953040577471256,0.0709749311208725
101.0,1.451955781247141,-1.0996353886433956,1.4766194619128408,-1.7902912697198958,-1.5891952092996133,0.0,-0.054415181279182434,1.1800223588943481,0.3277149200439453,0.9951427578926086,-0.058476340025663376,0.004483288619667292,0.07906584441661835
102.0,1.453502232882786,-1.0883779222498684,1.4567348999232634,-1.7658925761726547,-1.591104929479763,0.0,-0.054981596767902374,1.1842793226242065,0.3276606798171997,0.994537353515625,-0.0575135238468647,0.005027532111853361,0.08696182817220688
103.0,1.4413858336253884,-1.0897037661020006,1.4594131691352548,-1.7699774951059462,-1.592946964723679,0.0,-0.03995127230882645,1.1845219135284424,0.32753318548202515,0.9942821860313416,-0.06348004192113876,0.0055055757984519005,0.08569104224443436
104.0,1.4402445177878525,-1.09993636608794,1.477806598431188,-1.7945327550427908,-1.5910626549351405,0.0,-0.03975570201873779,1.1813793182373047,0.3275720775127411,0.9949082732200623,-0.06425409018993378,0.005059534218162298,0.07748176157474518
105.0,1.4390597802803056,-1.1101395139613566,1.4961681002468463,-1.819033709453829,-1.589117063343587,0.0,-0.03955398499965668,1.1781339645385742,0.3276442289352417,0.9954640865325928,-0.06503259390592575,0.004587564617395401,0.0692904144525528
106.0,1.4378480624666286,-1.1203174415144104,1.5144997464469434,-1.8434915648015417,-1.5871303119294349,0.0,-0.0393587201833725,1.1747870445251465,0.3277529180049896,0.9959509372711182,-0.06580575555562973,0.004101394675672054,0.06111164763569832
107.0,1.4366032263748552,-1.1304641815345378,1.5327996204007066,-1.867906805276505,-1.5851043882485554,0.0,-0.03916148096323013,1.1713407039642334,0.3278927206993103,0.9963690042495728,-0.06657642871141434,0.0036021098494529724,0.05294754356145859
108.0,1.4353212784268492,-1.140577385954954,1.5510599108637493,-1.892270576787152,-1.5830338545539515,0.0,-0.03896116092801094,1.1677972078323364,0.3280654847621918,0.9967186450958252,-0.06734581291675568,0.0030873247887939215,0.04480043053627014
109.0,1.434004101764379,-1.1506607145488696,1.5692796602235117,-1.9165845275113718,-1.5809182069529792,0.0,-0.03875986486673355,1.1641582250595093,0.3282758295536041,0.9970003366470337,-0.06811279058456421,0.0025575568433851004,0.03666749596595764
110.0,1.432650045775753,-1.1607159967342116,1.5874586476864276,-1.9408510530855339,-1.578758719662236,0.0,-0.03855649754405022,1.1604233980178833,0.3285260796546936,0.9972146153450012,-0.06887738406658173,0.0020140651613473892,0.028547007590532303
111.0,1.4312552443467328,-1.170747211848097,1.6055972655282205,-1.9650638429742682,-1.5765539228740117,0.0,-0.0383480079472065,1.1565908193588257,0.32881808280944824,0.9973616600036621,-0.06964103877544403,0.0014567036414518952,0.02044113539159298
112.0,1.4298152498201402,-1.1807582265333505,1.623699270046296,-1.9892209627451358,-1.574304990034921,0.0,-0.03813084959983826,1.1526564359664917,0.3291533589363098,0.9974417090415955,-0.07040521502494812,0.0008864033152349293,0.012350914068520069
113.0,1.4283331780979573,-1.1907575639516061,1.641764585457308,-2.0133223545718164,-1.5720182230692443,0.0,-0.037906333804130554,1.1486200094223022,0.329539954662323,0.9974551796913147,-0.07116802036762238,0.0003075838030781597,0.004273166414350271
114.0,1.4230839702629487,-1.2146113715030333,1.677926603165824,-2.030755391659431,-1.5712431093781194,0.0,-0.03528672084212303,1.127929925918579,0.32969558238983154,0.9972724914550781,-0.07378848642110825,9.887595660984516e-05,0.0016899718903005123
115.0,1.4236550303752182,-1.202395133570529,1.656678133142571,-2.0055918304978917,-1.5734246750484764,0.0,-0.0341443195939064,1.1341843605041504,0.32936766743659973,0.9972476363182068,-0.07348792254924774,0.000594371696934104,0.009813807904720306
116.0,1.4242322784459598,-1.1901929068790755,1.635426331448317,-1.98044781135994,-1.5756303099754896,0.0,-0.03302600607275963,1.1403100490570068,0.3290710151195526,0.9971585273742676,-0.0731617659330368,0.0011075454531237483,0.017919057980179787
117.0,1.424831603809619,-1.1780004252926797,1.6141730105352035,-1.9553089547801403,-1.577853464851218,0.0,-0.031953390687704086,1.1463003158569336,0.328797310590744,0.9970057606697083,-0.07280188053846359,0.0016347342170774937,0.02601546421647072
118.0,1.4254472465435486,-1.1658224009568023,1.5929321907456206,-1.9301766302764336,-1.5800943110247316,0.0,-0.030921190977096558,1.1521459817886353,0.32854217290878296,0.9967891573905945,-0.07241109013557434,0.002175569534301758,0.03410599008202553
119.0,1.4260854728782826,-1.1536637488507844,1.5717097361883576,-1.9050540826515152,-1.5823643513189378,0.0,-0.029932640492916107,1.1578432321548462,0.32830843329429626,0.9965091943740845,-0.07198601961135864,0.0027359717059880495,0.042189374566078186
120.0,1.4267402520507,-1.1415201175233909,1.5505055892430217,-1.8799524224571817,-1.5846559419469954,0.0,-0.02898305281996727,1.1633976697921753,0.3280927538871765,0.9961658716201782,-0.07152948528528214,0.0033125539775937796,0.050261616706848145
121.0,1.4274039828058465,-1.1293864273366692,1.5293190104521128,-1.854876199370211,-1.5869648323447918,0.0,-0.028064601123332977,1.168813943862915,0.32789140939712524,0.9957590103149414,-0.07104544341564178,0.0039026846643537283,0.05832170695066452
122.0,1.4280823637118856,-1.1172516435852997,1.5081513427602757,-1.829818246064695,-1.5892834349987401,0.0,-0.02718736231327057,1.1740890741348267,0.3276905417442322,0.9952884316444397,-0.07053090631961823,0.004502153489738703,0.06637834757566452
123.0,1.428767548883221,-1.1051169298764132,1.486994112994935,-1.8047627693479438,-1.5916038368635135,0.0,-0.026344826444983482,1.1792237758636475,0.32749685645103455,0.9947537183761597,-0.0699901357293129,0.0051065003499388695,0.07443403452634811
124.0,1.4294482254366443,-1.092975951908276,1.4658445963924502,-1.7796904698379579,-1.5939089533037232,0.0,-0.025530826300382614,1.184214472770691,0.3273034393787384,0.9941534399986267,-0.06942927092313766,0.005705784074962139,0.08249884098768234
125.0,1.4338218401512919,-1.0570775610020164,1.4152817549217145,-1.7526304043270862,-1.5855145329581644,0.0,-0.030395017936825752,1.2102429866790771,0.3213721513748169,0.9937964677810669,-0.06751932948827744,0.0012863309821113944,0.08836374431848526
126.0,1.412217581815967,-1.0540083005022762,1.4263554256230628,-1.7342642341058176,-1.5035258943454248,0.0,-0.03796342387795448,1.2012405395507812,0.3086002767086029,0.9905881285667419,-0.08222492784261703,-0.04159308597445488,0.10121462494134903
127.0,1.3906501538146265,-1.050980162268716,1.4374913151081903,-1.7159138732529933,-1.421562061203733,0.0,-0.04570596665143967,1.1935100555419922,0.29882776737213135,0.9851421117782593,-0.09798789769411087,-0.0845058336853981,0.11292541772127151
128.0,1.3691084664348636,-1.0479806695466964,1.448688948652954,-1.6975957547297618,-1.3396252275883826,0.0,-0.053288575261831284,1.187258243560791,0.2919538915157318,0.9774419069290161,-0.1147303581237793,-0.12732088565826416,0.12342501431703568
129.0,1.3475855582240723,-1.0450041490711335,1.4599252739794455,-1.6793150890099648,-1.257711595003001,0.0,-0.0603705532848835,1.1826666593551636,0.28787028789520264,0.9674800634384155,-0.13236680626869202,-0.16990728676319122,0.1326388269662857
130.0,1.326075369383436,-1.0420511418048377,1.4711943025648264,-1.661074246130479,-1.1758124014611946,0.0,-0.06660911440849304,1.1798640489578247,0.28643426299095154,0.9552560448646545,-0.1508074402809143,-0.2121364027261734,0.14050360023975372
131.0,1.3045826904366393,-1.0391157736844303,1.4824961037954199,-1.6428769859124548,-1.0939324179119936,0.0,-0.07166947424411774,1.1789321899414062,0.2874605655670166,0.9407787322998047,-0.1699531525373459,-0.2538716495037079,0.14697110652923584
132.0,1.2831341073863378,-1.036190983776124,1.4938213420776294,-1.6247231273561769,-1.0120774346559205,0.0,-0.07524353265762329,1.179909586906433,0.2907445430755615,0.9240686297416687,-0.18969213962554932,-0.29497459530830383,0.15200075507164001
133.0,1.2617201127632394,-1.0332776484044115,1.5051764070232148,-1.6066260863509558,-0.930230168492998,0.0,-0.07699975371360779,1.1827914714813232,0.2960604131221771,0.9051488041877747,-0.20992803573608398,-0.33532050251960754,0.15555109083652496
134.0,1.2608829152934629,-1.027291571105307,1.491841413466259,-1.5898091538484282,-0.8815171654922095,0.0,-0.08757082372903824,1.1955487728118896,0.3086104094982147,0.8954212069511414,-0.21542105078697205,-0.35765349864959717,0.1545923799276352
135.0,1.2463310158311172,-1.068178180730648,1.5699734672256436,-1.671998096437632,-0.8674048829375053,0.0,-0.08261295408010483,1.1728707551956177,0.3064200282096863,0.8968698978424072,-0.21624353528022766,-0.36333930492401123,0.12979885935783386
136.0,1.2349995804141087,-1.1041499079851664,1.640589795140876,-1.7641100946891328,-0.8482058689699636,0.0,-0.08094897121191025,1.1575161218643188,0.30588576197624207,0.8986610770225525,-0.2135264277458191,-0.3700866401195526,0.09925106167793274
137.0,1.2098250084206343,-1.1598016023178883,1.7417893427043771,-1.8132990966612932,-0.8479296199480272,0.0,-0.0729859247803688,1.1032592058181763,0.2983914017677307,0.8962492346763611,-0.22426177561283112,-0.3712366819381714,0.09288326650857925
138.0,1.1966708015944632,-1.151951517488476,1.7469880623744212,-1.7277810967528828,-0.8284960012747762,0.0,-0.07444661855697632,1.0787714719772339,0.2886746823787689,0.8791224956512451,-0.24660007655620575,-0.3855035603046417,0.13311314582824707
139.0,1.1831932342455347,-1.128392599311844,1.7311554929878805,-1.62469344836076,-0.8040859274442405,0.0,-0.07294457405805588,1.0659955739974976,0.2805572748184204,0.8564762473106384,-0.27139365673065186,-0.4017011821269989,0.17728543281555176
140.0,1.1660512263747238,-1.10532951942256,1.7102210933893338,-1.5219538743178305,-0.7795743038630552,0.0,-0.0658319890499115,1.058210849761963,0.2786826491355896,0.8311998248100281,-0.2968585789203644,-0.41706979274749756,0.21687504649162292
141.0,1.1465003208066056,-1.0809509809114701,1.685857680201136,-1.4200711670689665,-0.7551585878434607,0.0,-0.05456650257110596,1.0543937683105469,0.2796265780925751,0.8033097386360168,-0.3226845860481262,-0.4316754639148712,0.25342556834220886
142.0,1.1255662724075575,-1.0528728429136867,1.6599889476501999,-1.3191490069418323,-0.7309811267800417,0.0,-0.040504783391952515,1.0532394647598267,0.27959302067756653,0.7722779512405396,-0.34883126616477966,-0.4454500675201416,0.28892531991004944
143.0,1.1041745773902982,-1.0204067782463708,1.6338597328974926,-1.2189419129897425,-0.706947152867545,0.0,-0.024846896529197693,1.0538655519485474,0.27699923515319824,0.7377036809921265,-0.3750119209289551,-0.458204984664917,0.32435742020606995
144.0,1.0826376055140796,-0.982978725878164,1.607517419420967,-1.1195337517400237,-0.6829645601157767,0.0,-0.007773339748382568,1.0562700033187866,0.27097052335739136,0.6993881464004517,-0.40093666315078735,-0.4697105884552002,0.3598305583000183
145.0,1.0609443210767127,-0.9413900156288475,1.580456979667534,-1.021092870436556,-0.6589619227854139,0.0,0.011012844741344452,1.060678243637085,0.2620624899864197,0.6576524376869202,-0.4261757731437683,-0.47977811098098755,0.394563764333725
146.0,1.0390781068797992,-0.8950609378190358,1.5518971131100068,-0.9242374369873307,-0.6348633781887114,0.0,0.031942881643772125,1.06746506690979,0.2494485229253769,0.6127643585205078,-0.4504129886627197,-0.488255113363266,0.42808306217193604
147.0,1.0171884760446996,-0.8442456297283752,1.521699816629442,-0.8290415689283452,-0.6106591362422645,0.0,0.05491805821657181,1.0763154029846191,0.23277613520622253,0.5650224089622498,-0.4733331799507141,-0.49495038390159607,0.4601409137248993
148.0,0.9958632618426949,-0.7875670040223836,1.4904309876631385,-0.7353860178858328,-0.5864288256780336,0.0,0.07898348569869995,1.086384654045105,0.20991021394729614,0.5140569806098938,-0.4947147071361542,-0.49938955903053284,0.49154141545295715
149.0,1.0116949640666255,-0.7401064223201517,1.396769181333558,-0.6566801588736964,-0.5590849659322075,0.0,0.08505865186452866,1.1355562210083008,0.21344569325447083,0.5000016689300537,-0.5000028014183044,-0.5000054836273193,0.4999900460243225
150.0,0.9951388465522221,-0.76592525915771,1.4645828818765307,-0.6986533284302168,-0.5756367110630773,0.0,0.08506102114915848,1.0987035036087036,0.2058500051498413,0.499993234872818,-0.5000055432319641,-0.5000048875808716,0.4999963343143463
151.0,0.9631531685834639,-0.8061956274107219,1.5791269665620462,-0.7729471707369062,-0.6076270282227464,0.0,0.08519720286130905,1.033023476600647,0.19026122987270355,0.5000014901161194,-0.5000030994415283,-0.5000050663948059,0.4999905228614807
152.0,0.9716240191744421,-0.7957549285560797,1.5513676736824804,-0.7556245947308563,-0.5991451897082,0.0,0.08499976992607117,1.0495491027832031,0.1931084245443344,0.49999725818634033,-0.5000060796737671,-0.5000076293945312,0.49998918175697327
153.0,0.939148983782397,-0.8151332731129113,1.6550424530661911,-0.8288724050791612,-0.6162602046052255,0.0,0.0847737193107605,0.9929863810539246,0.1642870306968689,0.49227964878082275,-0.50445157289505,-0.5031970739364624,0.49998220801353455
154.0,0.9125419123954777,-0.8288065994591018,1.7237889569570763,-0.7965456623078596,-0.5289198264611473,0.0,0.08213596045970917,0.9828646183013916,0.1638924926519394,0.4319281280040741,-0.5372546315193176,-0.5239907503128052,0.5002291798591614
155.0,0.9255078720691275,-0.8414574227514984,1.7192081355725635,-0.6976024872757667,-0.46177096814126795,0.0,0.06763608008623123,1.002118468284607,0.1926913857460022,0.3883451521396637,-0.5561238527297974,-0.5268911123275757,0.512152373790741
156.0,0.9392402958689254,-0.8536361632723347,1.7163005279852925,-0.5988982634767707,-0.39491175612253016,0.0,0.05315512418746948,1.0202301740646362,0.21760211884975433,0.3441193401813507,-0.5756990313529968,-0.5257070064544678,0.5232444405555725
157.0,0.9531067874446035,-0.8658447136242673,1.7139104179217541,-0.5002659225774635,-0.3284349479707835,0.0,0.0395352840423584,1.0373769998550415,0.23921124637126923,0.29991477727890015,-0.5958874225616455,-0.5206971168518066,0.5327701568603516
158.0,0.9667420965010273,-0.8781557205527405,1.7114370371915857,-0.4015769780333232,-0.26221936262858225,0.0,0.027111612260341644,1.0534827709197998,0.25772130489349365,0.2560625672340393,-0.6166033148765564,-0.5120977163314819,0.5403594970703125
159.0,0.9799520585755952,-0.8904896638290595,1.7085035137788127,-0.30276143436076863,-0.19612762789320112,0.0,0.0159812793135643,1.0683599710464478,0.2732340395450592,0.2128078043460846,-0.6377309560775757,-0.500103771686554,0.5458099246025085
160.0,0.992645640061919,-0.9026406297053505,1.7049145616363313,-0.20381179375108865,-0.13001751087330035,0.0,0.006106056272983551,1.081742525100708,0.2857535183429718,0.17032185196876526,-0.6591429710388184,-0.48485592007637024,0.5490316152572632
161.0,1.0048823546336374,-0.9143694763269105,1.7006478276987924,-0.10476080214986579,-0.06376284946013576,0.0,-0.0027347803115844727,1.0932880640029907,0.29525718092918396,0.12876197695732117,-0.6806978583335876,-0.466412752866745,0.5500271916389465
162.0,1.016779387962198,-0.9254223966173859,1.6957292073063663,-0.005675376511942019,0.0027125483529725006,0.0,-0.010809846222400665,1.102636694908142,0.3017547130584717,0.08830864727497101,-0.7022395730018616,-0.4447939991950989,0.5488346815109253
163.0,1.0284704187893785,-0.9355426341456139,1.6902359459877287,0.09339236624772365,0.06950701242659404,0.0,-0.018384091556072235,1.1094321012496948,0.3052850365638733,0.04912591353058815,-0.7236236929893494,-0.41998642683029175,0.5454968214035034
164.0,1.0400625899414147,-0.9446835686123999,1.6842742187290032,0.19240830970224057,0.13662172050444288,0.0,-0.025690540671348572,1.113298773765564,0.30615556240081787,0.011456059291958809,-0.7446739077568054,-0.3920222222805023,0.5400446653366089
165.0,1.0515846702399536,-0.9526116123252695,1.6778193770806271,0.2913671324100773,0.20415269960157895,0.0,-0.032775819301605225,1.1140029430389404,0.30458927154541016,-0.024529358372092247,-0.7652407288551331,-0.3609349727630615,0.5324763059616089
166.0,1.0630144690157382,-0.959395482867899,1.6709395934438398,0.39027431284797753,0.2720823350382049,0.0,-0.03964938968420029,1.111277461051941,0.30114802718162537,-0.05858694389462471,-0.7851297855377197,-0.3268457353115082,0.52279132604599
167.0,1.0743071803827153,-0.9649204238910699,1.6635964166277586,0.489159964720408,0.34046195459011747,0.0,-0.04620636999607086,1.1050007343292236,0.29629963636398315,-0.09053078293800354,-0.8041586875915527,-0.28986164927482605,0.5109924077987671
168.0,1.0853989560920838,-0.9691792959692656,1.655788760038642,0.5880086439237096,0.4092761178444221,0.0,-0.052307773381471634,1.0951061248779297,0.2906564772129059,-0.1201406866312027,-0.8221164345741272,-0.25015440583229065,0.49710530042648315
169.0,1.0963247415415416,-0.972437318233157,1.647645562280068,0.6868302087752131,0.4784072908248302,0.0,-0.05795373022556305,1.0815294981002808,0.2850937247276306,-0.147126242518425,-0.8387725353240967,-0.20794963836669922,0.4812188148498535
170.0,1.1071126061044374,-0.9747243216530117,1.6392708843931965,0.7855606683116976,0.5477725181015014,0.0,-0.06307362020015717,1.064361572265625,0.28025758266448975,-0.1712656468153,-0.8539130091667175,-0.1634489893913269,0.4634491503238678
171.0,1.1178925301427665,-0.9763121646712354,1.630973434517086,0.8841915003938956,0.6172100876772907,0.0,-0.06775642186403275,1.0436662435531616,0.2769433259963989,-0.19231276214122772,-0.867323100566864,-0.11685465276241302,0.4439723789691925
172.0,1.128844886296766,-0.9780434201050134,1.6230128450106855,0.9828908604695115,0.686361739329867,0.0,-0.07215850055217743,1.0196207761764526,0.2765207588672638,-0.2099284678697586,-0.878793478012085,-0.06860261410474777,0.42302003502845764
173.0,1.145751630013543,-0.9846582044511726,1.6153370015994095,1.0455366822820862,0.7530627991151061,0.0,-0.0787074863910675,1.000442624092102,0.2773377597332001,-0.21374590694904327,-0.8912646770477295,-0.036486707627773285,0.3982822000980377
174.0,1.1748754538704673,-0.9966214315930816,1.6079653764438924,1.0285345809789852,0.8166597872990434,0.0,-0.0888202041387558,0.9978941679000854,0.2704187035560608,-0.1952115148305893,-0.9085454344749451,-0.040888987481594086,0.36710458993911743
175.0,1.2040396727263427,-1.008568258010921,1.6006106826236717,1.0115452421433133,0.8802052245738857,0.0,-0.09747641533613205,0.9963733553886414,0.26496031880378723,-0.17702214419841766,-0.9240620732307434,-0.046544790267944336,0.3355681896209717
176.0,1.2332302411527734,-1.0204977058370115,1.593288741725505,0.994565109464622,0.9437297543042957,0.0,-0.10486800968647003,0.9958876371383667,0.2610812783241272,-0.1592703014612198,-0.9378202557563782,-0.05342240259051323,0.3037635385990143
177.0,1.2624582512366487,-1.0324068638774786,1.5859966469301294,0.9776039893583021,1.0072460286220877,0.0,-0.11121398955583572,0.996423065662384,0.2589009702205658,-0.14203384518623352,-0.9498299360275269,-0.061484143137931824,0.2717888057231903
178.0,1.29173016931616,-1.0443033388704948,1.578741192860015,0.960652087185838,1.0707624498221266,0.0,-0.11672826111316681,0.9979380965232849,0.2585250735282898,-0.12538757920265198,-0.9601064324378967,-0.0706978440284729,0.2397405207157135
179.0,1.3210416582549833,-1.0562023786634727,1.571521236561196,0.9437027931054498,1.1342937448131558,0.0,-0.12160521000623703,1.0003716945648193,0.2600550055503845,-0.10940810292959213,-0.9686694145202637,-0.08103493601083755,0.2077089101076126
180.0,1.3503915386288374,-1.0681202924728732,1.5643294527518077,0.9267625106094202,1.1978398986856247,0.0,-0.12603992223739624,1.003637671470642,0.2635831832885742,-0.09416995197534561,-0.9755414128303528,-0.0924590602517128,0.175790935754776
181.0,1.3797718346415526,-1.0800649638239892,1.5571636085637037,0.9098339470184384,1.2614044936443443,0.0,-0.13020963966846466,1.0076240301132202,0.2691745460033417,-0.07974988967180252,-0.9807507395744324,-0.10492458939552307,0.14407923817634583
182.0,1.4091727454537624,-1.0920426201732405,1.5500173399864865,0.8929125806344202,1.324997895098297,0.0,-0.13427306711673737,1.0122053623199463,0.27687570452690125,-0.0662228912115097,-0.9843306541442871,-0.11838614195585251,0.11266076564788818
183.0,1.4385804153294859,-1.1040612074805294,1.5428872073412245,0.8759891194528968,1.3886230047758137,0.0,-0.13837318122386932,1.017236351966858,0.28671562671661377,-0.053662918508052826,-0.9863182902336121,-0.13279440999031067,0.08162262290716171
184.0,1.4679874425423258,-1.1161248696557962,1.5357670143030877,0.8590665688660005,1.4522850181504912,0.0,-0.14264197647571564,1.0225520133972168,0.29870373010635376,-0.042138855904340744,-0.986756443977356,-0.14808852970600128,0.05104885995388031
185.0,1.4973913168396007,-1.1282314335704773,1.5286373800230986,0.8421441834693905,1.515995579537525,0.0,-0.1471939980983734,1.0279840230941772,0.3128337562084198,-0.03171425312757492,-0.9856918454170227,-0.16420766711235046,0.021017447113990784
186.0,1.5024144802294308,-1.1529275514188124,1.561618585353809,0.8144008844316675,1.5377497601467927,0.0,-0.14485596120357513,1.0132335424423218,0.3153921961784363,-0.030807921662926674,-0.984313428401947,-0.17340931296348572,0.010351678356528282
187.0,1.5110208016119318,-1.1781564140811167,1.6162272933690067,0.784249833473269,1.5502632832187184,0.0,-0.1504194736480713,0.9832967519760132,0.30431321263313293,-0.02765028364956379,-0.9844204783439636,-0.17357324063777924,0.00492617255076766
188.0,1.493732967737875,-1.1502651653659877,1.555334765182044,0.8176174598558444,1.544465073633181,0.0,-0.1331983357667923,1.0175789594650269,0.3168020248413086,-0.03565866872668266,-0.9841622710227966,-0.17353291809558868,0.006286097690463066
189.0,1.4594628293243028,-1.1557058106271194,1.5645956010495579,0.8148379071656634,1.532796107288719,0.0,-0.10340796411037445,1.0162112712860107,0.3163033127784729,-0.051517024636268616,-0.983460009098053,-0.17340728640556335,0.009079613722860813
190.0,1.4242357499836782,-1.1595338594114184,1.5711379368136396,0.8135801903527724,1.5208337815395387,0.0,-0.07279948145151138,1.0154582262039185,0.31603237986564636,-0.06781823188066483,-0.9824702739715576,-0.1732340008020401,0.01195547915995121
191.0,1.389406910686783,-1.16244234716538,1.5765335595988943,0.8129275182385983,1.5090651584661916,0.0,-0.042583152651786804,1.0143834352493286,0.3156447112560272,-0.08393631875514984,-0.9812248945236206,-0.173013374209404,0.01479677576571703
192.0,1.3688870919874652,-1.1973911547764948,1.6931062409313693,0.7325208051917129,1.5021431495387227,0.0,-0.03532684966921806,0.9621426463127136,0.2738948464393616,-0.09343024343252182,-0.9803623557090759,-0.1728844791650772,0.016477609053254128
193.0,1.4555083190717657,-1.200356486636793,1.7101210525994088,0.7141721523049406,1.531454223423599,0.0,-0.10775398463010788,0.9489003419876099,0.26519569754600525,-0.05334809422492981,-0.9833680391311646,-0.17335812747478485,0.009402853436768055
194.0,1.4753484956991239,-1.2190731733241313,1.7611913832053128,0.6089914458774935,1.5332751216148741,0.0,-0.12550923228263855,0.95011305809021,0.2502891421318054,-0.042747776955366135,-0.97696453332901,-0.20890840888023376,0.008391376584768295
195.0,1.4753869282623107,-1.2449897668575494,1.8285396446893964,0.4784706686655151,1.5272137465107403,0.0,-0.12788428366184235,0.950360119342804,0.235050767660141,-0.04066368564963341,-0.9667484760284424,-0.25231289863586426,0.0090667475014925
196.0,1.475412206104686,-1.2709045686330291,1.8958655348824218,0.3479389449379419,1.5211319875150542,0.0,-0.1304084211587906,0.9489921927452087,0.22327372431755066,-0.03824104741215706,-0.9546145796775818,-0.2952207624912262,0.009664962999522686
197.0,1.475428917175767,-1.2968042156000432,1.9631755404454618,0.21739701100118852,1.5150307548797928,0.0,-0.13311056792736053,0.945754885673523,0.2149295210838318,-0.035484347492456436,-0.9405887722969055,-0.3375355899333954,0.01017315685749054
198.0,1.475445143144524,-1.322686704140122,2.030477134939329,0.08684802950384446,1.5089146564534215,0.0,-0.13601961731910706,0.9403966665267944,0.2099708914756775,-0.03239930048584938,-0.9247013330459595,-0.37916484475135803,0.01057736761868
199.0,1.4754570264987057,-1.3485532333930679,2.09777141749979,-0.04370704547985209,1.5027840270318913,0.0,-0.1391545534133911,0.9326848387718201,0.20833055675029755,-0.028997087851166725,-0.9069846272468567,-0.4200238883495331,0.0108644375577569
200.0,1.4754567551101103,-1.3744035187653802,2.165053019818734,-0.17427109515033107,1.4966377204641241,0.0,-0.14252865314483643,0.9224061369895935,0.20992082357406616,-0.02529166266322136,-0.8874728679656982,-0.46003374457359314,0.011020360514521599
201.0,1.475423787367124,-1.400254043652894,2.2323165813588535,-0.30484394969477985,1.4904816932664406,0.0,-0.14614050090312958,0.9093645811080933,0.21464316546916962,-0.021304037421941757,-0.8661991953849792,-0.49912282824516296,0.011024459265172482
202.0,1.4753525892840784,-1.4261064529418945,2.299567461013794,-0.4354229271411896,1.484330177307129,0.0,-0.149999737739563,0.8933653831481934,0.22235333919525146,-0.017052730545401573,-0.8432074785232544,-0.5372081995010376,0.010856417939066887
