Sungjin-Park-dev/lg_sgu_vision_v2/data/sample/trajectory/124/trajectory.csv
time,shoulder_pan_joint,shoulder_lift_joint,elbow_joint,wrist_1_joint,wrist_2_joint,wrist_3_joint,target-POS_X,target-POS_Y,target-POS_Z,target-ROT_X,target-ROT_Y,target-ROT_Z,target-ROT_W
0.0,-4.71238899230957,-1.5707963705062866,1.0471975803375244,-1.5707963705062866,-1.5707963705062866,0.0,-0.2010798156261444,0.963180422782898,1.2060223817825317,-0.9659258723258972,-9.036605774781492e-08,2.4157825961879098e-08,0.258819043636322
1.0,-4.71238899230957,-1.5707963705062866,1.0471975803375244,-1.5707963705062866,-1.5707963705062866,0.0,-0.2010798156261444,0.963180422782898,1.2060223817825317,-0.9659258723258972,-9.036605774781492e-08,2.4157825961879098e-08,0.258819043636322
2.0,-4.711946964263916,-1.567290186882019,1.047621726989746,-1.5668920278549194,-1.5748354196548462,0.0,-0.19993822276592255,0.9655196070671082,1.2009423971176147,-0.9669304490089417,0.00030128308571875095,-0.0018963214242830873,0.25503310561180115
3.0,-4.710774898529053,-1.5601252317428589,1.0484551191329956,-1.5589712858200073,-1.5831575393676758,0.0,-0.197846457362175,0.9701591730117798,1.190629482269287,-0.9689139723777771,0.0007465117960236967,-0.005788787268102169,0.24732902646064758
4.0,-4.708631992340088,-1.5492768287658691,1.049628496170044,-1.5468188524246216,-1.595834732055664,0.0,-0.19502991437911987,0.9768164753913879,1.1750953197479248,-0.9717779159545898,0.001123768393881619,-0.011723745614290237,0.2356034815311432
5.0,-4.70529842376709,-1.5346646308898926,1.0510610342025757,-1.5303300619125366,-1.6128753423690796,0.0,-0.19173581898212433,0.985201358795166,1.1543800830841064,-0.9753482937812805,0.0011652965331450105,-0.019744472578167915,0.2197830080986023
6.0,-4.700594425201416,-1.5161900520324707,1.0526877641677856,-1.5095221996307373,-1.6342768669128418,0.0,-0.18819540739059448,0.9950029850006104,1.1285709142684937,-0.9793714880943298,0.0005636338028125465,-0.029917186126112938,0.19984044134616852
7.0,-4.694425106048584,-1.4939347505569458,1.0544692277908325,-1.484406590461731,-1.6600357294082642,0.0,-0.1845690757036209,1.0057045221328735,1.0979640483856201,-0.9835085868835449,-0.001000246498733759,-0.04233391210436821,0.1758347600698471
8.0,-4.68657112121582,-1.4677441120147705,1.0563594102859497,-1.4547632932662964,-1.6908159255981445,0.0,-0.18089799582958221,1.0168626308441162,1.0626639127731323,-0.9873669743537903,-0.0039213309064507484,-0.057420019060373306,0.14762850105762482
9.0,-4.6772003173828125,-1.4384124279022217,1.0583263635635376,-1.4215751886367798,-1.726069688796997,0.0,-0.17729519307613373,1.027733325958252,1.0240941047668457,-0.9903568625450134,-0.008492293767631054,-0.07501034438610077,0.11616705358028412
10.0,-4.666436195373535,-1.4063034057617188,1.0603368282318115,-1.3854831457138062,-1.7653781175613403,0.0,-0.17386284470558167,1.037979006767273,0.9831715226173401,-0.9919790625572205,-0.014999764040112495,-0.094963937997818,0.08206433802843094
11.0,-4.65447473526001,-1.371592402458191,1.0623936653137207,-1.3471072912216187,-1.8086528778076172,0.0,-0.17050686478614807,1.0475592613220215,0.9405912160873413,-0.9917599558830261,-0.023653220385313034,-0.11726109683513641,0.04585423693060875
12.0,-4.641471862792969,-1.3344907760620117,1.064497470855713,-1.306787133216858,-1.8557813167572021,0.0,-0.1671859622001648,1.056442141532898,0.8970065712928772,-0.9892536401748657,-0.03466704487800598,-0.14181579649448395,0.007994411513209343
13.0,-4.627533912658691,-1.2954022884368896,1.0666433572769165,-1.2645446062088013,-1.9065676927566528,0.0,-0.16394059360027313,1.0644901990890503,0.8531906604766846,0.9840392470359802,0.04825419932603836,0.1684422641992569,0.031075533479452133
14.0,-4.612771511077881,-1.2550337314605713,1.0688307285308838,-1.2202342748641968,-1.9607125520706177,0.0,-0.16083678603172302,1.0714901685714722,0.810177206993103,0.9757406115531921,0.06456273794174194,0.19684168696403503,0.07081938534975052
15.0,-4.597301959991455,-1.2140682935714722,1.0710582733154297,-1.1734530925750732,-2.0178847312927246,0.0,-0.15795312821865082,1.077341914176941,0.7689052820205688,0.964026153087616,0.08369670063257217,0.2266453206539154,0.110817089676857
16.0,-4.58131217956543,-1.1727584600448608,1.0732882022857666,-1.1246135234832764,-2.07755708694458,0.0,-0.15544472634792328,1.0826314687728882,0.7298113107681274,0.948681652545929,0.10559660941362381,0.25732624530792236,0.1504521667957306
17.0,-4.564949989318848,-1.1312172412872314,1.0755236148834229,-1.0742093324661255,-2.138814926147461,0.0,-0.15367546677589417,1.0879926681518555,0.6928709149360657,0.9296520948410034,0.13009627163410187,0.28814297914505005,0.1891971081495285
18.0,-4.5483245849609375,-1.089601993560791,1.0777653455734253,-1.0225045680999756,-2.200906276702881,0.0,-0.15298068523406982,1.0938706398010254,0.6579208970069885,0.9069696068763733,0.15696747601032257,0.3184308111667633,0.22664806246757507
19.0,-4.531554222106934,-1.047990322113037,1.080001711845398,-0.9698179960250854,-2.2630231380462646,0.0,-0.15368103981018066,1.100618600845337,0.6245455145835876,0.8807904124259949,0.18587513267993927,0.34751415252685547,0.2624741494655609
20.0,-4.514749526977539,-1.006428837776184,1.0822056531906128,-0.9166280627250671,-2.324334144592285,0.0,-0.15606382489204407,1.1084564924240112,0.5921686887741089,0.8514184951782227,0.2163742035627365,0.37475141882896423,0.2963615953922272
21.0,-4.498002529144287,-0.9649932980537415,1.0843408107757568,-0.8635737299919128,-2.3839807510375977,0.0,-0.16035956144332886,1.1174030303955078,0.5601634979248047,0.8193231225013733,0.2479141354560852,0.3995712697505951,0.3280107080936432
22.0,-4.481354713439941,-0.9236799478530884,1.0863806009292603,-0.8111705780029297,-2.4405908584594727,0.0,-0.16682720184326172,1.127065896987915,0.5277257561683655,0.7851510047912598,0.27984392642974854,0.42130526900291443,0.35738953948020935
23.0,-4.465035438537598,-0.8824334144592285,1.088300108909607,-0.7610449194908142,-2.492687225341797,0.0,-0.17541252076625824,1.1370798349380493,0.49396052956581116,0.749954879283905,0.3111804723739624,0.43942421674728394,0.3842405378818512
24.0,-4.449121952056885,-0.8416239023208618,1.0900968313217163,-0.7140775322914124,-2.5404694080352783,0.0,-0.1857171356678009,1.147049903869629,0.4589420258998871,0.7144448161125183,0.34136295318603516,0.4542200565338135,0.4083188772201538
25.0,-4.433704376220703,-0.8019645810127258,1.0917518138885498,-0.6710100173950195,-2.583895683288574,0.0,-0.19732293486595154,1.1564552783966064,0.42326775193214417,0.6794793009757996,0.3698110282421112,0.46600279211997986,0.42940565943717957
26.0,-4.41881799697876,-0.7643998861312866,1.0932108163833618,-0.6321887969970703,-2.622955322265625,0.0,-0.2098405361175537,1.1647976636886597,0.3880350887775421,0.6458908915519714,0.3960665762424469,0.4751916825771332,0.447380393743515
27.0,-4.404524803161621,-0.7300297021865845,1.0944292545318604,-0.597714900970459,-2.657641887664795,0.0,-0.22286644577980042,1.1717214584350586,0.3546889126300812,0.6144822239875793,0.4197605550289154,0.4822639226913452,0.4622058570384979
28.0,-4.390990257263184,-0.6998381018638611,1.0954031944274902,-0.567603588104248,-2.687947988510132,0.0,-0.23592910170555115,1.1771001815795898,0.3246266543865204,0.5859823822975159,0.44060927629470825,0.4876856803894043,0.4739736020565033
29.0,-4.378566265106201,-0.6741532683372498,1.0961339473724365,-0.5420187711715698,-2.7137022018432617,0.0,-0.2484309822320938,1.1810381412506104,0.29848188161849976,0.5610045194625854,0.45838770270347595,0.4917760193347931,0.4830228388309479
30.0,-4.367695331573486,-0.6535015106201172,1.0965960025787354,-0.521457850933075,-2.734393358230591,0.0,-0.2597309350967407,1.183669090270996,0.27709394693374634,0.5403931140899658,0.4727335274219513,0.4947874844074249,0.4895751476287842
31.0,-4.358494758605957,-0.637216329574585,1.0968705415725708,-0.505244791507721,-2.75069522857666,0.0,-0.26950913667678833,1.1853492259979248,0.2599962651729584,0.5237945914268494,0.4840678572654724,0.49700555205345154,0.4942701756954193
32.0,-4.351274490356445,-0.6253037452697754,1.0970067977905273,-0.4933893382549286,-2.7626092433929443,0.0,-0.2773108184337616,1.1863057613372803,0.24736250936985016,0.5114328265190125,0.4923900067806244,0.4985774755477905,0.4974023103713989
33.0,-4.346438884735107,-0.617758572101593,1.0970523357391357,-0.4858836531639099,-2.770148992538452,0.0,-0.2825934886932373,1.1867761611938477,0.23931096494197845,0.5034995079040527,0.4976789653301239,0.4995650053024292,0.49923834204673767
34.0,-4.344253063201904,-0.6144657731056213,1.097055435180664,-0.4826091229915619,-2.773437023162842,0.0,-0.28499746322631836,1.1869466304779053,0.23578813672065735,0.500011146068573,0.49999240040779114,0.49999794363975525,0.4999984800815582
35.0,-4.344253063201904,-0.6144657731056213,1.097055435180664,-0.4826091229915619,-2.773437023162842,0.0,-0.28499746322631836,1.1869466304779053,0.23578813672065735,0.500011146068573,0.49999240040779114,0.49999794363975525,0.4999984800815582
36.0,-4.343736171722412,-0.6162265539169312,1.101253628730774,-0.4850050210952759,-2.7729105949401855,0.0,-0.284994900226593,1.1850007772445679,0.2354610413312912,0.5000000596046448,0.4999959468841553,0.49998950958251953,0.5000146627426147
37.0,-4.343212604522705,-0.6180090308189392,1.1054859161376953,-0.4874739348888397,-2.772401809692383,0.0,-0.28499454259872437,1.1830494403839111,0.23513323068618774,0.5000025033950806,0.4999969005584717,0.4999958872795105,0.500004768371582
38.0,-4.342690467834473,-0.6197541356086731,1.109647274017334,-0.4898754358291626,-2.771876096725464,0.0,-0.2849973142147064,1.18110990524292,0.23480598628520966,0.49999862909317017,0.49999815225601196,0.4999929666519165,0.5000104308128357
39.0,-4.34216833114624,-0.6215136647224426,1.113832712173462,-0.4922979772090912,-2.7713491916656494,0.0,-0.2849932909011841,1.1791558265686035,0.2344813197851181,0.49999862909317017,0.49999749660491943,0.4999912977218628,0.5000126957893372
40.0,-4.341634750366211,-0.6232697367668152,1.1180022954940796,-0.4947303533554077,-2.770824670791626,0.0,-0.285001665353775,1.1772037744522095,0.2341596484184265,0.5000025033950806,0.4999970495700836,0.499996155500412,0.5000043511390686
41.0,-4.341113567352295,-0.6249988675117493,1.122143030166626,-0.49713820219039917,-2.7702956199645996,0.0,-0.2849956750869751,1.1752582788467407,0.23382407426834106,0.5000032782554626,0.49999555945396423,0.4999937117099762,0.5000074505805969
42.0,-4.340587615966797,-0.6267197728157043,1.1262564659118652,-0.4995100498199463,-2.769761800765991,0.0,-0.2849940359592438,1.1733120679855347,0.23349791765213013,0.49999868869781494,0.49999648332595825,0.4999887943267822,0.5000161528587341
43.0,-4.340054988861084,-0.6284505724906921,1.130394697189331,-0.5019267201423645,-2.7692456245422363,0.0,-0.2849946916103363,1.1713602542877197,0.23316532373428345,0.4999973773956299,0.49999934434890747,0.49999427795410156,0.5000090599060059
44.0,-4.3395256996154785,-0.6301596760749817,1.134477972984314,-0.5042919516563416,-2.768714427947998,0.0,-0.2849942743778229,1.169417142868042,0.23284192383289337,0.4999949336051941,0.5000001192092896,0.4999924302101135,0.5000125169754028
45.0,-4.339015483856201,-0.6324172019958496,1.1381125450134277,-0.5056749582290649,-2.7681968212127686,0.0,-0.28499504923820496,1.1675500869750977,0.23353375494480133,0.4999987483024597,0.4999973773956299,0.49999141693115234,0.5000124573707581
46.0,-4.338532447814941,-0.6338419914245605,1.141930103302002,-0.5080861449241638,-2.7677152156829834,0.0,-0.28498566150665283,1.1657634973526,0.2329971194267273,0.5000044107437134,0.49999523162841797,0.4999943971633911,0.5000061392784119
47.0,-4.3380303382873535,-0.6352592706680298,1.14574134349823,-0.5104720592498779,-2.767214298248291,0.0,-0.2849947512149811,1.16395902633667,0.23245921730995178,0.5000015497207642,0.4999966025352478,0.4999936819076538,0.5000082850456238
48.0,-4.337536334991455,-0.6366686820983887,1.1495387554168701,-0.5128673911094666,-2.7667176723480225,0.0,-0.2849940061569214,1.162162184715271,0.231918066740036,0.5000045895576477,0.4999948740005493,0.49999403953552246,0.5000064969062805
49.0,-4.337039470672607,-0.6380670666694641,1.1533162593841553,-0.5152341723442078,-2.7662198543548584,0.0,-0.28499528765678406,1.1603643894195557,0.2313791960477829,0.5000008344650269,0.4999963939189911,0.49999210238456726,0.5000107288360596
50.0,-4.336540699005127,-0.6394744515419006,1.1571019887924194,-0.5176065564155579,-2.7657313346862793,0.0,-0.28499364852905273,1.1585628986358643,0.23084671795368195,0.49999624490737915,0.4999997615814209,0.4999936819076538,0.5000103116035461
51.0,-4.3360395431518555,-0.6408597826957703,1.1608549356460571,-0.5199933052062988,-2.7652337551116943,0.0,-0.28499916195869446,1.1567705869674683,0.2303033471107483,0.5000016093254089,0.49999797344207764,0.4999973773956299,0.5000030994415283
52.0,-4.335544586181641,-0.642240047454834,1.1645859479904175,-0.5223230123519897,-2.7647206783294678,0.0,-0.2849942147731781,1.1549718379974365,0.2297741174697876,0.49999934434890747,0.4999963641166687,0.4999898076057434,0.5000145435333252
53.0,-4.335043430328369,-0.6436236500740051,1.1683411598205566,-0.5247508883476257,-2.7642316818237305,0.0,-0.2849944531917572,1.1531792879104614,0.22922396659851074,0.5000148415565491,0.49999141693115234,0.5000008940696716,0.49999290704727173
54.0,-4.334542274475098,-0.6449843049049377,1.1720480918884277,-0.5270743370056152,-2.763723611831665,0.0,-0.28499433398246765,1.1513832807540894,0.2286863923072815,0.5000091791152954,0.49999284744262695,0.4999959468841553,0.5000020265579224
55.0,-4.334033012390137,-0.6463468074798584,1.1757596731185913,-0.5294237732887268,-2.7632293701171875,0.0,-0.2850010395050049,1.1495873928070068,0.22814583778381348,0.5000056028366089,0.499996542930603,0.4999997615814209,0.49999821186065674
56.0,-4.333515644073486,-0.6485482454299927,1.1792629957199097,-0.5307177901268005,-2.762704610824585,0.0,-0.2849947214126587,1.1477259397506714,0.2288419008255005,0.5000046491622925,0.4999959468841553,0.4999968409538269,0.5000026822090149
57.0,-4.333010673522949,-0.649907648563385,1.1829583644866943,-0.5330827832221985,-2.7621967792510986,0.0,-0.2849936783313751,1.1459290981292725,0.22830411791801453,0.5000149011611938,0.49999114871025085,0.5000001192092896,0.4999939501285553
58.0,-4.3325018882751465,-0.6512406468391418,1.1866191625595093,-0.5353701114654541,-2.761685371398926,0.0,-0.2849961519241333,1.1441307067871094,0.22776436805725098,0.5000020265579224,0.4999963343143463,0.4999937117099762,0.5000079870223999
59.0,-4.331993103027344,-0.6525661945343018,1.1902592182159424,-0.5376660823822021,-2.761176586151123,0.0,-0.28499945998191833,1.1423414945602417,0.2272258698940277,0.4999960660934448,0.4999988079071045,0.49999111890792847,0.5000140070915222
60.0,-4.331482887268066,-0.6539148688316345,1.193934440612793,-0.5399975180625916,-2.7606639862060547,0.0,-0.2849966585636139,1.1405339241027832,0.22669316828250885,0.4999982416629791,0.4999975860118866,0.49999120831489563,0.5000130534172058
61.0,-4.330970764160156,-0.6552372574806213,1.1975698471069336,-0.5423117876052856,-2.760145664215088,0.0,-0.28499913215637207,1.1387369632720947,0.22615255415439606,0.5000002384185791,0.49999576807022095,0.4999898076057434,0.5000141859054565
62.0,-4.3304619789123535,-0.6565603613853455,1.2012051343917847,-0.5446451902389526,-2.759645700454712,0.0,-0.28499579429626465,1.1369467973709106,0.22561120986938477,0.5000051259994507,0.49999499320983887,0.4999951124191284,0.500004768371582
63.0,-4.329953193664551,-0.6578716039657593,1.2048214673995972,-0.546936571598053,-2.759143352508545,0.0,-0.284990131855011,1.1351550817489624,0.2250722199678421,0.49999886751174927,0.4999985694885254,0.4999946355819702,0.5000079870223999
64.0,-4.329433441162109,-0.6591864824295044,1.2084383964538574,-0.5492590665817261,-2.7586123943328857,0.0,-0.2849956452846527,1.1333494186401367,0.22453390061855316,0.5000084042549133,0.49999290704727173,0.49999481439590454,0.5000038743019104
65.0,-4.328922748565674,-0.6604834198951721,1.2120184898376465,-0.5515531897544861,-2.75810170173645,0.0,-0.2849932312965393,1.1315646171569824,0.22399765253067017,0.5000120401382446,0.49999138712882996,0.4999963939189911,0.5000001788139343
66.0,-4.328399181365967,-0.6617751121520996,1.2156083583831787,-0.5538244247436523,-2.757582187652588,0.0,-0.28499850630760193,1.1297603845596313,0.22345533967018127,0.5000022053718567,0.4999961256980896,0.49999362230300903,0.5000081658363342
67.0,-4.327869415283203,-0.6639341115951538,1.2190097570419312,-0.5550836324691772,-2.7570486068725586,0.0,-0.28498929738998413,1.127901315689087,0.22414995729923248,0.500008761882782,0.49999284744262695,0.49999505281448364,0.5000035166740417
68.0,-4.327340126037598,-0.6652076244354248,1.222540259361267,-0.557334303855896,-2.756516933441162,0.0,-0.28500571846961975,1.126110553741455,0.22361838817596436,0.5000073313713074,0.4999930262565613,0.49999356269836426,0.5000060796737671
69.0,-4.326821327209473,-0.6664897203445435,1.2261186838150024,-0.5596047043800354,-2.756007194519043,0.0,-0.28499799966812134,1.124306559562683,0.22307226061820984,0.4999963045120239,0.4999989867210388,0.49999213218688965,0.5000125765800476
70.0,-4.32629919052124,-0.6677709221839905,1.2296695709228516,-0.5619035959243774,-2.7554800510406494,0.0,-0.2849980890750885,1.122509479522705,0.22253486514091492,0.5000073313713074,0.4999936819076538,0.49999499320983887,0.5000041127204895
71.0,-4.325773239135742,-0.6690502762794495,1.233209490776062,-0.5641943216323853,-2.7549591064453125,0.0,-0.28500089049339294,1.1207143068313599,0.22200283408164978,0.500015914440155,0.49999070167541504,0.5000003576278687,0.49999308586120605
72.0,-4.325253486633301,-0.6702994108200073,1.2367247343063354,-0.5664094686508179,-2.754441738128662,0.0,-0.28499406576156616,1.1189193725585938,0.22146010398864746,0.4999985694885254,0.49999839067459106,0.4999939799308777,0.5000091791152954
73.0,-4.3247246742248535,-0.6715604662895203,1.2402520179748535,-0.5686861872673035,-2.753913402557373,0.0,-0.28499525785446167,1.1171175241470337,0.22091752290725708,0.5000019669532776,0.49999701976776123,0.49999552965164185,0.5000055432319641
74.0,-4.324197769165039,-0.6728084683418274,1.2437480688095093,-0.570939302444458,-2.753385305404663,0.0,-0.2849960923194885,1.1153250932693481,0.22037941217422485,0.5000039339065552,0.49999603629112244,0.4999959170818329,0.500004231929779
75.0,-4.323668003082275,-0.6740521192550659,1.247240662574768,-0.5731691718101501,-2.7528579235076904,0.0,-0.28499630093574524,1.113526463508606,0.21984218060970306,0.49999696016311646,0.49999934434890747,0.4999939203262329,0.5000098347663879
76.0,-4.323138236999512,-0.6752845048904419,1.2507086992263794,-0.5754116177558899,-2.7523131370544434,0.0,-0.28499868512153625,1.1117321252822876,0.2193029224872589,0.5000029802322388,0.49999457597732544,0.4999910593032837,0.5000114440917969
77.0,-4.322608470916748,-0.6765297055244446,1.2542001008987427,-0.5776854157447815,-2.7517881393432617,0.0,-0.2849952280521393,1.109934687614441,0.21876397728919983,0.5000109076499939,0.4999920427799225,0.499996155500412,0.500001072883606
78.0,-4.322054386138916,-0.6786397695541382,1.2574933767318726,-0.5788668990135193,-2.7512359619140625,0.0,-0.28499656915664673,1.1080716848373413,0.21945935487747192,0.5000098943710327,0.4999926686286926,0.49999624490737915,0.5000012516975403
79.0,-4.3215203285217285,-0.6798455715179443,1.260918378829956,-0.581041693687439,-2.750699281692505,0.0,-0.28499919176101685,1.1062811613082886,0.21892184019088745,0.4999958574771881,0.4999981224536896,0.49998947978019714,0.5000165700912476
80.0,-4.320986270904541,-0.6810731887817383,1.2643842697143555,-0.5833070874214172,-2.7501680850982666,0.0,-0.2849956452846527,1.1044822931289673,0.21837809681892395,0.5000040531158447,0.4999951422214508,0.4999939501285553,0.5000070333480835
81.0,-4.320446014404297,-0.6822832822799683,1.2678165435791016,-0.5855109095573425,-2.7496302127838135,0.0,-0.28499898314476013,1.102683186531067,0.21784013509750366,0.4999973177909851,0.4999983310699463,0.4999920129776001,0.5000123977661133
82.0,-4.319911003112793,-0.6835104823112488,1.2712674140930176,-0.587778627872467,-2.7490904331207275,0.0,-0.28499338030815125,1.1008819341659546,0.21730482578277588,0.5000131726264954,0.4999910295009613,0.49999693036079407,0.4999988377094269
83.0,-4.319371223449707,-0.6846972703933716,1.2746641635894775,-0.5899533033370972,-2.748553514480591,0.0,-0.28499510884284973,1.099090814590454,0.2167636603116989,0.5000007152557373,0.4999966621398926,0.4999927878379822,0.5000099539756775
84.0,-4.318823337554932,-0.6859040260314941,1.2780805826187134,-0.5921971797943115,-2.74800968170166,0.0,-0.28500279784202576,1.0972915887832642,0.21622689068317413,0.500011146068573,0.4999929666519165,0.4999985694885254,0.49999749660491943
85.0,-4.318286895751953,-0.6870899796485901,1.2814748287200928,-0.5943869948387146,-2.7474706172943115,0.0,-0.28499582409858704,1.0954972505569458,0.2156863808631897,0.5000057816505432,0.499994695186615,0.4999953508377075,0.500004231929779
86.0,-4.317741870880127,-0.6882745027542114,1.284861445426941,-0.5965806841850281,-2.746927261352539,0.0,-0.2849973142147064,1.093700647354126,0.21514812111854553,0.5000022649765015,0.4999964237213135,0.49999451637268066,0.5000067949295044
87.0,-4.317197322845459,-0.6894516944885254,1.2882379293441772,-0.5987643003463745,-2.746389865875244,0.0,-0.2849964201450348,1.0919065475463867,0.21460898220539093,0.49999547004699707,0.5000002980232239,0.49999427795410156,0.5000101327896118
88.0,-4.316652297973633,-0.6906300187110901,1.2916100025177002,-0.6009721755981445,-2.7458431720733643,0.0,-0.2849951386451721,1.090111494064331,0.2140708565711975,0.5000004172325134,0.49999794363975525,0.49999579787254333,0.500005841255188
89.0,-4.316081523895264,-0.6927085518836975,1.2948243618011475,-0.6021279096603394,-2.745265007019043,0.0,-0.28499647974967957,1.0882408618927002,0.21476545929908752,0.5000091195106506,0.49999332427978516,0.4999966621398926,0.5000010132789612
90.0,-4.315525531768799,-0.6938654184341431,1.2981691360473633,-0.60432368516922,-2.7447173595428467,0.0,-0.28500619530677795,1.0864486694335938,0.21421819925308228,0.5000095367431641,0.4999943673610687,0.4999997913837433,0.4999963343143463
91.0,-4.314981460571289,-0.6950308084487915,1.3015130758285522,-0.6064929366111755,-2.744162082672119,0.0,-0.28499794006347656,1.0846508741378784,0.21368622779846191,0.5000093579292297,0.49999281764030457,0.49999573826789856,0.5000022053718567
92.0,-4.314429759979248,-0.6961838006973267,1.3048396110534668,-0.6086499094963074,-2.74360990524292,0.0,-0.28499796986579895,1.0828558206558228,0.21315112709999084,0.5000038146972656,0.49999499320983887,0.4999932050704956,0.5000081062316895
93.0,-4.313878059387207,-0.6973277926445007,1.3081625699996948,-0.610812246799469,-2.7430598735809326,0.0,-0.2849961817264557,1.0810611248016357,0.21260815858840942,0.4999977648258209,0.49999770522117615,0.49999144673347473,0.5000130534172058
94.0,-4.313320636749268,-0.6984955072402954,1.3114957809448242,-0.6130192875862122,-2.7425060272216797,0.0,-0.2849976122379303,1.0792620182037354,0.21208134293556213,0.5000107884407043,0.4999929368495941,0.4999980032444,0.4999983608722687
95.0,-4.312764644622803,-0.6996354460716248,1.3148159980773926,-0.6151722073554993,-2.741957187652588,0.0,-0.28499385714530945,1.0774604082107544,0.21153928339481354,0.4999998211860657,0.4999985098838806,0.4999961256980896,0.5000057220458984
96.0,-4.312206268310547,-0.7007533311843872,1.318096399307251,-0.6173115968704224,-2.741396427154541,0.0,-0.2849973142147064,1.075669288635254,0.21099387109279633,0.49999284744262695,0.5000009536743164,0.4999924898147583,0.5000138282775879
97.0,-4.3116455078125,-0.7018808126449585,1.3213791847229004,-0.6194747686386108,-2.740827798843384,0.0,-0.2850010097026825,1.0738741159439087,0.21045544743537903,0.49999740719795227,0.4999978840351105,0.4999915659427643,0.5000131726264954
98.0,-4.311086177825928,-0.7030150890350342,1.3246748447418213,-0.6216427087783813,-2.7402760982513428,0.0,-0.28499725461006165,1.072076678276062,0.20991939306259155,0.49999767541885376,0.49999892711639404,0.4999942183494568,0.5000092387199402
99.0,-4.3105268478393555,-0.7041329145431519,1.327942132949829,-0.6238025426864624,-2.7397067546844482,0.0,-0.28499653935432434,1.0702829360961914,0.2093801498413086,0.5000035166740417,0.49999505281448364,0.49999314546585083,0.5000083446502686
100.0,-4.309942722320557,-0.7061700820922852,1.3310608863830566,-0.6249200105667114,-2.739119529724121,0.0,-0.28499773144721985,1.0684221982955933,0.21007247269153595,0.5000162124633789,0.4999895393848419,0.49999716877937317,0.49999716877937317
101.0,-4.309375286102295,-0.7072795629501343,1.334323525428772,-0.6270327568054199,-2.738565683364868,0.0,-0.2849973142147064,1.0666223764419556,0.2095344066619873,0.49999934434890747,0.4999983310699463,0.4999951720237732,0.5000073313713074
102.0,-4.30880880355835,-0.708380937576294,1.3375661373138428,-0.6291510462760925,-2.7379941940307617,0.0,-0.28499722480773926,1.0648247003555298,0.20899677276611328,0.49999314546585083,0.5000000596046448,0.4999908208847046,0.5000161528587341
103.0,-4.308243274688721,-0.7094933390617371,1.3408156633377075,-0.6313243508338928,-2.737433910369873,0.0,-0.2849951982498169,1.0630333423614502,0.208461195230484,0.5000041127204895,0.4999963641166687,0.49999701976776123,0.5000025033950806
104.0,-4.307670593261719,-0.7105687260627747,1.3440200090408325,-0.6334229111671448,-2.7368481159210205,0.0,-0.2850033640861511,1.0612399578094482,0.20791757106781006,0.4999971091747284,0.4999972879886627,0.4999898374080658,0.5000157952308655
105.0,-4.307102203369141,-0.711672842502594,1.3472694158554077,-0.6355926394462585,-2.736276626586914,0.0,-0.28499749302864075,1.0594367980957031,0.20737585425376892,0.5000059604644775,0.49999329447746277,0.4999922215938568,0.5000087022781372
106.0,-4.306530952453613,-0.7127600908279419,1.3504844903945923,-0.6377103924751282,-2.7357261180877686,0.0,-0.2849964201450348,1.0576488971710205,0.20683978497982025,0.4999973177909851,0.4999998211860657,0.49999600648880005,0.500006914138794
107.0,-4.30595588684082,-0.7138519883155823,1.3537077903747559,-0.6398599743843079,-2.735138416290283,0.0,-0.2849959135055542,1.0558431148529053,0.20630180835723877,0.5000066757202148,0.4999942481517792,0.4999953806400299,0.5000038743019104
108.0,-4.305386066436768,-0.7149251103401184,1.3569045066833496,-0.6419841051101685,-2.734560251235962,0.0,-0.2849915623664856,1.0540498495101929,0.20576032996177673,0.5000090003013611,0.4999920725822449,0.49999338388442993,0.5000056028366089
109.0,-4.304802894592285,-0.7160117030143738,1.3601216077804565,-0.6441358327865601,-2.7339887619018555,0.0,-0.28499487042427063,1.0522457361221313,0.20522163808345795,0.5000130534172058,0.4999921917915344,0.4999990463256836,0.4999958276748657
110.0,-4.304226875305176,-0.717065691947937,1.3632817268371582,-0.6462040543556213,-2.733407735824585,0.0,-0.28499528765678406,1.0504556894302368,0.2046865075826645,0.5000016689300537,0.4999959468841553,0.4999927878379822,0.5000097155570984
111.0,-4.303622245788574,-0.7190818786621094,1.3663430213928223,-0.6472872495651245,-2.7328150272369385,0.0,-0.28499576449394226,1.0485883951187134,0.2053816318511963,0.5000115036964417,0.49999380111694336,0.5000007748603821,0.4999939799308777
112.0,-4.303040981292725,-0.7202081084251404,1.369470238685608,-0.6492552757263184,-2.7322170734405518,0.0,-0.28499844670295715,1.0467907190322876,0.20495444536209106,0.5000043511390686,0.4999941885471344,0.4999922811985016,0.5000092387199402
113.0,-4.30245304107666,-0.7213486433029175,1.3726245164871216,-0.6512546539306641,-2.7316391468048096,0.0,-0.284999817609787,1.0449864864349365,0.20452725887298584,0.49999722838401794,0.49999842047691345,0.499992698431015,0.5000116229057312
114.0,-4.301868438720703,-0.7224797606468201,1.3757611513137817,-0.6532517671585083,-2.7310500144958496,0.0,-0.2849990725517273,1.043185830116272,0.20409910380840302,0.49999573826789856,0.4999983012676239,0.4999906122684479,0.5000153183937073
115.0,-4.301280498504639,-0.7236279249191284,1.3789182901382446,-0.6552861332893372,-2.730478525161743,0.0,-0.28499603271484375,1.0413824319839478,0.20367535948753357,0.4999997913837433,0.4999992549419403,0.49999794363975525,0.5000030994415283
116.0,-4.300693988800049,-0.7247523069381714,1.382036805152893,-0.657293975353241,-2.7298743724823,0.0,-0.2849958837032318,1.039581537246704,0.2032480239868164,0.5000089406967163,0.4999929964542389,0.4999954402446747,0.5000027418136597
117.0,-4.300100326538086,-0.725874125957489,1.3851529359817505,-0.6592848300933838,-2.729285955429077,0.0,-0.2849997282028198,1.0377808809280396,0.2028225213289261,0.5000064373016357,0.49999475479125977,0.4999963641166687,0.5000025629997253
118.0,-4.299507141113281,-0.7269896864891052,1.3882638216018677,-0.6612803936004639,-2.7286903858184814,0.0,-0.28500083088874817,1.0359786748886108,0.20239292085170746,0.5000072717666626,0.49999409914016724,0.49999570846557617,0.5000030994415283
119.0,-4.298913478851318,-0.7281052470207214,1.3913769721984863,-0.6632640361785889,-2.7281007766723633,0.0,-0.28499865531921387,1.034172773361206,0.20196543633937836,0.5000013113021851,0.4999970495700836,0.4999949038028717,0.5000067353248596
120.0,-4.298319339752197,-0.7292216420173645,1.3944799900054932,-0.665256679058075,-2.727510690689087,0.0,-0.2849964201450348,1.0323714017868042,0.20154257118701935,0.5000022649765015,0.4999972879886627,0.49999669194221497,0.5000038146972656
121.0,-4.297720909118652,-0.7303231954574585,1.397559642791748,-0.6672312617301941,-2.7269084453582764,0.0,-0.2849999666213989,1.030571699142456,0.20111770927906036,0.5000021457672119,0.49999678134918213,0.4999953508377075,0.5000059008598328
122.0,-4.297117233276367,-0.7314279675483704,1.4006538391113281,-0.6692242622375488,-2.7263011932373047,0.0,-0.2850034534931183,1.028760552406311,0.20068813860416412,0.500004231929779,0.4999953508377075,0.4999948740005493,0.5000055432319641
123.0,-4.29652214050293,-0.7325243949890137,1.403725504875183,-0.6712068915367126,-2.7256929874420166,0.0,-0.2849997580051422,1.0269598960876465,0.20026205480098724,0.5000101327896118,0.4999910891056061,0.49999263882637024,0.5000061988830566
124.0,-4.295923233032227,-0.7336282730102539,1.4068043231964111,-0.6731953024864197,-2.7251057624816895,0.0,-0.2849954664707184,1.0251611471176147,0.1998409926891327,0.5000115633010864,0.4999922811985016,0.49999716877937317,0.49999895691871643
125.0,-4.295317649841309,-0.7347015738487244,1.4098660945892334,-0.6751609444618225,-2.724499464035034,0.0,-0.28499725461006165,1.0233558416366577,0.19939960539340973,0.5000041127204895,0.49999508261680603,0.49999406933784485,0.5000067949295044
126.0,-4.294713497161865,-0.7357900142669678,1.412915825843811,-0.6771130561828613,-2.7238965034484863,0.0,-0.2849966287612915,1.0215555429458618,0.19898203015327454,0.5000008344650269,0.4999965727329254,0.499993234872818,0.5000095367431641
127.0,-4.294110298156738,-0.7368783950805664,1.415969967842102,-0.6791187524795532,-2.723296880722046,0.0,-0.28499454259872437,1.0197592973709106,0.19855546951293945,0.5000132918357849,0.49999234080314636,0.4999993145465851,0.4999952018260956
128.0,-4.293499946594238,-0.7379381060600281,1.4189914464950562,-0.6810316443443298,-2.72267484664917,0.0,-0.28499844670295715,1.0179542303085327,0.1981278657913208,0.49999988079071045,0.49999570846557617,0.4999901056289673,0.5000144839286804
129.0,-4.292886734008789,-0.7390136122703552,1.4220349788665771,-0.6829971075057983,-2.722067356109619,0.0,-0.2849997878074646,1.016147255897522,0.19770047068595886,0.49999749660491943,0.49999743700027466,0.4999910593032837,0.500014066696167
130.0,-4.292275905609131,-0.7400864958763123,1.4250695705413818,-0.6849529147148132,-2.7214579582214355,0.0,-0.28499743342399597,1.0143417119979858,0.197276771068573,0.49999526143074036,0.499998539686203,0.4999907314777374,0.5000155568122864
131.0,-4.291666507720947,-0.7411550879478455,1.4280970096588135,-0.6869361400604248,-2.720844030380249,0.0,-0.2849939167499542,1.0125404596328735,0.1968482881784439,0.5000044703483582,0.49999427795410156,0.4999926686286926,0.500008761882782
132.0,-4.291045188903809,-0.7422173619270325,1.4311084747314453,-0.6889037489891052,-2.720231294631958,0.0,-0.28500229120254517,1.0107401609420776,0.19642318785190582,0.500008761882782,0.4999938905239105,0.49999722838401794,0.5000001192092896
133.0,-4.290430545806885,-0.7432657480239868,1.434108018875122,-0.6908312439918518,-2.7196080684661865,0.0,-0.28500136733055115,1.0089367628097534,0.19599585235118866,0.5000027418136597,0.49999502301216125,0.49999210238456726,0.5000103116035461
134.0,-4.291323184967041,-0.7414388656616211,1.4296563863754272,-0.687655508518219,-2.7191972732543945,0.0,-0.28499722480773926,1.011033058166504,0.19639892876148224,0.5001463294029236,0.49973824620246887,0.4995967149734497,0.5005182027816772
135.0,-4.292215347290039,-0.7395938038825989,1.4251731634140015,-0.6844356656074524,-2.718776226043701,0.0,-0.28499284386634827,1.0131314992904663,0.19680434465408325,0.5002821087837219,0.4994828402996063,0.4991948902606964,0.5010381937026978
136.0,-4.293098449707031,-0.7377468943595886,1.4206806421279907,-0.6812400221824646,-2.7183480262756348,0.0,-0.2849956452846527,1.0152288675308228,0.19720923900604248,0.5004276037216187,0.4992237091064453,0.4987969994544983,0.50154709815979
137.0,-4.293982028961182,-0.7358854413032532,1.4161677360534668,-0.6780279278755188,-2.717907190322876,0.0,-0.2849959433078766,1.0173252820968628,0.19761110842227936,0.5005726218223572,0.4989624619483948,0.49839428067207336,0.5020624995231628
138.0,-4.29485559463501,-0.7340334057807922,1.411666750907898,-0.6748378276824951,-2.717477321624756,0.0,-0.2849988043308258,1.0194149017333984,0.198015958070755,0.5007186532020569,0.49870383739471436,0.4979988634586334,0.502565860748291
139.0,-4.295738220214844,-0.7321548461914062,1.4071213006973267,-0.6715764403343201,-2.717038154602051,0.0,-0.2849927842617035,1.0215122699737549,0.19842393696308136,0.5008515119552612,0.4984471797943115,0.4975918233394623,0.5030912160873413
140.0,-4.2966179847717285,-0.730276882648468,1.4025743007659912,-0.6683529615402222,-2.716587543487549,0.0,-0.28498679399490356,1.0236061811447144,0.19882884621620178,0.5009995102882385,0.498183012008667,0.49718740582466125,0.50360506772995
141.0,-4.297487735748291,-0.7283878326416016,1.398010015487671,-0.6651434898376465,-2.7161476612091064,0.0,-0.284990131855011,1.0257073640823364,0.19922828674316406,0.5011485815048218,0.49792152643203735,0.4967902898788452,0.5041069388389587
142.0,-4.298357963562012,-0.726496696472168,1.3934407234191895,-0.661908745765686,-2.715708017349243,0.0,-0.284986287355423,1.0278030633926392,0.19963300228118896,0.5012902021408081,0.4976624548435211,0.4963899850845337,0.5046159625053406
143.0,-4.299221992492676,-0.7245796918869019,1.3888403177261353,-0.658630907535553,-2.7152552604675293,0.0,-0.28498777747154236,1.0298969745635986,0.2000315636396408,0.5014207363128662,0.49740639328956604,0.495982825756073,0.5051388740539551
144.0,-4.300086498260498,-0.7226901054382324,1.384261131286621,-0.6554207801818848,-2.7148091793060303,0.0,-0.28498244285583496,1.0319873094558716,0.20044082403182983,0.5015740394592285,0.49714237451553345,0.4955863654613495,0.5056354999542236
145.0,-4.300949573516846,-0.720767617225647,1.3796218633651733,-0.6521544456481934,-2.7143466472625732,0.0,-0.28498297929763794,1.0340900421142578,0.2008505016565323,0.5017211437225342,0.49687787890434265,0.495182067155838,0.506145179271698
146.0,-4.301806926727295,-0.7188383340835571,1.374995470046997,-0.648891270160675,-2.713895559310913,0.0,-0.28498074412345886,1.0361835956573486,0.20124861598014832,0.5018585324287415,0.4966197609901428,0.49477970600128174,0.5066556930541992
147.0,-4.302669525146484,-0.7169086337089539,1.3703407049179077,-0.6456437706947327,-2.713430881500244,0.0,-0.28497445583343506,1.0382856130599976,0.2016570121049881,0.5020145773887634,0.49635112285614014,0.4943777918815613,0.5071564316749573
148.0,-4.303520202636719,-0.7149618268013,1.3656723499298096,-0.6423442959785461,-2.712977170944214,0.0,-0.2849749028682709,1.040382742881775,0.2020622044801712,0.502146303653717,0.496095210313797,0.4939741790294647,0.5076693892478943
149.0,-4.304382801055908,-0.7130165100097656,1.361009955406189,-0.6390734314918518,-2.7125048637390137,0.0,-0.2849573493003845,1.0424710512161255,0.20246361196041107,0.5022935271263123,0.49582821130752563,0.49356579780578613,0.5081815719604492
150.0,-4.3052287101745605,-0.711055338382721,1.3563083410263062,-0.6357810497283936,-2.712034225463867,0.0,-0.28495872020721436,1.0445681810379028,0.20286925137043,0.5024364590644836,0.4955655336380005,0.4931619167327881,0.5086883306503296
151.0,-4.306074619293213,-0.709083080291748,1.3515887260437012,-0.632500946521759,-2.7115566730499268,0.0,-0.28495916724205017,1.046668529510498,0.20326989889144897,0.5025872588157654,0.4952984154224396,0.49275845289230347,0.5091903209686279
152.0,-4.306921005249023,-0.7071123719215393,1.3468689918518066,-0.6292269229888916,-2.7110917568206787,0.0,-0.2849535346031189,1.0487689971923828,0.20367255806922913,0.5027374625205994,0.49503326416015625,0.4923586845397949,0.5096864104270935
153.0,-4.3077616691589355,-0.7051219940185547,1.342118740081787,-0.6258799433708191,-2.7106142044067383,0.0,-0.2849501371383667,1.0508629083633423,0.2040800005197525,0.5028683543205261,0.4947739243507385,0.49194878339767456,0.5102044343948364
154.0,-4.308599472045898,-0.7031342387199402,1.3373662233352661,-0.622602641582489,-2.71012544631958,0.0,-0.2849489152431488,1.0529570579528809,0.20448145270347595,0.503026008605957,0.4945029020309448,0.49154630303382874,0.5106996297836304
155.0,-4.3094377517700195,-0.7011330723762512,1.3325942754745483,-0.6192754507064819,-2.709648847579956,0.0,-0.2849424183368683,1.0550532341003418,0.20488601922988892,0.5031657814979553,0.49424025416374207,0.49114060401916504,0.5112061500549316
156.0,-4.310268402099609,-0.6991128921508789,1.3277784585952759,-0.6159172654151917,-2.709160566329956,0.0,-0.284946084022522,1.0571558475494385,0.20529499650001526,0.5033043026924133,0.4939771592617035,0.49073299765586853,0.5117153525352478
157.0,-4.311105728149414,-0.6971098780632019,1.3230024576187134,-0.6126251220703125,-2.7086782455444336,0.0,-0.2849315404891968,1.0592453479766846,0.20569641888141632,0.5034574866294861,0.493708074092865,0.4903303384780884,0.5122100114822388
158.0,-4.311936378479004,-0.6950738430023193,1.3181694746017456,-0.6092578768730164,-2.7081897258758545,0.0,-0.2849262058734894,1.0613434314727783,0.20609982311725616,0.5035931468009949,0.49344539642333984,0.4899210035800934,0.5127213001251221
159.0,-4.312763214111328,-0.6930437088012695,1.3133370876312256,-0.6059361100196838,-2.7076914310455322,0.0,-0.2849215269088745,1.06343674659729,0.2065029889345169,0.503746747970581,0.4931747019290924,0.48951637744903564,0.5132171511650085
160.0,-4.313589572906494,-0.6910092830657959,1.3084923028945923,-0.6026168465614319,-2.7072041034698486,0.0,-0.28491443395614624,1.0655349493026733,0.20690742135047913,0.5039007663726807,0.49290531873703003,0.4891155958175659,0.5137064456939697
161.0,-4.314410209655762,-0.6889435052871704,1.3036009073257446,-0.599230945110321,-2.7066917419433594,0.0,-0.2849137783050537,1.067630410194397,0.20731016993522644,0.5040424466133118,0.4926373064517975,0.48870325088500977,0.5142167806625366
162.0,-4.315234184265137,-0.6868910193443298,1.2987232208251953,-0.5958868265151978,-2.7062034606933594,0.0,-0.2849026918411255,1.0697288513183594,0.2077159583568573,0.5041924118995667,0.49236929416656494,0.488301157951355,0.5147083401679993
163.0,-4.316045761108398,-0.6848244071006775,1.2938201427459717,-0.5925309062004089,-2.7057015895843506,0.0,-0.2849031984806061,1.071824073791504,0.20812050998210907,0.5043424963951111,0.4921005070209503,0.4878981411457062,0.5152001976966858
164.0,-4.316864013671875,-0.6827436685562134,1.288903832435608,-0.5891669392585754,-2.7051985263824463,0.0,-0.2848937511444092,1.073919415473938,0.20851752161979675,0.5044907927513123,0.4918309450149536,0.4874919354915619,0.5156965851783752
165.0,-4.3176798820495605,-0.6806532144546509,1.283947467803955,-0.5857585072517395,-2.704678535461426,0.0,-0.28488627076148987,1.0760152339935303,0.20892994105815887,0.504638135433197,0.4915590286254883,0.48707979917526245,0.5162009000778198
166.0,-4.318488597869873,-0.678542971611023,1.2789809703826904,-0.5823495388031006,-2.704177141189575,0.0,-0.28488242626190186,1.0781149864196777,0.20932641625404358,0.5047755241394043,0.4912949204444885,0.4866727292537689,0.5167018175125122
167.0,-4.319299221038818,-0.676455557346344,1.2740216255187988,-0.5789787173271179,-2.7036538124084473,0.0,-0.28487148880958557,1.0802028179168701,0.20973992347717285,0.5049363374710083,0.49101758003234863,0.48626622557640076,0.5171907544136047
168.0,-4.320104122161865,-0.674332857131958,1.2690184116363525,-0.5755655765533447,-2.7031469345092773,0.0,-0.28486722707748413,1.0823041200637817,0.2101416289806366,0.5050802826881409,0.49075010418891907,0.4858607053756714,0.517685055732727
169.0,-4.32090950012207,-0.6721982955932617,1.2639979124069214,-0.5721377730369568,-2.702627420425415,0.0,-0.2848588824272156,1.0844007730484009,0.21054139733314514,0.5052239894866943,0.49048006534576416,0.48545020818710327,0.5181854367256165
170.0,-4.321712017059326,-0.6700548529624939,1.2589476108551025,-0.5686953663825989,-2.702098846435547,0.0,-0.2848534882068634,1.0864993333816528,0.21094799041748047,0.5053710341453552,0.4902076721191406,0.4850389063358307,0.5186848044395447
171.0,-4.322512149810791,-0.667927622795105,1.2539207935333252,-0.5653076767921448,-2.701580762863159,0.0,-0.2848424017429352,1.0885909795761108,0.2113543599843979,0.5055307149887085,0.4899321496486664,0.48463672399520874,0.5191653370857239
172.0,-4.323310375213623,-0.6657696962356567,1.2488502264022827,-0.5618540644645691,-2.7010695934295654,0.0,-0.28483250737190247,1.090690016746521,0.21175795793533325,0.5056702494621277,0.48966550827026367,0.4842294454574585,0.5196605920791626
173.0,-4.324105739593506,-0.663593590259552,1.24374520778656,-0.5584105849266052,-2.700526714324951,0.0,-0.2848275303840637,1.092787504196167,0.21215590834617615,0.5058252215385437,0.4893878400325775,0.4838181734085083,0.5201542377471924
174.0,-4.3248982429504395,-0.6614184975624084,1.2386295795440674,-0.5549402236938477,-2.699998617172241,0.0,-0.28481999039649963,1.0948847532272339,0.21256522834300995,0.5059707164764404,0.4891163110733032,0.48340916633605957,0.5206480622291565
175.0,-4.32568883895874,-0.6592366099357605,1.2335102558135986,-0.5514841079711914,-2.6994729042053223,0.0,-0.28480976819992065,1.096978783607483,0.21296733617782593,0.506118655204773,0.48884445428848267,0.48300233483314514,0.521136999130249
176.0,-4.326476097106934,-0.6570343971252441,1.2283564805984497,-0.5480111241340637,-2.698939323425293,0.0,-0.2848033010959625,1.099076747894287,0.21336588263511658,0.5062664747238159,0.48857155442237854,0.4825938045978546,0.52162766456604
177.0,-4.327263832092285,-0.6548361778259277,1.2231863737106323,-0.5445343255996704,-2.698394298553467,0.0,-0.28479301929473877,1.1011704206466675,0.2137780636548996,0.5064224600791931,0.4882931113243103,0.4821840524673462,0.5221157073974609
178.0,-4.328050136566162,-0.652620792388916,1.21799898147583,-0.541053295135498,-2.6978559494018555,0.0,-0.28478145599365234,1.1032668352127075,0.21418046951293945,0.5065746903419495,0.4880172908306122,0.4817754924297333,0.5226026773452759
179.0,-4.328834056854248,-0.650405764579773,1.2128125429153442,-0.5375807285308838,-2.69732403755188,0.0,-0.28476613759994507,1.1053584814071655,0.2145824432373047,0.5067275762557983,0.4877423346042633,0.4813700020313263,0.5230847001075745
180.0,-4.329610824584961,-0.648156464099884,1.2075554132461548,-0.5340433120727539,-2.6967735290527344,0.0,-0.2847633361816406,1.1074587106704712,0.21498943865299225,0.5068731904029846,0.48746782541275024,0.48095759749412537,0.5235785245895386
181.0,-4.330390930175781,-0.6459060311317444,1.2023032903671265,-0.5305395126342773,-2.6962249279022217,0.0,-0.2847514748573303,1.1095554828643799,0.21538829803466797,0.5070280432701111,0.487189382314682,0.48054829239845276,0.5240634679794312
182.0,-4.331161975860596,-0.6436449289321899,1.1970176696777344,-0.5269867777824402,-2.6956777572631836,0.0,-0.2847469449043274,1.11165189743042,0.21579961478710175,0.5071715712547302,0.48691657185554504,0.4801379144191742,0.5245540142059326
183.0,-4.33193826675415,-0.6413821578025818,1.1917308568954468,-0.5234816670417786,-2.6951262950897217,0.0,-0.28473377227783203,1.1137477159500122,0.2162022739648819,0.5073326230049133,0.48663532733917236,0.47973117232322693,0.5250312685966492
184.0,-4.332709312438965,-0.6390864849090576,1.186394453048706,-0.5198962092399597,-2.6945698261260986,0.0,-0.28472477197647095,1.1158447265625,0.2166045904159546,0.5074722766876221,0.4863617420196533,0.4793156683444977,0.5255290269851685
185.0,-4.333477973937988,-0.6368045210838318,1.1810652017593384,-0.5163711905479431,-2.6940159797668457,0.0,-0.2847139239311218,1.1179397106170654,0.2170102298259735,0.5076329112052917,0.4860808253288269,0.47890999913215637,0.5260034799575806
186.0,-4.334245204925537,-0.6345009207725525,1.1757005453109741,-0.5128100514411926,-2.6934590339660645,0.0,-0.28470367193222046,1.1200363636016846,0.2174142450094223,0.507785975933075,0.48580223321914673,0.4785008132457733,0.5264852643013
187.0,-4.335009574890137,-0.6321747303009033,1.1702989339828491,-0.5092012286186218,-2.6928963661193848,0.0,-0.2846943140029907,1.1221328973770142,0.21781809628009796,0.5079284906387329,0.4855266809463501,0.47808608412742615,0.5269783735275269
188.0,-4.335771560668945,-0.6298550963401794,1.164894700050354,-0.5056222677230835,-2.6923418045043945,0.0,-0.28468310832977295,1.1242294311523438,0.21822679042816162,0.508081316947937,0.48524877429008484,0.4776790142059326,0.5274560451507568
189.0,-4.33653450012207,-0.6275184750556946,1.159472107887268,-0.5020482540130615,-2.6917734146118164,0.0,-0.284668505191803,1.1263219118118286,0.2186245173215866,0.5082395076751709,0.48496606945991516,0.47726887464523315,0.5279347896575928
190.0,-4.33729362487793,-0.6251803636550903,1.154022216796875,-0.4984716773033142,-2.6912105083465576,0.0,-0.284656822681427,1.1284198760986328,0.21903455257415771,0.5084030032157898,0.48468250036239624,0.4768638014793396,0.5284035205841064
191.0,-4.33804988861084,-0.622810423374176,1.1485319137573242,-0.4948357045650482,-2.690640449523926,0.0,-0.2846461832523346,1.1305161714553833,0.2194373607635498,0.5085502862930298,0.4844040870666504,0.4764508306980133,0.5288894772529602
192.0,-4.338803291320801,-0.6204325556755066,1.1430250406265259,-0.49119889736175537,-2.6900696754455566,0.0,-0.28463509678840637,1.132610559463501,0.21983996033668518,0.5086994171142578,0.48412492871284485,0.47603899240493774,0.5293722152709961
193.0,-4.33955717086792,-0.6180517077445984,1.1375031471252441,-0.48758190870285034,-2.6895015239715576,0.0,-0.28462088108062744,1.1347070932388306,0.2202431559562683,0.508858323097229,0.4838421940803528,0.4756316542625427,0.5298439264297485
194.0,-4.340307712554932,-0.6156377196311951,1.1319184303283691,-0.4839150905609131,-2.6889138221740723,0.0,-0.28461334109306335,1.1368085145950317,0.22064678370952606,0.5090141296386719,0.48355749249458313,0.47521740198135376,0.530325710773468
195.0,-4.341054439544678,-0.6132328510284424,1.1263561248779297,-0.4802512526512146,-2.688347816467285,0.0,-0.284598708152771,1.1388986110687256,0.22105078399181366,0.5091603398323059,0.4832804501056671,0.47480806708335876,0.5308043360710144
196.0,-4.341795921325684,-0.6108134984970093,1.1207470893859863,-0.47658979892730713,-2.6877691745758057,0.0,-0.28459253907203674,1.1409952640533447,0.22145994007587433,0.5093194842338562,0.48299694061279297,0.4744011163711548,0.531273365020752
197.0,-4.342545986175537,-0.6083781123161316,1.11512291431427,-0.47291865944862366,-2.687190294265747,0.0,-0.28457194566726685,1.143090844154358,0.22186002135276794,0.5094768404960632,0.4827122986316681,0.473990261554718,0.5317476987838745
198.0,-4.343287944793701,-0.6059224605560303,1.1094536781311035,-0.46920812129974365,-2.6866061687469482,0.0,-0.28456035256385803,1.1451877355575562,0.22226521372795105,0.5096285343170166,0.4824298620223999,0.4735778868198395,0.5322256684303284
199.0,-4.344026565551758,-0.6034747362136841,1.1037874221801758,-0.46552449464797974,-2.686026096343994,0.0,-0.28454670310020447,1.1472786664962769,0.2226743996143341,0.5097886919975281,0.4821452498435974,0.47317156195640564,0.5326914191246033
200.0,-4.34476900100708,-0.6009882688522339,1.0980641841888428,-0.4617944061756134,-2.685441255569458,0.0,-0.2845293879508972,1.149378776550293,0.22307376563549042,0.5099413394927979,0.48186174035072327,0.4727589190006256,0.5331680774688721
201.0,-4.3455023765563965,-0.5984836220741272,1.0923011302947998,-0.458040326833725,-2.6848347187042236,0.0,-0.2845224142074585,1.151473045349121,0.22347569465637207,0.5100958943367004,0.48157477378845215,0.4723426401615143,0.5336483120918274
202.0,-4.3462324142456055,-0.5959930419921875,1.0865511894226074,-0.4543054699897766,-2.684263229370117,0.0,-0.28451019525527954,1.1535667181015015,0.22388491034507751,0.5102475881576538,0.4812953770160675,0.47193852066993713,0.5341125130653381
203.0,-4.346969127655029,-0.5934758186340332,1.0807561874389648,-0.4505625367164612,-2.6836729049682617,0.0,-0.2844914495944977,1.1556648015975952,0.22428633272647858,0.510408878326416,0.4810076057910919,0.471529096364975,0.5345790386199951
204.0,-4.3476996421813965,-0.5909339785575867,1.0749164819717407,-0.4467759430408478,-2.6830708980560303,0.0,-0.28447848558425903,1.157760500907898,0.224688321352005,0.510563313961029,0.4807210862636566,0.4711149036884308,0.5350543856620789
205.0,-4.348429203033447,-0.5883877873420715,1.0690598487854004,-0.44298532605171204,-2.6824753284454346,0.0,-0.2844623327255249,1.1598554849624634,0.22509431838989258,0.5107184052467346,0.480435311794281,0.47070345282554626,0.5355249643325806
206.0,-4.349154949188232,-0.5858234763145447,1.0631660223007202,-0.4391944110393524,-2.6818723678588867,0.0,-0.28445038199424744,1.1619526147842407,0.2254972755908966,0.5108802914619446,0.4801459014415741,0.4702933132648468,0.5359901785850525
207.0,-4.349881172180176,-0.583242654800415,1.0572428703308105,-0.4353601932525635,-2.6812777519226074,0.0,-0.2844333350658417,1.1640499830245972,0.2259027659893036,0.5110300183296204,0.4798622727394104,0.46988099813461304,0.5364629030227661
208.0,-4.350599765777588,-0.5806452035903931,1.0512993335723877,-0.43153858184814453,-2.6806652545928955,0.0,-0.28442293405532837,1.1661380529403687,0.22629699110984802,0.5111873149871826,0.47957348823547363,0.4694679379463196,0.536932647228241
209.0,-4.351324558258057,-0.5780442953109741,1.0453153848648071,-0.4276982247829437,-2.680067777633667,0.0,-0.2844037115573883,1.1682387590408325,0.2267100065946579,0.5113484263420105,0.4792846143245697,0.46905937790870667,0.5373939871788025
210.0,-4.352043151855469,-0.5754161477088928,1.0392992496490479,-0.42382189631462097,-2.6794652938842773,0.0,-0.28438806533813477,1.1703336238861084,0.22711285948753357,0.511498749256134,0.47899970412254333,0.4686468243598938,0.5378649234771729
211.0,-4.352761268615723,-0.5727788209915161,1.0332547426223755,-0.4199501574039459,-2.678856134414673,0.0,-0.2843713164329529,1.1724283695220947,0.22751827538013458,0.5116580724716187,0.478709876537323,0.4682355523109436,0.5383293032646179
212.0,-4.353476524353027,-0.5701221823692322,1.0271704196929932,-0.41605785489082336,-2.678248405456543,0.0,-0.2843560576438904,1.1745258569717407,0.2279236912727356,0.5118159651756287,0.4784211218357086,0.46782517433166504,0.5387924313545227
213.0,-4.35418701171875,-0.5674610733985901,1.0210729837417603,-0.41216352581977844,-2.677645683288574,0.0,-0.28434109687805176,1.176618218421936,0.2283312976360321,0.5119736790657043,0.4781337380409241,0.46741798520088196,0.539250910282135
214.0,-4.354900360107422,-0.5647621154785156,1.01491379737854,-0.4082232415676117,-2.6770293712615967,0.0,-0.2843235731124878,1.1787151098251343,0.22873151302337646,0.5121275186538696,0.47784459590911865,0.46700334548950195,0.5397202372550964
215.0,-4.355610370635986,-0.5620468854904175,1.0087167024612427,-0.4042552709579468,-2.6764094829559326,0.0,-0.28430768847465515,1.1808100938796997,0.22913606464862823,0.512279212474823,0.4775557518005371,0.466587632894516,0.5401911735534668
216.0,-4.3563103675842285,-0.5593304634094238,1.002503514289856,-0.4003159701824188,-2.6757898330688477,0.0,-0.28430047631263733,1.1829023361206055,0.22954219579696655,0.5124427676200867,0.4772639572620392,0.46618032455444336,0.5406454801559448
217.0,-4.3570237159729,-0.556587815284729,0.9962465167045593,-0.39633452892303467,-2.675179958343506,0.0,-0.28427425026893616,1.185002088546753,0.22994579374790192,0.5125986337661743,0.4769742786884308,0.46576836705207825,0.5411081314086914
218.0,-4.357728004455566,-0.5538347959518433,0.989962637424469,-0.39235714077949524,-2.6745564937591553,0.0,-0.2842564582824707,1.1870944499969482,0.23034991323947906,0.5127622485160828,0.4766805171966553,0.46535781025886536,0.5415651798248291
219.0,-4.3584303855896,-0.5510602593421936,0.9836348295211792,-0.38836225867271423,-2.6739299297332764,0.0,-0.2842399477958679,1.1891889572143555,0.2307528555393219,0.5129274725914001,0.4763855040073395,0.4649476110935211,0.5420204401016235
220.0,-4.359127521514893,-0.5482600331306458,0.9772561192512512,-0.38432544469833374,-2.6733062267303467,0.0,-0.28422778844833374,1.1912859678268433,0.2311571091413498,0.513084888458252,0.476094514131546,0.4645369350910187,0.5424789786338806
221.0,-4.359827518463135,-0.5454463958740234,0.9708505868911743,-0.38027676939964294,-2.672680377960205,0.0,-0.28420788049697876,1.1933801174163818,0.2315606027841568,0.5132439732551575,0.47580164670944214,0.4641248285770416,0.5429380536079407
222.0,-4.360517978668213,-0.5426179766654968,0.9644097685813904,-0.3762035667896271,-2.672062397003174,0.0,-0.2841961979866028,1.1954727172851562,0.23196780681610107,0.5133970975875854,0.4755137860774994,0.46371668577194214,0.5433940291404724
223.0,-4.361221790313721,-0.5397495031356812,0.9578971862792969,-0.3720780611038208,-2.6714236736297607,0.0,-0.2841695249080658,1.1975709199905396,0.23237188160419464,0.5135512948036194,0.47521907091140747,0.4632965326309204,0.5438643097877502
224.0,-4.361914157867432,-0.5368859171867371,0.9513735771179199,-0.3680168390274048,-2.6707937717437744,0.0,-0.28415417671203613,1.1996692419052124,0.23277519643306732,0.5137270092964172,0.47491976618766785,0.4628922641277313,0.544303834438324
225.0,-4.36260461807251,-0.5339955687522888,0.9448114633560181,-0.3638675808906555,-2.6701695919036865,0.0,-0.28413358330726624,1.2017594575881958,0.2331811487674713,0.5138752460479736,0.47463154792785645,0.46247950196266174,0.5447659492492676
226.0,-4.36260461807251,-0.5339955687522888,0.9448114633560181,-0.3638675808906555,-2.6701695919036865,0.0,-0.28413358330726624,1.2017594575881958,0.2331811487674713,0.5138752460479736,0.47463154792785645,0.46247950196266174,0.5447659492492676
227.0,-4.36260461807251,-0.5339955687522888,0.9448114633560181,-0.3638675808906555,-2.6701695919036865,0.0,-0.28413358330726624,1.2017594575881958,0.2331811487674713,0.5138752460479736,0.47463154792785645,0.46247950196266174,0.5447659492492676
228.0,-4.363165378570557,-0.5380393862724304,0.9466724395751953,-0.3572293817996979,-2.6784300804138184,0.0,-0.28245842456817627,1.2033929824829102,0.23830990493297577,0.5106026530265808,0.4772911071777344,0.4638371169567108,0.5443649888038635
229.0,-4.363765239715576,-0.5423621535301208,0.9486618041992188,-0.35013338923454285,-2.687260389328003,0.0,-0.2806891202926636,1.2051277160644531,0.24376022815704346,0.5070993900299072,0.48013752698898315,0.46526363492012024,0.5439190864562988
230.0,-4.365151882171631,-0.5501998662948608,0.9525161385536194,-0.3363705277442932,-2.7043302059173584,0.0,-0.2770591378211975,1.2085061073303223,0.2535669207572937,0.5001757144927979,0.4856661558151245,0.46780505776405334,0.5432413816452026
231.0,-4.366654872894287,-0.5585583448410034,0.9566468596458435,-0.32161998748779297,-2.7226204872131348,0.0,-0.2732468545436859,1.2120848894119263,0.26388245820999146,0.49272823333740234,0.49160900712013245,0.47040611505508423,0.5424551367759705
232.0,-4.369175910949707,-0.5695205926895142,0.962387204170227,-0.301010400056839,-2.7484614849090576,0.0,-0.2675856053829193,1.2172627449035645,0.27716362476348877,0.4821023941040039,0.500007688999176,0.47369661927223206,0.5414620637893677
233.0,-4.371941566467285,-0.5811076760292053,0.9685137867927551,-0.278994619846344,-2.7761147022247314,0.0,-0.2616756558418274,1.2227349281311035,0.2908596098423004,0.47069069743156433,0.5090336203575134,0.4769228994846344,0.5402589440345764
234.0,-4.376039981842041,-0.5945976376533508,0.9759321808815002,-0.2519283592700958,-2.810112237930298,0.0,-0.2539020776748657,1.2295693159103394,0.30632784962654114,0.4565986692905426,0.5201146006584167,0.4802190959453583,0.5388767719268799
235.0,-4.38060188293457,-0.6087493896484375,0.983799934387207,-0.22310544550418854,-2.8463165760040283,0.0,-0.24576996266841888,1.2367111444473267,0.32194069027900696,0.44156935811042786,0.5319709181785583,0.4831802248954773,0.537178099155426
236.0,-4.386691093444824,-0.6241870522499084,0.9926435351371765,-0.18998292088508606,-2.8877763748168945,0.0,-0.23589710891246796,1.2449110746383667,0.33817845582962036,0.4243604838848114,0.5455542802810669,0.485613614320755,0.5352271795272827
237.0,-4.39350700378418,-0.6402370929718018,1.0019519329071045,-0.1548129916191101,-2.93173885345459,0.0,-0.2255355417728424,1.2533446550369263,0.3541056513786316,0.40615904331207275,0.5600336790084839,0.48733827471733093,0.5328214764595032
238.0,-4.401821613311768,-0.6570185422897339,1.0119478702545166,-0.11607246845960617,-2.9798743724823,0.0,-0.21378681063652039,1.262372612953186,0.369566410779953,0.3862946033477783,0.5759592652320862,0.48799529671669006,0.530007541179657
239.0,-4.411081790924072,-0.6742619872093201,1.0223783254623413,-0.07507684826850891,-3.0306453704833984,0.0,-0.20148715376853943,1.2714064121246338,0.38410085439682007,0.36549460887908936,0.5928620100021362,0.48750168085098267,0.5265647172927856
240.0,-4.421713829040527,-0.6917241215705872,1.033250331878662,-0.03121194802224636,-3.084688663482666,0.0,-0.18822047114372253,1.2805044651031494,0.39715641736984253,0.3435489237308502,0.6109752058982849,0.48548924922943115,0.5224783420562744
241.0,-4.433476448059082,-0.7093663215637207,1.0444860458374023,0.015015889890491962,-3.1414270401000977,0.0,-0.1743863821029663,1.2892602682113647,0.40852439403533936,0.32082974910736084,0.630111038684845,0.48185449838638306,0.5175372362136841
242.0,-4.446407794952393,-0.7268444299697876,1.0559858083724976,0.06345946341753006,-3.200637102127075,0.0,-0.1600402593612671,1.2974408864974976,0.4176575541496277,0.2975185811519623,0.6502084732055664,0.47635430097579956,0.5116622447967529
243.0,-4.460587024688721,-0.744147539138794,1.0677672624588013,0.11426649242639542,-3.2624828815460205,0.0,-0.14518862962722778,1.3047795295715332,0.4243517816066742,0.2737210988998413,0.6713006496429443,0.46877458691596985,0.5046608448028564
244.0,-4.4757843017578125,-0.7610453367233276,1.0796866416931152,0.16671675443649292,-3.3261077404022217,0.0,-0.13016879558563232,1.31084144115448,0.428416907787323,0.24994775652885437,0.6930531859397888,0.45908862352371216,0.49642834067344666
245.0,-4.492391109466553,-0.7773818969726562,1.091797113418579,0.2214422971010208,-3.3921961784362793,0.0,-0.11464076489210129,1.315451979637146,0.42946481704711914,0.22613927721977234,0.7156605124473572,0.4469057619571686,0.48679205775260925
246.0,-4.5098066329956055,-0.793179988861084,1.1039572954177856,0.27731773257255554,-3.4594171047210693,0.0,-0.09934353083372116,1.3180413246154785,0.42790085077285767,0.2029850035905838,0.7385669946670532,0.43252867460250854,0.47564151883125305
247.0,-4.528693199157715,-0.8079989552497864,1.1162080764770508,0.33528390526771545,-3.5286972522735596,0.0,-0.08365099132061005,1.3184930086135864,0.42304450273513794,0.18036583065986633,0.7620495557785034,0.4153538942337036,0.46284976601600647
248.0,-4.548189640045166,-0.8222354054450989,1.1284475326538086,0.39400166273117065,-3.5985467433929443,0.0,-0.06858706474304199,1.3162672519683838,0.41602516174316406,0.15901267528533936,0.7854112386703491,0.39605289697647095,0.44831496477127075
249.0,-4.569179058074951,-0.8350483179092407,1.1406593322753906,0.4545567035675049,-3.6697885990142822,0.0,-0.053272053599357605,1.311287760734558,0.40583536028862,0.13885097205638885,0.8089196085929871,0.3737991452217102,0.4320228397846222
250.0,-4.5905866622924805,-0.8473345637321472,1.1528242826461792,0.5155567526817322,-3.741258144378662,0.0,-0.03903529793024063,1.3032091856002808,0.3943311274051666,0.12048105150461197,0.8318670392036438,0.3496651351451874,0.4137824475765228
251.0,-4.613428592681885,-0.857815682888031,1.1648285388946533,0.5780827403068542,-3.813507318496704,0.0,-0.02482888102531433,1.2920423746109009,0.380206435918808,0.10392004996538162,0.8544559478759766,0.3226548731327057,0.39369985461235046
252.0,-4.636502265930176,-0.8678618669509888,1.176772952079773,0.6408243179321289,-3.8858118057250977,0.0,-0.012207210063934326,1.2776784896850586,0.36585772037506104,0.0895543023943901,0.8760312795639038,0.29414212703704834,0.37152358889579773
253.0,-4.660778999328613,-0.8756463527679443,1.1884058713912964,0.7046871185302734,-3.958402395248413,0.0,-0.00014854967594146729,1.2603329420089722,0.3495807647705078,0.07744546979665756,0.8967123031616211,0.2630288302898407,0.34745529294013977
254.0,-4.685145854949951,-0.8831292986869812,1.199994683265686,0.7686177492141724,-4.030996799468994,0.0,0.009866967797279358,1.240053415298462,0.3343043327331543,0.06781906634569168,0.9159179925918579,0.23086847364902496,0.3212391138076782
255.0,-4.710353374481201,-0.8877975940704346,1.2111724615097046,0.8331819772720337,-4.10362434387207,0.0,0.018638253211975098,1.2173644304275513,0.31770360469818115,0.06068134680390358,0.9337043762207031,0.1964874118566513,0.29309865832328796
256.0,-4.735577583312988,-0.8923506140708923,1.2223351001739502,0.8977496027946472,-4.176248550415039,0.0,0.025073759257793427,1.1923564672470093,0.30337977409362793,0.05622393637895584,0.9495445489883423,0.1615578532218933,0.26287487149238586
257.0,-4.7612810134887695,-0.8934453725814819,1.2330448627471924,0.9624202251434326,-4.248772621154785,0.0,0.029729142785072327,1.1659036874771118,0.2881545424461365,0.05434705689549446,0.9634367227554321,0.12479645013809204,0.23078586161136627
258.0,-4.786983966827393,-0.8945401906967163,1.2437547445297241,1.0270909070968628,-4.321296215057373,0.0,0.03199819475412369,1.1380800008773804,0.27629023790359497,0.05525735765695572,0.9749246835708618,0.0879644975066185,0.19680160284042358
259.0,-4.812737464904785,-0.8917605876922607,1.2540448904037476,1.0912671089172363,-4.393660068511963,0.0,0.03212079033255577,1.1100640296936035,0.2640095353126526,0.05871816724538803,0.9839256405830383,0.04982836917042732,0.16112016141414642
260.0,-4.8384928703308105,-0.8888518214225769,1.264320969581604,1.1554267406463623,-4.466018199920654,0.0,0.03008889965713024,1.081911325454712,0.2556816041469574,0.06496648490428925,0.9900986552238464,0.012017612345516682,0.12385314702987671
261.0,-4.863921165466309,-0.8820844888687134,1.274269938468933,1.218570590019226,-4.538144111633301,0.0,0.025938566774129868,1.0549354553222656,0.24756747484207153,0.07365797460079193,0.9932826161384583,-0.026430578902363777,0.085238978266716
262.0,-4.8893141746521,-0.8749037981033325,1.2841838598251343,1.28160560131073,-4.6102447509765625,0.0,0.02013213001191616,1.029212474822998,0.24348226189613342,0.0850214958190918,0.9932688474655151,-0.0641980767250061,0.04546402767300606
263.0,-4.914027690887451,-0.863976240158081,1.2939074039459229,1.3431313037872314,-4.681976318359375,0.0,0.012622511945664883,1.0060161352157593,0.23985932767391205,0.09859525412321091,0.9898785352706909,-0.10195894539356232,0.004890982527285814
264.0,-4.938610553741455,-0.8523281216621399,1.3035941123962402,1.4043668508529663,-4.753636360168457,0.0,0.004200019873678684,0.9854131937026978,0.23985916376113892,-0.11461154371500015,-0.9830106496810913,0.13869644701480865,0.03629986196756363
265.0,-4.962578773498535,-0.8376745581626892,1.3130240440368652,1.4637978076934814,-4.824271202087402,0.0,-0.004631170071661472,0.9684932827949524,0.2407170534133911,-0.13262617588043213,-0.9726023077964783,0.1745627075433731,0.0773504227399826
266.0,-4.986367702484131,-0.8221444487571716,1.322379231452942,1.5227024555206299,-4.894606590270996,0.0,-0.013331258669495583,0.9552335739135742,0.2443852424621582,-0.1527370661497116,-0.9586356282234192,0.20902028679847717,0.11831999570131302
267.0,-5.009571552276611,-0.804374098777771,1.3314399719238281,1.579547643661499,-4.963266372680664,0.0,-0.02114260382950306,0.9463053345680237,0.24863040447235107,-0.17439548671245575,-0.941304087638855,0.24188008904457092,0.15819914638996124
268.0,-5.032536029815674,-0.7856873869895935,1.3403801918029785,1.6355501413345337,-5.031239986419678,0.0,-0.027739830315113068,0.9415671825408936,0.2544572055339813,-0.1976492553949356,-0.9206060171127319,0.27298322319984436,0.19722968339920044
269.0,-5.054871559143066,-0.7655292749404907,1.3489892482757568,1.689281940460205,-5.097053527832031,0.0,-0.03245541453361511,0.9411545395851135,0.2601480185985565,-0.2218245565891266,-0.8970439434051514,0.30194899439811707,0.23437751829624176
270.0,-5.076860427856445,-0.7445618510246277,1.357416033744812,1.7417649030685425,-5.161678791046143,0.0,-0.03510918468236923,0.9447866678237915,0.266012966632843,-0.24695493280887604,-0.8706204891204834,0.3288828432559967,0.2699434161186218
271.0,-5.098081111907959,-0.7227759957313538,1.365478515625,1.7917819023132324,-5.2236409187316895,0.0,-0.035349294543266296,0.952049732208252,0.27081426978111267,-0.272270143032074,-0.842113196849823,0.3534281849861145,0.3029900789260864
272.0,-5.118745803833008,-0.7003991603851318,1.3732779026031494,1.8400177955627441,-5.283679962158203,0.0,-0.03314339369535446,0.9625168442726135,0.27444592118263245,-0.2977678179740906,-0.8115950226783752,0.37581101059913635,0.33378735184669495
273.0,-5.138575553894043,-0.6778720617294312,1.3806850910186768,1.8857160806655884,-5.340643882751465,0.0,-0.028461121022701263,0.9754136800765991,0.2763863503932953,-0.3227805197238922,-0.7799420356750488,0.39580127596855164,0.36172449588775635
274.0,-5.157622337341309,-0.6552039384841919,1.3877246379852295,1.9290350675582886,-5.3947248458862305,0.0,-0.021471314132213593,0.9901466369628906,0.27631983160972595,-0.3471565246582031,-0.7474549412727356,0.41362708806991577,0.38691866397857666
275.0,-5.175784111022949,-0.63291335105896,1.3943694829940796,1.9698072671890259,-5.445396423339844,0.0,-0.012431465089321136,1.0059221982955933,0.27432501316070557,-0.37049925327301025,-0.7148140072822571,0.42931246757507324,0.4092213809490204
276.0,-5.192872524261475,-0.6110811829566956,1.4005354642868042,2.0074870586395264,-5.4919281005859375,0.0,-0.0017721354961395264,1.021895408630371,0.27012360095977783,-0.39236125349998474,-0.6827923059463501,0.4429970681667328,0.4284869432449341
277.0,-5.209046840667725,-0.5900357365608215,1.40631902217865,2.0427145957946777,-5.534968852996826,0.0,0.010162904858589172,1.037729263305664,0.2642749547958374,-0.4128515422344208,-0.6514664888381958,0.45494458079338074,0.4451635181903839
278.0,-5.2237749099731445,-0.5702359080314636,1.4114973545074463,2.0740599632263184,-5.572482109069824,0.0,0.022584199905395508,1.052209496498108,0.2567955255508423,-0.43106141686439514,-0.6223857402801514,0.4651492238044739,0.4587574303150177
279.0,-5.237548351287842,-0.5514868497848511,1.4163140058517456,2.103116989135742,-5.606925964355469,0.0,0.035368889570236206,1.0659117698669434,0.2483237087726593,-0.44783833622932434,-0.5945669412612915,0.47401851415634155,0.4703589379787445
280.0,-5.249318599700928,-0.534944474697113,1.420371651649475,2.127368927001953,-5.63492488861084,0.0,0.047163449227809906,1.0772364139556885,0.23945140838623047,-0.4617106318473816,-0.570613443851471,0.4812897741794586,0.47914913296699524
281.0,-5.26016902923584,-0.5196126103401184,1.4240883588790894,2.149599313735962,-5.660459041595459,0.0,0.05864635854959488,1.0876322984695435,0.2303781360387802,-0.4743066728115082,-0.5481999516487122,0.4875701367855072,0.48660609126091003
282.0,-5.268375873565674,-0.5077610611915588,1.4268245697021484,2.166018009185791,-5.678906440734863,0.0,0.06769901514053345,1.0951379537582397,0.22266311943531036,-0.4835156202316284,-0.5312796831130981,0.49216428399086,0.49165937304496765
283.0,-5.275783538818359,-0.497043251991272,1.4292830228805542,2.180800676345825,-5.6955084800720215,0.0,0.07611215114593506,1.1018632650375366,0.215298593044281,-0.4917392432689667,-0.5158552527427673,0.4961092174053192,0.4959450960159302
284.0,-5.279860496520996,-0.49104946851730347,1.4305832386016846,2.188767194747925,-5.704419136047363,0.0,0.08083458989858627,1.105452060699463,0.21097218990325928,-0.4961671829223633,-0.5073985457420349,0.4982109069824219,0.4981473386287689
285.0,-5.283411502838135,-0.48582905530929565,1.431715726852417,2.1957058906555176,-5.712179660797119,0.0,0.08499827980995178,1.1085619926452637,0.20711608231067657,-0.5000041723251343,-0.4999958872795105,0.4999959170818329,0.5000041127204895
286.0,-5.283411502838135,-0.48582905530929565,1.431715726852417,2.1957058906555176,-5.712179660797119,0.0,0.08499827980995178,1.1085619926452637,0.20711608231067657,-0.5000041723251343,-0.4999958872795105,0.4999959170818329,0.5000041127204895
287.0,-5.283411502838135,-0.48582905530929565,1.431715726852417,2.1957058906555176,-5.712179660797119,0.0,0.08499827980995178,1.1085619926452637,0.20711608231067657,-0.5000041723251343,-0.4999958872795105,0.4999959170818329,0.5000041127204895
288.0,-5.283411502838135,-0.48582905530929565,1.431715726852417,2.1957058906555176,-5.712179660797119,0.0,0.08499827980995178,1.1085619926452637,0.20711608231067657,-0.5000041723251343,-0.4999958872795105,0.4999959170818329,0.5000041127204895
289.0,-5.284258842468262,-0.48767274618148804,1.4352436065673828,2.194045066833496,-5.711336135864258,0.0,0.08499832451343536,1.1067023277282715,0.20780861377716064,-0.5000067949295044,-0.4999869465827942,0.5000029802322388,0.5000033378601074
290.0,-5.2850751876831055,-0.48830917477607727,1.4382710456848145,2.191636800765991,-5.710521697998047,0.0,0.08499319106340408,1.1049081087112427,0.2072744071483612,-0.5000060200691223,-0.4999924898147583,0.49999648332595825,0.5000050663948059
291.0,-5.285900592803955,-0.4889344871044159,1.441293716430664,2.1892409324645996,-5.709690093994141,0.0,0.0849963054060936,1.1031076908111572,0.20673608779907227,-0.5000045299530029,-0.49999356269836426,0.49999862909317017,0.500003457069397
292.0,-5.286725044250488,-0.4895486831665039,1.4442986249923706,2.1868414878845215,-5.708860397338867,0.0,0.08499813824892044,1.1013120412826538,0.2061934471130371,-0.5000026226043701,-0.49999773502349854,0.4999968707561493,0.5000028014183044
293.0,-5.287554740905762,-0.4901697635650635,1.4473150968551636,2.1844398975372314,-5.708041191101074,0.0,0.08499839156866074,1.099514365196228,0.2056574821472168,-0.5000047087669373,-0.4999972879886627,0.4999921917915344,0.5000057816505432
294.0,-5.288379669189453,-0.49077361822128296,1.4503121376037598,2.182060956954956,-5.707210063934326,0.0,0.08499588072299957,1.0977208614349365,0.20511719584465027,-0.500004231929779,-0.4999940097332001,0.499998539686203,0.5000032186508179
295.0,-5.2892165184021,-0.4913868010044098,1.4533238410949707,2.179649829864502,-5.706386089324951,0.0,0.08499584347009659,1.09591805934906,0.20457927882671356,-0.5000065565109253,-0.49999499320983887,0.4999910891056061,0.5000073313713074
296.0,-5.290046691894531,-0.49198558926582336,1.456307291984558,2.1772568225860596,-5.7055535316467285,0.0,0.0849929228425026,1.094123363494873,0.20404021441936493,-0.5000053644180298,-0.4999984800815582,0.4999888241291046,0.5000073909759521
297.0,-5.290882587432861,-0.4925704598426819,1.4592764377593994,2.1749000549316406,-5.704704284667969,0.0,0.08499827980995178,1.0923300981521606,0.20350190997123718,-0.5000039339065552,-0.49999234080314636,0.5000016689300537,0.5000020265579224
298.0,-5.291727066040039,-0.4931659996509552,1.462264060974121,2.1724982261657715,-5.703861236572266,0.0,0.08500078320503235,1.0905245542526245,0.20296365022659302,-0.5000036358833313,-0.4999954104423523,0.49999791383743286,0.5000031590461731
299.0,-5.292564868927002,-0.4937489330768585,1.4652369022369385,2.170109272003174,-5.703038215637207,0.0,0.08499616384506226,1.0887328386306763,0.2024223357439041,-0.5000074505805969,-0.4999913275241852,0.49999454617500305,0.5000068545341492
300.0,-5.293435096740723,-0.4955565333366394,1.4686853885650635,2.1684763431549072,-5.7021589279174805,0.0,0.08499612659215927,1.086874008178711,0.20312191545963287,-0.5000057816505432,-0.4999907910823822,0.499999463558197,0.5000039935112
301.0,-5.294278621673584,-0.4961298406124115,1.471634030342102,2.166080951690674,-5.7013092041015625,0.0,0.08499471098184586,1.0850765705108643,0.20257991552352905,-0.5000027418136597,-0.49999943375587463,0.4999941289424896,0.5000038743019104
302.0,-5.295130252838135,-0.49669691920280457,1.4745911359786987,2.1637113094329834,-5.700469970703125,0.0,0.08499809354543686,1.08328115940094,0.20203939080238342,-0.5000072717666626,-0.49998924136161804,0.49999797344207764,0.5000054836273193
303.0,-5.2959771156311035,-0.4972623884677887,1.4775303602218628,2.1613292694091797,-5.699616432189941,0.0,0.08499539643526077,1.081484317779541,0.20150093734264374,-0.5000050067901611,-0.4999937117099762,0.49999696016311646,0.5000043511390686
304.0,-5.296826362609863,-0.4978281557559967,1.4804633855819702,2.158949375152588,-5.698754787445068,0.0,0.08499325066804886,1.0796853303909302,0.20096811652183533,-0.5000008940696716,-0.5000014305114746,0.499995619058609,0.5000020861625671
305.0,-5.297687530517578,-0.4983823299407959,1.4834016561508179,2.1565754413604736,-5.697914123535156,0.0,0.08499867469072342,1.0778905153274536,0.20042774081230164,-0.500006914138794,-0.4999925494194031,0.4999939799308777,0.5000066161155701
306.0,-5.298544406890869,-0.49892470240592957,1.4863225221633911,2.1542017459869385,-5.697049140930176,0.0,0.0849994570016861,1.0760918855667114,0.19988296926021576,-0.5000052452087402,-0.4999929964542389,0.49999746680259705,0.5000042915344238
307.0,-5.299400329589844,-0.4994725286960602,1.489234447479248,2.1518266201019287,-5.696191310882568,0.0,0.08499713987112045,1.0742977857589722,0.19934777915477753,-0.5000039339065552,-0.49999725818634033,0.4999942481517792,0.5000045299530029
308.0,-5.300261974334717,-0.5000048279762268,1.4921345710754395,2.149456262588501,-5.695329666137695,0.0,0.08500011265277863,1.0725051164627075,0.19880475103855133,-0.5000038146972656,-0.4999981224536896,0.4999934732913971,0.5000046491622925
309.0,-5.301117897033691,-0.5005320906639099,1.4950422048568726,2.147085666656494,-5.694464683532715,0.0,0.0849907174706459,1.0707075595855713,0.19825875759124756,-0.5000022053718567,-0.49999698996543884,0.4999990463256836,0.5000017881393433
310.0,-5.301988124847412,-0.5010718703269958,1.4979461431503296,2.144711971282959,-5.693617820739746,0.0,0.08499354124069214,1.068915605545044,0.19772771000862122,-0.5000073909759521,-0.4999943673610687,0.49998995661735535,0.5000082850456238
311.0,-5.302894115447998,-0.502848207950592,1.5013554096221924,2.1430892944335938,-5.692712306976318,0.0,0.08499576151371002,1.0670455694198608,0.1984270215034485,-0.5000082850456238,-0.4999907314777374,0.4999934732913971,0.500007688999176
312.0,-5.3037614822387695,-0.5033653974533081,1.5042304992675781,2.1407246589660645,-5.691831588745117,0.0,0.0849948301911354,1.0652501583099365,0.1978873461484909,-0.5000044703483582,-0.4999963343143463,0.4999944567680359,0.5000048279762268
313.0,-5.304635524749756,-0.5038814544677734,1.5071098804473877,2.1383590698242188,-5.690962791442871,0.0,0.0849958285689354,1.0634557008743286,0.19734901189804077,-0.5000056028366089,-0.4999958574771881,0.49999240040779114,0.5000062584877014
314.0,-5.305511951446533,-0.5043913722038269,1.5099879503250122,2.1360011100769043,-5.690083026885986,0.0,0.08499595522880554,1.0616570711135864,0.1968100517988205,-0.5000054240226746,-0.49999311566352844,0.49999672174453735,0.5000047087669373
315.0,-5.306389331817627,-0.5048983693122864,1.512861728668213,2.1336255073547363,-5.689212322235107,0.0,0.08499260246753693,1.0598597526550293,0.19626860320568085,-0.5000065565109253,-0.4999946057796478,0.4999919831752777,0.5000069737434387
316.0,-5.307269096374512,-0.505395770072937,1.515720248222351,2.1312649250030518,-5.688331127166748,0.0,0.08499258011579514,1.0580646991729736,0.19572772085666656,-0.5000061392784119,-0.49999475479125977,0.4999924600124359,0.5000066161155701
317.0,-5.308154582977295,-0.5058966875076294,1.5185787677764893,2.128908157348633,-5.687449932098389,0.0,0.08499480038881302,1.0562682151794434,0.1951940357685089,-0.5000072717666626,-0.4999934732913971,0.49999183416366577,0.5000075697898865
318.0,-5.30903959274292,-0.5063835382461548,1.521422266960144,2.1265530586242676,-5.686554908752441,0.0,0.08499646931886673,1.0544712543487549,0.19465371966362,-0.5000049471855164,-0.4999953806400299,0.49999481439590454,0.5000050067901611
319.0,-5.309926986694336,-0.5068624019622803,1.5242584943771362,2.1242105960845947,-5.685662269592285,0.0,0.08499889820814133,1.0526779890060425,0.19411319494247437,-0.5000045895576477,-0.4999914765357971,0.5000013113021851,0.5000027418136597
320.0,-5.310820579528809,-0.5073546171188354,1.5271103382110596,2.1218206882476807,-5.684782028198242,0.0,0.08499593287706375,1.0508760213851929,0.19357562065124512,-0.500005841255188,-0.49999865889549255,0.49998754262924194,0.5000079870223999
321.0,-5.311709403991699,-0.5078258514404297,1.5299344062805176,2.119485855102539,-5.68388032913208,0.0,0.08499544858932495,1.0490823984146118,0.1930384337902069,-0.5000038743019104,-0.4999956488609314,0.49999696016311646,0.5000036358833313
322.0,-5.312637805938721,-0.5095598697662354,1.5332692861557007,2.11788010597229,-5.682955741882324,0.0,0.08499516546726227,1.0472209453582764,0.19373522698879242,-0.5000044107437134,-0.4999964237213135,0.49999430775642395,0.5000048279762268
323.0,-5.31353759765625,-0.5100280046463013,1.5360993146896362,2.1155223846435547,-5.682063579559326,0.0,0.08499445766210556,1.0454224348068237,0.19319474697113037,-0.5000066757202148,-0.4999929666519165,0.4999937415122986,0.5000066161155701
324.0,-5.314438343048096,-0.5104904770851135,1.538917064666748,2.1131644248962402,-5.6811676025390625,0.0,0.08499350398778915,1.043626070022583,0.19265446066856384,-0.500007688999176,-0.4999927878379822,0.499991774559021,0.5000078678131104
325.0,-5.31533145904541,-0.5109438300132751,1.541715145111084,2.1108086109161377,-5.680256366729736,0.0,0.08498582243919373,1.041831135749817,0.1921127438545227,-0.5000025033950806,-0.5000011920928955,0.4999922215938568,0.5000041127204895
326.0,-5.31624698638916,-0.5113992691040039,1.5445196628570557,2.1084706783294678,-5.679343223571777,0.0,0.08499731868505478,1.0400322675704956,0.1915791928768158,-0.5000038743019104,-0.4999966025352478,0.49999555945396423,0.5000040531158447
327.0,-5.317152976989746,-0.5118436813354492,1.5473129749298096,2.1061229705810547,-5.678450107574463,0.0,0.08499639481306076,1.0382437705993652,0.19103875756263733,-0.5000070929527283,-0.49999305605888367,0.4999927878379822,0.500007152557373
328.0,-5.318065166473389,-0.5122898817062378,1.5501141548156738,2.1037673950195312,-5.677530288696289,0.0,0.08499477058649063,1.0364391803741455,0.1905001997947693,-0.5000050663948059,-0.49999532103538513,0.49999454617500305,0.5000051856040955
329.0,-5.318984508514404,-0.5127266049385071,1.5528959035873413,2.101421356201172,-5.67661714553833,0.0,0.0850025862455368,1.0346441268920898,0.18996143341064453,-0.5000066161155701,-0.4999940097332001,0.49999263882637024,0.500006914138794
330.0,-5.31989049911499,-0.5131555199623108,1.5556693077087402,2.099076986312866,-5.6756978034973145,0.0,0.08499452471733093,1.0328501462936401,0.18942072987556458,-0.5000032782554626,-0.4999972879886627,0.499996155500412,0.500003457069397
331.0,-5.320810794830322,-0.5135875344276428,1.5584524869918823,2.0967326164245605,-5.674783229827881,0.0,0.08499494194984436,1.0310522317886353,0.18888477981090546,-0.5000051856040955,-0.4999934136867523,0.49999693036079407,0.5000045895576477
332.0,-5.3217315673828125,-0.5140100717544556,1.561220407485962,2.0943806171417236,-5.673861980438232,0.0,0.08499441295862198,1.0292551517486572,0.1883443295955658,-0.5000045299530029,-0.49999600648880005,0.4999947249889374,0.5000048279762268
333.0,-5.32268762588501,-0.5157051086425781,1.5644965171813965,2.092801332473755,-5.6729044914245605,0.0,0.08499398827552795,1.0273940563201904,0.1890411227941513,-0.5000042915344238,-0.49999573826789856,0.49999576807022095,0.5000042915344238
334.0,-5.323605060577393,-0.51617032289505,1.5672569274902344,2.0904953479766846,-5.671998977661133,0.0,0.08498957753181458,1.025612711906433,0.18855524063110352,-0.5000066757202148,-0.4999963641166687,0.4999891221523285,0.5000079870223999
335.0,-5.324539661407471,-0.5166313052177429,1.5700008869171143,2.088210344314575,-5.671055316925049,0.0,0.0850050076842308,1.0238231420516968,0.18807578086853027,-0.5000043511390686,-0.4999993145465851,0.4999904930591583,0.5000059008598328
336.0,-5.325449466705322,-0.5170711278915405,1.5727307796478271,2.0859451293945312,-5.6701340675354,0.0,0.08499569445848465,1.0220504999160767,0.18758732080459595,-0.5000029802322388,-0.49999356269836426,0.5000021457672119,0.5000014305114746
337.0,-5.3263726234436035,-0.5175180435180664,1.5754661560058594,2.0836586952209473,-5.669217109680176,0.0,0.08499287068843842,1.020273208618164,0.18710273504257202,-0.5000045895576477,-0.49999138712882996,0.5000011324882507,0.500002920627594
338.0,-5.327303886413574,-0.5179674625396729,1.5781952142715454,2.0813674926757812,-5.668288230895996,0.0,0.08499540388584137,1.0184917449951172,0.18662333488464355,-0.5000044703483582,-0.4999948740005493,0.49999651312828064,0.500004231929779
339.0,-5.328231334686279,-0.5184057950973511,1.5809211730957031,2.079082727432251,-5.6673688888549805,0.0,0.08499161154031754,1.0167150497436523,0.1861392706632614,-0.5000066757202148,-0.4999919831752777,0.4999953806400299,0.5000061392784119
340.0,-5.32916784286499,-0.5188354849815369,1.5836360454559326,2.076801300048828,-5.666415691375732,0.0,0.08499599248170853,1.0149282217025757,0.1856529861688614,-0.5000028014183044,-0.499994695186615,0.5000008940696716,0.5000017285346985
341.0,-5.331882953643799,-0.5191681981086731,1.5924338102340698,2.073197841644287,-5.671385765075684,0.0,0.08498921990394592,1.0127373933792114,0.1840178370475769,-0.5022091865539551,-0.49637413024902344,0.49976855516433716,0.5016273856163025
342.0,-5.334602355957031,-0.5194535255432129,1.6012139320373535,2.069662094116211,-5.6763410568237305,0.0,0.08498378843069077,1.010545253753662,0.1823851466178894,-0.5044122338294983,-0.49271243810653687,0.4995619058609009,0.5032303333282471
343.0,-5.337311744689941,-0.5196965932846069,1.6099774837493896,2.0661404132843018,-5.681291103363037,0.0,0.08495931327342987,1.0083503723144531,0.1807475984096527,-0.5066071152687073,-0.48903125524520874,0.49936163425445557,0.5048125982284546
344.0,-5.340025424957275,-0.5198935270309448,1.6187266111373901,2.062681198120117,-5.686251640319824,0.0,0.08493485301733017,1.006162166595459,0.17911213636398315,-0.5088042616844177,-0.48530372977256775,0.4991793632507324,0.5063779354095459
345.0,-5.34273099899292,-0.5200365781784058,1.6274527311325073,2.0592801570892334,-5.6911845207214355,0.0,0.08489973098039627,1.0039703845977783,0.17747223377227783,-0.5109910368919373,-0.48154425621032715,0.4990255832672119,0.5079141855239868
346.0,-5.345449924468994,-0.5201438069343567,1.6361846923828125,2.0558993816375732,-5.696127414703369,0.0,0.08486418426036835,1.0017719268798828,0.1758321225643158,-0.5131800770759583,-0.47774752974510193,0.49887633323669434,0.5094369053840637
347.0,-5.348142147064209,-0.5202073454856873,1.6448779106140137,2.052589178085327,-5.7010602951049805,0.0,0.08480523526668549,0.9995868802070618,0.17420092225074768,-0.5153574347496033,-0.4739241600036621,0.498751163482666,0.5109304785728455
348.0,-5.350852012634277,-0.5202158689498901,1.6535645723342896,2.0493366718292236,-5.7059712409973145,0.0,0.08475668728351593,0.9973915219306946,0.17256256937980652,-0.5175325274467468,-0.47005462646484375,0.49865269660949707,0.5124005675315857
349.0,-5.353548526763916,-0.5201902389526367,1.6622389554977417,2.046107053756714,-5.710893630981445,0.0,0.08468720316886902,0.9952009916305542,0.1709282249212265,-0.5197024941444397,-0.4661605656147003,0.49855828285217285,0.5138514637947083
350.0,-5.356242656707764,-0.5201107263565063,1.670898199081421,2.0429482460021973,-5.715795040130615,0.0,0.08461186289787292,0.9930078983306885,0.16929186880588531,-0.5218654870986938,-0.46222418546676636,0.49849626421928406,0.51527339220047
351.0,-5.35893440246582,-0.5199830532073975,1.67952299118042,2.0398457050323486,-5.7206711769104,0.0,0.08453530073165894,0.9908169507980347,0.1676570326089859,-0.5240181088447571,-0.4582606256008148,0.4984540045261383,0.5166680216789246
352.0,-5.361619472503662,-0.5198062062263489,1.6881277561187744,2.036799192428589,-5.7255449295043945,0.0,0.08444903790950775,0.9886318445205688,0.16602091491222382,-0.5261654853820801,-0.4542601406574249,0.498431921005249,0.5180379748344421
353.0,-5.364304065704346,-0.5195803642272949,1.6967251300811768,2.0338056087493896,-5.730404376983643,0.0,0.08435531705617905,0.986441969871521,0.16438254714012146,-0.528306782245636,-0.45022040605545044,0.4984343349933624,0.5193812251091003
354.0,-5.366987705230713,-0.5193163156509399,1.7053086757659912,2.0308568477630615,-5.735243320465088,0.0,0.08425520360469818,0.9842472076416016,0.16275012493133545,-0.5304386019706726,-0.44615212082862854,0.49845442175865173,0.5206980109214783
355.0,-5.369648456573486,-0.5189883708953857,1.713848352432251,2.0280368328094482,-5.740085601806641,0.0,0.08414523303508759,0.9820812344551086,0.1611197292804718,-0.5325663685798645,-0.4420267641544342,0.4985182285308838,0.5219817757606506
356.0,-5.372321128845215,-0.5186185240745544,1.7223659753799438,2.025178909301758,-5.744886875152588,0.0,0.0840337947010994,0.9798932075500488,0.15947769582271576,-0.534677267074585,-0.4379061162471771,0.49857255816459656,0.5232436060905457
357.0,-5.339944839477539,-0.5076509118080139,1.6086740493774414,2.0405797958374023,-5.655638694763184,0.0,0.0849967896938324,0.9947283864021301,0.16488194465637207,-0.5000027418136597,-0.49999433755874634,0.5000014305114746,0.5000016093254089
358.0,-5.338926315307617,-0.5074285268783569,1.6059335470199585,2.043076992034912,-5.656662940979004,0.0,0.08499463647603989,0.9966095685958862,0.165542334318161,-0.500002920627594,-0.5000001788139343,0.4999927878379822,0.500004231929779
359.0,-5.3358869552612305,-0.5067117214202881,1.5976682901382446,2.0506324768066406,-5.659700870513916,0.0,0.08499385416507721,1.0022565126419067,0.1675245761871338,-0.5000030398368835,-0.4999980032444,0.49999547004699707,0.500003457069397
360.0,-5.334880828857422,-0.5064594149589539,1.5948998928070068,2.0531599521636963,-5.660708904266357,0.0,0.08499523997306824,1.0041404962539673,0.16818547248840332,-0.500004231929779,-0.49999362230300903,0.49999889731407166,0.5000032782554626
361.0,-5.3338775634765625,-0.5062066912651062,1.592130422592163,2.0556743144989014,-5.661718368530273,0.0,0.08499413728713989,1.0060229301452637,0.16884714365005493,-0.5000055432319641,-0.4999929368495941,0.499996542930603,0.5000050067901611
362.0,-5.332874774932861,-0.5059448480606079,1.5893439054489136,2.0581893920898438,-5.6627116203308105,0.0,0.08499374240636826,1.0079045295715332,0.1695072054862976,-0.5000026822090149,-0.49999871850013733,0.49999555945396423,0.5000032186508179
363.0,-5.331873893737793,-0.5056846737861633,1.586565613746643,2.060704231262207,-5.663723468780518,0.0,0.08498799055814743,1.0097891092300415,0.1701716184616089,-0.5000052452087402,-0.49999698996543884,0.49999183416366577,0.5000060796737671
364.0,-5.330883979797363,-0.5054059028625488,1.5837743282318115,2.063232421875,-5.664714813232422,0.0,0.08499313145875931,1.0116699934005737,0.17082859575748444,-0.5000065565109253,-0.4999912679195404,0.49999678134918213,0.5000055432319641
365.0,-5.329894542694092,-0.5051325559616089,1.5809789896011353,2.065748691558838,-5.665705680847168,0.0,0.08499438315629959,1.0135501623153687,0.17149195075035095,-0.5000065565109253,-0.49999281764030457,0.4999944865703583,0.5000063180923462
366.0,-5.3289008140563965,-0.5048497319221497,1.5781728029251099,2.068281888961792,-5.666705131530762,0.0,0.08499111980199814,1.0154387950897217,0.1721562296152115,-0.5000087022781372,-0.4999879002571106,0.4999963641166687,0.500007152557373
367.0,-5.327914714813232,-0.5045539736747742,1.5753425359725952,2.0707948207855225,-5.667677879333496,0.0,0.08499472588300705,1.017322063446045,0.1728116124868393,-0.5000038146972656,-0.4999987781047821,0.49999240040779114,0.5000050067901611
368.0,-5.3269362449646,-0.5042648911476135,1.572544813156128,2.073314905166626,-5.668667316436768,0.0,0.08499410003423691,1.0191985368728638,0.17347435653209686,-0.5000073909759521,-0.4999920129776001,0.4999935030937195,0.5000070929527283
369.0,-5.325953960418701,-0.5039647817611694,1.569716453552246,2.0758392810821533,-5.669644355773926,0.0,0.08499328047037125,1.0210816860198975,0.17413654923439026,-0.5000057816505432,-0.49999481439590454,0.4999934732913971,0.5000060200691223
370.0,-5.324975490570068,-0.5036535859107971,1.5668808221817017,2.0783724784851074,-5.670616626739502,0.0,0.08499401807785034,1.0229651927947998,0.17479558289051056,-0.5000047087669373,-0.49999338388442993,0.4999981224536896,0.5000038743019104
371.0,-5.324002742767334,-0.5033326148986816,1.5640345811843872,2.0808968544006348,-5.67159366607666,0.0,0.08499810844659805,1.024851679801941,0.17544949054718018,-0.5000057816505432,-0.49999263882637024,0.4999966323375702,0.5000050663948059
372.0,-5.323032379150391,-0.5030274391174316,1.5612120628356934,2.083420991897583,-5.672569274902344,0.0,0.08499392867088318,1.0267280340194702,0.17611819505691528,-0.5000075101852417,-0.4999888241291046,0.4999977648258209,0.5000059604644775
373.0,-5.322060585021973,-0.5027044415473938,1.558351755142212,2.0859477519989014,-5.673532485961914,0.0,0.08499359339475632,1.0286129713058472,0.17678076028823853,-0.5000047087669373,-0.49999454617500305,0.4999963045120239,0.5000044107437134
374.0,-5.321094512939453,-0.5023737549781799,1.5554918050765991,2.088470458984375,-5.674496173858643,0.0,0.08499377220869064,1.030495285987854,0.17743952572345734,-0.5000036954879761,-0.49999749660491943,0.49999475479125977,0.500004231929779
375.0,-5.320129871368408,-0.5020365118980408,1.5526220798492432,2.0909976959228516,-5.6754560470581055,0.0,0.08499410003423691,1.0323792695999146,0.17809881269931793,-0.5000022053718567,-0.500000536441803,0.4999939799308777,0.5000033974647522
376.0,-5.3191752433776855,-0.5016902685165405,1.5497409105300903,2.0935375690460205,-5.67640495300293,0.0,0.08500402420759201,1.034262776374817,0.17875850200653076,-0.5000011324882507,-0.5000001192092896,0.49999716877937317,0.5000016689300537
377.0,-5.318216800689697,-0.5013523697853088,1.546893835067749,2.0960583686828613,-5.677391052246094,0.0,0.08499445766210556,1.0361448526382446,0.17942050099372864,-0.5000086426734924,-0.4999893307685852,0.4999942183494568,0.5000078678131104
378.0,-5.317261219024658,-0.501006543636322,1.544013261795044,2.0985896587371826,-5.678337097167969,0.0,0.08499345928430557,1.0380237102508545,0.18008661270141602,-0.5000060796737671,-0.4999929666519165,0.4999953508377075,0.5000057220458984
379.0,-5.316308498382568,-0.5006425976753235,1.5411145687103271,2.101123809814453,-5.679286003112793,0.0,0.08499520272016525,1.0399090051651,0.1807435005903244,-0.5000051259994507,-0.49999409914016724,0.4999961256980896,0.5000048279762268
380.0,-5.315359115600586,-0.500281035900116,1.5382205247879028,2.1036596298217773,-5.680232048034668,0.0,0.08499489724636078,1.04179048538208,0.18140628933906555,-0.5000045299530029,-0.49999377131462097,0.4999981224536896,0.5000036954879761
381.0,-5.314423084259033,-0.4998990595340729,1.5353165864944458,2.106189727783203,-5.681178092956543,0.0,0.08500520884990692,1.0436718463897705,0.1820545792579651,-0.5000074505805969,-0.4999884366989136,0.4999985098838806,0.5000056624412537
382.0,-5.313461780548096,-0.4995340406894684,1.5323935747146606,2.1087231636047363,-5.682131290435791,0.0,0.08499103784561157,1.0455653667449951,0.18272605538368225,-0.5000039339065552,-0.49999889731407166,0.4999920129776001,0.5000052452087402
383.0,-5.312530040740967,-0.49916326999664307,1.5294955968856812,2.111250638961792,-5.683074474334717,0.0,0.08499536663293839,1.047440767288208,0.18339107930660248,-0.5000068545341492,-0.4999959468841553,0.4999891221523285,0.500008225440979
384.0,-5.311583042144775,-0.49876850843429565,1.526564359664917,2.1137969493865967,-5.684001922607422,0.0,0.08498898893594742,1.0493242740631104,0.18404753506183624,-0.5000025629997253,-0.4999975562095642,0.49999749660491943,0.5000025629997253
385.0,-5.3106560707092285,-0.4983779788017273,1.5236406326293945,2.116331100463867,-5.684928894042969,0.0,0.08499627560377121,1.0512007474899292,0.18470783531665802,-0.5000025629997253,-0.4999971389770508,0.49999794363975525,0.5000024437904358
386.0,-5.309720516204834,-0.4979773461818695,1.5206965208053589,2.118866443634033,-5.685882568359375,0.0,0.08499511331319809,1.0530946254730225,0.18536660075187683,-0.5000066161155701,-0.4999953806400299,0.49999040365219116,0.5000075697898865
387.0,-5.308791160583496,-0.4975774586200714,1.517763614654541,2.12140154838562,-5.686797618865967,0.0,0.08499278128147125,1.0549675226211548,0.18602780997753143,-0.5000031590461731,-0.49999821186065674,0.49999484419822693,0.5000038146972656
388.0,-5.307867050170898,-0.49716678261756897,1.5148091316223145,2.1239452362060547,-5.687726974487305,0.0,0.0849980041384697,1.05685293674469,0.18668855726718903,-0.5000045299530029,-0.4999969005584717,0.49999335408210754,0.5000052452087402
389.0,-5.306942462921143,-0.4967575669288635,1.5118625164031982,2.126483917236328,-5.68865442276001,0.0,0.08499527722597122,1.0587328672409058,0.18735219538211823,-0.500005304813385,-0.4999958574771881,0.49999311566352844,0.500005841255188
390.0,-5.30601692199707,-0.49633124470710754,1.508882761001587,2.1290507316589355,-5.689563751220703,0.0,0.08499784767627716,1.0606203079223633,0.18801553547382355,-0.5000020265579224,-0.4999952018260956,0.5000020265579224,0.5000007152557373
391.0,-5.305100917816162,-0.4959139823913574,1.5059303045272827,2.131571054458618,-5.690499305725098,0.0,0.08499497175216675,1.0624995231628418,0.1886763721704483,-0.5000060200691223,-0.49999547004699707,0.4999918043613434,0.5000067949295044
392.0,-5.304178714752197,-0.49547654390335083,1.5029511451721191,2.134119749069214,-5.691413402557373,0.0,0.08498957753181458,1.0643831491470337,0.1893332302570343,-0.5000044703483582,-0.4999951124191284,0.4999963045120239,0.5000042915344238
393.0,-5.303269863128662,-0.4950401186943054,1.49997079372406,2.136681318283081,-5.692325115203857,0.0,0.08499542623758316,1.066265344619751,0.18999816477298737,-0.500006377696991,-0.49998828768730164,0.5000015497207642,0.5000038146972656
394.0,-5.302358150482178,-0.49459102749824524,1.4969639778137207,2.1392147541046143,-5.693230628967285,0.0,0.08499792218208313,1.0681499242782593,0.19065338373184204,-0.5000032782554626,-0.49999818205833435,0.4999947249889374,0.5000039339065552
395.0,-5.301455974578857,-0.49415165185928345,1.4939663410186768,2.1417720317840576,-5.69413423538208,0.0,0.08500578254461288,1.0700314044952393,0.19132545590400696,-0.500003457069397,-0.4999982416629791,0.499994158744812,0.5000042915344238
396.0,-5.300542831420898,-0.4936910569667816,1.4909627437591553,2.1443188190460205,-5.695037364959717,0.0,0.08499778807163239,1.071912407875061,0.19198010861873627,-0.5000012516975403,-0.49999940395355225,0.49999794363975525,0.5000015497207642
397.0,-5.299639701843262,-0.49323299527168274,1.487958312034607,2.146871566772461,-5.695945739746094,0.0,0.084996297955513,1.0737943649291992,0.19264258444309235,-0.500002920627594,-0.49999597668647766,0.49999889731407166,0.5000023245811462
398.0,-5.29874324798584,-0.4927663207054138,1.4849504232406616,2.1494064331054688,-5.6968584060668945,0.0,0.08499712496995926,1.0756747722625732,0.19329750537872314,-0.5000066161155701,-0.4999939203262329,0.4999924600124359,0.5000069737434387
399.0,-5.297840595245361,-0.49229252338409424,1.4819108247756958,2.1519739627838135,-5.697743892669678,0.0,0.08499659597873688,1.0775595903396606,0.1939624547958374,-0.500002384185791,-0.4999978244304657,0.49999740719795227,0.5000025033950806
400.0,-5.296942710876465,-0.4918138384819031,1.4788751602172852,2.1545357704162598,-5.698643207550049,0.0,0.08499559760093689,1.079445719718933,0.194624662399292,-0.5000031590461731,-0.4999956786632538,0.4999987483024597,0.5000025629997253
401.0,-5.2960524559021,-0.4913319945335388,1.4758433103561401,2.157083034515381,-5.699540138244629,0.0,0.0849960446357727,1.0813251733779907,0.19528403878211975,-0.5000046491622925,-0.4999949336051941,0.49999600648880005,0.5000044107437134
402.0,-5.295163631439209,-0.49084389209747314,1.4728012084960938,2.159633159637451,-5.700438976287842,0.0,0.08499565720558167,1.0832078456878662,0.19594401121139526,-0.5000067949295044,-0.49999377131462097,0.49999240040779114,0.5000070929527283
403.0,-5.294271945953369,-0.49034345149993896,1.4697370529174805,2.162203788757324,-5.701315879821777,0.0,0.0849948599934578,1.085091233253479,0.19660460948944092,-0.5000036358833313,-0.4999951720237732,0.4999982714653015,0.500002920627594
404.0,-5.293392658233643,-0.4898460805416107,1.466680884361267,2.164757490158081,-5.70220422744751,0.0,0.08500006794929504,1.0869712829589844,0.19726672768592834,-0.5000056624412537,-0.4999944865703583,0.49999430775642395,0.5000057220458984
405.0,-5.292501926422119,-0.48933154344558716,1.4635967016220093,2.1673338413238525,-5.703080654144287,0.0,0.08499611169099808,1.088858962059021,0.1979265660047531,-0.5000024437904358,-0.4999959468841553,0.5000002384185791,0.5000015497207642
406.0,-5.291628360748291,-0.48883184790611267,1.4605457782745361,2.169869899749756,-5.703973293304443,0.0,0.0849955826997757,1.090732455253601,0.19858935475349426,-0.5000061392784119,-0.49999624490737915,0.4999902546405792,0.5000073909759521
407.0,-5.290747165679932,-0.48830652236938477,1.4574486017227173,2.172452688217163,-5.70484733581543,0.0,0.08499658852815628,1.092620849609375,0.19925063848495483,-0.5000051259994507,-0.49999433755874634,0.4999958574771881,0.500004768371582
408.0,-5.289872169494629,-0.48778313398361206,1.4543577432632446,2.1750259399414062,-5.705722332000732,0.0,0.08499733358621597,1.0945038795471191,0.19991432130336761,-0.5000055432319641,-0.499992311000824,0.4999978244304657,0.5000043511390686
