Sungjin-Park-dev/lg_sgu_vision_v2/data/sample/trajectory/124/trajectory_dp_s010.csv
time,ur20-shoulder_pan_joint,ur20-shoulder_lift_joint,ur20-elbow_joint,ur20-wrist_1_joint,ur20-wrist_2_joint,ur20-wrist_3_joint,target-POS_X,target-POS_Y,target-POS_Z,target-ROT_X,target-ROT_Y,target-ROT_Z,target-ROT_W
0.0,1.9927528540240687,-0.7432699203491211,1.4341142177581787,-0.6908443609820765,-2.7196171283721924,0.0,-0.28499841690063477,1.0089393854141235,0.1959955245256424,0.5000047087669373,0.49999526143074036,0.4999952018260956,0.5000047087669373
1.0,1.977669146486587,-0.7152031770093853,1.355758032018007,-0.6405552613706494,-2.7347006243943817,0.0,-0.28503739833831787,1.054566740989685,0.2067738175392151,0.5000048875808716,0.4999951124191284,0.49999523162841797,0.5000047087669373
2.0,1.9762686758096588,-0.7115370235593227,1.3477417591436036,-0.6362048055352594,-2.736101019027839,0.0,-0.2851206064224243,1.0591449737548828,0.20692986249923706,0.5000048279762268,0.4999951720237732,0.4999951124191284,0.5000048279762268
3.0,1.96295755429448,-0.6829389766766294,1.2689078716479112,-0.5859689464324613,-2.749412272427302,0.0,-0.2850375175476074,1.102048397064209,0.21801099181175232,0.500004768371582,0.4999951720237732,0.4999951720237732,0.500004768371582
4.0,1.9511256699625754,-0.6525089818536083,1.1894952235763516,-0.5369860409159141,-2.761244090385416,0.0,-0.2850339412689209,1.142663598060608,0.22762520611286163,0.500004768371582,0.4999951422214508,0.4999951422214508,0.5000048279762268
5.0,1.9405328038722847,-0.619955358957273,1.1096112025496023,-0.48965613348133386,-2.7718368424993662,0.0,-0.28503620624542236,1.1810685396194458,0.23509721457958221,0.5000049471855164,0.4999951124191284,0.4999951720237732,0.5000047087669373
6.0,1.9323450902692842,-0.5855837680497977,1.042414464332815,-0.43998493210071343,-2.73637751879393,0.0,-0.28457215428352356,1.193016529083252,0.2345837503671646,0.5052974820137024,0.4912780821323395,0.4866173565387726,0.5162593722343445
7.0,1.9245373289399565,-0.5513445930760561,0.9776351483416093,-0.3894710813682422,-2.692434869118105,0.0,-0.2842326760292053,1.199115514755249,0.23354649543762207,0.5111183524131775,0.48038122057914734,0.47062936425209045,0.5352567434310913
8.0,1.9247137346805343,-0.5512156358434329,0.9787746530255168,-0.3890235998358097,-2.687812719147699,0.0,-0.2844163775444031,1.1967297792434692,0.2329721450805664,0.5115910172462463,0.4794063866138458,0.46926069259643555,0.5368785262107849
9.0,1.933093335923982,-0.5861326367334229,1.0476413193008682,-0.44001595054521925,-2.7235897421317126,0.0,-0.28482526540756226,1.1855084896087646,0.2327457070350647,0.5066882967948914,0.48877906799316406,0.4829275608062744,0.5207139253616333
10.0,1.9414729371674293,-0.6210496376234128,1.1165079855762194,-0.49100830125462885,-2.759366765115726,0.0,-0.2849939465522766,1.1729238033294678,0.2327854186296463,0.5014341473579407,0.4977286756038666,0.49647748470306396,0.5043211579322815
11.0,1.9516394734056868,-0.653167578744837,1.1933750668468348,-0.5402074782555583,-2.7607305370934387,0.0,-0.2850452661514282,1.1408796310424805,0.2260611653327942,0.5000047087669373,0.4999952018260956,0.4999952018260956,0.5000047087669373
12.0,1.963534227494454,-0.68352617414986,1.272765595037989,-0.589239363282608,-2.748835573016901,0.0,-0.2850450277328491,1.1001440286636353,0.2164200246334076,0.5000046491622925,0.4999952018260956,0.4999952018260956,0.500004768371582
13.0,1.954183299368749,-0.7095767227041111,1.3055076336333877,-0.6677513136498713,-2.721498476508637,0.0,-0.27301329374313354,1.0872433185577393,0.21864092350006104,0.532305121421814,0.4809205234050751,0.4999258518218994,0.4852225184440613
14.0,1.9379731805223823,-0.7344394687163672,1.3237419671293156,-0.7553797263385009,-2.689559568013689,0.0,-0.2581353783607483,1.0841602087020874,0.2238311469554901,0.5735202431678772,0.4551689624786377,0.4982191026210785,0.4644063711166382
15.0,1.9217630616760162,-0.7593022147286235,1.3419763006252436,-0.8430081390271305,-2.657620659518741,0.0,-0.2442261278629303,1.0820249319076538,0.22828376293182373,0.6132596135139465,0.42871588468551636,0.4947410821914673,0.4419802129268646
16.0,1.9055529428296496,-0.7841649607408795,1.3602106341211715,-0.93063655171576,-2.6256817510237935,0.0,-0.2312711477279663,1.081010103225708,0.232217937707901,0.6513761878013611,0.40168681740760803,0.4895668923854828,0.4179484248161316
17.0,1.8893428239832835,-0.8090277067531356,1.3784449676170993,-1.0182649644043895,-2.5937428425288456,0.0,-0.21923623979091644,1.0812605619430542,0.23587407171726227,0.687730073928833,0.37421053647994995,0.48277947306632996,0.39232340455055237
18.0,1.8731327051369169,-0.8338904527653918,1.3966793011130272,-1.1058933770930188,-2.5618039340338976,0.0,-0.20806941390037537,1.0828893184661865,0.23950937390327454,0.7221894264221191,0.3464175760746002,0.4744686186313629,0.36512571573257446
19.0,1.8569225862905507,-0.8587531987776479,1.414913634608955,-1.1935217897816488,-2.52986502553895,0.0,-0.19770203530788422,1.0859735012054443,0.24339476227760315,0.7546303868293762,0.31844013929367065,0.4647308886051178,0.33638375997543335
20.0,1.8407124674441842,-0.883615944789904,1.4331479681048829,-1.2811502024702783,-2.4979261170440026,0.0,-0.18805134296417236,1.0905519723892212,0.24780809879302979,0.7849381566047668,0.29041123390197754,0.45366841554641724,0.3061346411705017
21.0,1.824502348597818,-0.90847869080216,1.4513823016008107,-1.3687786151589076,-2.465987208549054,0.0,-0.1790238469839096,1.096623182296753,0.2530299425125122,0.8130067586898804,0.26246413588523865,0.4413888156414032,0.2744235396385193
22.0,1.8082922297514514,-0.9333414368144162,1.4696166350967386,-1.4564070278475372,-2.4340483000541067,0.0,-0.1705169379711151,1.1041432619094849,0.2593390643596649,0.8387402296066284,0.23473183810710907,0.42800480127334595,0.24130384624004364
23.0,1.7920821109050853,-0.9582041828266721,1.4878509685926664,-1.5440354405361663,-2.4021093915591587,0.0,-0.1624235361814499,1.1130272150039673,0.2670058608055115,0.8620522618293762,0.20734591782093048,0.4136326014995575,0.20683729648590088
24.0,1.7758719920587187,-0.9830669288389283,1.5060853020885943,-1.6316638532247962,-2.3701704830642107,0.0,-0.15463486313819885,1.1231471300125122,0.2762881815433502,0.8828663229942322,0.18043668568134308,0.39839261770248413,0.17109331488609314
25.0,1.7596618732123523,-1.0079296748511846,1.5243196355845223,-1.7192922659134258,-2.3382315745692632,0.0,-0.1470440924167633,1.1343348026275635,0.28742530941963196,0.9011168479919434,0.1541319191455841,0.382407546043396,0.1341494768857956
26.0,1.7328403393792433,-1.0365293390495893,1.5367885527916674,-1.755376187258411,-2.260591892051404,0.0,-0.13795918226242065,1.129300832748413,0.29442098736763,0.9220610857009888,0.12819041311740875,0.3447747230529785,0.12041974812746048
27.0,1.7040946197914928,-1.0658066249175855,1.5482120173512337,-1.7821134591605496,-2.1746652111963,0.0,-0.13099107146263123,1.1230095624923706,0.3019970655441284,0.9412292838096619,0.10309775173664093,0.30257853865623474,0.10910719633102417
28.0,1.676577832487619,-1.0927011319736415,1.5652717709971067,-1.8132716893965426,-2.0904672222258767,0.0,-0.12683585286140442,1.1165052652359009,0.30543410778045654,0.9571417570114136,0.08020556718111038,0.26073122024536133,0.09729289263486862
29.0,1.6506716894741302,-1.116472758185038,1.589718470982434,-1.8502240479111018,-2.0085348647718733,0.0,-0.12536290287971497,1.109010100364685,0.3029133379459381,0.9699499607086182,0.05978350341320038,0.21970601379871368,0.08574529737234116
30.0,1.6247655464606414,-1.1402443843964347,1.614165170967761,-1.8871764064256613,-1.9266025073178696,0.0,-0.12550537288188934,1.103216290473938,0.30257540941238403,0.9804320931434631,0.04039333760738373,0.17844276130199432,0.07265883684158325
31.0,1.5988594034471526,-1.1640160106078312,1.638611870953088,-1.9241287649402206,-1.8446701498638662,0.0,-0.12694302201271057,1.0989940166473389,0.304585337638855,0.9886049628257751,0.022145116701722145,0.13708733022212982,0.0581095889210701
32.0,1.5729532604336638,-1.187787636819228,1.6630585709384151,-1.9610811234547798,-1.7627377924098626,0.0,-0.12936873733997345,1.0961699485778809,0.3090747892856598,0.9944948554039001,0.005143116693943739,0.09578249603509903,0.04218148812651634
33.0,1.547047117420175,-1.2115592630306244,1.6875052709237424,-1.9980334819693393,-1.680805434955859,0.0,-0.13249431550502777,1.094530701637268,0.3161391317844391,0.9981370568275452,-0.010514140129089355,0.05466792359948158,0.024966055527329445
34.0,1.5211409744066862,-1.235330889242021,1.7119519709090694,-2.0349858404838983,-1.5988730775018556,0.0,-0.1360544115304947,1.0938282012939453,0.3258376717567444,0.9995760917663574,-0.024734988808631897,0.013878993690013885,0.0065617309883236885
35.0,1.5174401841596505,-1.2075976382157805,1.668295808128343,-2.031494540418849,-1.5707963535877907,0.0,-0.1411553919315338,1.127399206161499,0.32980677485466003,-0.9996441602706909,0.026674900203943253,-2.249927888442471e-08,1.116198511397215e-08
36.0,1.5208000637108052,-1.1633249008841766,1.5984019959552302,-1.9833528870583594,-1.5719824362921135,0.0,-0.1427503377199173,1.1615146398544312,0.32880324125289917,0.9996241331100464,-0.02498723566532135,0.0003113551065325737,0.011271325871348381
37.0,1.5199085434460897,-1.1289790366865273,1.538700303213264,-1.9115091157453936,-1.574430865974553,0.0,-0.13994216918945312,1.1777524948120117,0.32688939571380615,0.9990812540054321,-0.025363288819789886,0.0009379266994073987,0.03453235700726509
38.0,1.5190170231813744,-1.0946331724888778,1.4789986104712978,-1.839665344432428,-1.5768792956569924,0.0,-0.13716468214988708,1.192838191986084,0.32510602474212646,0.9979984164237976,-0.025668028742074966,0.001541297184303403,0.05777516961097717
39.0,1.518125502916659,-1.0602873082912285,1.419296917729332,-1.7678215731194626,-1.5793277253394318,0.0,-0.13442084193229675,1.2067768573760986,0.32346999645233154,0.9963762760162354,-0.02590080164372921,0.002119854325428605,0.08098676800727844
40.0,1.5153334775359733,-1.0838448165965504,1.4535549491343505,-1.7838041538925848,-1.579454017311502,0.0,-0.13202492892742157,1.1887203454971313,0.32640260457992554,0.9965488314628601,-0.027303822338581085,0.0021436491515487432,0.07835986465215683
41.0,1.5154240734070457,-1.1147964733540356,1.5096238047318566,-1.859978692012526,-1.5766331119504637,0.0,-0.13377311825752258,1.1789036989212036,0.32700130343437195,0.9982225298881531,-0.027489807456731796,0.0014516180381178856,0.052858106791973114
42.0,1.5155146692781183,-1.145748130111521,1.5656926603293635,-1.9361532301324678,-1.5738122065894258,0.0,-0.13557977974414825,1.1679950952529907,0.32808858156204224,0.9992456436157227,-0.02758587710559368,0.0007525872206315398,0.027321647852659225
43.0,1.515605265149191,-1.1766997868690068,1.6217615159268703,-2.0123277682524097,-1.5709913012283876,0.0,-0.13744638860225677,1.1559689044952393,0.3296470642089844,0.9996176362037659,-0.02759183757007122,4.873145735473372e-05,0.0017672603717073798
44.0,1.5122166959777492,-1.1615889401576738,1.5919579129342578,-1.933175172657113,-1.5751222015616049,0.0,-0.13244538009166718,1.1475001573562622,0.3248900771141052,0.9989933967590332,-0.029195159673690796,0.001165403868071735,0.03403717279434204
45.0,1.5085696925851482,-1.1430565463040927,1.555775658258379,-1.8424847953423156,-1.5797694857019409,0.0,-0.12705272436141968,1.138328194618225,0.32153424620628357,0.9970318675041199,-0.03071470744907856,0.0022814814001321793,0.07056130468845367
46.0,1.5024423995814669,-1.1671633668488148,1.5815722608448168,-1.8110708801420299,-1.5826534932716796,0.0,-0.12121380120515823,1.1060616970062256,0.325618177652359,0.9956303238868713,-0.03352506831288338,0.0029313527047634125,0.08710671216249466
47.0,1.4943390567232493,-1.1356043485770155,1.5409891417460044,-1.8021468461657153,-1.5840571888007422,0.0,-0.10960268974304199,1.134393334388733,0.32058727741241455,0.995488703250885,-0.037498049437999725,0.003279015189036727,0.08709444850683212
48.0,1.5003038836353992,-1.087365045194246,1.4611628347085017,-1.7704837475405601,-1.583024187539441,0.0,-0.11352871358394623,1.179612636566162,0.32343432307243347,0.9955944418907166,-0.03457358479499817,0.003023133845999837,0.08710427582263947
49.0,1.4931821216048973,-1.0622503378218835,1.4196992028362354,-1.7542239230097592,-1.584257661325803,0.0,-0.10283805429935455,1.2036203145980835,0.3242717981338501,0.9954670667648315,-0.038065288215875626,0.0033286274410784245,0.08709359169006348
50.0,1.4860486824617032,-1.1068731596518768,1.5000175622495588,-1.7900205439700112,-1.5854923736856847,0.0,-0.09745363891124725,1.1609435081481934,0.31806090474128723,0.9953271746635437,-0.04156232252717018,0.003634632797911763,0.08708029985427856
51.0,1.4775180334692142,-1.1637397780430092,1.5779225531136136,-1.811188800686051,-1.586967852135345,0.0,-0.09167112410068512,1.111493706703186,0.32465898990631104,0.9951438307762146,-0.04574383422732353,0.004000380169600248,0.08706417679786682
52.0,1.4694463320592208,-1.1355194233791306,1.5415215067361872,-1.803142072190342,-1.588363149890996,0.0,-0.07966530323028564,1.1366487741470337,0.3202020227909088,0.9949540495872498,-0.04969985410571098,0.004346541594713926,0.08704770356416702
53.0,1.4764972750591185,-1.087741089955813,1.461864225721425,-1.7711440037447512,-1.587144596416226,0.0,-0.0838458314538002,1.1815986633300781,0.3234165906906128,0.9951207041740417,-0.04624413698911667,0.004044258035719395,0.08706288039684296
54.0,1.4688330481165104,-1.0672406085236963,1.4272885922049487,-1.7572267302202353,-1.588466187453813,0.0,-0.0723114013671875,1.2013652324676514,0.3246443271636963,0.9949402213096619,-0.05000068247318268,0.004372089635580778,0.08703232556581497
55.0,1.4631571678408588,-1.1007934292163923,1.4854311163176874,-1.8294329942964132,-1.5838327817652251,0.0,-0.0686415433883667,1.1893494129180908,0.32619670033454895,0.996571958065033,-0.053275950253009796,0.0031090991105884314,0.06321628391742706
56.0,1.4576915548485132,-1.1334444991984454,1.5427607750093157,-1.9036329217249084,-1.5789375489766913,0.0,-0.06541981548070908,1.177673101425171,0.3278319537639618,0.9976719617843628,-0.05632508546113968,0.0019002549815922976,0.038398973643779755
57.0,1.45219731876686,-1.1668055145147624,1.6008672773768158,-1.9764346546796374,-1.5741746646422623,0.0,-0.0625118538737297,1.1637402772903442,0.3297785520553589,0.9981414675712585,-0.05923472344875336,0.000843794783577323,0.014286321587860584
58.0,1.446053090984545,-1.216288429540513,1.6766148504406952,-2.0174852794963165,-1.5724172349545498,0.0,-0.06127641350030899,1.1224082708358765,0.33054468035697937,0.9980323314666748,-0.062324173748493195,0.00038385737570934,0.0068559120409190655
59.0,1.4327460490363542,-1.261252262791719,1.745528295698804,-2.0550724149038913,-1.5707963461988184,0.0,-0.05236266180872917,1.084316372871399,0.32977208495140076,0.9976187348365784,-0.06897033751010895,1.785074488225291e-08,5.864657026677378e-08
60.0,1.4379047204703004,-1.2093043332155442,1.6707932713032083,-2.0322852934134614,-1.5707963705062866,0.0,-0.05135168135166168,1.133432388305664,0.3298123776912689,0.9977933168411255,-0.06639692187309265,1.92719245006856e-08,5.74721994439642e-08
61.0,1.443275402724054,-1.1730899630655613,1.6093376156888657,-1.9678881722203672,-1.5753951358299625,0.0,-0.05291346460580826,1.1543896198272705,0.32888197898864746,0.9977769255638123,-0.06365993618965149,0.0010469084372743964,0.019683292135596275
62.0,1.4470212468921253,-1.1418793030322574,1.552884753678521,-1.8923744314928272,-1.5812993953457883,0.0,-0.053455010056495667,1.1660140752792358,0.3281240463256836,0.9970887303352356,-0.061551086604595184,0.0024717398919165134,0.04493706300854683
63.0,1.4507670910601966,-1.1106686429989534,1.4964318916681758,-1.8168606907652867,-1.5872036548616142,0.0,-0.05421452596783638,1.1765741109848022,0.32781460881233215,0.9957664012908936,-0.0592588409781456,0.003982889465987682,0.07015551626682281
64.0,1.4563001568032259,-1.0709839187509562,1.432716838534705,-1.7591529016267813,-1.5906287375455872,0.0,-0.0567765049636364,1.1989411115646362,0.3250843286514282,0.9946130514144897,-0.05614205077290535,0.00490905623883009,0.08699880540370941
65.0,1.44129361534946,-1.0901653278652494,1.4602569769183236,-1.7711102631855706,-1.592806916981651,0.0,-0.03991471603512764,1.1843880414962769,0.32752496004104614,0.9943111538887024,-0.0635380893945694,0.005456577055156231,0.08531361073255539
66.0,1.4372249777287527,-1.1214719571789256,1.5167451806494576,-1.8464914062932238,-1.5862988567143899,0.0,-0.039003752171993256,1.1744285821914673,0.327659547328949,0.9959887266159058,-0.06615263968706131,0.003732483834028244,0.060134779661893845
67.0,1.4331563401080454,-1.1527785864926012,1.5732333843805912,-1.9218725494008762,-1.5797907964471287,0.0,-0.03832132741808891,1.1634219884872437,0.3282463550567627,0.9970332384109497,-0.06856799125671387,0.002098961966112256,0.0349089652299881
68.0,1.429087702487338,-1.1840852158062771,1.6297215881117255,-1.9972536925085291,-1.5732827361798674,0.0,-0.03788375109434128,1.1513466835021973,0.32926949858665466,0.9974450469017029,-0.07077980041503906,0.0005611400119960308,0.00965332705527544
69.0,1.4233709597157655,-1.209373092049899,1.668776404643101,-2.019932988484583,-1.5722452172683392,0.0,-0.03481306880712509,1.1306381225585938,0.3295801281929016,0.9972712993621826,-0.07364124804735184,0.0003444327157922089,0.005172707140445709
70.0,1.4251805222999838,-1.1748880939188682,1.6086646343135154,-1.9487639808886237,-1.578672145718819,0.0,-0.03181111067533493,1.1477950811386108,0.3287787437438965,0.9969626069068909,-0.07260511815547943,0.0018963597249239683,0.02811303921043873
71.0,1.426990084884202,-1.1404030957878373,1.5485528639839297,-1.8775949732926647,-1.585099074169299,0.0,-0.029030710458755493,1.163866400718689,0.3280709683895111,0.9961361289024353,-0.07138582319021225,0.0034847476053982973,0.051034796983003616
72.0,1.4287996474684204,-1.1059180976568068,1.4884410936543446,-1.8064259656967063,-1.5915260026197788,0.0,-0.026465920731425285,1.178853154182434,0.32747164368629456,0.9947919249534607,-0.06998500972986221,0.005105428863316774,0.07392518222332001
73.0,1.4345262690946954,-1.0619828337901884,1.420542132159501,-1.7564298656362354,-1.5943781860986324,0.0,-0.0281581562012434,1.2074209451675415,0.32357102632522583,0.9939530491828918,-0.06680741906166077,0.00584053248167038,0.08694851398468018
74.0,1.4136258668153758,-1.0543003402309645,1.4258649643836272,-1.7355062493835502,-1.5085524671544146,0.0,-0.03760659322142601,1.2016680240631104,0.3092857003211975,0.990854024887085,-0.08124974370002747,-0.03895622119307518,0.10044475644826889
75.0,1.3891269767372683,-1.0509179141240106,1.438671030278283,-1.7147299321283052,-1.4152520893808793,0.0,-0.04648701846599579,1.1928337812423706,0.298173189163208,0.9846411347389221,-0.09917362779378891,-0.0877968817949295,0.11374531686306
76.0,1.3646280866591607,-1.0475354880170564,1.4514770961729386,-1.6939536148730603,-1.321951711607344,0.0,-0.055094163864851,1.185975193977356,0.2908211350440979,0.9755042195320129,-0.11837507784366608,-0.1365160495042801,0.1254679411649704
77.0,1.3401291965810531,-1.0441530619101023,1.4642831620675945,-1.6731772976178152,-1.228651333833809,0.0,-0.06293655931949615,1.181327223777771,0.28705042600631714,0.9634289741516113,-0.1387242078781128,-0.18491895496845245,0.13551782071590424
78.0,1.3156303065029458,-1.0407706358031483,1.4770892279622498,-1.6524009803625703,-1.1353509560602746,0.0,-0.06951254606246948,1.1790556907653809,0.2866314649581909,0.9484153389930725,-0.1600845605134964,-0.232808455824852,0.1438104659318924
79.0,1.2911314164248382,-1.0373882096961942,1.4898952938569057,-1.6316246631073255,-1.0420505782867393,0.0,-0.07432007789611816,1.1792562007904053,0.28928905725479126,0.9304770231246948,-0.182313933968544,-0.2799864113330841,0.15027223527431488
80.0,1.2666325263467306,-1.0340057835892402,1.5027013597515613,-1.6108483458520804,-0.9487502005132041,0.0,-0.07686732709407806,1.1819474697113037,0.2947066128253937,0.9096419215202332,-0.2052651345729828,-0.32625454664230347,0.15484122931957245
81.0,1.2575802276171624,-1.016418031604507,1.484195276737771,-1.5905848701044518,-0.8829468739623721,0.0,-0.08137929439544678,1.2013649940490723,0.3012661039829254,0.895004391670227,-0.21714749932289124,-0.3573535084724426,0.15528234839439392
82.0,1.2517758686151714,-1.0509038377817776,1.5360481773082726,-1.6277285434414102,-0.8766407888181115,0.0,-0.083719402551651,1.1796319484710693,0.3069865107536316,0.8957542181015015,-0.21730878949165344,-0.3599007725715637,0.14447365701198578
83.0,1.2426452587222392,-1.0798882910124767,1.5929528753274262,-1.70196591637066,-0.8611666544541348,0.0,-0.08197522908449173,1.1680582761764526,0.30615541338920593,0.8975329399108887,-0.21543258428573608,-0.36559057235717773,0.11986144632101059
84.0,1.2335146488293072,-1.108872744243175,1.6498575733465786,-1.7762032892999087,-0.8456925200901584,0.0,-0.08079780638217926,1.1553733348846436,0.3058784604072571,0.8988451957702637,-0.21311725676059723,-0.3709280788898468,0.09524021297693253
85.0,1.2141603552132474,-1.1496809080124404,1.7251599075816155,-1.810400922117346,-0.8464909292390019,0.0,-0.07401323318481445,1.1142094135284424,0.2993794083595276,0.8968570232391357,-0.22181567549705505,-0.3714899718761444,0.09187091886997223
86.0,1.1955193181151487,-1.1518454127913345,1.7459419202518798,-1.7645755590795869,-0.8367982146777377,0.0,-0.06661415845155716,1.089081048965454,0.2883031368255615,0.8854082822799683,-0.2407304048538208,-0.3800986409187317,0.1167302131652832
87.0,1.178471887081316,-1.1201979036688554,1.7240224994889348,-1.6769190944190213,-0.8154452042431728,0.0,-0.0569533109664917,1.0844578742980957,0.2741072475910187,0.8659119606018066,-0.26467010378837585,-0.3951677680015564,0.1548824906349182
88.0,1.1614244560474831,-1.0885503945463757,1.7021030787259894,-1.5892626297584544,-0.7940921938086074,0.0,-0.04713565111160278,1.0802817344665527,0.2618323862552643,0.8438296318054199,-0.2885538339614868,-0.4096204340457916,0.19209156930446625
89.0,1.1443770250136505,-1.0569028854238967,1.6801836579630443,-1.5016061650978891,-0.7727391833740423,0.0,-0.0370427742600441,1.076737642288208,0.25132203102111816,0.8192325830459595,-0.3122676610946655,-0.4233582615852356,0.2282860279083252
90.0,1.1273295939798176,-1.0252553763014172,1.6582642372000989,-1.4139497004373223,-0.751386172939477,0.0,-0.026553615927696228,1.073981523513794,0.2423979640007019,0.7922011613845825,-0.335697740316391,-0.4362848997116089,0.263400137424469
91.0,1.110282162945985,-0.9936078671789381,1.636344816437154,-1.326293235776757,-0.7300331625049119,0.0,-0.015547692775726318,1.0721385478973389,0.23486466705799103,0.762825071811676,-0.3587307631969452,-0.4483063220977783,0.2973741888999939
92.0,1.0932347319121523,-0.9619603580564591,1.614425395674209,-1.2386367711161916,-0.708680152070347,0.0,-0.0039081871509552,1.0713026523590088,0.22851166129112244,0.7312025427818298,-0.381254643201828,-0.4593316316604614,0.33015456795692444
93.0,1.0761873008783194,-0.9303128489339794,1.5925059749112636,-1.1509803064556248,-0.6873271416357816,0.0,0.008475594222545624,1.0715357065200806,0.22311782836914062,0.6974404454231262,-0.4031587839126587,-0.46927326917648315,0.36169368028640747
94.0,1.0591398698444867,-0.8986653398115003,1.5705865541483184,-1.0633238417950595,-0.6659741312012165,0.0,0.021704569458961487,1.072868824005127,0.21845510601997375,0.6616538166999817,-0.4243345856666565,-0.4780474603176117,0.3919501304626465
95.0,1.0420924388106538,-0.8670178306890208,1.548667133385373,-0.9756673771344925,-0.6446211207666511,0.0,0.03586875647306442,1.0753017663955688,0.21429157257080078,0.623965322971344,-0.44467639923095703,-0.4855748116970062,0.42088866233825684
96.0,1.0250450077768212,-0.8353703215665418,1.526747712622428,-0.8880109124739272,-0.6232681103320862,0.0,0.05104418098926544,1.0788068771362305,0.210395947098732,0.5845051407814026,-0.46408113837242126,-0.49178069829940796,0.44847986102104187
97.0,1.0079975767429885,-0.8037228124440627,1.504828291859483,-0.8003544478133617,-0.6019150998975211,0.0,0.06729116290807724,1.0833269357681274,0.20654013752937317,0.5434102416038513,-0.48244965076446533,-0.49659544229507446,0.47470059990882874
98.0,0.9909501457091555,-0.772075303321583,1.4829088710965377,-0.7126979831527949,-0.5805620894629557,0.0,0.0846528708934784,1.0887821912765503,0.20250312983989716,0.500823974609375,-0.49968641996383667,-0.49995502829551697,0.49953335523605347
99.0,1.0094164222030049,-0.7437997172017498,1.406683088154974,-0.662883233095953,-0.5613604232336866,0.0,0.08501892536878586,1.1303006410598755,0.21221458911895752,0.49999505281448364,-0.5000048279762268,-0.5000048279762268,0.4999951124191284
100.0,1.0069681676607503,-0.7476382972940966,1.415916747449799,-0.6682786250516422,-0.5638089279160818,0.0,0.08528744429349899,1.125188946723938,0.21155276894569397,0.4999952018260956,-0.500004768371582,-0.5000047087669373,0.4999951422214508
101.0,0.9875917174216271,-0.7761773492898735,1.4931779912161354,-0.7170006967033223,-0.5831854006476017,0.0,0.08516185730695724,1.0827053785324097,0.20203164219856262,0.4999951720237732,-0.500004768371582,-0.5000047087669373,0.4999951422214508
102.0,0.9659253965351225,-0.8027858614832574,1.5693765230284116,-0.7665906280309593,-0.604851680327618,0.0,0.08536335080862045,1.038718581199646,0.19154441356658936,0.49999523162841797,-0.500004768371582,-0.500004768371582,0.4999951422214508
103.0,0.9771716617850538,-0.7898071479968511,1.531571678000406,-0.7417644693546455,-0.5936054385960442,0.0,0.0850544348359108,1.0608752965927124,0.1969051957130432,0.4999952018260956,-0.500004768371582,-0.5000047087669373,0.4999952018260956
104.0,0.9632341027882746,-0.8054182538161405,1.5795658963401606,-0.7741477551147714,-0.607542871628068,0.0,0.08503466099500656,1.0329495668411255,0.1891666054725647,0.4999951720237732,-0.5000048279762268,-0.500004768371582,0.49999505281448364
105.0,0.9417468812046675,-0.8140484810524821,1.6486417052604339,-0.830566222827308,-0.623422684993872,0.0,0.08491086959838867,0.994192361831665,0.16466675698757172,0.49718454480171204,-0.5016292929649353,-0.5011780261993408,0.4999960958957672
106.0,0.9162605664866413,-0.8246746163356352,1.7114020578734157,-0.8139484992914725,-0.5531747667904113,0.0,0.08408565074205399,0.9825026988983154,0.1604928821325302,0.4484120011329651,-0.5289846658706665,-0.5196952819824219,0.4990175664424896
107.0,0.9186536427452687,-0.8322404404250052,1.721002162523684,-0.7461713264722011,-0.4944078463915605,0.0,0.07514283061027527,0.992866039276123,0.1765052229166031,0.4086451530456543,-0.5470771193504333,-0.5258674621582031,0.5071283578872681
108.0,0.928539757758553,-0.8389837562179951,1.7163145878438928,-0.6646442214370958,-0.43872663046753413,0.0,0.06490306556224823,1.0092257261276245,0.19629311561584473,0.3712807595729828,-0.5633090734481812,-0.5269128680229187,0.5169102549552917
109.0,0.938425872771837,-0.845727072010985,1.7116270131641016,-0.5831171164019919,-0.3830454145435088,0.0,0.05569267272949219,1.0254708528518677,0.2139323651790619,0.3337908089160919,-0.5800349712371826,-0.5254020690917969,0.5254480838775635
110.0,0.9483119877851213,-0.852470387803975,1.7069394384843104,-0.5015900113668866,-0.3273641986194824,0.0,0.04734376072883606,1.0413553714752197,0.22934584319591522,0.29633578658103943,-0.5971779227256775,-0.5213409662246704,0.5326980948448181
111.0,0.9581981027984052,-0.8592137035969648,1.7022518638045194,-0.4200629063317828,-0.27168298269545704,0.0,0.039692364633083344,1.0566234588623047,0.24250072240829468,0.25907501578330994,-0.6146575808525085,-0.5147460699081421,0.5386210680007935
112.0,0.9680842178116895,-0.8659570193899547,1.6975642891247282,-0.33853580129667743,-0.21600176677143068,0.0,0.03258273005485535,1.071014642715454,0.2534092664718628,0.2221662849187851,-0.6323909759521484,-0.5056438446044922,0.5431833267211914
113.0,0.9779703328249736,-0.8727003351829445,1.6928767144449373,-0.25700869626157363,-0.16032055084740532,0.0,0.025869429111480713,1.084268569946289,0.2621278166770935,0.18576472997665405,-0.650291919708252,-0.494070827960968,0.5463567972183228
114.0,0.9878564478382575,-0.8794436509759344,1.688189139765146,-0.17548159122646978,-0.10463933492337996,0.0,0.019421570003032684,1.09613037109375,0.26875627040863037,0.1500227153301239,-0.6682723760604858,-0.48007330298423767,0.5481192469596863
115.0,0.9977425628515418,-0.8861869667689243,1.6835015650853549,-0.09395448619136448,-0.04895811899935365,0.0,0.013124540448188782,1.1063556671142578,0.27343547344207764,0.11508893966674805,-0.6862420439720154,-0.46370747685432434,0.5484538078308105
116.0,1.0076286778648258,-0.8929302825619141,1.678813990405564,-0.01242738115626063,0.0067230969246717676,0.0,0.006882369518280029,1.1147156953811646,0.276345431804657,0.08110787719488144,-0.704109251499176,-0.4450385272502899,0.547350287437439
117.0,1.01751479287811,-0.899673598354904,1.6741264157257727,0.06909972387884467,0.062404312848698074,0.0,0.0006193444132804871,1.1210014820098877,0.2777010500431061,0.04821895807981491,-0.7217811346054077,-0.4241406321525574,0.5448041558265686
118.0,1.0274009078913942,-0.9064169141478939,1.6694388410459815,0.15062682891394852,0.11808552877272349,0.0,-0.005718894302845001,1.1250298023223877,0.27774959802627563,0.016556531190872192,-0.7391641736030579,-0.40109679102897644,0.5408174395561218
119.0,1.0372870229046782,-0.9131602299408837,1.6647512663661905,0.23215393394905237,0.1737667446967488,0.0,-0.012164600193500519,1.1266453266143799,0.27676519751548767,-0.013751075603067875,-0.7561643123626709,-0.37599825859069824,0.535398542881012
120.0,1.0471731379179623,-0.9199035457338737,1.6600636916863993,0.3136810389841578,0.22944796062077522,0.0,-0.018727928400039673,1.1257258653640747,0.27504467964172363,-0.04258190095424652,-0.7726880311965942,-0.3489440381526947,0.5285622477531433
121.0,1.0570592529312464,-0.9266468615268635,1.6553761170066084,0.39520814401926163,0.2851291765448005,0.0,-0.025397025048732758,1.122185230255127,0.27290207147598267,-0.06982092559337616,-0.7886419296264648,-0.32004058361053467,0.5203296542167664
122.0,1.0669453679445307,-0.9333901773198534,1.6506885423268172,0.4767352490543668,0.34081039246882694,0.0,-0.0321391299366951,1.1159756183624268,0.270663321018219,-0.09536058455705643,-0.80393385887146,-0.28940123319625854,0.5107284188270569
123.0,1.0768314829578147,-0.9401334931128432,1.646000967647026,0.5582623540894707,0.39649160839285225,0.0,-0.03890187293291092,1.107089638710022,0.2686602473258972,-0.11910072714090347,-0.8184732794761658,-0.25714564323425293,0.49979251623153687
124.0,1.0867175979710986,-0.946876808905833,1.641313392967235,0.6397894591245745,0.45217282431687766,0.0,-0.04561477154493332,1.0955623388290405,0.267225444316864,-0.14094969630241394,-0.8321712613105774,-0.22339946031570435,0.4875621795654297
125.0,1.0966037129843829,-0.953620124698823,1.6366258182874438,0.7213165641596799,0.507854040240904,0.0,-0.05219137296080589,1.0814703702926636,0.26668569445610046,-0.16082391142845154,-0.8449411988258362,-0.1882937252521515,0.47408366203308105
126.0,1.106489827997667,-0.9603634404918129,1.6319382436076526,0.8028436691947838,0.5635352561649294,0.0,-0.05853169783949852,1.0649334192276,0.26735642552375793,-0.17864912748336792,-0.856699526309967,-0.15196405351161957,0.45940980315208435
127.0,1.1163759430109512,-0.9671067562848028,1.6272506689278614,0.884370774229889,0.6192164720889557,0.0,-0.06452545523643494,1.0461126565933228,0.2695361077785492,-0.19435948133468628,-0.8673654794692993,-0.11455021053552628,0.4435987174510956
128.0,1.1262620580242353,-0.9738500720777926,1.6225630942480704,0.9658978792649928,0.6748976880129811,0.0,-0.07005397230386734,1.0252083539962769,0.2735014855861664,-0.20789876580238342,-0.8768619298934937,-0.07619573175907135,0.42671456933021545
129.0,1.1361481730375191,-0.9805933878707824,1.6178755195682792,1.0474249843000967,0.7305789039370065,0.0,-0.07499416172504425,1.0024597644805908,0.2795015573501587,-0.21922022104263306,-0.8851161599159241,-0.037046853452920914,0.4088268578052521
130.0,1.1746263378256925,-0.996430448457802,1.6082933585866384,1.0288966394444168,0.8155431904110707,0.0,-0.0889778584241867,0.9977640509605408,0.2704731822013855,-0.19545815885066986,-0.908270001411438,-0.04064132645726204,0.3676818013191223
131.0,1.2143817978842026,-1.0126737547427171,1.598492541300786,1.005898508269701,0.90181564219014,0.0,-0.10064254701137543,0.9957643747329712,0.2633534073829651,-0.1708114892244339,-0.9289589524269104,-0.04846686124801636,0.3248225450515747
132.0,1.2541372579427137,-1.0289170610276326,1.5886917240149334,0.9829003770949848,0.9880880939692107,0.0,-0.11002501845359802,0.9957028031349182,0.2592587172985077,-0.1470208466053009,-0.9464181661605835,-0.05858496576547623,0.28150513768196106
133.0,1.2938927180012239,-1.0451603673125476,1.578890906729081,0.9599022459202691,1.0743605457482799,0.0,-0.11765412986278534,0.9975287318229675,0.25848084688186646,-0.1242949441075325,-0.9606691598892212,-0.07091287523508072,0.23798467218875885
134.0,1.333648178059734,-1.0614036735974628,1.5690900894432287,0.9369041147455532,1.1606329975273493,0.0,-0.12404793500900269,1.001096248626709,0.2612553834915161,-0.10283488035202026,-0.9717540144920349,-0.08534874767065048,0.19451114535331726
135.0,1.373403638118245,-1.0776469798823782,1.5592892721573763,0.9139059835708371,1.24690544930642,0.0,-0.12969878315925598,1.0061718225479126,0.26775890588760376,-0.08283216506242752,-0.9797350168228149,-0.10177344083786011,0.151327982544899
136.0,1.4131590981767552,-1.0938902861672932,1.5494884548715238,0.8909078523961214,1.3331779010854894,0.0,-0.13505993783473969,1.012444019317627,0.2781044542789459,-0.06446731090545654,-0.9846941232681274,-0.12005042284727097,0.10867027938365936
137.0,1.452914558235266,-1.1101335924522087,1.5396876375856714,0.8679097212214051,1.4194503528645601,0.0,-0.14053377509117126,1.0195345878601074,0.2923406660556793,-0.04790841042995453,-0.9867318868637085,-0.14002732932567596,0.06676321476697922
138.0,1.4926700182937762,-1.1263768987371239,1.529886820299819,0.8449115900466894,1.5057228046436295,0.0,-0.14646248519420624,1.0270121097564697,0.3104507327079773,-0.03330962732434273,-0.9859662652015686,-0.16153696179389954,0.025820516049861908
139.0,1.5096997683998818,-1.1529254438485375,1.5623442339969476,0.8129433846918868,1.54975230051991,0.0,-0.14757493138313293,1.0120062828063965,0.3147748112678528,-0.02825651876628399,-0.9844042658805847,-0.1735631823539734,0.005063655320554972
140.0,1.5186421284493576,-1.1890733624432726,1.6402128835048035,0.7710173404366889,1.5529661618201598,0.0,-0.157524973154068,0.9693503379821777,0.29924726486206055,-0.02413225919008255,-0.9845110774040222,-0.17360126972198486,0.004254825413227081
141.0,1.5011456312362135,-1.152563231451646,1.5608493582870844,0.8142441114365299,1.546919339210304,0.0,-0.13997261226177216,1.0138413906097412,0.3154312074184418,-0.03222223371267319,-0.9842817783355713,-0.17354637384414673,0.005718540400266647
142.0,1.4918415039130655,-1.1580533445905872,1.5717527271162695,0.8090364472965205,1.5438237446078875,0.0,-0.13220520317554474,1.0092108249664307,0.31375735998153687,-0.0365341380238533,-0.9841302633285522,-0.17352668941020966,0.006438606884330511
143.0,1.4756159116117162,-1.1550900574719385,1.5642774425317474,0.8140023254661188,1.5382929402418757,0.0,-0.11762326210737228,1.0148530006408691,0.3158102333545685,-0.04404226690530777,-0.9838228225708008,-0.17347247898578644,0.0077624814584851265
144.0,1.4388233339274525,-1.1666430526859888,1.5867596984760939,0.8044153292798008,1.5257817304588703,0.0,-0.08673181384801865,1.0062761306762695,0.31269001960754395,-0.0610678493976593,-0.9829128980636597,-0.17331187427043915,0.010764416307210922
145.0,1.4112136525519186,-1.1736060674467041,1.6005640775404544,0.7988763630888693,1.5164291573750401,0.0,-0.06380051374435425,1.0007853507995605,0.3106793761253357,-0.07384497672319412,-0.9820365905761719,-0.17315204441547394,0.013016961514949799
146.0,1.3881472479162527,-1.1657758105625002,1.5835688880350425,0.8092980266359567,1.508640756390716,0.0,-0.04215037822723389,1.0107661485671997,0.3143247663974762,-0.08451933413743973,-0.9811745882034302,-0.17300507426261902,0.01489949319511652
147.0,1.374351908279255,-1.1893266732829366,1.661940357284072,0.7552956100199707,1.503989863937908,0.0,-0.0370621383190155,0.9759687185287476,0.28617966175079346,-0.09090256690979004,-0.9806019067764282,-0.17291490733623505,0.01602788455784321
148.0,1.4015048359130355,-1.2025659619804072,1.71242987722347,0.7165324861683279,1.5131564167266562,0.0,-0.06387123465538025,0.9516130089759827,0.266187846660614,-0.07833974808454514,-0.9816926121711731,-0.17306596040725708,0.013807409442961216
149.0,1.4753109032224985,-1.2017138707518191,1.7159846726435453,0.6965611258587573,1.5373419152678351,0.0,-0.12397868186235428,0.9491719603538513,0.2624795436859131,-0.04395627602934837,-0.9827312231063843,-0.17956845462322235,0.007895393297076225
150.0,1.4753148067584665,-1.2189743483257773,1.7608760598419289,0.6094837720065246,1.5332649928157343,0.0,-0.12547680735588074,0.950162947177887,0.25039154291152954,-0.04276708513498306,-0.9769921898841858,-0.20877385139465332,0.008399813435971737
151.0,1.4753187102944347,-1.2362348258997355,1.8057674470403122,0.5224064181542919,1.5291880703636334,0.0,-0.1270335167646408,0.9505383372306824,0.23983347415924072,-0.041421689093112946,-0.9703922271728516,-0.2377905547618866,0.008871795609593391
152.0,1.4753226138304028,-1.2534953034736942,1.8506588342386965,0.4353290643020576,1.5251111479115325,0.0,-0.1286562830209732,0.9502219557762146,0.2308107316493988,-0.039921991527080536,-0.9629372358322144,-0.2665923535823822,0.009307394735515118
153.0,1.475326517366371,-1.2707557810476524,1.8955502214370799,0.34825171044982484,1.5210342254594316,0.0,-0.1303521990776062,0.9491389989852905,0.22332313656806946,-0.03827028349041939,-0.9546337723731995,-0.29515340924263,0.00970285665243864
154.0,1.475330420902339,-1.2880162586216108,1.940441608635464,0.2611743565975906,1.5169573030073307,0.0,-0.1321282684803009,0.9472155570983887,0.2173648178577423,-0.036469049751758575,-0.9454894065856934,-0.3234477937221527,0.010054334066808224
155.0,1.4753343244383073,-1.305276736195569,1.9853329958338475,0.1740970027453579,1.5128803805552298,0.0,-0.1339912712574005,0.9443793892860413,0.2129250466823578,-0.03452109172940254,-0.9355124235153198,-0.3514503836631775,0.01035807654261589
156.0,1.4753382279742755,-1.3225372137695275,2.0302243830322313,0.08701964889312508,1.508803458103129,0.0,-0.1359480619430542,0.9405601024627686,0.20998722314834595,-0.03242927044630051,-0.9247118830680847,-0.37913551926612854,0.010610432364046574
157.0,1.4753421315102435,-1.339797691343486,2.0751157702306156,-5.7704959109172727e-05,1.5047265356510282,0.0,-0.1380051076412201,0.9356894493103027,0.20853003859519958,-0.03019678220152855,-0.9130972027778625,-0.40647855401039124,0.010807930491864681
158.0,1.4753460350462118,-1.3570581689174441,2.120007157428999,-0.08713505881134187,1.5006496131989273,0.0,-0.14016872644424438,0.929701566696167,0.20852646231651306,-0.0278270673006773,-0.9006790518760681,-0.4334547817707062,0.010947052389383316
159.0,1.4753499385821798,-1.3743186464914028,2.164898544627383,-0.17421241266357612,1.4965726907468264,0.0,-0.14244459569454193,0.9225336313247681,0.2099454253911972,-0.02532382868230343,-0.8874685168266296,-0.4600399136543274,0.011024318635463715
160.0,1.475353842118148,-1.3915791240653608,2.2097899318257666,-0.26128976651580893,1.4924957682947255,0.0,-0.14483879506587982,0.9141257405281067,0.2127503752708435,-0.022690748795866966,-0.8734773993492126,-0.4862102270126343,0.011036625131964684
161.0,1.475357745654116,-1.4088396016393194,2.254681319024151,-0.3483671203680432,1.4884188458426246,0.0,-0.14735661447048187,0.9044208526611328,0.21690021455287933,-0.019931988790631294,-0.8587185144424438,-0.5119420886039734,0.010980723425745964
162.0,1.4753616491900843,-1.4261000792132776,2.299572706222534,-0.4354444742202759,1.4843419233905237,0.0,-0.15000295639038086,0.8933659791946411,0.222349613904953,-0.017051808536052704,-0.8432048559188843,-0.5372121930122375,0.010853501968085766
