Sungjin-Park-dev/lg_sgu_vision_v2/data/sample/trajectory/124/trajectory_dp_s010.csv
time,ur20-shoulder_pan_joint,ur20-shoulder_lift_joint,ur20-elbow_joint,ur20-wrist_1_joint,ur20-wrist_2_joint,ur20-wrist_3_joint,target-POS_X,target-POS_Y,target-POS_Z,target-ROT_X,target-ROT_Y,target-ROT_Z,target-ROT_W
0.0,1.9927528540240687,-0.7432699203491211,1.4341142177581787,-0.6908443609820765,-2.7196171283721924,0.0,-0.28499841690063477,1.0089393854141235,0.1959955245256424,0.5000047087669373,0.49999526143074036,0.4999952018260956,0.5000047087669373
2.0,1.9738353962907929,-0.707374885237167,1.3343616217002132,-0.6269867425257611,-2.738534557858007,0.0,-0.28501343727111816,1.0665785074234009,0.20962907373905182,0.500004768371582,0.4999952018260956,0.4999952018260956,0.500004768371582
4.0,1.96891572826004,-0.696427445500109,1.305282014533849,-0.6088544936051205,-2.7434540059982804,0.0,-0.2850874662399292,1.0825506448745728,0.2131926566362381,0.5000048279762268,0.4999951422214508,0.4999951422214508,0.500004768371582
6.0,1.9534055096070355,-0.6587155001696255,1.2055294184758836,-0.5468137639858444,-2.7589642763853353,0.0,-0.28504085540771484,1.1346732378005981,0.22573058307170868,0.500004768371582,0.4999951720237732,0.4999951720237732,0.5000048279762268
8.0,1.9400436099796177,-0.6182783160445166,1.1057768224179179,-0.48749881815199625,-2.772326046781064,0.0,-0.2850273847579956,1.1828683614730835,0.23530803620815277,0.5000048875808716,0.49999508261680603,0.4999952018260956,0.5000047087669373
10.0,1.927959025235067,-0.5663496698469378,1.0060242263599524,-0.411608419923125,-2.711692425189692,0.0,-0.2843587398529053,1.196587324142456,0.23394937813282013,0.5086283683776855,0.4852311313152313,0.4776519536972046,0.5269690752029419
12.0,1.9252695844827408,-0.5535318090686825,0.9833428325504913,-0.39240611020025307,-2.6901859408048447,0.0,-0.2844504714012146,1.1960277557373047,0.23294900357723236,0.5112766623497009,0.48004111647605896,0.4701707065105438,0.5358135104179382
14.0,1.9374073431862373,-0.6041086944286966,1.0830954286084569,-0.4662679600250129,-2.7420085585515994,0.0,-0.2849438488483429,1.1791993379592896,0.23273250460624695,0.5040269494056702,0.49343979358673096,0.4899185001850128,0.5123023986816406
16.0,1.9501507174561472,-0.6490913495508331,1.1828480246664226,-0.5337566023036637,-2.7622192762535738,0.0,-0.2850250005722046,1.1460927724838257,0.22730550169944763,0.5000047087669373,0.4999952018260956,0.4999952018260956,0.500004768371582
18.0,1.9650999674944751,-0.6872341121597141,1.282600620724388,-0.5953664499160012,-2.747269770344663,0.0,-0.28503215312957764,1.0949193239212036,0.21519023180007935,0.500004768371582,0.4999952018260956,0.4999952018260956,0.5000048279762268
20.0,1.9497492198940598,-0.7163776223657482,1.3104954122336077,-0.6917209926994068,-2.712761979266165,0.0,-0.26884734630584717,1.0863169431686401,0.22014547884464264,0.5437169671058655,0.4739532172679901,0.49963897466659546,0.479688435792923
22.0,1.931296284507921,-0.7446803541368351,1.331252630672206,-0.7914735887573724,-2.676404033939121,0.0,-0.2522892951965332,1.0831557512283325,0.22574248909950256,0.5900760889053345,0.444350928068161,0.4969969391822815,0.45536401867866516
24.0,1.912843349121782,-0.7729830859079219,1.3520098491108044,-0.891226184815338,-2.6400460886120767,0.0,-0.23698121309280396,1.0813179016113281,0.23049777746200562,0.6344433426856995,0.4139062166213989,0.49209871888160706,0.42895475029945374
26.0,1.8943904137356429,-0.8012858176790086,1.3727670675494028,-0.9909787808733037,-2.6036881432850327,0.0,-0.22288787364959717,1.081039547920227,0.23475003242492676,0.6766071319580078,0.3828063905239105,0.48506075143814087,0.4004724323749542
28.0,1.875937478349504,-0.8295885494500954,1.393524285988001,-1.0907313769312692,-2.5673301979579883,0.0,-0.2099422961473465,1.0825049877166748,0.23887023329734802,0.7163680791854858,0.35124337673187256,0.4760115146636963,0.3699430227279663
30.0,1.857484542963365,-0.8578912812211822,1.4142815044265993,-1.190483972989235,-2.5309722526309444,0.0,-0.19804897904396057,1.0858417749404907,0.2432529330253601,0.7535408139228821,0.31941166520118713,0.4650912284851074,0.33740562200546265
32.0,1.8390316075772262,-0.886194012992269,1.4350387228651977,-1.2902365690472004,-2.4946143073039004,0.0,-0.18708807229995728,1.091112732887268,0.24830709397792816,0.7879544496536255,0.2875072658061981,0.452449768781662,0.30291351675987244
34.0,1.8205786721910873,-0.9144967447633557,1.455795941303796,-1.389989165105166,-2.458256361976856,0.0,-0.17692095041275024,1.0983128547668457,0.2544468343257904,0.8194532990455627,0.25572678446769714,0.43824610114097595,0.26653388142585754
36.0,1.8021257368049481,-0.9427994765344425,1.4765531597423944,-1.4897417611631316,-2.421898416649812,0.0,-0.1673952341079712,1.107367992401123,0.26208123564720154,0.8478981256484985,0.22426599264144897,0.4226474463939667,0.22834758460521698
38.0,1.7836728014188092,-0.9711022083055293,1.4973103781809927,-1.589494357221097,-2.3855404713227677,0.0,-0.1583518534898758,1.118132472038269,0.271604061126709,0.8731660842895508,0.19331862032413483,0.40582719445228577,0.18844908475875854
40.0,1.7652198660326703,-0.9994049400766161,1.518067596619591,-1.6892469532790628,-2.3491825259957237,0.0,-0.1496308147907257,1.1303908824920654,0.2833837568759918,0.8951517939567566,0.16307510435581207,0.3879646360874176,0.1469464749097824
42.0,1.7383537255581707,-1.0309139992502716,1.5345975493128392,-1.7502480183525162,-2.27707250138809,0.0,-0.13958345353603363,1.1307287216186523,0.2931673526763916,0.9180700778961182,0.13311319053173065,0.35278522968292236,0.12235444039106369
44.0,1.704982715228239,-1.064902106806626,1.5478590908323404,-1.781287414465622,-2.1773199053301244,0.0,-0.13117091357707977,1.1231751441955566,0.3017350435256958,0.9406784176826477,0.1038576290011406,0.3038918972015381,0.10948703438043594
46.0,1.6724990167397848,-1.0964438768234708,1.5691208034382083,-1.8190896863770396,-2.0775673092721587,0.0,-0.12648358941078186,1.1152085065841675,0.3049001395702362,0.9593130946159363,0.07692638039588928,0.2542937397956848,0.09557964652776718
48.0,1.6409583031591315,-1.1253858174778406,1.5988846460074353,-1.8640791607048266,-1.9778147132141934,0.0,-0.12524446845054626,1.1066443920135498,0.3025211691856384,0.9741520881652832,0.0523863211274147,0.20425453782081604,0.08101505786180496
50.0,1.6094175895784781,-1.1543277581322104,1.6286484885766626,-1.9090686350326136,-1.8780621171562277,0.0,-0.12622077763080597,1.1005351543426514,0.3034736216068268,0.9855514764785767,0.029437584802508354,0.15394389629364014,0.06421061605215073
52.0,1.5778768759978246,-1.1832696987865803,1.6584123311458896,-1.9540581093604006,-1.778309521098262,0.0,-0.1288454383611679,1.0966081619262695,0.30802565813064575,0.993549644947052,0.008273911662399769,0.10362230241298676,0.04531075805425644
54.0,1.5463361624171714,-1.2122116394409501,1.6881761737151169,-1.9990475836881876,-1.6785569250402967,0.0,-0.13258738815784454,1.094499945640564,0.3163699209690094,0.9982056617736816,-0.01092398539185524,0.0535435676574707,0.024476423859596252
56.0,1.5147954488365178,-1.2411535800953202,1.7179400162843441,-2.0440370580159746,-1.578804328982331,0.0,-0.1369648426771164,1.0937681198120117,0.3286181092262268,0.9995985627174377,-0.027989426627755165,0.003952804021537304,0.0018842010758817196
58.0,1.521116723164335,-1.180810672924657,1.628584766295337,-2.0185705783220294,-1.5707963170935324,0.0,-0.14402785897254944,1.1524450778961182,0.32977837324142456,-0.9996914863586426,0.02483724243938923,-2.5841066175757987e-08,1.3048372693447163e-07
60.0,1.520009753415231,-1.1328781559697962,1.5454779466603585,-1.9196651904476374,-1.574152907634836,0.0,-0.14025945961475372,1.1759672164916992,0.3271002769470215,0.9991700053215027,-0.025324173271656036,0.0008679728489369154,0.031892336905002594
62.0,1.5187719083074591,-1.0851901093241776,1.4625842074923072,-1.8199125943896721,-1.5775524677167359,0.0,-0.13640685379505157,1.1967847347259521,0.3246406018733978,0.997606098651886,-0.025739213451743126,0.0017029066802933812,0.06416064500808716
64.0,1.5154823310302155,-1.0716621851750583,1.4321181865590407,-1.7569778057486671,-1.5803935693638358,0.0,-0.13159054517745972,1.1931416988372803,0.32609742879867554,0.9958249926567078,-0.027130795642733574,0.002371987560763955,0.08712494373321533
66.0,1.5154183911407586,-1.1128551535826514,1.5061071083952704,-1.8552009465726946,-1.5768100420383584,0.0,-0.13366171717643738,1.1795512437820435,0.3269493281841278,0.9981366395950317,-0.027480805292725563,0.0014952403726056218,0.054458774626255035
68.0,1.5155370288582255,-1.1533871763563603,1.5795307751727954,-1.95495354263066,-1.5731159909821604,0.0,-0.1360349804162979,1.1651320457458496,0.3284302353858948,0.9993979930877686,-0.02759569138288498,0.0005791937583126128,0.021015631034970284
70.0,1.5141191425066636,-1.171256298414248,1.6108322591868733,-1.9804834899124486,-1.5726979620888375,0.0,-0.13530831038951874,1.15187668800354,0.32741984724998474,0.9994868040084839,-0.028317417949438095,0.0005269180983304977,0.014964720234274864
72.0,1.5101077129921365,-1.150872058621679,1.5710344995786942,-1.8807308938544829,-1.5778096252149967,0.0,-0.12931157648563385,1.1423147916793823,0.3227080702781677,0.9980217218399048,-0.030100299045443535,0.0018283994868397713,0.055166590958833694
74.0,1.5047975638974307,-1.1502105538008267,1.5596925898274052,-1.8061169834077526,-1.5822454902240333,0.0,-0.12299947440624237,1.1205672025680542,0.3230506181716919,0.9956685900688171,-0.03237023204565048,0.0028303314466029406,0.08711013197898865
76.0,1.4941180128837543,-1.1371301686452877,1.5429842279101007,-1.8026190430733144,-1.5840954554387705,0.0,-0.10943864285945892,1.1330935955047607,0.3208271265029907,0.9954845905303955,-0.03760646656155586,0.00328848953358829,0.08709403872489929
78.0,1.5012943878031175,-1.0781968577333405,1.443231631852135,-1.7617081074340646,-1.5828526553012006,0.0,-0.11411899328231812,1.1887624263763428,0.32568174600601196,0.9956111311912537,-0.03408792242407799,0.0029806571546941996,0.08710608631372452
80.0,1.4887203467203793,-1.0849283408333237,1.456253712867961,-1.7681619928599037,-1.5850301714781316,0.0,-0.0988696739077568,1.1833534240722656,0.32415732741355896,0.9953809976577759,-0.040252648293972015,0.0035201115533709526,0.0870857760310173
82.0,1.4801656165228698,-1.1468188795248093,1.5560063089259266,-1.8061518526678848,-1.5865100033942168,0.0,-0.09345249831676483,1.125986099243164,0.3221006989479065,0.9952026009559631,-0.04444614052772522,0.0038868894334882498,0.08706934750080109
84.0,1.4692097393878745,-1.136975590521666,1.543428850600825,-1.8035973956979956,-1.5884040207384706,0.0,-0.07950911670923233,1.1354056596755981,0.3204292058944702,0.9949482679367065,-0.04981576278805733,0.004356699995696545,0.08704712241888046
86.0,1.4777123598961188,-1.0788182317655466,1.4436762545428596,-1.7618585113818026,-1.5869345434951454,0.0,-0.08450526744127274,1.1906883716583252,0.32610616087913513,0.9951481223106384,-0.045648567378520966,0.003992156591266394,0.08706583082675934
88.0,1.465925747834335,-1.0842541866383857,1.4563910532344149,-1.7918473776631778,-1.5863124384077143,0.0,-0.07036664336919785,1.1948481798171997,0.3255007266998291,0.9957782030105591,-0.05167554318904877,0.0037697867956012487,0.07577058672904968
90.0,1.4585779093130642,-1.1281494990417409,1.5334636661573595,-1.891599973721143,-1.5797314053004392,0.0,-0.0659250020980835,1.1796410083770752,0.32754355669021606,0.9975357055664062,-0.05584075301885605,0.002087604021653533,0.04242610186338425
92.0,1.451105968129505,-1.1755947737617862,1.6143217203223221,-1.9837261528377055,-1.5738625062917349,0.0,-0.06224394962191582,1.156489610671997,0.33003541827201843,0.9981268048286438,-0.05978468805551529,0.0007588063599541783,0.012966793030500412
94.0,1.443014584508006,-1.2407592276799548,1.7140743163802874,-2.0377860550845,-1.5715481328187944,0.0,-0.06091203913092613,1.1015269756317139,0.330308198928833,0.9979546070098877,-0.06384587287902832,0.00017318810569122434,0.0031802821904420853
96.0,1.4350172306192737,-1.2231448514343073,1.6910105448954473,-2.0386619325633326,-1.5707963583114821,0.0,-0.04987505450844765,1.1204273700714111,0.32980039715766907,0.9976963996887207,-0.0678374171257019,1.713875619202554e-08,5.567481409229913e-08
98.0,1.443435792406546,-1.1717535839668847,1.6069204151307679,-1.964654822311602,-1.5756479446139386,0.0,-0.05293191224336624,1.154909610748291,0.32884034514427185,0.9977604150772095,-0.06357346475124359,0.001106097362935543,0.020765146240592003
100.0,1.4483840001975214,-1.1305247382891441,1.532346973447455,-1.8649022262536363,-1.583447388911482,0.0,-0.05370700731873512,1.1699780225753784,0.327958881855011,0.9966810941696167,-0.06073814257979393,0.0030117298010736704,0.054116614162921906
102.0,1.4534195995939196,-1.0888897889291853,1.457443750984245,-1.7660896118981215,-1.5911187881512556,0.0,-0.05492999404668808,1.1838438510894775,0.3277314603328705,0.9945349097251892,-0.05755406990647316,0.005030874628573656,0.08696234226226807
104.0,1.4416362021482167,-1.0877109091625838,1.4560957093544218,-1.766478463316209,-1.593165740501806,0.0,-0.04003734514117241,1.1854729652404785,0.3274416923522949,0.9941972494125366,-0.06332810968160629,0.005554147530347109,0.08677802979946136
106.0,1.4361932882700843,-1.1294104177793418,1.531068964127228,-1.8656058957062711,-1.5846485998470936,0.0,-0.03880847990512848,1.1717373132705688,0.3277660608291626,0.9963135123252869,-0.06678412109613419,0.003309508552774787,0.053742021322250366
108.0,1.4308092207386987,-1.1708387832712754,1.6058203507012505,-1.9653584917642368,-1.5760364207238098,0.0,-0.038037970662117004,1.1565877199172974,0.32878434658050537,0.9973479509353638,-0.0698690414428711,0.0011998210102319717,0.02034192718565464
110.0,1.4231672790130434,-1.2132546536570843,1.6755424638716585,-2.0279436279648664,-1.571521815207225,0.0,-0.03516509756445885,1.1286388635635376,0.32967549562454224,0.9972736835479736,-0.07374636083841324,0.00017217865388374776,0.002590018790215254
112.0,1.425703615707942,-1.1649194554461746,1.5912880201669128,-1.9281910319069009,-1.5805299891198619,0.0,-0.030984878540039062,1.1525524854660034,0.3285638391971588,0.9967769384384155,-0.07227139919996262,0.0023519759997725487,0.034741491079330444
114.0,1.4282399524028404,-1.116584257235265,1.5070335764621676,-1.828438435848936,-1.5895381630324985,0.0,-0.027236584573984146,1.1743333339691162,0.32764461636543274,0.9952629804611206,-0.07043755054473877,0.00460097286850214,0.06684932857751846
116.0,1.4353912947940672,-1.059452339480095,1.41699515165773,-1.7553962426255578,-1.5942310936498034,0.0,-0.028968077152967453,1.2095401287078857,0.32319673895835876,0.9939815402030945,-0.06638379395008087,0.005804436281323433,0.08694968372583389
118.0,1.4106536142829291,-1.0538899777806594,1.427418620964179,-1.7329856265561514,-1.4972330856138027,0.0,-0.038682568818330765,1.2005001306533813,0.30773240327835083,0.9902552962303162,-0.08335205167531967,-0.04488172009587288,0.10213913023471832
120.0,1.3844604954108728,-1.0502736388847775,1.44111029455399,-1.7107725162537997,-1.3974804895558366,0.0,-0.04816228151321411,1.1913670301437378,0.29648762941360474,0.9831268191337585,-0.10273648798465729,-0.09709206968545914,0.11610286682844162
122.0,1.3582673765388167,-1.0466572999888957,1.4548019681438007,-1.6885594059514484,-1.2977278934978713,0.0,-0.05722402408719063,1.184548020362854,0.28950628638267517,0.9726517796516418,-0.12355343252420425,-0.14912134408950806,0.1282416135072708
124.0,1.3320742576667604,-1.0430409610930138,1.4684936417336114,-1.666346295649097,-1.197975297439906,0.0,-0.06526310741901398,1.180311918258667,0.28655529022216797,0.9588165879249573,-0.1456424593925476,-0.20073077082633972,0.13844206929206848
126.0,1.305881138794704,-1.039424622197132,1.4821853153234221,-1.6441331853467454,-1.09822270138194,0.0,-0.07166531682014465,1.178836703300476,0.28733742237091064,0.9416260719299316,-0.1688345968723297,-0.2516789138317108,0.14660488069057465
128.0,1.2796880199226477,-1.03580828330125,1.495876988913233,-1.621920075044394,-0.9984701053239746,0.0,-0.07582052052021027,1.1802048683166504,0.2914969027042389,0.9211031794548035,-0.1929536610841751,-0.30172351002693176,0.1526452898979187
130.0,1.2534949010505916,-1.0321919444053682,1.5095686625030438,-1.5997069647420428,-0.8987175092660094,0.0,-0.07713665068149567,1.1843994855880737,0.2986270785331726,0.8972898125648499,-0.21781760454177856,-0.3506224453449249,0.15649352967739105
132.0,1.2538629999569686,-1.0442783920041112,1.5230405491077492,-1.6107589050941113,-0.8801779622596401,0.0,-0.08419367671012878,1.1821227073669434,0.30725640058517456,0.8952813148498535,-0.21767635643482208,-0.3585517704486847,0.1500961184501648
134.0,1.2415942193620446,-1.0832247385813043,1.599503267699837,-1.7105115011520766,-0.8593854016712216,0.0,-0.08181004971265793,1.1666550636291504,0.30609560012817383,0.8977076411247253,-0.21518853306770325,-0.3662230670452118,0.1170273944735527
136.0,1.227450627423041,-1.12408862866295,1.6787851279592276,-1.8007932296061075,-0.842184305048565,0.0,-0.07917492091655731,1.143803358078003,0.3045777976512909,0.898691713809967,-0.21426551043987274,-0.37224751710891724,0.08874261379241943
138.0,1.2017128793404048,-1.1633433789651184,1.7539055409433504,-1.7964223329182518,-0.8445560508706247,0.0,-0.07010748237371445,1.0908305644989014,0.29396316409111023,0.891838788986206,-0.2320411652326584,-0.3744906187057495,0.10265032202005386
140.0,1.1823129924258582,-1.1273286799242654,1.7289613553244396,-1.6966697368602865,-0.8202564372283359,0.0,-0.059139616787433624,1.0854675769805908,0.277133047580719,0.8705328106880188,-0.2592768967151642,-0.3918226957321167,0.14636574685573578
142.0,1.1629131055113113,-1.0913139808834122,1.7040171697055289,-1.5969171408023204,-0.7959568235860468,0.0,-0.0480022132396698,1.080623745918274,0.26283156871795654,0.8458593487739563,-0.2864733636379242,-0.4083854854106903,0.1888817995786667
144.0,1.1435132185967645,-1.0552992818425593,1.679072984086618,-1.4971645447443551,-0.771657209943758,0.0,-0.03652182221412659,1.0765776634216309,0.25083330273628235,0.8179208040237427,-0.31346267461776733,-0.42403358221054077,0.23009178042411804
146.0,1.1241133316822178,-1.0192845828017063,1.6541287984677073,-1.3974119486863898,-0.7473575963014693,0.0,-0.024520307779312134,1.0735605955123901,0.24087651073932648,0.7868355512619019,-0.34007710218429565,-0.4386249780654907,0.26989877223968506
148.0,1.104713444767671,-0.9832698837608531,1.6291846128487963,-1.2976593526284237,-0.7230579826591802,0.0,-0.011820659041404724,1.0717509984970093,0.2326701581478119,0.7527373433113098,-0.3661498725414276,-0.4520217478275299,0.3082159459590912
150.0,1.0853135578531241,-0.9472551847200001,1.6042404272298856,-1.1979067565704584,-0.6987583690168914,0.0,0.0017470493912696838,1.0712753534317017,0.22589978575706482,0.7157741189002991,-0.39151623845100403,-0.464091032743454,0.34496641159057617
152.0,1.0659136709385775,-0.9112404856791472,1.579296241610975,-1.0981541605124931,-0.6744587553746025,0.0,0.01634066551923752,1.0722063779830933,0.22023504972457886,0.6761083602905273,-0.4160144627094269,-0.4747059941291809,0.38008373975753784
154.0,1.0465137840240306,-0.875225786638294,1.554352055992064,-0.998401564454527,-0.6501591417323135,0.0,0.03210087865591049,1.07456636428833,0.21533642709255219,0.6339155435562134,-0.4394865036010742,-0.48374655842781067,0.4135115444660187
156.0,1.0271138971094838,-0.839211087597441,1.5294078703731533,-0.8986489683965617,-0.6258595280900247,0.0,0.049146465957164764,1.078325867652893,0.2108621895313263,0.5893840193748474,-0.4617794454097748,-0.49110037088394165,0.44520390033721924
158.0,1.0077140101949371,-0.803196388556588,1.5044636847542425,-0.7988963723385964,-0.6015599144477359,0.0,0.0675707757472992,1.0834105014801025,0.20647506415843964,0.5427136421203613,-0.48274582624435425,-0.4966633915901184,0.47512492537498474
160.0,0.9936561788616082,-0.7671737500107855,1.4706131865464178,-0.7034395221632178,-0.5771208876765194,0.0,0.08505616337060928,1.0954917669296265,0.2039615660905838,0.4999952018260956,-0.500004768371582,-0.500004768371582,0.4999952018260956
162.0,1.0169174387725675,-0.731613262348608,1.3739769320182607,-0.6423639134651848,-0.5538596288057752,0.0,0.08502047508955002,1.1475509405136108,0.2163204848766327,0.49999529123306274,-0.500004768371582,-0.5000048279762268,0.4999951124191284
164.0,0.9927918837494715,-0.7692386634693027,1.4737295280762268,-0.7044909466209902,-0.5779852371095803,0.0,0.08505614846944809,1.0936309099197388,0.2046576291322708,0.49999523162841797,-0.500004768371582,-0.500004768371582,0.4999951124191284
166.0,0.9647580082813836,-0.8042195365749697,1.5734821241341912,-0.7692625492878657,-0.6060190663611384,0.0,0.08529844135046005,1.036321997642517,0.19100166857242584,0.4999951124191284,-0.500004768371582,-0.500004768371582,0.4999951422214508
168.0,0.9772743777213434,-0.7887782337806452,1.5314030837633243,-0.7426248045006807,-0.5935026693597931,0.0,0.08506061881780624,1.0610946416854858,0.1958184391260147,0.4999952018260956,-0.500004768371582,-0.500004768371582,0.4999951422214508
170.0,0.9478774813675135,-0.8145760034937818,1.6296335453671809,-0.8150574666254897,-0.6228995193370818,0.0,0.0850941389799118,1.003639578819275,0.17372630536556244,0.4999951124191284,-0.5000048279762268,-0.5000048279762268,0.4999951720237732
172.0,0.9130287160106841,-0.8260220877434239,1.7193605280448623,-0.8118412508205655,-0.5442668187252373,0.0,0.0840584859251976,0.9810311198234558,0.15988823771476746,0.4421268701553345,-0.5323982238769531,-0.5218358635902405,0.4987615942955017
174.0,0.9222336202820727,-0.8346823419232217,1.7193046896505488,-0.7166485863185468,-0.47424446553243754,0.0,0.07130524516105652,0.9987883567810059,0.18391233682632446,0.39513933658599854,-0.5528932809829712,-0.5265412330627441,0.5108113288879395
176.0,0.9343297892442614,-0.8429331347865251,1.7135692015165913,-0.6168959902605806,-0.40611564092013086,0.0,0.05939474701881409,1.018769383430481,0.2068905532360077,0.3493287265300751,-0.5730499625205994,-0.5263379812240601,0.5220646262168884
178.0,0.9464259582064498,-0.8511839276498283,1.7078337133826338,-0.5171433942026162,-0.33798681630782546,0.0,0.04887774586677551,1.0383647680282593,0.22657927870750427,0.30347108840942383,-0.593878984451294,-0.5223119854927063,0.5314162373542786
180.0,0.9585221271686384,-0.8594347205131316,1.7020982252486763,-0.4173907981446501,-0.2698579916955188,0.0,0.03945159167051315,1.0571107864379883,0.24289372563362122,0.25785884261131287,-0.6152352690696716,-0.5144872665405273,0.5387922525405884
182.0,0.9706182961308271,-0.867685513376435,1.6963627371147187,-0.3176382020866839,-0.2017291670832121,0.0,0.0308295339345932,1.0745306015014648,0.25584957003593445,0.21278107166290283,-0.6369669437408447,-0.5029112100601196,0.5441301465034485
184.0,0.9827144650930157,-0.8759363062397383,1.6906272489807612,-0.21788560602871776,-0.1336003424709054,0.0,0.02274957299232483,1.0901496410369873,0.2655618190765381,0.16852137446403503,-0.6589159965515137,-0.48765313625335693,0.5473798513412476
186.0,0.9948106340552042,-0.8841870991030415,1.6848917608468037,-0.11813300997075338,-0.06547151785859995,0.0,0.014982357621192932,1.1035075187683105,0.27224114537239075,0.12535633146762848,-0.6809192895889282,-0.4688045382499695,0.5485042929649353
188.0,1.0069068030173929,-0.8924378919663449,1.6791562727128462,-0.01838041391278722,0.0026573067537067896,0.0,0.007338181138038635,1.1141729354858398,0.27618831396102905,0.08355379849672318,-0.7028101086616516,-0.44647812843322754,0.5474796891212463
190.0,1.0190029719795815,-0.9006886848296483,1.6734207845788887,0.08137218214517894,0.07078613136601342,0.0,-0.0003288835287094116,1.1217565536499023,0.2777855396270752,0.04337111860513687,-0.7244186401367188,-0.4208068251609802,0.5442959070205688
192.0,1.03109914094177,-0.9089394776929515,1.6676852964449311,0.18112477820314332,0.13891495597831893,0.0,-0.008116506040096283,1.125923991203308,0.2774868905544281,0.005053712986409664,-0.7455735802650452,-0.3919432759284973,0.5389572978019714
194.0,1.0431953099039586,-0.9171902705562548,1.6619498083109736,0.2808773742611095,0.20704378059062556,0.0,-0.016073234379291534,1.1264070272445679,0.27580568194389343,-0.031166397035121918,-0.76610267162323,-0.3600582182407379,0.5314821600914001
196.0,1.0552914788661472,-0.9254410634195581,1.6562143201770159,0.38062997031907564,0.2751726052029322,0.0,-0.024197928607463837,1.1230134963989258,0.27330172061920166,-0.06507199257612228,-0.7858350276947021,-0.32533973455429077,0.5219030976295471
198.0,1.0673876478283357,-0.9336918562828613,1.6504788320430586,0.48038256637704,0.3433014298152377,0.0,-0.032441817224025726,1.1156353950500488,0.27056607604026794,-0.09646181017160416,-0.8046011328697205,-0.28799179196357727,0.5102674961090088
200.0,1.0794838167905243,-0.9419426491461647,1.644743343909101,0.5801351624350062,0.41143025442754433,0.0,-0.04071119427680969,1.1042540073394775,0.268205851316452,-0.12515175342559814,-0.8222344517707825,-0.2482328712940216,0.4966364800930023
202.0,1.091579985752713,-0.9501934420094681,1.6390078557751433,0.6798877584929723,0.47955907903985096,0.0,-0.04887237399816513,1.0889453887939453,0.2668282091617584,-0.15097618103027344,-0.8385732173919678,-0.20629465579986572,0.48108571767807007
204.0,1.1036761547149014,-0.9584442348727713,1.633272367641186,0.7796403545509367,0.5476879036521565,0.0,-0.05675766244530678,1.0698802471160889,0.267024427652359,-0.17378847301006317,-0.8534606695175171,-0.16242024302482605,0.46370452642440796
206.0,1.11577232367709,-0.9666950277360746,1.6275368795072285,0.8793929506089029,0.6158167282644631,0.0,-0.06417166441679001,1.0473237037658691,0.26935458183288574,-0.19346190989017487,-0.8667469620704651,-0.11686305701732635,0.4445955157279968
208.0,1.1278684926392788,-0.974945820599378,1.6218013913732707,0.979145546666869,0.68394555287677,0.0,-0.0709000676870346,1.0216306447982788,0.27433186769485474,-0.2098904252052307,-0.8782896399497986,-0.06988447904586792,0.42387422919273376
210.0,1.1494676257013257,-0.9861510889391686,1.6144956749556447,1.043450699711146,0.7609468211229657,0.0,-0.08017867803573608,1.0000131130218506,0.2763887941837311,-0.21140052378177643,-0.8935078382492065,-0.03690341114997864,0.39445096254348755
212.0,1.1954349103505524,-1.0049324257050962,1.603163471597646,1.0168590908968462,0.8606994171809319,0.0,-0.09540048241615295,0.9964763522148132,0.2663891315460205,-0.18246403336524963,-0.9195021390914917,-0.04444698989391327,0.3453215956687927
214.0,1.2414021949997793,-1.023713762471024,1.5918312682396472,0.9902674820825467,0.9604520132388981,0.0,-0.10723555088043213,0.9955125451087952,0.2602221965789795,-0.15453580021858215,-0.9411761164665222,-0.05509885028004646,0.2954154312610626
216.0,1.2873694796490054,-1.0424950992369515,1.5804990648816484,0.9636758732682474,1.0602046092968624,0.0,-0.11650057137012482,0.9971047639846802,0.2583703398704529,-0.12794236838817596,-0.958549439907074,-0.06874256581068039,0.2451290488243103
218.0,1.3333367642982323,-1.0612764360028792,1.5691668615236496,0.9370842644539478,1.1599572053548286,0.0,-0.12400127947330475,1.001062035560608,0.26121941208839417,-0.10299761593341827,-0.9716793894767761,-0.085227832198143,0.1948508769273758
220.0,1.3793040489474593,-1.0800577727688068,1.5578346581656508,0.9104926556396481,1.2597098014127948,0.0,-0.13050243258476257,1.0070358514785767,0.26904961466789246,-0.07999879866838455,-0.9806598424911499,-0.1043725311756134,0.14495806396007538
222.0,1.4252713335966853,-1.0988391095347343,1.546502454807652,0.883901046825349,1.3594623974707591,0.0,-0.13669873774051666,1.0145366191864014,0.28202933073043823,-0.05922365188598633,-0.9856193661689758,-0.12596409022808075,0.09581296890974045
224.0,1.471238618245912,-1.117620446300662,1.5351702514496532,0.8573094380110493,1.4592149935287253,0.0,-0.1431916058063507,1.022960901260376,0.30021023750305176,-0.04092727601528168,-0.9867194890975952,-0.14976178109645844,0.04775964841246605
226.0,1.513113689888815,-1.1384442731441375,1.5317970506844087,0.8288916708760986,1.551428369541821,0.0,-0.14945703744888306,1.0274317264556885,0.3203889727592468,-0.02672071009874344,-0.9844449758529663,-0.17358988523483276,0.004533188883215189
228.0,1.5178944272439516,-1.1850407718706972,1.6315496467423731,0.7756654568202305,1.552695222633315,0.0,-0.15665759146213531,0.9741463661193848,0.3009880781173706,-0.024476971477270126,-0.984502911567688,-0.1735975593328476,0.0043234797194600105
230.0,1.5000973181349413,-1.1484125189107586,1.5519259161504664,0.8190366563007503,1.5465817414584735,0.0,-0.13871334493160248,1.0186156034469604,0.31716975569725037,-0.0327090360224247,-0.9842654466629028,-0.17354504764080048,0.005794084630906582
232.0,1.4885289589094666,-1.1712500573349354,1.5995651805025926,0.7945057714781812,1.542693916809546,0.0,-0.1305180937051773,0.9948872923851013,0.3085438311100006,-0.03806694969534874,-0.9840719699859619,-0.17351683974266052,0.006708883214741945
234.0,1.455139060080229,-1.168830867013528,1.5922064417598385,0.8005074780376498,1.5313239937357752,0.0,-0.10127928853034973,1.0020908117294312,0.3111661970615387,-0.05351773276925087,-0.9833529591560364,-0.17338956892490387,0.00943320244550705
236.0,1.4222776885651391,-1.1653668476298877,1.5834249957825648,0.8072190627128788,1.5201721479655637,0.0,-0.07203444093465805,1.009155511856079,0.31373828649520874,-0.06872453540563583,-0.9824072122573853,-0.17322257161140442,0.012114462442696095
238.0,1.3899822330750535,-1.1609115450042933,1.5733107978848633,0.8145846563773926,1.5092591843947771,0.0,-0.042782966047525406,1.016039252281189,0.3162439167499542,-0.08367013186216354,-0.9812474250793457,-0.17301802337169647,0.014749741181731224
240.0,1.3724016161491455,-1.1922046388055028,1.6730633939428294,0.7471666357634952,1.503332297410675,0.0,-0.036416616290807724,0.9710745215415955,0.281779944896698,-0.09180478006601334,-0.9805172085762024,-0.17290374636650085,0.016187630593776703
242.0,1.428487705737183,-1.2023136351555368,1.7129059959496626,0.7144669759683132,1.5222857710332185,0.0,-0.08593740314245224,0.949602484703064,0.2654450535774231,-0.06585291773080826,-0.982610285282135,-0.1732216328382492,0.01160568930208683
244.0,1.475312459979303,-1.2085974670947621,1.733887664459638,0.6618340824173448,1.5357160107491743,0.0,-0.12456955015659332,0.9496359825134277,0.2574758529663086,-0.043500881642103195,-0.9805460572242737,-0.1912366896867752,0.008100183680653572
246.0,1.4753169317257377,-1.228370431832809,1.7853135773471744,0.5620814863593786,1.5310456391711151,0.0,-0.12631642818450928,0.9504483342170715,0.24445369839668274,-0.042053982615470886,-0.9735057950019836,-0.22459469735622406,0.008660988882184029
248.0,1.4753214034721724,-1.2481433965708557,1.8367394902347098,0.4623288903014142,1.526375267593056,0.0,-0.12814563512802124,0.9503985643386841,0.233443945646286,-0.04040335491299629,-0.9653397798538208,-0.25768643617630005,0.009176449850201607
250.0,1.475325875218607,-1.2679163613089028,1.8881654031222461,0.36257629424344806,1.5217048960149968,0.0,-0.13006781041622162,0.9493731260299683,0.22444948554039001,-0.03855236619710922,-0.9560577273368835,-0.2904726564884186,0.009640717878937721
252.0,1.4753303469650416,-1.2876893260469497,1.9395913160097824,0.2628236981854819,1.5170345244369376,0.0,-0.13209380209445953,0.9472603797912598,0.21746356785297394,-0.03650456666946411,-0.9456704258918762,-0.32291460037231445,0.010048085823655128
254.0,1.4753348187114763,-1.3074622907849964,1.9910172288973178,0.16307110212751752,1.5123641528588785,0.0,-0.13423368334770203,0.9439516067504883,0.2124703973531723,-0.034264128655195236,-0.9341901540756226,-0.3549739420413971,0.01039292011409998
256.0,1.475339290457911,-1.3272352555230433,2.042443141784854,0.06331850606955136,1.5076937812808193,0.0,-0.13649776577949524,0.9393413066864014,0.209445059299469,-0.0318354070186615,-0.9216307401657104,-0.3866128623485565,0.010669791139662266
258.0,1.4753437622043457,-1.3470082202610905,2.093869054672391,-0.0364340899884148,1.5030234097027602,0.0,-0.13889557123184204,0.9333276152610779,0.20835350453853607,-0.029223358258605003,-0.9080065488815308,-0.4177938401699066,0.010873324237763882
260.0,1.4753482339507804,-1.366781184999137,2.145294967559926,-0.13618668604637918,1.4983530381247012,0.0,-0.14143653213977814,0.9258129596710205,0.20915327966213226,-0.02643313631415367,-0.8933340311050415,-0.44848018884658813,0.010998397134244442
262.0,1.4753527056972149,-1.386554149737184,2.1967208804474625,-0.23593928210434534,1.493682666546642,0.0,-0.14412935078144073,0.9167048931121826,0.2117931991815567,-0.02347041852772236,-0.8776304125785828,-0.47863563895225525,0.011039979755878448
264.0,1.4753571774436496,-1.406327114475231,2.248146793334999,-0.3356918781623115,1.489012294968583,0.0,-0.14698220789432526,0.9059164524078369,0.21621422469615936,-0.020341211929917336,-0.8609141111373901,-0.5082246661186218,0.0109932292252779
266.0,1.4753616491900843,-1.4261000792132776,2.299572706222534,-0.4354444742202759,1.4843419233905237,0.0,-0.15000295639038086,0.8933659791946411,0.222349613904953,-0.017051808536052704,-0.8432048559188843,-0.5372121930122375,0.010853501968085766
