Sungjin-Park-dev/lg_sgu_vision_v2/data/sample/trajectory/202/trajectory_dp_s015.csv
time,ur20-shoulder_pan_joint,ur20-shoulder_lift_joint,ur20-elbow_joint,ur20-wrist_1_joint,ur20-wrist_2_joint,ur20-wrist_3_joint,target-POS_X,target-POS_Y,target-POS_Z,target-ROT_X,target-ROT_Y,target-ROT_Z,target-ROT_W
0.0,1.9907892386065882,-0.7399595975875854,1.424452543258667,-0.6844716668128967,-2.721578359603882,0.0,-0.2849980294704437,1.0146976709365845,0.19747105240821838,0.4999980926513672,0.49999743700027466,0.49999183416366577,0.5000127553939819
1.0,1.970571733671662,-0.6998282415314733,1.3156090115187076,-0.6157937036694285,-2.741800099631688,0.0,-0.2850175201892853,1.0770283937454224,0.21130624413490295,0.5000087022781372,0.4999938905239105,0.49999746680259705,0.4999999701976776
2.0,1.9823842556342326,-0.7363978856093847,1.3958547510585473,-0.7062223837738856,-2.7304382642249836,0.0,-0.28486359119415283,1.0397834777832031,0.20238959789276123,0.5151447057723999,0.49393102526664734,0.5060120820999146,0.4843653738498688
3.0,1.9792037931937545,-0.734290228346723,1.3823845545288713,-0.7125064308807906,-2.7337861777708756,0.0,-0.2852116823196411,1.0504376888275146,0.2051120400428772,0.520758330821991,0.491502583026886,0.5082790851593018,0.4784228205680847
4.0,1.9673862502926556,-0.6954514304517381,1.2985123836974723,-0.6125394739176901,-2.745073730003477,0.0,-0.28515365719795227,1.0877283811569214,0.21460218727588654,0.5030778646469116,0.4987415373325348,0.5012826323509216,0.4968755543231964
5.0,1.9505073168834872,-0.6508871266286608,1.1850937905971717,-0.5341935012103634,-2.7618568097977874,0.0,-0.28502362966537476,1.1448227167129517,0.22825732827186584,0.500001847743988,0.4999956488609314,0.4999917149543762,0.5000108480453491
6.0,1.9363599375938636,-0.6011087940413447,1.0745253042868796,-0.4600762575012253,-2.741429937371753,0.0,-0.28487011790275574,1.1822876930236816,0.23430752754211426,0.504223644733429,0.49311259388923645,0.48941704630851746,0.5129029750823975
7.0,1.9240484905066964,-0.5487148860752639,0.9732450755031289,-0.38486815464434415,-2.6855058727073757,0.0,-0.2843574285507202,1.1977797746658325,0.23337501287460327,0.5119154453277588,0.4787592589855194,0.468338280916214,0.5379512310028076
8.0,1.9290489611803259,-0.5700632928389558,1.0147739765195274,-0.4164557520309139,-2.710105030912271,0.0,-0.2845422923564911,1.1925508975982666,0.23337805271148682,0.5086805820465088,0.48511478304862976,0.4775092899799347,0.5271552205085754
9.0,1.941341643403676,-0.6222187264043103,1.1158913765527594,-0.4918394232516753,-2.766269928005525,0.0,-0.28497862815856934,1.1760573387145996,0.23436470329761505,0.5005988478660583,0.4990638196468353,0.49854400753974915,0.5017867684364319
10.0,1.9576200064184217,-0.6692763329088303,1.2345262102900816,-0.5652770978443741,-2.754752784072162,0.0,-0.28502705693244934,1.120067834854126,0.22148557007312775,0.5000129342079163,0.49999216198921204,0.49999961256980896,0.49999526143074036
11.0,1.9556356766994565,-0.7068107655882573,1.2918869083435556,-0.6588264599636035,-2.7346488964310116,0.0,-0.2767983675003052,1.097762107849121,0.2234622687101364,0.5292681455612183,0.4842080771923065,0.5040065050125122,0.48103564977645874
12.0,1.9386156472074676,-0.7382664123701872,1.3075220082745675,-0.7642141983136387,-2.7139592938423647,0.0,-0.2621123194694519,1.1037304401397705,0.23616570234298706,0.575996458530426,0.4565074145793915,0.5085393786430359,0.44857195019721985
13.0,1.9210586297026113,-0.7698300597778513,1.3229425327633024,-0.8688631018653779,-2.69056821139976,0.0,-0.247471421957016,1.1099745035171509,0.24944372475147247,0.6210660934448242,0.4265621602535248,0.5100147724151611,0.4149779677391052
14.0,1.9034651686804676,-0.8012726273172209,1.3395678168169292,-0.972533147080598,-2.66323177485833,0.0,-0.23329395055770874,1.1151796579360962,0.262093722820282,0.663966178894043,0.394946426153183,0.5079128742218018,0.3810390830039978
15.0,1.8859394807182794,-0.8322257544393202,1.3580901529770546,-1.075041330037042,-2.63195026140144,0.0,-0.2197679579257965,1.1190763711929321,0.2731153964996338,0.7042723298072815,0.3623945713043213,0.5021353960037231,0.34717559814453125
16.0,1.868430655927229,-0.8626190767092905,1.3787093121461365,-1.1763581684307667,-2.596900216172597,0.0,-0.20702174305915833,1.1218273639678955,0.2821667492389679,0.7418608069419861,0.32945743203163147,0.4927714467048645,0.3134911060333252
17.0,1.8507256048667995,-0.8925066860353424,1.4012901763332972,-1.2766802202018859,-2.5583440236678525,0.0,-0.1950499266386032,1.123897910118103,0.2893444001674652,0.7767797708511353,0.29646459221839905,0.4800063967704773,0.2798498272895813
18.0,1.8324643954112725,-0.9218013330203108,1.4255925657478075,-1.3761609970657913,-2.516380342388514,0.0,-0.18368029594421387,1.1257786750793457,0.29473885893821716,0.8090869784355164,0.2636173367500305,0.4639729857444763,0.24619781970977783
19.0,1.813124865056696,-0.9501358125846111,1.4511781389805332,-1.4747460350088628,-2.471113460033227,0.0,-0.1725391298532486,1.1280488967895508,0.29836413264274597,0.8387724161148071,0.23105348646640778,0.4448218047618866,0.21262341737747192
20.0,1.7921413913612256,-0.97660133108709,1.4775003363790116,-1.572039224067491,-2.422464909728377,0.0,-0.16118556261062622,1.1312189102172852,0.2997294068336487,0.8657435178756714,0.19896471500396729,0.42267560958862305,0.17957329750061035
21.0,1.7701444464943066,-0.9992006729167094,1.504535625995851,-1.667849848690023,-2.370462251510671,0.0,-0.15041455626487732,1.1353765726089478,0.29683130979537964,0.8896698355674744,0.16827942430973053,0.3978715240955353,0.14787833392620087
22.0,1.7432885915627647,-1.0230492763193728,1.529068927063493,-1.7449317172861891,-2.29174400919317,0.0,-0.14154581725597382,1.1343705654144287,0.2912687361240387,0.9144269824028015,0.13754169642925262,0.3598936200141907,0.12402553111314774
23.0,1.7002650927882959,-1.0642236672038972,1.542664120211298,-1.7839559060918213,-2.1636610021983675,0.0,-0.13069871068000793,1.1269471645355225,0.30197638273239136,0.9434993863105774,0.09987545758485794,0.29711973667144775,0.10748846083879471
24.0,1.6527025320500228,-1.105795586669628,1.5619494584636988,-1.8099922003153899,-2.0342225516140666,0.0,-0.11915987730026245,1.1155130863189697,0.3122553825378418,0.9657243490219116,0.06445521116256714,0.23241794109344482,0.09593784064054489
25.0,1.631105899772539,-1.1107022312091075,1.5498488063193536,-1.8064304910852675,-1.9605507316686575,0.0,-0.12128818035125732,1.1204522848129272,0.31485018134117126,0.9749599099159241,0.04908820614218712,0.1955614537000656,0.09380441904067993
26.0,1.6193305901143866,-1.102684306717271,1.52581715715235,-1.7942642613493438,-1.9067615289959163,0.0,-0.12812590599060059,1.1319066286087036,0.3154197633266449,0.9803219437599182,0.04046282544732094,0.16869644820690155,0.09419827908277512
27.0,1.607579559209361,-1.094664156348535,1.5018045706415537,-1.7821482880545327,-1.852936842524341,0.0,-0.13512110710144043,1.1437305212020874,0.3170351982116699,0.9849065542221069,0.03186062350869179,0.14168550074100494,0.0941774994134903
28.0,1.5958404666453223,-1.0866528987014237,1.4778126370457603,-1.7701390903317613,-1.79914392608283,0.0,-0.14216989278793335,1.1559498310089111,0.31973838806152344,0.9887093305587769,0.0232918132096529,0.11458468437194824,0.09371061623096466
29.0,1.5841487616534915,-1.0786731093807744,1.453861070076119,-1.7582222775633445,-1.7454059153743124,0.0,-0.14923705160617828,1.1685349941253662,0.3235539197921753,0.9917279481887817,0.014795039780437946,0.087431401014328,0.09280480444431305
30.0,1.5725385366583142,-1.070754545526295,1.429963478853292,-1.7463541812205094,-1.6917532235695414,0.0,-0.156284362077713,1.181442379951477,0.32851442694664,0.9939612150192261,0.006408073473721743,0.060266606509685516,0.09147662669420242
31.0,1.5609845894427794,-1.0628710244532862,1.4060990138670042,-1.7345318531520864,-1.6381532423467506,0.0,-0.16323085129261017,1.1946768760681152,0.33460840582847595,0.995413601398468,-0.001865494647063315,0.03309659659862518,0.08973851054906845
32.0,1.549375279128345,-1.0549877832455705,1.382198547542224,-1.7227455912353815,-1.5844610111940611,0.0,-0.16993215680122375,1.208284854888916,0.34184888005256653,0.9960889220237732,-0.010071062482893467,0.00586821511387825,0.08758454769849777
33.0,1.5181165170926223,-1.0491309393554122,1.3875229410999612,-1.7071219153542398,-1.504860519796472,0.0,-0.16341376304626465,1.2055073976516724,0.33020010590553284,0.9939274191856384,-0.029511772096157074,-0.035437289625406265,0.09990812093019485
34.0,1.482653208363361,-1.0437715518391986,1.3993427236825542,-1.6907548937815369,-1.419671031288769,0.0,-0.15448296070098877,1.2002217769622803,0.3172098398208618,0.9888827800750732,-0.05249117687344551,-0.08005815744400024,0.11378217488527298
35.0,1.4472251045764801,-1.0384787985219142,1.411260125007645,-1.6744712124491916,-1.3345094265748185,0.0,-0.14561982452869415,1.1964179277420044,0.3073715567588806,0.9811995625495911,-0.07654329389333725,-0.12480593472719193,0.12574607133865356
36.0,1.4118158412260955,-1.0332327518197886,1.4232567012154185,-1.6582541901046444,-1.2493819451883064,0.0,-0.13639062643051147,1.1943044662475586,0.30054059624671936,0.9708437323570251,-0.10152750462293625,-0.16950209438800812,0.13573387265205383
37.0,1.3764262818813808,-1.0280239079882294,1.4353133476868962,-1.642080250915096,-1.1642848223067277,0.0,-0.12636612355709076,1.1940213441848755,0.2965535521507263,0.9577934145927429,-0.12729088962078094,-0.21396902203559875,0.14368762075901031
38.0,1.341066648081439,-1.0228451469772628,1.4474369768932274,-1.6259585694111298,-1.079208429425233,0.0,-0.11511966586112976,1.1956324577331543,0.29520079493522644,0.9420393705368042,-0.15367300808429718,-0.2580287754535675,0.14955832064151764
39.0,1.305744793871061,-1.0177165800048706,1.459640721319145,-1.6098993393589123,-0.9941497649476413,0.0,-0.10222212970256805,1.1991252899169922,0.29627081751823425,0.9235885143280029,-0.1805078089237213,-0.30149754881858826,0.15329891443252563
40.0,1.2704588599547781,-1.0126530527771096,1.4719350919373586,-1.5939152831986818,-0.9091279040569704,0.0,-0.08723537623882294,1.2044146060943604,0.2995171546936035,0.9024645686149597,-0.20762962102890015,-0.34418192505836487,0.15487615764141083
41.0,1.2449510004661646,-1.048409629076163,1.5432663241900408,-1.6350439672630912,-0.8781425728733249,0.0,-0.07602009922266006,1.1777290105819702,0.2992832064628601,0.8949763178825378,-0.22060993313789368,-0.3598126769065857,0.1445111781358719
42.0,1.229241978494506,-1.0970434806627478,1.6320474507118377,-1.720768098370436,-0.8629478983424665,0.0,-0.07329164445400238,1.1478520631790161,0.29863813519477844,0.8960281610488892,-0.2218162715435028,-0.36573073267936707,0.11904697120189667
43.0,1.2135329565228472,-1.1456773322493323,1.7208285772336342,-1.8064922294777805,-0.8477532238116081,0.0,-0.07227174937725067,1.1159981489181519,0.2976635694503784,0.8966339826583862,-0.2226034253835678,-0.3711414337158203,0.09353817999362946
44.0,1.2368275389306567,-1.0951976419137979,1.6282792814880551,-1.7650377763139262,-0.8466866799449089,0.0,-0.08031667023897171,1.1666350364685059,0.30508315563201904,0.8990340828895569,-0.21209943294525146,-0.3704771399497986,0.09745877236127853
45.0,1.2476115011954185,-1.0603386796428884,1.5596985109600492,-1.6722314204956434,-0.8663829507795335,0.0,-0.0819392055273056,1.1802124977111816,0.305019736289978,0.8971402049064636,-0.21533027291297913,-0.3636069893836975,0.12869499623775482
46.0,1.2614655539532131,-1.0207269824982574,1.4837332666047118,-1.5886978499495692,-0.8812657130925617,0.0,-0.08666171133518219,1.2007689476013184,0.3067367672920227,0.8954942226409912,-0.2151162475347519,-0.3577064871788025,0.15447106957435608
47.0,1.253803274748484,-1.0603548088518329,1.5491737611428074,-1.6565196855045667,-0.8674927731426926,0.0,-0.0883747786283493,1.1812819242477417,0.31137022376060486,0.8973894715309143,-0.2132653445005417,-0.36290907859802246,0.13231490552425385
48.0,1.2431195041812544,-1.0956142443789125,1.6181387751113294,-1.7492139545348482,-0.8481565512649026,0.0,-0.08670199662446976,1.1675820350646973,0.3112602233886719,0.8994061946868896,-0.21003448963165283,-0.3697473406791687,0.10119835287332535
49.0,1.2206672929987556,-1.146967394960286,1.7136530393352625,-1.8070624628323206,-0.8443636636872235,0.0,-0.07924957573413849,1.1210155487060547,0.30463239550590515,0.8977615237236023,-0.21812821924686432,-0.3718639314174652,0.0903424471616745
50.0,1.2266774113601249,-1.1528406531631197,1.704596009081434,-1.769931738962084,-0.9050762229932638,0.0,-0.07278244942426682,1.1037565469741821,0.3005613088607788,0.9069090485572815,-0.21577024459838867,-0.3453141450881958,0.10824719816446304
51.0,1.2515634408851544,-1.131234532985816,1.6374702320334993,-1.705645774725031,-0.9880381584267816,0.0,-0.06900689005851746,1.1127984523773193,0.3031412661075592,0.9209854006767273,-0.2019871473312378,-0.3068534731864929,0.12972316145896912
52.0,1.2810268217140772,-1.1339416685861408,1.6211321813934607,-1.722571974927213,-1.0793673450104289,0.0,-0.06930160522460938,1.1125534772872925,0.300539493560791,0.9404728412628174,-0.17825523018836975,-0.2606998085975647,0.1255849301815033
53.0,1.3121173414373046,-1.1496308831506254,1.6324196673053315,-1.785899665785912,-1.1763317602528471,0.0,-0.06835637986660004,1.1110883951187134,0.29685497283935547,0.9603523015975952,-0.1512780636548996,-0.2094591110944748,0.10471521317958832
54.0,1.3418888422619693,-1.1638167186319537,1.641240447532703,-1.8480873648124896,-1.2741943786619183,0.0,-0.06339622288942337,1.1141806840896606,0.2974815368652344,0.9759517908096313,-0.12704983353614807,-0.15734057128429413,0.08136624842882156
55.0,1.3704708316722785,-1.1766589653372004,1.647861226249419,-1.909202807181137,-1.3728165066557034,0.0,-0.05544482171535492,1.1212530136108398,0.3029702603816986,0.9872795939445496,-0.10581091791391373,-0.104718416929245,0.055832963436841965
56.0,1.397697232427173,-1.1879786527005716,1.6520023655817797,-1.969073848265115,-1.4722372111627546,0.0,-0.045011647045612335,1.1318711042404175,0.31373655796051025,0.9943700432777405,-0.08790285885334015,-0.051886267960071564,0.028448641300201416
57.0,1.4235048551318217,-1.1964731350499183,1.651927391599951,-2.0262524177769254,-1.5707955914845702,0.0,-0.03322572261095047,1.146188497543335,0.32977771759033203,-0.9972894787788391,0.07357915490865707,3.159109098760382e-07,8.168781846507045e-07
58.0,1.4277497698378958,-1.173323738109724,1.6149162176713108,-1.9999257507355972,-1.57323466601356,0.0,-0.03458535671234131,1.1637332439422607,0.32941481471061707,0.9974237680435181,-0.07145322859287262,0.0007706941105425358,0.006302651017904282
59.0,1.428396595754667,-1.1635978886769662,1.5974754555726334,-1.9763174617966432,-1.5757912574566273,0.0,-0.033805329352617264,1.1674058437347412,0.3288221061229706,0.9973655939102173,-0.0710969939827919,0.0014822717057541013,0.014319374226033688
60.0,1.428610656306581,-1.1536517801246795,1.5796033979120463,-1.952112677099354,-1.5777956889239957,0.0,-0.032739121466875076,1.1711009740829468,0.328281044960022,0.9972251057624817,-0.07093682885169983,0.001904847682453692,0.022507870569825172
61.0,1.4287697008218843,-1.1436097921992008,1.5616434049592547,-1.92786250464699,-1.579837982794716,0.0,-0.031603917479515076,1.1747349500656128,0.3277406394481659,0.9970158338546753,-0.07078243792057037,0.0023447093553841114,0.03072255291044712
62.0,1.4290402330184495,-1.1335944505864755,1.5437423277740578,-1.9036867027636835,-1.5820797245747322,0.0,-0.030542388558387756,1.1782294511795044,0.3272419273853302,0.996744692325592,-0.07054740935564041,0.002888356102630496,0.03892087563872337
63.0,1.4294293278305432,-1.1237022290401941,1.5259229147683315,-1.8794888232140075,-1.5844107448279359,0.0,-0.029615215957164764,1.181530237197876,0.3268672227859497,0.9964118599891663,-0.07022837549448013,0.0034812167286872864,0.047109585255384445
64.0,1.4299234063099904,-1.113930394300802,1.5082219045449503,-1.8553551453087276,-1.5868020011850894,0.0,-0.028816713020205498,1.1846511363983154,0.3265979588031769,0.9960183501243591,-0.06983225792646408,0.00411143247038126,0.055263541638851166
65.0,1.4305102146519901,-1.104189027531262,1.490664290239582,-1.8314893939663675,-1.5893300460591657,0.0,-0.028092505410313606,1.18766450881958,0.32633399963378906,0.9955670237541199,-0.06936304271221161,0.004820908419787884,0.06334059685468674
66.0,1.4310321573204856,-1.0943508254228713,1.4730698093561099,-1.8077555108381822,-1.591851959653136,0.0,-0.02729989029467106,1.1906629800796509,0.3260490298271179,0.9950514435768127,-0.06890224665403366,0.0055307066068053246,0.07137712836265564
67.0,1.4311477948739084,-1.0843064700420622,1.455033224548214,-1.7834483759492306,-1.5938250291988747,0.0,-0.026239721104502678,1.1936795711517334,0.32585179805755615,0.9944466352462769,-0.06863817572593689,0.005941937677562237,0.07955846190452576
68.0,1.4325924063706943,-1.064273890976494,1.4237296335113854,-1.757380064382526,-1.5947130152556293,0.0,-0.025960639119148254,1.2055405378341675,0.32392725348472595,0.993889331817627,-0.06775442510843277,0.005924684461206198,0.08693897724151611
69.0,1.4389717150703671,-1.0861228869423991,1.4565543823968166,-1.7776179483225647,-1.5922266687339486,0.0,-0.0366622693836689,1.189979076385498,0.32624348998069763,0.99449223279953,-0.06476694345474243,0.005274142138659954,0.08223505318164825
70.0,1.4373789694810684,-1.1022302181116737,1.483348715240263,-1.8044400463568875,-1.590122421656077,0.0,-0.036721959710121155,1.1816102266311646,0.32692158222198486,0.9950655102729797,-0.06576472520828247,0.0047045499086380005,0.0741458311676979
71.0,1.4357765620864895,-1.1183186653152173,1.5101350538398473,-1.8312554867514064,-1.5880219668425153,0.0,-0.03682274743914604,1.1730470657348633,0.3275229334831238,0.9955721497535706,-0.06674668192863464,0.004147187806665897,0.06605934351682663
72.0,1.434174535573097,-1.1343948970175528,1.5369075841833006,-1.8580588618870868,-1.5859229579841294,0.0,-0.03697747737169266,1.1642935276031494,0.3280576765537262,0.9960130453109741,-0.06770788878202438,0.0036019212566316128,0.05797272175550461
73.0,1.4325752755535246,-1.1504629218144116,1.5636733839620052,-1.8848550932345352,-1.5838203330704417,0.0,-0.03719199076294899,1.155348300933838,0.32852450013160706,0.9963883757591248,-0.06864724308252335,0.0030663234647363424,0.04988545924425125
74.0,1.4309735043878211,-1.166524810110868,1.5904367660353567,-1.9116442017582946,-1.581713831477548,0.0,-0.03746160492300987,1.1462101936340332,0.3289220929145813,0.9966979622840881,-0.06956703960895538,0.0025402538012713194,0.04179907962679863
75.0,1.4293615065393253,-1.182577787861968,1.617196436770388,-1.9384298092382897,-1.5796061972182067,0.0,-0.03777656704187393,1.1368846893310547,0.32924726605415344,0.9969419240951538,-0.07047100365161896,0.0020253341645002365,0.03371325880289078
76.0,1.4277333645795756,-1.1986223056730867,1.6439525862737816,-1.965212329633948,-1.5774990019111874,0.0,-0.03813101723790169,1.1273736953735352,0.32949918508529663,0.9971200823783875,-0.0713617354631424,0.0015224310336634517,0.025628602132201195
77.0,1.426086810244439,-1.2146545600408523,1.6707094216352434,-1.9919879392702198,-1.5753934762247537,0.0,-0.0385228730738163,1.1176762580871582,0.3296695947647095,0.9972323775291443,-0.07224047929048538,0.0010320388246327639,0.017551112920045853
78.0,1.424425620768923,-1.230672938158125,1.6974615427707185,-2.018751849175179,-1.5732870049655576,0.0,-0.03895881772041321,1.1077953577041626,0.32975906133651733,0.9972790479660034,-0.07310500741004944,0.0005533610237762332,0.009482183493673801
79.0,1.4227660243136357,-1.2466796947541738,1.7241988132552397,-2.0454996496873963,-1.5711677293524329,0.0,-0.03946129232645035,1.097739815711975,0.3297768235206604,0.9972611665725708,-0.07394719123840332,8.094803342828527e-05,0.0014178819255903363
80.0,1.4367861751932018,-1.1828374538415287,1.6316236754141809,-2.0195805195255807,-1.5707962143055012,0.0,-0.0467037707567215,1.1585613489151,0.329776406288147,0.9977560639381409,-0.06695490330457687,-4.935949959872232e-08,7.411017008962517e-07
81.0,1.4380737967388462,-1.1722457354135916,1.6127898015438074,-1.9951806481600916,-1.5727157812648729,0.0,-0.04683174937963486,1.1630820035934448,0.32917678356170654,0.997766375541687,-0.06630264967679977,0.00042177189607173204,0.008125626482069492
82.0,1.4392199314780938,-1.1624585910879368,1.5951244094403871,-1.971008008966479,-1.574683574681844,0.0,-0.04690902680158615,1.166693091392517,0.3286280632019043,0.9977055788040161,-0.06570049375295639,0.0008723608334548771,0.01631891168653965
83.0,1.4403803028758373,-1.1526597663136038,1.577453455045329,-1.9468279155631387,-1.5766690951569395,0.0,-0.047018762677907944,1.170194149017334,0.32811814546585083,0.9975785613059998,-0.06507071107625961,0.001340698916465044,0.02451804094016552
84.0,1.4415486148378858,-1.1428549634255682,1.5597686981926107,-1.9226326472399708,-1.5786637563380066,0.0,-0.04715637490153313,1.1735889911651611,0.3276600241661072,0.9973849654197693,-0.06441649794578552,0.0018224375089630485,0.032718755304813385
85.0,1.4427108056410531,-1.133056331638619,1.542090750049684,-1.898421536412173,-1.5806525638065843,0.0,-0.04731261357665062,1.1768639087677002,0.3272526264190674,0.9971241354942322,-0.06374513357877731,0.0023095638025552034,0.040924523025751114
86.0,1.4438600674951696,-1.1232700815549734,1.5244264247158028,-1.8742044995836433,-1.5826384490078143,0.0,-0.04747822880744934,1.180018663406372,0.326898455619812,0.9967958331108093,-0.0630599856376648,0.0028034483548253775,0.049130670726299286
87.0,1.4449965659983506,-1.113493781127752,1.5067708391880021,-1.8499881399019442,-1.5846261468864595,0.0,-0.04764973744750023,1.1830605268478394,0.32660192251205444,0.9964001774787903,-0.06236124038696289,0.0033063413575291634,0.05733156576752663
88.0,1.4461386865927992,-1.1037204306832216,1.4891064928399336,-1.825783524353201,-1.5866153227257647,0.0,-0.04784677177667618,1.1860065460205078,0.32636943459510803,0.9959385991096497,-0.06163979321718216,0.0038189885672181845,0.06551632285118103
89.0,1.447298571806732,-1.0939413089505141,1.471439827676069,-1.8016083944157337,-1.5886046027243337,0.0,-0.04808273911476135,1.1888601779937744,0.3261876404285431,0.9954116940498352,-0.06089010089635849,0.004341230262070894,0.07368295639753342
90.0,1.4484673199430174,-1.0841907149804393,1.4537894074981137,-1.777435961162473,-1.5905936221285086,0.0,-0.04835059866309166,1.1915967464447021,0.32608023285865784,0.994819164276123,-0.06011653319001198,0.004872217774391174,0.08183638006448746
91.0,1.4624979812789418,-1.058011278817559,1.414557079320645,-1.753834402025525,-1.5895621962131803,0.0,-0.06342354416847229,1.2095985412597656,0.3231808841228485,0.9947793483734131,-0.053104959428310394,0.004644391126930714,0.08702023327350616
92.0,1.457648600444325,-1.0863803913879262,1.457243501503188,-1.7802447622919157,-1.5885811792342757,0.0,-0.0602203831076622,1.1898261308670044,0.32623380422592163,0.9951514601707458,-0.05564160272479057,0.004290751647204161,0.0809888243675232
93.0,1.4563863244848412,-1.0958439502509072,1.4746598866969471,-1.8043099277034493,-1.586496239094499,0.0,-0.05984078347682953,1.1872252225875854,0.3261731266975403,0.9957325458526611,-0.05645230412483215,0.0036662593483924866,0.07291407883167267
94.0,1.4551514913274857,-1.1054334717030894,1.4921704010125652,-1.8284249452830417,-1.5845495759299126,0.0,-0.059465426951646805,1.1844598054885864,0.32624852657318115,0.9962514042854309,-0.05722551420331001,0.003122729016467929,0.06479661911725998
95.0,1.4539516244880122,-1.1151661104101647,1.509752932664041,-1.8525711280392965,-1.5826853704738744,0.0,-0.0591244138777256,1.1815348863601685,0.32649216055870056,0.9967081546783447,-0.05796061083674431,0.0026331429835408926,0.056625522673130035
96.0,1.4527953410677932,-1.1250235125104442,1.5273903609544321,-1.8767126702209556,-1.580886715947681,0.0,-0.05883534252643585,1.1784484386444092,0.3268892467021942,0.9971010088920593,-0.05865412950515747,0.0021879100240767,0.048419289290905
97.0,1.451689770190963,-1.1349781477897511,1.5450904099163245,-1.9008760236886002,-1.5791372398987449,0.0,-0.05861225351691246,1.1752065420150757,0.3274029493331909,0.997429370880127,-0.05930333212018013,0.0017785744275897741,0.04018241912126541
98.0,1.4506460495514346,-1.144976909531838,1.5628522127689801,-1.9250969902056243,-1.5774115441605503,0.0,-0.05847562849521637,1.1718276739120483,0.32797497510910034,0.9976926445960999,-0.05990341305732727,0.0013918007025495172,0.031923022121191025
99.0,1.4496360784769016,-1.1549471725063605,1.5806068832725273,-1.9493633363042004,-1.5756849542100941,0.0,-0.0583965927362442,1.1683623790740967,0.32857459783554077,0.9978893995285034,-0.0604686439037323,0.0010136752389371395,0.023648805916309357
100.0,1.4486477474842547,-1.164807689272598,1.5983487025374397,-1.9736775857488633,-1.573954967019972,0.0,-0.05836018919944763,1.1648221015930176,0.32911381125450134,0.9980185627937317,-0.061004918068647385,0.0006404727464541793,0.015397042967379093
101.0,1.4477625070428972,-1.1745301084323543,1.616130377051412,-1.9981039749958516,-1.5722471113141117,0.0,-0.0584525428712368,1.1611919403076172,0.32952919602394104,0.9980830550193787,-0.061471324414014816,0.00028462690534070134,0.00717725558206439
102.0,1.4452210218547112,-1.1926296104685088,1.6461950499409876,-2.0243610598597614,-1.5707948462301287,0.0,-0.0576455257833004,1.1488525867462158,0.32979679107666016,0.9980295896530151,-0.06274639070034027,-7.687786478527414e-07,2.8302051191531064e-07
103.0,1.4383138949339564,-1.2682011700566604,1.7552791977302487,-2.057874496841991,-1.5707946701956783,0.0,-0.05928005278110504,1.0774016380310059,0.3297715485095978,-0.9978069067001343,0.06619282811880112,8.401607374253217e-07,6.326309431869959e-08
104.0,1.4499417218584856,-1.1877413735426023,1.6387994469743896,-2.0218584470781993,-1.5707952810237045,0.0,-0.06249987706542015,1.1532459259033203,0.3298758268356323,-0.9981749057769775,0.060390520840883255,3.431152322264097e-07,2.0890749965474242e-06
105.0,1.451875869724403,-1.1747540387199862,1.6165354020050777,-1.996792710840522,-1.5723223373644282,0.0,-0.06329644471406937,1.1601265668869019,0.3292551636695862,0.9982017874717712,-0.05941726267337799,0.0002926090091932565,0.007923834957182407
106.0,1.453493312481068,-1.1647872552188874,1.5984762887404331,-1.9723261760991782,-1.573970260370693,0.0,-0.0640704333782196,1.163910984992981,0.32878854870796204,0.9981517195701599,-0.058584652841091156,0.0006414782255887985,0.016144249588251114
107.0,1.455124789581178,-1.1548104562314563,1.580456652521353,-1.9478862462648154,-1.5756289280117064,0.0,-0.06488405913114548,1.1675630807876587,0.32832998037338257,0.9980342388153076,-0.057727713137865067,0.0010082978988066316,0.024374738335609436
108.0,1.4567957962115061,-1.1448210855867547,1.562468706509869,-1.923442671249749,-1.5772974327317655,0.0,-0.06576815247535706,1.1710761785507202,0.3278796672821045,0.9978494644165039,-0.056833479553461075,0.0013922842917963862,0.03262697160243988
109.0,1.4584855872524982,-1.1348225920937984,1.5444762736252526,-1.8990083841729342,-1.5789844683349639,0.0,-0.06669088453054428,1.1744810342788696,0.3274727463722229,0.9975970983505249,-0.05591239035129547,0.0017993540968745947,0.04087468981742859
110.0,1.4601780237001574,-1.1248350069821509,1.5264731806380119,-1.87460649697721,-1.5806826732127885,0.0,-0.0676344707608223,1.1777926683425903,0.32714053988456726,0.9972778558731079,-0.054972805082798004,0.0022267464082688093,0.04909219592809677
111.0,1.4618768938655793,-1.1148690235942342,1.5084770822410956,-1.8502341806575007,-1.5823951865013273,0.0,-0.06860333681106567,1.1809971332550049,0.32688140869140625,0.9968922138214111,-0.05401276797056198,0.002675710478797555,0.057283759117126465
112.0,1.4635824779322277,-1.1049183207647493,1.4905115714925719,-1.8258740239599278,-1.5841177343286694,0.0,-0.0696011409163475,1.1840730905532837,0.326667457818985,0.9964392185211182,-0.05303218588232994,0.0031427862122654915,0.06547249853610992
113.0,1.4652903944267384,-1.0949807160782072,1.472570646865147,-1.8014926993668932,-1.5858381060095144,0.0,-0.07062732428312302,1.1870129108428955,0.3264985978603363,0.995917558670044,-0.05203373357653618,0.0036207952070981264,0.07367216795682907
114.0,1.4669871297806019,-1.0850581212252959,1.4546408519107576,-1.7770828577484108,-1.5875276668028122,0.0,-0.07167589664459229,1.1898263692855835,0.3263874650001526,0.9953269362449646,-0.051025308668613434,0.004095154348760843,0.0818774402141571
115.0,1.4817716032045474,-1.05445250149223,1.409138868690845,-1.7516348691515695,-1.586226635716224,0.0,-0.08774685859680176,1.2112538814544678,0.3228890895843506,0.9952380061149597,-0.04365919157862663,0.0038152579218149185,0.08706798404455185
116.0,1.4705777657034218,-1.1206125487556144,1.5217640806398105,-1.7982713755583788,-1.5881642066100807,0.0,-0.07972851395606995,1.1494909524917603,0.3179446756839752,0.9949817061424255,-0.04914553090929985,0.004296202678233385,0.08705031126737595
117.0,1.4688136688693068,-1.1701262389486071,1.5868063767960008,-1.8151853502965425,-1.6025852997192982,0.0,-0.07648703455924988,1.106501579284668,0.3254343271255493,0.9949408173561096,-0.04940804839134216,0.011429527774453163,0.08672349154949188
118.0,1.4764207787065127,-1.180031248560352,1.5998079002123593,-1.8198128806787401,-1.6187391572038885,0.0,-0.0794280543923378,1.09720778465271,0.3270478844642639,0.9950588345527649,-0.04494320973753929,0.01983381249010563,0.08628334850072861
119.0,1.4714992580934523,-1.1819560011151449,1.6014351352767946,-1.8170108734458648,-1.5924845464274393,0.0,-0.08441624045372009,1.096075415611267,0.327301949262619,0.995010256767273,-0.04850204661488533,0.006496078334748745,0.08694832772016525
120.0,1.4816760882483186,-1.1109534534905328,1.5070979060996978,-1.793102243998989,-1.586021464034582,0.0,-0.09252402931451797,1.157400369644165,0.31762057542800903,0.9952365756034851,-0.04371568560600281,0.003709276905283332,0.08705905824899673
121.0,1.5002880246431722,-1.0541295973158862,1.408167428446897,-1.750725500244914,-1.583016236094995,0.0,-0.11138109117746353,1.2098045349121094,0.3231545090675354,0.995594322681427,-0.03458177298307419,0.0030184718780219555,0.0871034562587738
122.0,1.4895736353341726,-1.1255767943520674,1.5278805836528666,-1.7991240157508517,-1.5848831453397259,0.0,-0.10316787660121918,1.1435743570327759,0.3189780116081238,0.995397686958313,-0.039834339171648026,0.0034835650585591793,0.08708950132131577
123.0,1.495169940695536,-1.1328219351899242,1.5374854182840632,-1.8020548599054844,-1.5781106477400209,0.0,-0.11264858394861221,1.13710355758667,0.3200899660587311,0.9955369234085083,-0.03734542801976204,0.0003671658632811159,0.08666907995939255
124.0,1.5073735022824621,-1.0685493344346282,1.4280928478203376,-1.756146729291242,-1.5817925489452813,0.0,-0.12120329588651657,1.1967519521713257,0.32544419169425964,0.9957088232040405,-0.0311073400080204,0.002716466784477234,0.08711530268192291
125.0,1.5179220001532259,-1.0758864934339862,1.4393831949471076,-1.7669076153989265,-1.5795623543856536,0.0,-0.13488493859767914,1.1916720867156982,0.3263855278491974,0.9961518049240112,-0.025975003838539124,0.0021563635673373938,0.0836803987622261
126.0,1.5188934765728703,-1.100693482293547,1.4795492394427177,-1.806598836544479,-1.5778841127391996,0.0,-0.13737134635448456,1.178523063659668,0.3282410800457001,0.9971075654029846,-0.02562878467142582,0.0016791349044069648,0.07153304666280746
127.0,1.5183857987517635,-1.1091441933922705,1.4951671722351114,-1.8280841726562471,-1.5770362102622213,0.0,-0.13723985850811005,1.1759732961654663,0.3281727135181427,0.9975869059562683,-0.025947296991944313,0.0014270280953496695,0.06438224017620087
128.0,1.5179034217706353,-1.1176146573979318,1.5108044459253192,-1.849590921671521,-1.5762083607168225,0.0,-0.13713806867599487,1.173329472541809,0.3281567394733429,0.9980159997940063,-0.026245424523949623,0.0011889097513630986,0.05721765384078026
129.0,1.5174506686660947,-1.1261041964809073,1.526461373723049,-1.8711308999247105,-1.575405948181459,0.0,-0.13706836104393005,1.1705944538116455,0.3281930685043335,0.9983948469161987,-0.026521027088165283,0.00096783263143152,0.050034049898386
130.0,1.5170360581677675,-1.1346163688688273,1.5421441586062472,-1.8927106851230016,-1.57463680789871,0.0,-0.13703720271587372,1.1677640676498413,0.32828253507614136,0.9987234473228455,-0.02677011676132679,0.0007676230161450803,0.04282963648438454
131.0,1.51666346046287,-1.143154620006563,1.5578567610101974,-1.9143282435087632,-1.5739077007604865,0.0,-0.13704721629619598,1.164832353591919,0.3284243643283844,0.999001145362854,-0.02699068747460842,0.0005912479828111827,0.035606782883405685
132.0,1.516333632396682,-1.1517147062627127,1.573601431653153,-1.9359775108864572,-1.5732216012577247,0.0,-0.13709796965122223,1.1617950201034546,0.3286118507385254,0.9992277026176453,-0.027182666584849358,0.0004397660668473691,0.028371697291731834
133.0,1.5160397482315842,-1.1602912606179976,1.5893755366030102,-1.957656299397403,-1.572573281500616,0.0,-0.13718315958976746,1.1586533784866333,0.32884010672569275,0.999402642250061,-0.027349980548024178,0.00031002654577605426,0.021126873791217804
134.0,1.5157696295955134,-1.1688841672607149,1.6051728902384803,-1.9793643649595947,-1.5719527343605673,0.0,-0.13729198276996613,1.155411958694458,0.32911217212677,0.9995256066322327,-0.027499236166477203,0.0001966051640920341,0.013870630413293839
135.0,1.5155189456505689,-1.1774918838221957,1.6209866655555087,-2.0010997539631625,-1.571345962532326,0.0,-0.13742485642433167,1.1520752906799316,0.3294329047203064,0.9995964169502258,-0.02763279527425766,9.233263699570671e-05,0.006600562017410994
136.0,1.5146073267513804,-1.1847210473745777,1.634177530580056,-2.017857561384343,-1.5695406843277047,0.0,-0.13726727664470673,1.1488099098205566,0.3295692205429077,0.9996045231819153,-0.028091533109545708,-0.0006611815188080072,0.0011794541496783495
137.0,1.5070154512938914,-1.1781859256889966,1.6217691513991286,-1.9862483834179556,-1.5560958367968496,0.0,-0.1339426040649414,1.1471645832061768,0.3273872137069702,0.9993624091148376,-0.031984247267246246,-0.0077941566705703735,0.013823236338794231
138.0,1.4994106734678998,-1.1715449474882949,1.6094061808748796,-1.9547513810699104,-1.5426962637966426,0.0,-0.13062435388565063,1.1454286575317383,0.3253704309463501,0.9988880157470703,-0.036047179251909256,-0.014997147023677826,0.026428965851664543
139.0,1.4917742139841812,-1.164847374526344,1.5970709573067594,-1.9233026250519487,-1.5292970588544592,0.0,-0.12731051445007324,1.143600344657898,0.32358214259147644,0.9981784224510193,-0.040287084877491,-0.022289086133241653,0.03898940235376358
140.0,1.4841372361295497,-1.1581677135529456,1.5847544117482721,-1.8918958959963106,-1.5159070916626667,0.0,-0.12403412908315659,1.141685962677002,0.32211270928382874,0.9972337484359741,-0.04468478262424469,-0.02966003492474556,0.05146275460720062
141.0,1.4765046969716698,-1.151520150796612,1.5724295466708735,-1.8604865909483639,-1.5025347293507831,0.0,-0.12079671770334244,1.1396960020065308,0.3209938406944275,0.9960537552833557,-0.04923434928059578,-0.037100907415151596,0.06384684145450592
142.0,1.4688718403154026,-1.1448983586395847,1.5600915244431044,-1.8290103353851697,-1.48912493166119,0.0,-0.11761639267206192,1.1376245021820068,0.32021772861480713,0.9946339726448059,-0.0539378859102726,-0.044636715203523636,0.07616887241601944
143.0,1.4612479682179342,-1.1383912749998943,1.5477276254574939,-1.7973344226130643,-1.4757032502121281,0.0,-0.11449901014566422,1.13542902469635,0.31988322734832764,0.9929713606834412,-0.058788150548934937,-0.052250463515520096,0.08844084292650223
144.0,1.4718878673641156,-1.1407237479607344,1.5496887512100321,-1.7974322330378782,-1.5013579406216138,0.0,-0.11685952544212341,1.1314984560012817,0.3202053904533386,0.9938743114471436,-0.052355360239744186,-0.03902348503470421,0.08916344493627548
145.0,1.484216870803987,-1.1439242779713923,1.5530265124440894,-1.8003922642893568,-1.530520502896118,0.0,-0.11966675519943237,1.1274958848953247,0.3208921253681183,0.9947619438171387,-0.044896408915519714,-0.02391485869884491,0.08866275101900101
146.0,1.4966825649016284,-1.1472289893950833,1.5564893205529735,-1.803523389457188,-1.559839753966451,0.0,-0.12247186154127121,1.1236045360565186,0.3219340443611145,0.9953904151916504,-0.037386205047369,-0.008719045668840408,0.08788823336362839
147.0,1.5037918930863592,-1.167462073988293,1.5822025020750603,-1.8122858049190687,-1.5823873142676061,0.0,-0.12280791997909546,1.1059318780899048,0.3255765438079834,0.9956914186477661,-0.03286857157945633,0.0028724814765155315,0.08666057884693146
148.0,1.504537505382914,-1.1757578541502225,1.5968180416019222,-1.835100383854641,-1.5815148405764914,0.0,-0.12408346682786942,1.1041568517684937,0.32568299770355225,0.9963825345039368,-0.03260178118944168,0.0027463401202112436,0.0784308984875679
149.0,1.5052064276456032,-1.1840168122848587,1.6113620974984988,-1.8578298841295542,-1.5805825296730027,0.0,-0.1252991259098053,1.1023355722427368,0.32586413621902466,0.9970030784606934,-0.03236512094736099,0.002579939318820834,0.07021980732679367
150.0,1.5058283420341152,-1.1922452903126393,1.6258546733831913,-1.8804896878126025,-1.5796009113236564,0.0,-0.12648379802703857,1.1004552841186523,0.3261110782623291,0.9975539445877075,-0.03214314207434654,0.002380500314757228,0.0620279498398304
151.0,1.506409827357773,-1.200448357496253,1.6402993868683342,-1.9030877425139023,-1.5785746549880235,0.0,-0.127643421292305,1.098515510559082,0.3264278173446655,0.9980360269546509,-0.031931839883327484,0.0021512655075639486,0.05385059118270874
152.0,1.506958649215385,-1.2086275663229962,1.6547044892256144,-1.9256351687224524,-1.5775138809718365,0.0,-0.12878236174583435,1.096511960029602,0.32680925726890564,0.9984501004219055,-0.031726907938718796,0.0018982549663633108,0.04568673297762871
153.0,1.5074735249868216,-1.2167757793048857,1.6690769847629585,-1.9481404345567328,-1.5764243242285725,0.0,-0.1298978328704834,1.0944435596466064,0.3272426426410675,0.9987964034080505,-0.031528301537036896,0.00162446906324476,0.037539854645729065
154.0,1.5079468939327323,-1.224887439387811,1.6834194018541115,-1.9706061153493397,-1.5752993160781517,0.0,-0.13098402321338654,1.092310905456543,0.32771992683410645,0.9990750551223755,-0.031339794397354126,0.0013269425835460424,0.02941278927028179
155.0,1.5083735957134352,-1.2329603388849146,1.6977309926313728,-1.9930396755166118,-1.5741282328390844,0.0,-0.13203932344913483,1.0901169776916504,0.32823920249938965,0.9992868304252625,-0.031163711100816727,0.0010012523271143436,0.021303480491042137
156.0,1.5087572015324895,-1.2409916552659022,1.7120148769037868,-2.015448167604233,-1.5729081385131995,0.0,-0.1330689638853073,1.087862253189087,0.3287959396839142,0.9994319677352905,-0.030997931957244873,0.0006463293102569878,0.013211589306592941
157.0,1.5091000162639547,-1.2489745895077164,1.7262772626148055,-2.0378338499631026,-1.5716409074395357,0.0,-0.13407546281814575,1.0855426788330078,0.3293772041797638,0.9995111227035522,-0.030840640887618065,0.00026366766542196274,0.005143153481185436
158.0,1.513739040820838,-1.2241924141155271,1.6925082459548577,-2.0391134653728527,-1.570796973657438,0.0,-0.13788823783397675,1.112040400505066,0.329815149307251,-0.9995931386947632,0.028524771332740784,-3.009553779520502e-07,6.948162649678125e-07
159.0,1.520827029977348,-1.1609807989414895,1.5903227062869782,-1.96156407756001,-1.5725479177249286,0.0,-0.1426975578069687,1.1587992906570435,0.3294300138950348,0.9995020031929016,-0.024960428476333618,0.00039348527207039297,0.019301705062389374
160.0,1.5225827697144778,-1.1495116879796088,1.5649934255758016,-1.913180467716572,-1.5741121686315847,0.0,-0.14414943754673004,1.158013105392456,0.3299095034599304,0.9990419745445251,-0.024027712643146515,0.000775511609390378,0.036569949239492416
161.0,1.5211636024178354,-1.2138900654715374,1.6699206832090192,-1.9987677945962055,-1.572064369681168,0.0,-0.14558130502700806,1.1123311519622803,0.3304523229598999,0.9995937943458557,-0.0248024333268404,0.0002856000210158527,0.014040380716323853
162.0,1.5232946497831164,-1.2515953905954853,1.7318530235086553,-2.0510491203267938,-1.5707884830909697,0.0,-0.14976029098033905,1.084401249885559,0.32979169487953186,0.9997180104255676,-0.023748526349663734,-3.990299774159212e-06,2.388215762039181e-06
163.0,1.5233716410626261,-1.251471503810276,1.7305071474189888,-1.9615032935167256,-1.4716030575605015,0.0,-0.18987151980400085,1.0520597696304321,0.3199195861816406,0.9974640607833862,-0.025845982134342194,-0.05055950582027435,0.04290897399187088
164.0,1.5232328099811179,-1.2477236560294207,1.7239715385285583,-1.8664886585243354,-1.3682068392867712,0.0,-0.23088441789150238,1.0218234062194824,0.31686660647392273,0.9903257489204407,-0.03267534077167511,-0.10281418263912201,0.08727291971445084
165.0,1.523055359952158,-1.2439855510997977,1.7174654907845177,-1.7714317514489422,-1.264867664857246,0.0,-0.2709456980228424,0.9929543733596802,0.32092100381851196,0.9783676266670227,-0.044086504727602005,-0.15411798655986786,0.1307702213525772
166.0,1.5228582177613104,-1.240258241220635,1.7109857331319114,-1.6763475611211256,-1.1615650578821606,0.0,-0.30960869789123535,0.9667462706565857,0.33154210448265076,0.9617022275924683,-0.05996045842766762,-0.20401670038700104,0.1729474812746048
167.0,1.5226432767521212,-1.2365386284853264,1.7045221856774828,-1.581239890435196,-1.0582895606963778,0.0,-0.34642308950424194,0.9443557858467102,0.34794795513153076,0.940486490726471,-0.0801437646150589,-0.25206419825553894,0.21336804330348969
168.0,1.5224110675883962,-1.2328335065256617,1.6980641492439206,-1.4861136631723235,-0.9550363787793444,0.0,-0.38096126914024353,0.9267511963844299,0.36915966868400574,0.9149227738380432,-0.10443942993879318,-0.2978295683860779,0.2516075670719147
169.0,1.5221680691973891,-1.229139552024979,1.6916082649226127,-1.3909640999026622,-0.8518091670172107,0.0,-0.4128299951553345,0.9146687388420105,0.39401790499687195,0.8852540850639343,-0.13260994851589203,-0.3408988118171692,0.287276953458786
170.0,1.5219164876468532,-1.2254554112380076,1.685152900323483,-1.295797818064488,-0.7486010033656129,0.0,-0.44167202711105347,0.9085992574691772,0.42124828696250916,0.8517619371414185,-0.16438254714012146,-0.38088852167129517,0.32000645995140076
171.0,1.5216559836751233,-1.221780731325512,1.6786981792489561,-1.2006151965777023,-0.6454118476778262,0.0,-0.4671671688556671,0.9087649583816528,0.4495101869106293,0.8147640824317932,-0.1994515359401703,-0.41744232177734375,0.34945759177207947
172.0,1.5213887992660569,-1.218109977051209,1.6722468117102736,-1.10541787731142,-0.5422399701217732,0.0,-0.48904287815093994,0.9151157140731812,0.4774458706378937,0.7746103405952454,-0.23748041689395905,-0.45023542642593384,0.37532657384872437
173.0,1.521109306885666,-1.2144362578313472,1.6657925913707934,-1.0102108674542298,-0.43908304851933966,0.0,-0.5070682764053345,0.927343487739563,0.5037453174591064,0.7316813468933105,-0.27810487151145935,-0.4789814054965973,0.3973373472690582
174.0,1.5208186943258362,-1.210758661356985,1.6593344869510636,-0.9149975202839201,-0.33593714773955025,0.0,-0.5210684537887573,0.9448795914649963,0.5271942019462585,0.6863839030265808,-0.3209342658519745,-0.5034313797950745,0.4152531623840332
175.0,1.5205053274922076,-1.2070753898615567,1.6528656532921795,-0.8197735700022012,-0.23280842864460968,0.0,-0.530906617641449,0.9669311046600342,0.5467248558998108,0.639147162437439,-0.3655589818954468,-0.5233768224716187,0.428875595331192
176.0,1.5201757197993304,-1.2033837044148463,1.6463823089319876,-0.7245445331379047,-0.1296894055657164,0.0,-0.5365167856216431,0.9925049543380737,0.5614541172981262,0.5904192924499512,-0.41154730319976807,-0.5386537313461304,0.4380480945110321
177.0,1.5198265544067506,-1.1996812145412266,1.6398801372619174,-0.6293097047571783,-0.026581528897289396,0.0,-0.5378734469413757,1.0204558372497559,0.5707199573516846,0.540661633014679,-0.4584573805332184,-0.549140989780426,0.44265785813331604
178.0,1.5194558949410655,-1.1959647281195427,1.6333524070628311,-0.5340675645080515,0.07651503642623951,0.0,-0.5350030064582825,1.049530267715454,0.5741088390350342,0.4903455972671509,-0.5058377981185913,-0.5547633171081543,0.4426364302635193
179.0,1.519072186144402,-1.1922391912781494,1.6268048454610158,-0.43882200351310685,0.17960502121277908,0.0,-0.5279908180236816,1.0784094333648682,0.5714718699455261,0.439948707818985,-0.553231418132782,-0.5554912686347961,0.43796080350875854
180.0,1.5186706049274141,-1.1885006359519703,1.6202242424884123,-0.3435733157836131,0.28268676711282004,0.0,-0.5169540643692017,1.105787754058838,0.5629344582557678,0.38994932174682617,-0.600181519985199,-0.5513448715209961,0.4286497235298157
181.0,1.5182562854308226,-1.1847548393728098,1.6136199927061075,-0.24832444116402397,0.385767545033123,0.0,-0.5020627975463867,1.1303969621658325,0.5488819479942322,0.3408200442790985,-0.6462379097938538,-0.5423881411552429,0.4147689938545227
182.0,1.5178323710409491,-1.1810020282464797,1.6069958948708563,-0.15307700784183595,0.48884916416441093,0.0,-0.48352348804473877,1.151075005531311,0.5299474596977234,0.293025404214859,-0.6909601092338562,-0.5287290811538696,0.39642900228500366
183.0,1.5173995239328293,-1.1772380073621074,1.6003459218620733,-0.05783550439993213,0.5919360097032096,0.0,-0.4615737795829773,1.1668205261230469,0.5069934129714966,0.24701793491840363,-0.7339185476303101,-0.5105240345001221,0.3737792372703552
184.0,1.516958818860151,-1.1734569071293168,1.5936786621703407,0.037395126143456206,0.6950335223592553,0.0,-0.4364818334579468,1.1768193244934082,0.4810599684715271,0.20323006808757782,-0.774705171585083,-0.4879671037197113,0.3470124304294586
185.0,1.5165114455359903,-1.169658279313571,1.586998390060677,0.13261410271228588,0.7981420049013115,0.0,-0.408542275428772,1.1804810762405396,0.4533475935459137,0.1620757132768631,-0.812930166721344,-0.4612942636013031,0.31636032462120056
186.0,1.5160551021274526,-1.165831046799538,1.5803024754497352,0.2278137040995833,0.9012679060150153,0.0,-0.37806472182273865,1.1774799823760986,0.4251539707183838,0.12394198775291443,-0.8482282161712646,-0.4307827949523926,0.28208789229393005
187.0,1.5155886408502575,-1.1619729237622487,1.5735881499321271,0.3229923722800612,1.0044119011114385,0.0,-0.34537848830223083,1.1677558422088623,0.39783918857574463,0.08918944001197815,-0.8802605867385864,-0.3967466354370117,0.24449676275253296
188.0,1.5151163473138658,-1.1580819288546311,1.566853877216356,0.4181444887651228,1.1075808631695294,0.0,-0.31082960963249207,1.1515226364135742,0.37276187539100647,0.05814819037914276,-0.9087192416191101,-0.3595353066921234,0.20391826331615448
189.0,1.514638467955617,-1.1541581930712208,1.5600932487329056,0.5132685749646846,1.210776597486632,0.0,-0.27476978302001953,1.1292684078216553,0.3512308597564697,0.03111269511282444,-0.9333294630050659,-0.3195297122001648,0.1607135683298111
190.0,1.514158150659354,-1.1502009272704716,1.5532907033702896,0.6083642471308465,1.3140004866127877,0.0,-0.23755790293216705,1.101743459701538,0.33445286750793457,0.00834027398377657,-0.9538531303405762,-0.2771422863006592,0.11526917666196823
191.0,1.513676919445422,-1.1462172086932085,1.5464170567306255,0.7034361621696348,1.4172489635653527,0.0,-0.1995542198419571,1.0699365139007568,0.3234948515892029,-0.009953035973012447,-0.9700896739959717,-0.2328168898820877,0.06799490749835968
192.0,1.5131897131862304,-1.1422110487800559,1.5393989602603289,0.7984860499360986,1.5205193278035465,0.0,-0.16110831499099731,1.035065770149231,0.3192444145679474,-0.02360035851597786,-0.9818791747093201,-0.187038391828537,0.01931644044816494
193.0,1.5228313817917332,-1.1795023142343881,1.6203209835283625,0.7813398789318442,1.5540667985647103,0.0,-0.16063566505908966,0.9795360565185547,0.3029160499572754,-0.02216552384197712,-0.98456209897995,-0.17357908189296722,0.0040766289457678795
194.0,1.5012664861205742,-1.1679277468393021,1.5935390748165974,0.7968997494153193,1.5470412982322261,0.0,-0.14124633371829987,0.996614933013916,0.30917274951934814,-0.03217310458421707,-0.9842825531959534,-0.173553466796875,0.005668700207024813
195.0,1.4883979346015255,-1.1650512805142357,1.5863724546261329,0.8014957802619104,1.5426477407443815,0.0,-0.12982793152332306,1.0019001960754395,0.3110940456390381,-0.03812737762928009,-0.9840691089630127,-0.1735202670097351,0.006720161531120539
196.0,1.4755972344769186,-1.1543297106239343,1.5626750475896456,0.8152141692603225,1.5356487085575559,0.0,-0.11856179684400558,1.0156261920928955,0.3161473572254181,-0.04382665082812309,-0.9838430881500244,-0.17334872484207153,0.009070864878594875
197.0,1.4567079077790266,-1.1805993761942903,1.6172743109960281,0.7871523926852378,1.5318257171412617,0.0,-0.10418059676885605,0.9886224269866943,0.3062632083892822,-0.05278890207409859,-0.9833921790122986,-0.17339634895324707,0.009320906363427639
198.0,1.4509411776900996,-1.146103376123164,1.5437820976057557,0.8263759753555914,1.529894103493778,0.0,-0.0945933610200882,1.027726173400879,0.32049039006233215,-0.05546022951602936,-0.983246386051178,-0.1733643114566803,0.009777543134987354
199.0,1.4163335675940356,-1.1776968693474392,1.6093475031733222,0.7939155765439077,1.518156835133669,0.0,-0.06896209716796875,0.9958432912826538,0.30888915061950684,-0.071475088596344,-0.9822109937667847,-0.17318814992904663,0.01260086614638567
200.0,1.395388959516871,-1.1855253262164163,1.6254065602644,0.786794427436507,1.511090293963312,0.0,-0.052410151809453964,0.9883981347084045,0.30617809295654297,-0.08116862922906876,-0.9814576506614685,-0.17305459082126617,0.01430470123887062
201.0,1.382326002769401,-1.1721039231758692,1.6140014598257424,0.7855779919089152,1.5066879208286048,0.0,-0.03935444355010986,0.9988408088684082,0.3005441725254059,-0.08721484988927841,-0.9809421300888062,-0.17294475436210632,0.015372516587376595
202.0,1.3704222655509382,-1.2035631922136794,1.7140668276321573,0.7177344029061125,1.5026891529702902,0.0,-0.038617171347141266,0.9520969986915588,0.2663661241531372,-0.09272487461566925,-0.9804384708404541,-0.17284563183784485,0.016342733055353165
203.0,1.4612025026469018,-1.1926567087614641,1.6936374680376982,0.7227081651799414,1.5333585698066226,0.0,-0.11139371246099472,0.9575239419937134,0.2683386504650116,-0.05070982128381729,-0.9835036993026733,-0.17340415716171265,0.008952808566391468
204.0,1.4873683336357009,-1.2051254079278504,1.7264682003858545,0.6723527000845104,1.5396114557043243,0.0,-0.1343776285648346,0.9494304656982422,0.25888118147850037,-0.038037966936826706,-0.9814250469207764,-0.18788820505142212,0.0074867065995931625
205.0,1.4855514235995193,-1.2313966900293445,1.7945474363573373,0.5416797129201248,1.5307868376472862,0.0,-0.13604554533958435,0.9501862525939941,0.24190948903560638,-0.03683578222990036,-0.9721006751060486,-0.23145447671413422,0.009609443135559559
206.0,1.4837189906720634,-1.2576521567443775,1.8625885537337747,0.41098678790315424,1.5219193617751532,0.0,-0.13784398138523102,0.9494374990463257,0.2283860146999359,-0.03516160696744919,-0.960853636264801,-0.27457308769226074,0.011561796069145203
207.0,1.4818705159637444,-1.2838980801499813,1.9306006041568753,0.2802791407010165,1.513020124766247,0.0,-0.13979995250701904,0.9469232559204102,0.21831074357032776,-0.033018287271261215,-0.9477068781852722,-0.3171500563621521,0.013316784985363483
208.0,1.4800038634127908,-1.3101325763065228,1.9985843778695307,0.14955661732823416,1.5040927199421126,0.0,-0.14194174110889435,0.9423989653587341,0.21165408194065094,-0.030411168932914734,-0.9326869249343872,-0.35909581184387207,0.014851571060717106
209.0,1.4781199663774331,-1.3363528019391409,2.0665445472925934,0.018821120101714956,1.4951367842032832,0.0,-0.1443042755126953,0.9356258511543274,0.20835453271865845,-0.02734513022005558,-0.9158254861831665,-0.40031898021698,0.016146721318364143
210.0,1.4762192305210402,-1.3625604718820428,2.1344983108049753,-0.11191799674611427,1.4861515638007847,0.0,-0.14692367613315582,0.9263615608215332,0.20831692218780518,-0.02382799983024597,-0.8971627354621887,-0.4407220780849457,0.017183905467391014
211.0,1.4743017663738258,-1.38875574415383,2.2024375594413144,-0.2426646664703026,1.4771339251203355,0.0,-0.14983540773391724,0.9144056439399719,0.21143969893455505,-0.019867483526468277,-0.8767353892326355,-0.480227530002594,0.01794585771858692
212.0,1.4723656312701356,-1.4149303276712961,2.270336132793167,-0.3734340511934763,1.4680823336794326,0.0,-0.15307080745697021,0.8995930552482605,0.21760515868663788,-0.01547318696975708,-0.8545775413513184,-0.5187666416168213,0.01841442659497261
213.0,1.472338582117122,-1.421428988295085,2.295793773631791,-0.4254390178761132,1.4778672495565435,0.0,-0.14980287849903107,0.8939669132232666,0.2183770388364792,-0.016943803057074547,-0.8460353016853333,-0.5326957702636719,0.013132544234395027
214.0,1.4522679750492697,-1.3959253089038406,2.257232379898542,-0.3371061056585043,1.4338418964958006,0.0,-0.14833207428455353,0.9018377065658569,0.20184513926506042,-0.017048904672265053,-0.8646542429924011,-0.5012029409408569,0.029633034020662308
215.0,1.4318642435531839,-1.3700715475434753,2.2182029511839887,-0.24903088728272904,1.3896847422383907,0.0,-0.14646528661251068,0.9084660410881042,0.18748891353607178,-0.019000347703695297,-0.8814632892608643,-0.46947383880615234,0.047495439648628235
216.0,1.4111490182004442,-1.3439451392329584,2.1786401329939697,-0.16114927652596261,1.3452286987076392,0.0,-0.14428219199180603,0.9141474962234497,0.1755884736776352,-0.022733433172106743,-0.8963609933853149,-0.43768560886383057,0.06671981513500214
217.0,1.390270361118405,-1.3176839126776414,2.1387870676968275,-0.07338406285262031,1.3005894980821031,0.0,-0.1418926864862442,0.9188998341560364,0.16622963547706604,-0.028200963512063026,-0.9093143939971924,-0.4058886766433716,0.0872148647904396
218.0,1.3693892132917493,-1.2914122302906421,2.0988823877087426,0.014339327580433586,1.2559220091379903,0.0,-0.13940061628818512,0.9227612614631653,0.15947486460208893,-0.03534610569477081,-0.9202916026115417,-0.37411659955978394,0.10886133462190628
219.0,1.3485904874434171,-1.2651946461216554,2.0590821167224624,0.10207719761018509,1.2113244939214989,0.0,-0.1368412971496582,0.9258691668510437,0.1553788185119629,-0.04412047192454338,-0.9292501211166382,-0.34241214394569397,0.13153572380542755
220.0,1.3278947123900173,-1.2390491139222393,2.0194046404687183,0.1898539884345429,1.1668234437101759,0.0,-0.13417162001132965,0.9285078048706055,0.15402203798294067,-0.05447281897068024,-0.9361255764961243,-0.31086987257003784,0.15511813759803772
221.0,1.3073028461383185,-1.212968567217826,1.979847103748509,0.277675108804716,1.1224131212058925,0.0,-0.13131047785282135,0.9309915900230408,0.15544578433036804,-0.06634727865457535,-0.9408560395240784,-0.27958905696868896,0.17949368059635162
222.0,1.2867799284526307,-1.1869452804571852,1.940378771330482,0.36552843107055505,1.0780587207031904,0.0,-0.12811845541000366,0.933664858341217,0.15967020392417908,-0.0796896442770958,-0.9433784484863281,-0.24869003891944885,0.20454832911491394
223.0,1.2663465699820784,-1.1609989630510376,1.9010377966615661,0.45340929953941067,1.0337685150344982,0.0,-0.12448279559612274,0.9367957711219788,0.166653573513031,-0.09442611783742905,-0.9436495900154114,-0.21826015412807465,0.230155810713768
224.0,1.245997055134641,-1.1351416185085195,1.8618594479817563,0.5413197314963014,0.9895382926182249,0.0,-0.12025018036365509,0.9406426548957825,0.17631348967552185,-0.11049026250839233,-0.9416324496269226,-0.18837933242321014,0.25619029998779297
225.0,1.2257231199743361,-1.1093703811922802,1.822837427406165,0.6292703584962661,0.945366382172503,0.0,-0.11523544788360596,0.9454749822616577,0.18853726983070374,-0.1278100311756134,-0.937296450138092,-0.15913061797618866,0.28252002596855164
226.0,1.2054808610537842,-1.0836422713932647,1.7839048910707922,0.7172888907212627,0.9012140806941357,0.0,-0.1091977208852768,0.9515833854675293,0.20317888259887695,-0.1463223099708557,-0.9306105971336365,-0.13060276210308075,0.3090256154537201
227.0,1.1851504105498136,-1.0578452180656592,1.7448458376562825,0.8053818806789411,0.8569724809077323,0.0,-0.10177892446517944,0.959351122379303,0.22007347643375397,-0.16597479581832886,-0.9215329885482788,-0.102946937084198,0.33560600876808167
228.0,1.1645821954444904,-1.0318488809575292,1.7054187771389087,0.8935039421927262,0.8125229409942354,0.0,-0.0925528034567833,0.9691457748413086,0.2390013039112091,-0.18671369552612305,-0.9100263118743896,-0.07635124027729034,0.3621613383293152
229.0,1.1436394133906995,-1.0055681860915493,1.6655216399344333,0.9814893463944424,0.7678107093920743,0.0,-0.08109162747859955,0.9811968207359314,0.2596406638622284,-0.20846910774707794,-0.8960778117179871,-0.05101128667593002,0.3885655403137207
230.0,1.1268245585101702,-0.9895854748617077,1.6421602274070832,0.9972111321101981,0.7121328526722035,0.0,-0.0717473179101944,1.001299500465393,0.27383360266685486,-0.21606220304965973,-0.8826230764389038,-0.056556131690740585,0.41363662481307983
231.0,1.1166190776702747,-0.9881093888301754,1.6455910962160212,0.896821292767173,0.6395914063903244,0.0,-0.06759463250637054,1.0297131538391113,0.27630868554115295,-0.19756151735782623,-0.8714142441749573,-0.10825618356466293,0.4357606768608093
232.0,1.1061522668601358,-0.9846757620615223,1.649435447031649,0.7962426312008216,0.5677363245696492,0.0,-0.06236462667584419,1.0546376705169678,0.27984970808029175,-0.1759086400270462,-0.8580791354179382,-0.15734367072582245,0.45606958866119385
233.0,1.0955408961548814,-0.9797720858429483,1.6537430888350109,0.6956430898332285,0.4964480182248971,0.0,-0.05647977814078331,1.0756183862686157,0.2841818928718567,-0.15127873420715332,-0.8428904414176941,-0.2037000209093094,0.47450706362724304
234.0,1.0847836222109566,-0.9735559561111023,1.658467635294606,0.5951268601718711,0.4257367334525996,0.0,-0.05013955011963844,1.0924161672592163,0.28872984647750854,-0.12393943220376968,-0.8261160254478455,-0.24717237055301666,0.4909961521625519
235.0,1.0738538600613303,-0.9660720587703436,1.6635419019421878,0.49476371717766804,0.3556570434280185,0.0,-0.04345473647117615,1.104947805404663,0.29282283782958984,-0.09419230371713638,-0.8080247044563293,-0.28762006759643555,0.5054687857627869
236.0,1.062717758404577,-0.957416473568192,1.6688566325087961,0.394643065111659,0.28627550277179237,0.0,-0.03647589683532715,1.1132721900939941,0.2958953380584717,-0.0623241625726223,-0.7888809442520142,-0.3249647915363312,0.5178616046905518
237.0,1.0514087414398312,-0.9479704615922768,1.6742894488705078,0.29480151415978095,0.21746344259165096,0.0,-0.029320649802684784,1.117527961730957,0.2977769076824188,-0.028445977717638016,-0.7688800692558289,-0.35926201939582825,0.5281525254249573
238.0,1.0399522776901586,-0.9379535199733563,1.6797767843178737,0.19524495630475577,0.14914515186183439,0.0,-0.022060871124267578,1.117905855178833,0.2981511354446411,0.0072864750400185585,-0.7482091188430786,-0.3904908299446106,0.5363274216651917
239.0,1.0283293805120854,-0.9274527916705729,1.6852585355249268,0.09612025388050814,0.08137105558553126,0.0,-0.014663636684417725,1.1146726608276367,0.29660695791244507,0.0445951484143734,-0.7270824313163757,-0.4185592234134674,0.5423749685287476
240.0,1.0165783834620703,-0.9167487970994155,1.6906552876304748,-0.002635152119119133,0.013949947522040776,0.0,-0.007143236696720123,1.1081342697143555,0.2930406928062439,0.08342073857784271,-0.7056221961975098,-0.44349420070648193,0.5463069677352905
241.0,1.0046962529592984,-0.9059806894848302,1.6958976137326673,-0.10101944161098894,-0.05321029327148071,0.0,0.0005883947014808655,1.0986433029174805,0.287234902381897,0.1236087903380394,-0.6839710474014282,-0.46525418758392334,0.5481268763542175
242.0,0.9926207475710755,-0.8952420328835239,1.700825188272691,-0.19892859012038172,-0.1201036092273801,0.0,0.008765287697315216,1.086653470993042,0.27901193499565125,0.1649472564458847,-0.6622974276542664,-0.4838024079799652,0.5478044748306274
243.0,0.9803396886835926,-0.8846205771395748,1.7053951831788094,-0.29642772137635126,-0.1868261243460788,0.0,0.017561621963977814,1.072575330734253,0.2682076394557953,0.2072822004556656,-0.6407329440116882,-0.4990924000740051,0.5453459024429321
244.0,0.9678414076451248,-0.8741085656021995,1.7095862135331046,-0.393569736644454,-0.25338375118560147,0.0,0.027192652225494385,1.056853175163269,0.25461193919181824,0.25039032101631165,-0.6194360256195068,-0.5110564231872559,0.5407634973526001
245.0,0.9551049540162888,-0.8636761318114705,1.713417022235071,-0.49038395051091566,-0.3197625694061087,0.0,0.03789753466844559,1.0399248600006104,0.2380637228488922,0.29400283098220825,-0.5985731482505798,-0.5196288228034973,0.5340958833694458
246.0,0.9421378673677567,-0.8531977055663503,1.7169900574884425,-0.5869632232471632,-0.3859361255116699,0.0,0.04987674951553345,1.0221916437149048,0.2183738350868225,0.33780956268310547,-0.5783119201660156,-0.5247446894645691,0.5254361629486084
247.0,0.9289137688298928,-0.8424213018894706,1.7204172936543842,-0.6833871368655288,-0.45184794861242344,0.0,0.06336401402950287,1.0040315389633179,0.19534772634506226,0.3814263343811035,-0.5588343739509583,-0.5263717174530029,0.5149281024932861
248.0,0.915329821763296,-0.8309085734599113,1.7237164450047358,-0.779732979299624,-0.5174606943764187,0.0,0.07867734134197235,0.9858017563819885,0.16877034306526184,0.4244253635406494,-0.5403286218643188,-0.5245356559753418,0.5027628540992737
249.0,0.938993776761487,-0.8162114109050684,1.6466892607110761,-0.7901968568156466,-0.5756971501663036,0.0,0.0854477733373642,1.0086475610733032,0.1756894290447235,0.4716741144657135,-0.5162962079048157,-0.5111510753631592,0.49968627095222473
250.0,0.9769941715115852,-0.7903826560405052,1.5324601685199968,-0.741195365449658,-0.5944596538201078,0.0,0.08488068729639053,1.0599920749664307,0.19727802276611328,0.49985799193382263,-0.4998948276042938,-0.4997762143611908,0.5004708170890808
251.0,0.9593141849062237,-0.8097881378918532,1.5926083860966656,-0.7829503991297248,-0.6113848034298048,0.0,0.08498156815767288,1.025270938873291,0.18724220991134644,0.50002121925354,-0.5000163316726685,-0.500032365322113,0.4999302327632904
252.0,0.9914560950756933,-0.7710134684075265,1.47803034939338,-0.7070285995866071,-0.5793172320828327,0.0,0.08528050035238266,1.0911098718643188,0.20435231924057007,0.4999981224536896,-0.5000049471855164,-0.5000066161155701,0.4999902844429016
253.0,1.0062288780166102,-0.7592087149179632,1.4291071450265698,-0.7020976962479262,-0.5640395171497042,0.0,0.08487778156995773,1.1230762004852295,0.21130315959453583,0.510909914970398,-0.4975706934928894,-0.5025635957717896,0.4886966645717621
254.0,0.9985603788095239,-0.7744308624871317,1.463901354529911,-0.7338669367792633,-0.5715070270798324,0.0,0.08479505777359009,1.106018304824829,0.2070959508419037,0.5150333642959595,-0.49673303961753845,-0.5033848881721497,0.4843558371067047
255.0,0.995853496038323,-0.7640670123066428,1.4622166420939964,-0.6981593879966175,-0.5749152072289595,0.0,0.08500976860523224,1.1001766920089722,0.20497502386569977,0.49999627470970154,-0.5000062584877014,-0.5000076293945312,0.4999898374080658
256.0,1.0232573747634888,-0.7206593155860901,1.3452335596084595,-0.6245858073234558,-0.5475109259234827,0.0,0.08499564230442047,1.162437915802002,0.2197057604789734,0.49999698996543884,-0.5000060796737671,-0.5000080466270447,0.49998897314071655
