Sungjin-Park-dev/lg_sgu_vision_v2/data/curved_structure/trajectory/80/trajectory_dp_ee_s0010_eev50mms_av20dps_jv0p30_corner30d_x2p5.csv
time,ur20-shoulder_pan_joint,ur20-shoulder_lift_joint,ur20-elbow_joint,ur20-wrist_1_joint,ur20-wrist_2_joint,ur20-wrist_3_joint,target-POS_X,target-POS_Y,target-POS_Z,target-ROT_X,target-ROT_Y,target-ROT_Z,target-ROT_W
0.0,2.0447885990142822,-0.29592663049697876,0.7379704713821411,-0.4423459768295288,-2.1502764225006104,0.0,-0.42101794481277466,0.9805423617362976,0.016526535153388977,0.6113668084144592,0.3554672300815582,0.35547852516174316,0.6111534833908081
0.20011315122246742,2.0439921309879017,-0.3049647252356797,0.7558523982485,-0.451160500327068,-2.1718901818590295,0.0,-0.4126622676849365,0.9857956171035767,0.018169445917010307,0.6076233983039856,0.36180976033210754,0.36182212829589844,0.6074308753013611
0.4001814126968384,2.043185870466956,-0.31411394244342866,0.7739541816136205,-0.4600833975076506,-2.19376968022271,0.0,-0.4043503999710083,0.9911063313484192,0.01983601041138172,0.6037667989730835,0.3681905269622803,0.3682034909725189,0.6035953760147095
0.6001988798379898,2.0423692339029627,-0.32338090406397035,0.792288923034543,-0.4691211265110091,-2.2159307533515897,0.0,-0.3960835337638855,0.9964743256568909,0.02152746543288231,0.5997924208641052,0.3746119737625122,0.374625027179718,0.5996423959732056
0.8001289516687393,2.0415415753798514,-0.3327729397708756,0.8108711243161872,-0.4782808356999108,-2.2383909294753805,0.0,-0.38786476850509644,1.0018994808197021,0.02324492484331131,0.5956946611404419,0.3810768723487854,0.38108953833580017,0.5955661535263062
0.9999520517885685,2.0407021972521044,-0.3422979662488903,0.8297164486687479,-0.4875702459276699,-2.261169140606189,0.0,-0.3796961307525635,1.0073814392089844,0.024989822879433632,0.5914676785469055,0.38758793473243713,0.3875996768474579,0.5913611054420471
1.200094223022461,2.039848351150381,-0.3519871712188827,0.8488866011926712,-0.4970197734386801,-2.2843399692653623,0.0,-0.3715614974498749,1.0129319429397583,0.02676798775792122,0.5870949029922485,0.39416366815567017,0.3941740095615387,0.5870105028152466
1.4001616276800632,2.038980717107371,-0.36183283786150455,0.8683663141126996,-0.5066218923010458,-2.3078849614002235,0.0,-0.36347898840904236,1.0185413360595703,0.028577730059623718,0.5825766324996948,0.4007956087589264,0.40080395340919495,0.582514762878418
1.600069086998701,2.0380985397492886,-0.3718435379456202,0.8881725467270459,-0.5163849622476813,-2.33182461559536,0.0,-0.3554533123970032,1.0242069959640503,0.030420636758208275,0.5779060125350952,0.40748611092567444,0.40749189257621765,0.5778668522834778
1.7999682389199734,2.0371999267436247,-0.38204074512734454,0.9083477847983956,-0.5263299257506313,-2.35621028409361,0.0,-0.3474804759025574,1.029934048652649,0.03230050951242447,0.5730692148208618,0.4142458736896515,0.4142484664916992,0.5730533599853516
2.099561929898329,2.035582386568238,-0.3855356552635666,0.9182201600638527,-0.5326847393665339,-2.3739351103993007,0.0,-0.34153473377227783,1.0358253717422485,0.031091121956706047,0.5697066187858582,0.4188489019870758,0.4188489317893982,0.5697064399719238
2.456612490672072,2.0325016723439115,-0.3747721576583936,0.906024653512182,-0.5312528102627067,-2.3770157333689683,0.0,-0.33964961767196655,1.0418990850448608,0.023374764248728752,0.5697066187858582,0.4188489019870758,0.4188489317893982,0.5697064399719238
21.69614200877558,1.520522861717569,-0.8228777637455456,0.7011228675687117,-0.9387517941751593,-1.7401122636918835,0.0,-0.05585811287164688,1.212040901184082,0.44861364364624023,0.9643930792808533,-0.0028991277795284986,0.07547289878129959,0.2534586489200592
102.56533743585261,0.27423062833992673,-1.9331189607426986,0.21816524881309518,-1.936320055348497,-0.17973925930405876,0.0,-0.5822860598564148,0.5563419461250305,1.9461678266525269,-0.6433914303779602,-0.2059997171163559,-0.14136619865894318,0.7236208319664001
202.59921155971486,-0.9720616050377124,-3.043360157739849,-0.26479236994251987,-2.9338883165218315,1.3806337450837614,0.0,-0.3713792562484741,1.0687474012374878,0.020655544474720955,0.6669120788574219,0.2746339440345764,0.2687322199344635,0.6384256482124329
303.9177510619628,0.44201929395334494,-1.7692158896839525,0.2701926679511528,-1.7963337703084385,-0.3975270422572206,0.0,-0.2387048602104187,0.6197409629821777,1.9952962398529053,-0.6827091574668884,-0.06527784466743469,-0.033912599086761475,0.7269778847694397
401.18955605329825,1.899031194113841,-0.456594291533595,0.8216044607429711,-0.6243242979700017,-2.2295624520611454,0.0,-0.25911781191825867,1.087371587753296,0.10081883519887924,0.707686722278595,0.31711241602897644,0.34719377756118774,0.5273287296295166
493.8790854150054,0.125488386272135,-2.0670608684276117,0.19258001192241314,-2.064558716484722,-0.01673510349041596,0.0,-0.8184623122215271,0.6035376191139221,1.8069376945495605,-0.6311705112457275,-0.30925142765045166,-0.23841840028762817,0.6701820492744446
572.9446465259108,-0.6776384411027434,-2.7881856280825206,-0.10415334583945882,-2.7081019756693876,0.9799899606065459,0.0,-0.7066224813461304,1.1843868494033813,0.3286532461643219,0.7251786589622498,0.485906183719635,0.41460421681404114,0.25712746381759644
646.4455985337712,0.03853576852370444,-2.1211306155140055,0.12763306044814343,-2.108789431572155,0.07316361607393751,0.0,-0.9275453090667725,0.6647202968597412,1.6968859434127808,-0.6317659020423889,-0.3617003858089447,-0.2916916012763977,0.6204519867897034
688.3228756222136,0.7547099781501543,-1.4540756029454887,0.3594194667357463,-1.5094768874749211,-0.8336627284586733,0.0,0.23956163227558136,0.9628452658653259,1.6872833967208862,-0.8151118755340576,0.15848694741725922,0.10467657446861267,0.5472817420959473
730.4756627458977,1.470884187776604,-0.7870205903769718,0.5912058730233493,-0.9101643433776871,-1.7404890729912839,0.0,0.008221925236284733,1.2500804662704468,0.4763900637626648,0.9693788886070251,-0.028923729434609413,0.07090351730585098,0.23332521319389343
755.6554823957866,1.9986628227518712,-0.2936521458805056,0.7577900108142732,-0.4641378996856598,-2.410854713773855,0.0,-0.31808412075042725,1.1109673976898193,0.00030183419585227966,0.5697064995765686,0.41884902119636536,0.41884899139404297,0.5697064995765686
756.0794934528609,1.9951419779009287,-0.2900980593868234,0.7404863460897815,-0.45038834037350234,-2.414375596462102,0.0,-0.315826416015625,1.1185951232910156,0.006357662379741669,0.5697064995765686,0.4188489317893982,0.4188489317893982,0.5697065591812134
756.2794419462522,1.9916086311764751,-0.28653135298466126,0.7231212392294322,-0.43658995890114416,-2.417908981158213,0.0,-0.3134615421295166,1.1261266469955444,0.012492157518863678,0.5697064995765686,0.4188489317893982,0.4188489317893982,0.5697064995765686
756.6511895499599,1.9880614296007006,-0.28295066092222826,0.7056880408421304,-0.4227374716365509,-2.4214562208545387,0.0,-0.31098800897598267,1.133561134338379,0.0187066737562418,0.5697064995765686,0.41884902119636536,0.41884905099868774,0.5697064995765686
756.975401634719,1.9827103089941127,-0.27697851725033396,0.7029878444305206,-0.42600849471886704,-2.415426864068613,0.0,-0.3060179650783539,1.1327412128448486,0.011586621403694153,0.5720803737640381,0.4156005084514618,0.41560041904449463,0.5720807909965515
757.1753938816448,1.977187241557239,-0.2707784240324763,0.7016919754565851,-0.43091170487677966,-2.408484680608141,0.0,-0.30084484815597534,1.1310845613479614,0.003190990537405014,0.5746591687202454,0.412026971578598,0.4120267331600189,0.5746604204177856
757.3752952687403,1.9716638412740213,-0.2645779571674772,0.7003960283874143,-0.43581521052548494,-2.4015420787786357,0.0,-0.2957029342651367,1.1293691396713257,-0.005206596106290817,0.5772157907485962,0.40843725204467773,0.40843677520751953,0.577217698097229
757.5753845594784,1.9661322775870005,-0.2583683262165544,0.6990981659511345,-0.44072596339412873,-2.394589216012158,0.0,-0.29058605432510376,1.12759268283844,-0.01361796073615551,0.5797536969184875,0.40482625365257263,0.4048256576061249,0.5797564387321472
757.7753615699669,1.96060071389998,-0.2521586952656316,0.6978003035148547,-0.44563671626277246,-2.3876363532456804,0.0,-0.2855021357536316,1.1257586479187012,-0.02203027904033661,0.5822690725326538,0.4011995196342468,0.4011988043785095,0.5822724103927612
757.9752819746693,1.9550675436667548,-0.24594726083569282,0.6965020641370645,-0.45054889537394516,-2.380681471141467,0.0,-0.28045037388801575,1.1238664388656616,-0.030445721000432968,0.5847623944282532,0.39755603671073914,0.3975551724433899,0.5847665071487427
758.1753654539546,1.9495265179596803,-0.23972700799629368,0.6952019816413052,-0.455468048334272,-2.373716715150822,0.0,-0.27542605996131897,1.121914267539978,-0.0388735793530941,0.5872364640235901,0.39389199018478394,0.39389097690582275,0.5872412919998169
758.3753246203025,1.943985492252606,-0.23350675515689456,0.693901899145546,-0.4603872012945988,-2.3667519591601773,0.0,-0.2704366445541382,1.1199055910110474,-0.0473015159368515,0.5896876454353333,0.39021235704421997,0.39021122455596924,0.5896931886672974
758.5752712696751,1.9384413117335744,-0.22728296078401886,0.6926010764410204,-0.4653091550003832,-2.3597832377492938,0.0,-0.26548004150390625,1.1178395748138428,-0.05573420971632004,0.5921170711517334,0.38651543855667114,0.3865140974521637,0.59212327003479
758.7753432936927,1.9328899526132581,-0.22105110784628842,0.6912985694321138,-0.4702374816485841,-2.3528054932425175,0.0,-0.26055341958999634,1.1157150268554688,-0.06417735666036606,0.594526469707489,0.38279855251312256,0.38279712200164795,0.5945333242416382
758.9752810582479,1.927338593492942,-0.214819254908558,0.6899960624232071,-0.47516580829678495,-2.345827748735741,0.0,-0.25566357374191284,1.1135354042053223,-0.07261989265680313,0.5969123840332031,0.3790668249130249,0.3790651857852936,0.5969200730323792
759.1752620734235,1.921782176668135,-0.20858172428543445,0.6886923687327319,-0.48009862502016937,-2.338843646980413,0.0,-0.25080686807632446,1.1112984418869019,-0.08106911927461624,0.5992772579193115,0.3753165900707245,0.3753148317337036,0.5992854237556458
759.3753232195934,1.9162194811430762,-0.20233714530968946,0.6873872018802963,-0.48503701578138764,-2.331851653253904,0.0,-0.24598301947116852,1.1090046167373657,-0.08952666074037552,0.6016210317611694,0.3715474009513855,0.3715454936027527,0.6016299724578857
759.5752342924436,1.9106567856180177,-0.19609256633394442,0.6860820350278607,-0.48997540654260596,-2.3248596595273954,0.0,-0.24119794368743896,1.1066569089889526,-0.09798257052898407,0.6039410829544067,0.36776354908943176,0.3677615225315094,0.6039507985115051
759.7752557083925,1.90508681288791,-0.1898398181025848,0.6847751607357917,-0.4949202577836436,-2.3178585187656373,0.0,-0.23644603788852692,1.104252576828003,-0.10644779354333878,0.6062403917312622,0.36396023631095886,0.3639580309391022,0.6062508225440979
759.9752988241573,1.8995118417696857,-0.183581458773295,0.6834671136794654,-0.4998695464406042,-2.3108510953126555,0.0,-0.23173002898693085,1.1017930507659912,-0.11491851508617401,0.6085177659988403,0.36013907194137573,0.36013680696487427,0.6085287928581238
760.1751786231955,1.8939368706514612,-0.17732309944400512,0.6821590666231393,-0.5048188350975649,-2.303843671859674,0.0,-0.22705459594726562,1.0992811918258667,-0.12338673323392868,0.6107710003852844,0.3563038110733032,0.35630133748054504,0.61078280210495
760.3752467729112,1.8883520264933307,-0.17105365682296475,0.6808487030703663,-0.5097768887370482,-2.296823838553812,0.0,-0.22241245210170746,1.0967124700546265,-0.13186731934547424,0.6130040884017944,0.35244742035865784,0.3524448275566101,0.6130167245864868
760.5752649851104,1.8827638167206968,-0.16478043602541362,0.6795375498485438,-0.514737930266035,-2.2897997748608314,0.0,-0.21780934929847717,1.0940905809402466,-0.14034996926784515,0.6152140498161316,0.34857478737831116,0.3485720455646515,0.6152274012565613
760.7751117035707,1.8771756069480627,-0.15850721522786246,0.6782263966267212,-0.5196989717950218,-2.282775711167851,0.0,-0.21324867010116577,1.091417670249939,-0.14882950484752655,0.6173996329307556,0.3446882665157318,0.3446853756904602,0.6174136400222778
760.9752399235924,1.871574461771208,-0.15221947338509567,0.6769122083905363,-0.5246714969798028,-2.27573538840321,0.0,-0.20872069895267487,1.088687777519226,-0.15732499957084656,0.6195656061172485,0.3407790958881378,0.3407760262489319,0.6195803284645081
761.1752326175531,1.865971966201895,-0.14593021561676442,0.6755977033138079,-0.5296452210016599,-2.268693368271609,0.0,-0.2042352259159088,1.0859074592590332,-0.1658187061548233,0.6217073798179626,0.3368552029132843,0.3368520736694336,0.6217226982116699
761.3750750333031,1.8603683651766763,-0.1396397168841066,0.6742829388656293,-0.5346199264134217,-2.261649958644444,0.0,-0.19979336857795715,1.0830767154693604,-0.1743098348379135,0.6238245964050293,0.33291715383529663,0.3329138457775116,0.6238408088684082
761.5752285666724,1.8547506040323791,-0.13333332226401529,0.6729648520500903,-0.5396072027453285,-2.254588750548296,0.0,-0.19538527727127075,1.0801900625228882,-0.18281804025173187,0.6259222030639648,0.32895582914352417,0.328952431678772,0.6259390711784363
761.7751881986817,1.8491328428880818,-0.12702692764392393,0.6716467652345514,-0.5445944790772353,-2.247527542452148,0.0,-0.1910226047039032,1.0772544145584106,-0.1913214921951294,0.6279946565628052,0.3249812424182892,0.32497766613960266,0.6280121803283691
761.9750872388443,1.8435110585367112,-0.1207160166460816,0.670327734460011,-0.5495853270891939,-2.2404612774122055,0.0,-0.18670298159122467,1.0742686986923218,-0.1998259276151657,0.6300433278083801,0.32099074125289917,0.3209870457649231,0.6300615668296814
762.1752138383647,1.8378770127519837,-0.11439134119023352,0.6690058268038747,-0.5545870604262502,-2.2333796004438686,0.0,-0.18242065608501434,1.0712292194366455,-0.20834355056285858,0.6320710778236389,0.3169785141944885,0.3169747292995453,0.6320899724960327
762.3751313745936,1.832242966967256,-0.10806666573438542,0.6676839191477383,-0.5595887937633064,-2.226297923475532,0.0,-0.1781855672597885,1.0681424140930176,-0.2168554961681366,0.6340731978416443,0.31295350193977356,0.312949538230896,0.6340929865837097
762.575096706297,1.8266014369846637,-0.1017335886566211,0.6663602554855566,-0.564597171342066,-2.219206839293681,0.0,-0.17399264872074127,1.0650053024291992,-0.22537273168563843,0.6360523104667664,0.30891045928001404,0.3089064061641693,0.6360727548599243
762.7751938201448,1.8209499805052791,-0.09538936827739561,0.6650342627844196,-0.5696143613607353,-2.212103278066666,0.0,-0.16984102129936218,1.0618165731430054,-0.23389875888824463,0.6380090713500977,0.3048478364944458,0.30484363436698914,0.6380301117897034
762.9750626109501,1.8152985240258943,-0.08904514789817013,0.6637082700832826,-0.5746315513794046,-2.2049997168396516,0.0,-0.16573835909366608,1.0585827827453613,-0.24241812527179718,0.6399399042129517,0.3007727265357971,0.3007684051990509,0.6399617791175842
763.1751092657407,1.8096355898378047,-0.08268804285571871,0.6623795843846813,-0.5796589309564226,-2.1978817287818138,0.0,-0.16167685389518738,1.0552973747253418,-0.25094789266586304,0.6418485045433044,0.2966771125793457,0.29667264223098755,0.6418711543083191
763.3751663140913,1.803965661085622,-0.07632308584515544,0.6610492575620673,-0.5846925200932734,-2.1907549489524265,0.0,-0.15766054391860962,1.0519638061523438,-0.2594809830188751,0.6437332034111023,0.2925642728805542,0.2925597131252289,0.6437565684318542
763.5749816842338,1.7982957323334396,-0.0699581288345922,0.6597189307394534,-0.5897261092301243,-2.1836281691230393,0.0,-0.15369494259357452,1.0485866069793701,-0.26800647377967834,0.6455915570259094,0.28843942284584045,0.2884347438812256,0.6456156373023987
763.7751215830406,1.7926097507834748,-0.06357515125053512,0.6583848374731325,-0.5947739495493205,-2.176481211834562,0.0,-0.14976920187473297,1.045156478881836,-0.27654829621315,0.6474286317825317,0.2842910587787628,0.2842862904071808,0.6474533677101135
763.9751265145799,1.786920292693995,-0.05718827096760369,0.657049928511594,-0.5998248762338491,-2.1693298847324987,0.0,-0.14589327573776245,1.041682243347168,-0.28508713841438293,0.6492401361465454,0.28012850880622864,0.2801235616207123,0.649265706539154
764.1749026201626,1.7812301673135267,-0.0508006415961667,0.6557148629845784,-0.6048763953188852,-2.1621777188833957,0.0,-0.1420689970254898,1.03816556930542,-0.29361850023269653,0.651025116443634,0.27595391869544983,0.2759488821029663,0.6510513424873352
764.375121010836,1.7755200042246626,-0.04439051826438154,0.6543750960402951,-0.609945703267894,-2.1550003667678927,0.0,-0.13828417658805847,1.0345951318740845,-0.3021710216999054,0.6527894735336304,0.27175313234329224,0.27174797654151917,0.6528163552284241
764.5750731736382,1.7698098411357985,-0.03798039493259639,0.6530353290960118,-0.6150150112169028,-2.14782301465239,0.0,-0.13455291092395782,1.0309841632843018,-0.3107144832611084,0.6545265913009644,0.2675411105155945,0.2675358057022095,0.6545543074607849
764.7749461740216,1.7640941606937766,-0.03156407792233702,0.6516942676234871,-0.6200892173031077,-2.1406387275359515,0.0,-0.13087202608585358,1.0273293256759644,-0.3192565143108368,0.6562381982803345,0.26331380009651184,0.26330840587615967,0.6562666296958923
764.9751134164592,1.758362154389728,-0.025129433801720447,0.6503493756386042,-0.625177916989733,-2.1334339197341095,0.0,-0.1272353231906891,1.0236247777938843,-0.3278132677078247,0.6579272747039795,0.2590634524822235,0.2590579092502594,0.6579564809799194
765.1749999210199,1.7526301480856796,-0.0186947896811038,0.6490044836537212,-0.6302666166763584,-2.1262291119322674,0.0,-0.12365351617336273,1.019881248474121,-0.33635979890823364,0.6595888733863831,0.25480225682258606,0.2547966241836548,0.6596187949180603
765.3749865613838,1.7468870234945155,-0.012247664377280967,0.6476569830019188,-0.6353651868378507,-2.119010329072216,0.0,-0.12012049555778503,1.0160924196243286,-0.3449125289916992,0.6612259745597839,0.25052210688591003,0.2505163550376892,0.6612566709518433
765.5750914983412,1.7411320237528853,-0.005787208249471827,0.6463066961014916,-0.6404742993943177,-2.111776619819522,0.0,-0.11663630604743958,1.0122581720352173,-0.353471964597702,0.6628386378288269,0.24622264504432678,0.2462167590856552,0.662869930267334
765.7749007031282,1.7353770240112552,0.000673247878337311,0.6449564092010646,-0.6455834119507846,-2.1045429105668276,0.0,-0.11320878565311432,1.0083868503570557,-0.3620203137397766,0.6644232869148254,0.24191276729106903,0.24190674722194672,0.6644554734230042
765.9750148415526,1.7296044606737269,0.007153420573625307,0.6436020013806496,-0.6507081169299047,-2.0972871248672416,0.0,-0.10982801020145416,1.004467487335205,-0.3705832064151764,0.6659846901893616,0.23757946491241455,0.23757334053516388,0.6660175323486328
766.175051791962,1.7238252539149388,0.013641051050583724,0.6422460348243347,-0.6558387197350022,-2.090022988762791,0.0,-0.10650096833705902,1.0005077123641968,-0.3791440427303314,0.6675195693969727,0.23323099315166473,0.2332248091697693,0.6675530672073364
766.3747685909232,1.718046047156151,0.020128681527542068,0.6408900682680199,-0.6609693225400995,-2.0827588526583414,0.0,-0.10323227941989899,0.9965134263038635,-0.3876926302909851,0.6690259575843811,0.22887271642684937,0.22886639833450317,0.6690603494644165
766.5750325605234,1.7122418978661527,0.02664431202810332,0.6395282494832657,-0.6661220685606821,-2.0754633652025616,0.0,-0.10000813007354736,0.9924671649932861,-0.3962656557559967,0.6705102920532227,0.22448574006557465,0.2244793027639389,0.6705453991889954
766.774984574314,1.7064372168396933,0.033160539446168244,0.6381663059379884,-0.6712752866406136,-2.068167209384118,0.0,-0.09684304893016815,0.9883871078491211,-0.40482646226882935,0.671966016292572,0.22008877992630005,0.22008223831653595,0.6720017790794373
766.974829299744,1.7006260145770506,0.039684087483199855,0.6368028323249112,-0.676434294074353,-2.060862856740542,0.0,-0.09373410791158676,0.9842692613601685,-0.41338348388671875,0.6733944416046143,0.2156773954629898,0.21567070484161377,0.6734310388565063
767.1750311501285,1.6947946888463457,0.04623022575279305,0.6354346371729052,-0.681611166506871,-2.0535332100355137,0.0,-0.09067454934120178,0.9801049828529358,-0.4219566881656647,0.6747987270355225,0.2112414389848709,0.2112346738576889,0.6748359799385071
767.3748865298887,1.6889633631156404,0.05277636402238632,0.6340664420208992,-0.6867880389393892,-2.046203563330486,0.0,-0.08767591416835785,0.9759089946746826,-0.43051573634147644,0.676173746585846,0.20679636299610138,0.20678947865962982,0.6762118339538574
767.5748946279248,1.6831173707317355,0.059338966805236426,0.6326948056541968,-0.6919779319775353,-2.0388554814717277,0.0,-0.08473089337348938,0.9716715812683105,-0.43908190727233887,0.6775228977203369,0.202331081032753,0.20232410728931427,0.6775617003440857
767.7750049665531,1.6772579943581543,0.06591659420702664,0.6313200290222039,-0.6971797069119074,-2.031490576694758,0.0,-0.08184097707271576,0.967394232749939,-0.4476529657840729,0.6788455247879028,0.19784671068191528,0.1978396326303482,0.6788851022720337
767.9747524246534,1.6713986179845732,0.07249422160881686,0.6299452523902109,-0.7023814818462795,-2.0241256719177882,0.0,-0.07901318371295929,0.9630875587463379,-0.45620888471603394,0.6801384091377258,0.19335368275642395,0.19334648549556732,0.680178701877594
768.1749440677424,1.6655154136657695,0.07909859782062224,0.628564885043406,-0.7076044105008248,-2.0167308167610503,0.0,-0.0762365534901619,0.9587344527244568,-0.46478399634361267,0.6814066767692566,0.18883393704891205,0.18882663547992706,0.6814478635787964
768.3749457582792,1.659626764965902,0.0857090857937806,0.6271832402896921,-0.7128321725101755,-2.009329118325173,0.0,-0.07352051138877869,0.9543495178222656,-0.47335121035575867,0.6826460957527161,0.18430164456367493,0.18429423868656158,0.6826879382133484
768.5746896773537,1.653734481119208,0.09232365451544344,0.6258007426269667,-0.7180631616915728,-2.0019228507152884,0.0,-0.07086651027202606,0.9499344825744629,-0.48190736770629883,0.6838560700416565,0.17975839972496033,0.17975091934204102,0.6838986873626709
768.7749622151216,1.647815187327982,0.09896854410061574,0.6244119076617357,-0.7233181294746995,-1.9944826331324328,0.0,-0.06826450675725937,0.9454725980758667,-0.4904860556125641,0.685041069984436,0.1751863807439804,0.17517878115177155,0.6850845813751221
768.9748429268559,1.6418958935367562,0.10561343368578806,0.6230230726965047,-0.7285730972578263,-1.9870424155495772,0.0,-0.06572707742452621,0.9409846663475037,-0.4990476369857788,0.6861955523490906,0.17060647904872894,0.17059879004955292,0.6862398386001587
769.1747981630226,1.6359625909877331,0.11227404924302246,0.6216309508775822,-0.7338405015871868,-1.9795845897503106,0.0,-0.06324869394302368,0.9364612102508545,-0.5076121687889099,0.6873221397399902,0.1660081297159195,0.1660003364086151,0.6873670220375061
769.3749471515378,1.6300112542441711,0.11895490965305414,0.6202345977228234,-0.7391239161222641,-1.9721040959882712,0.0,-0.060828253626823425,0.931899905204773,-0.5161845088005066,0.6884211301803589,0.16138829290866852,0.16138041019439697,0.6884667873382568
769.5746878854891,1.6240599175006094,0.12563577006308588,0.6188382445680645,-0.7444073306573415,-1.9646236022262318,0.0,-0.05847384035587311,0.9273149371147156,-0.5247387886047363,0.6894890666007996,0.15676122903823853,0.15675325691699982,0.6895354986190796
769.7748706623872,1.6180828042708255,0.13234556667917186,0.6174358435152609,-0.7497136287676285,-1.9571107088785702,0.0,-0.056175604462623596,0.9226875305175781,-0.5333113074302673,0.6905303001403809,0.15210697054862976,0.15209892392158508,0.6905774474143982
769.9748865276536,1.612097999835682,0.13906399729995417,0.616031637886556,-0.7550267548945343,-1.9495881481206787,0.0,-0.053941428661346436,0.9180318713188171,-0.5418757200241089,0.6915413737297058,0.14743980765342712,0.1474316269159317,0.69158935546875
770.1746040344199,1.6061090805914013,0.14578704712926796,0.6146264668063959,-0.7603435340229994,-1.942060415280378,0.0,-0.0517728254199028,0.9133523106575012,-0.5504265427589417,0.6925216317176819,0.142762690782547,0.1427544206380844,0.6925703883171082
770.3749062813779,1.6000894366521206,0.15254458793216963,0.6132140868374363,-0.7656875895949163,-1.9344940632358227,0.0,-0.04966107755899429,0.9086281061172485,-0.5590012073516846,0.6934750080108643,0.1380550116300583,0.13804665207862854,0.6935244798660278
770.5747602455278,1.59406979271284,0.1593021287350714,0.6118017068684767,-0.7710316451668333,-1.9269277111912673,0.0,-0.04761749505996704,0.9038844704627991,-0.5675554871559143,0.694396436214447,0.133340984582901,0.1333325356245041,0.6944466233253479
770.7747417636176,1.5880326047989919,0.16607936407890952,0.6103852105832525,-0.7763912757421868,-1.9193393073627232,0.0,-0.04563644528388977,0.8991082906723022,-0.5761138200759888,0.6952883005142212,0.12860701978206635,0.12859848141670227,0.6953393816947937
770.9748846799096,1.581976515259495,0.17287781803764454,0.60896427943814,-0.7817676866020365,-1.9117271452595508,0.0,-0.04371839761734009,0.894299328327179,-0.5846775770187378,0.696150541305542,0.12385226041078568,0.12384361773729324,0.6962023973464966
771.1745607241949,1.5759204257199977,0.1796762719963796,0.6075433482930276,-0.7871440974618863,-1.9041149831563784,0.0,-0.04186973720788956,0.8894732594490051,-0.5932196974754333,0.6969802975654602,0.11909167468547821,0.1190829649567604,0.6970328688621521
771.3748298533221,1.5698317403918454,0.18651131738378757,0.6061147692472364,-0.7925494458648435,-1.8964618499900294,0.0,-0.04008105397224426,0.8846051692962646,-0.60178542137146,0.6977816820144653,0.11429985612630844,0.11429107189178467,0.6978350877761841
771.5747925959488,1.5637377711865068,0.19335229435386786,0.6046849504533186,-0.797959485132178,-1.88880207528884,0.0,-0.03836120665073395,0.8797172904014587,-0.6103360652923584,0.6985507607460022,0.10949848592281342,0.10948961228132248,0.6986050009727478
771.7745932139417,1.5576336996235616,0.2002046120435023,0.6032527613584883,-0.8033784929632682,-1.8811296024953876,0.0,-0.036709170788526535,0.8748071193695068,-0.6188778281211853,0.699288010597229,0.1046840250492096,0.1046750545501709,0.6993429660797119
771.9748559541961,1.5515002579964587,0.20708990002322894,0.6018136812098478,-0.8088235746380265,-1.87342021319205,0.0,-0.03512030839920044,0.8698592782020569,-0.6274368762969971,0.6999953389167786,0.09984130412340164,0.09983223676681519,0.7000511884689331
772.1746096335312,1.5453668163693557,0.21397518800295584,0.6003746010612072,-0.8142686563127849,-1.8657108238887123,0.0,-0.0336030013859272,0.8648994565010071,-0.6359722018241882,0.7006692290306091,0.09499383717775345,0.09498470276594162,0.700725793838501
772.3747431062122,1.539205912436773,0.22089130465821458,0.5989290774732948,-0.8197381181814711,-1.8579669160202716,0.0,-0.03215093910694122,0.859904944896698,-0.6445208787918091,0.701312243938446,0.0901200920343399,0.09011086076498032,0.7013697028160095
772.5747916795274,1.5330313670992188,0.22782273490205618,0.59748035322313,-0.8252196904718004,-1.8502058616771497,0.0,-0.030767951160669327,0.8548889756202698,-0.6530634760856628,0.7019227743148804,0.08523119986057281,0.08522190898656845,0.7019809484481812
772.7744489110967,1.5268526566028184,0.2347588408760805,0.5960306517080335,-0.8307049604626193,-1.842439571964881,0.0,-0.02945663034915924,0.8498592972755432,-0.6615864038467407,0.7024995684623718,0.08033481985330582,0.08032543957233429,0.7025585770606995
772.9748085834046,1.520635407885957,0.2417382091426695,0.5945719080284557,-0.8362244435055496,-1.8346248418886772,0.0,-0.028210323303937912,0.844789445400238,-0.6701364517211914,0.7030454277992249,0.07540400326251984,0.07539454102516174,0.7031052112579346
773.1746225006839,1.5144181591690955,0.24871757740925848,0.593113164348878,-0.8417439265484798,-1.8268101118124735,0.0,-0.027037519961595535,0.8397112488746643,-0.678659975528717,0.7035567760467529,0.0704694539308548,0.07045992463827133,0.7036173343658447
773.3746519632598,1.508176672454551,0.25572415480316046,0.5916487337444984,-0.8472849273436021,-1.8189649159437455,0.0,-0.025933995842933655,0.8346062898635864,-0.6871894001960754,0.7040351033210754,0.06551222503185272,0.0655025914311409,0.7040966153144836
773.574771168079,1.5019149183216518,0.2627534840255563,0.5901795478263504,-0.852843920932165,-1.8110942450761882,0.0,-0.024901118129491806,0.8294785022735596,-0.6957192420959473,0.7044800519943237,0.06053556129336357,0.060525864362716675,0.704542338848114
773.7743290275296,1.4956527109937923,0.26978332199622157,0.5887102555757531,-0.8584033168533373,-1.8032230045681923,0.0,-0.023942630738019943,0.8243452310562134,-0.7042215466499329,0.7048898339271545,0.05555553734302521,0.05554576218128204,0.7049528360366821
773.974762441959,1.4893448235846836,0.2768644395801058,0.5872302454766604,-0.8640032661519499,-1.7952943467810942,0.0,-0.023052265867590904,0.8191698789596558,-0.7127571702003479,0.7052669525146484,0.05053642764687538,0.05052656680345535,0.7053309082984924
774.1746007040103,1.4830369361755749,0.2839455571639901,0.5857502353775677,-0.8696032154505625,-1.7873656889939962,0.0,-0.022237233817577362,0.8139916658401489,-0.7212636470794678,0.7056084275245667,0.04551468789577484,0.04550478607416153,0.7056730389595032
774.3745910510381,1.4767053564208108,0.29105327133632675,0.5842646663791848,-0.8752241980882046,-1.779407251268118,0.0,-0.021494586020708084,0.80879145860672,-0.7297722697257996,0.7059151530265808,0.04047178104519844,0.04046178236603737,0.705980658531189
774.5747345261236,1.4703494677679374,0.29818827422748184,0.5827733938207403,-0.8808667614212662,-1.771418258631889,0.0,-0.020825333893299103,0.8035702109336853,-0.738283097743988,0.706186830997467,0.03540743142366409,0.035397376865148544,0.706253170967102
774.7742650978228,1.4639935791150642,0.30532327711863694,0.5812821212622958,-0.8865093247543278,-1.76342926599566,0.0,-0.020232103765010834,0.7983486652374268,-0.7467633485794067,0.7064220905303955,0.03034130670130253,0.030331170186400414,0.7064893245697021
774.974722186472,1.4575880263914203,0.31251403197586425,0.5797791960979098,-0.8921959783287395,-1.7553778484307796,0.0,-0.019711168482899666,0.7930870056152344,-0.7552781105041504,0.7066226005554199,0.02523401752114296,0.025223825126886368,0.7066905498504639
775.174547521766,1.4511822909893606,0.3197049919044983,0.5782762280719628,-0.8978827940794557,-1.74732620124946,0.0,-0.019267063587903976,0.7878272533416748,-0.7637612223625183,0.7067860960960388,0.02012520469725132,0.020114941522479057,0.7068548798561096
775.3745590843221,1.444749731857796,0.3269260636551008,0.5767669664348609,-0.9035934231159017,-1.7392408381569293,0.0,-0.018898487091064453,0.7825484275817871,-0.7722470760345459,0.7069131135940552,0.014993971213698387,0.014983649365603924,0.7069827318191528
775.5746872857173,1.4382922656388317,0.33417509564074094,0.5752518608854473,-0.9093261639019032,-1.7311241682639347,0.0,-0.01860622502863407,0.7772530317306519,-0.7807324528694153,0.707003116607666,0.00984207820147276,0.009831675328314304,0.7070736289024353
775.7742530614098,1.4318315439885656,0.34142778211327013,0.5737359915191025,-0.9150617947601355,-1.7230034064778756,0.0,-0.01839148998260498,0.7719600796699524,-0.7891885042190552,0.7070555686950684,0.004687064327299595,0.004676608834415674,0.7071268558502197
775.9746949881276,1.4253203266080503,0.34873715415740025,0.5722082744158081,-0.9208422541815383,-1.7148191744142274,0.0,-0.01825335994362831,0.7666321992874146,-0.7976759672164917,0.7070704102516174,-0.0005085168522782624,-0.00051904033171013,0.7071426510810852
776.1744517408272,1.4188091092275352,0.3560465262015304,0.5706805573125138,-0.9266227136029411,-1.706634942350579,0.0,-0.018193809315562248,0.7613112926483154,-0.8061282634735107,0.707047164440155,-0.005704034585505724,-0.00571461534127593,0.7071201801300049
776.3745723985096,1.4122632634156214,0.36339477148143257,0.5691447153926428,-0.9324339150854407,-1.698407184306764,0.0,-0.01821286790072918,0.7559707164764404,-0.8145898580551147,0.7069852948188782,-0.010926894843578339,-0.010937536135315895,0.7070591449737549
776.574621064957,1.4056964533464753,0.37076655084824717,0.5676039546607494,-0.9382637279935998,-1.6901530753770544,0.0,-0.018311042338609695,0.7506227493286133,-0.8230419754981995,0.7068844437599182,-0.016165832057595253,-0.01617654226720333,0.7069592475891113
776.774313146617,1.3991177439019589,0.378151688233477,0.5660604019963786,-0.9441041048028619,-1.681884009605367,0.0,-0.01848854310810566,0.745275616645813,-0.8314722180366516,0.7067444920539856,-0.02141345851123333,-0.02142421342432499,0.7068200707435608
776.9746672682425,1.3924931313179736,0.38558835563295235,0.5645060791476992,-0.949985233013822,-1.6735572461830084,0.0,-0.018747154623270035,0.7399031519889832,-0.8399235010147095,0.70656418800354,-0.0266964603215456,-0.02670726738870144,0.7066406607627869
777.1742773190101,1.3858685187339883,0.39302502303242765,0.5629517562990198,-0.9558663612247821,-1.6652304827606497,0.0,-0.019085515290498734,0.734544038772583,-0.8483363389968872,0.7063444256782532,-0.031977973878383636,-0.031988829374313354,0.7064216732978821
777.3745977081319,1.3791953624206985,0.4005161847233939,0.5613860437084255,-0.9617905850722428,-1.656842702615512,0.0,-0.01950652152299881,0.7291597127914429,-0.8567715287208557,0.7060831189155579,-0.03729640319943428,-0.03730732575058937,0.7061613202095032
777.5744929857512,1.3725108133408734,0.4080201357230795,0.55981765805022,-0.9677249230689948,-1.6484406024070555,0.0,-0.020008713006973267,0.723781943321228,-0.8651812076568604,0.7057812213897705,-0.04262177273631096,-0.04263274744153023,0.7058601975440979
777.7744177304169,1.365799196549568,0.4155544724343814,0.5582429215357367,-0.9736832909512045,-1.6400044796158402,0.0,-0.02059347555041313,0.7183993458747864,-0.8735842108726501,0.7054376602172852,-0.04796626418828964,-0.04797728732228279,0.705517590045929
777.9745974153241,1.359052488463173,0.42312820198366236,0.5566599516036679,-0.979672811810723,-1.6315242490509718,0.0,-0.02126230113208294,0.7130066752433777,-0.8819896578788757,0.705051600933075,-0.05333591625094414,-0.05334699526429176,0.7051323056221008
778.1741401128431,1.3523004455938488,0.4307079202614601,0.5550757299795349,-0.9856670687271787,-1.6230373129656224,0.0,-0.022012358531355858,0.7076288461685181,-0.8903598189353943,0.7046242356300354,-0.058706749230623245,-0.05871787294745445,0.7047058939933777
778.3746083401104,1.3454893664500993,0.4383539115675806,0.5534776567634669,-0.991713736240419,-1.6144761716215887,0.0,-0.022850515320897102,0.7022249698638916,-0.8987600803375244,0.7041516900062561,-0.06412104517221451,-0.0641322061419487,0.7042341828346252
778.5742551967462,1.3386782873063496,0.4459999028737013,0.551879583547399,-0.9977604037536595,-1.6059150302775547,0.0,-0.02376999519765377,0.6968425512313843,-0.9071165919303894,0.7036375999450684,-0.06953160464763641,-0.06954280287027359,0.7037209868431091
778.7745317392012,1.331817005276927,0.45370225100952477,0.5502697313040623,-1.0038516398516224,-1.5972907867450052,0.0,-0.024778123944997787,0.6914440393447876,-0.9154901504516602,0.7030776143074036,-0.07497785985469818,-0.07498912513256073,0.7031620144844055
778.9744337409695,1.3249392136301732,0.46142313253600753,0.5486560054341377,-1.0099575326823387,-1.588645791557024,0.0,-0.025870462879538536,0.6860572099685669,-0.9238382577896118,0.7024739980697632,-0.0804327055811882,-0.08044400066137314,0.7025592923164368
779.1743688419422,1.318030662861563,0.4691785436830294,0.5470350625978924,-1.0160907325196156,-1.5799621338921765,0.0,-0.02704961784183979,0.6806722283363342,-0.932177722454071,0.7018251419067383,-0.08590707927942276,-0.08591843396425247,0.701911211013794
779.3745322287043,1.3110837153996737,0.47697705824682307,0.5454051108034745,-1.0222580197655056,-1.5712302137550584,0.0,-0.028317544609308243,0.6752849221229553,-0.9405163526535034,0.7011296153068542,-0.09140665829181671,-0.09141803532838821,0.7012166380882263
779.5741374365946,1.3041253060537872,0.4847884397093186,0.5437724697245196,-1.028435482521053,-1.5624838866778803,0.0,-0.02966977097094059,0.6699169874191284,-0.9488207101821899,0.7003897428512573,-0.09690958261489868,-0.09692100435495377,0.700477659702301
779.7745600476821,1.2971067250972383,0.4926673687075704,0.5421257106714027,-1.0346663637901332,-1.5536619272885668,0.0,-0.031116323545575142,0.664533257484436,-0.9571481347084045,0.6995998024940491,-0.10245411098003387,-0.10246554017066956,0.6996884942054749
779.9740638904234,1.2900881441406893,0.5005462977058222,0.5404789516182859,-1.0408972450592135,-1.5448399678992533,0.0,-0.03264521807432175,0.6591811180114746,-0.9654259085655212,0.6987658739089966,-0.10799218714237213,-0.10800367593765259,0.6988556385040283
780.1745220966598,1.2830029387906554,0.5085000180143215,0.5388165605843157,-1.0471872734248362,-1.5359342654146757,0.0,-0.034271541982889175,0.653811514377594,-0.9737313985824585,0.6978796124458313,-0.11357598006725311,-0.11358750611543655,0.6979702115058899
780.3742417268415,1.2759102115748269,0.5164621822300575,0.5371524047063307,-1.053483979472597,-1.5270191083701263,0.0,-0.03598228842020035,0.6484708189964294,-0.9819939732551575,0.6969476342201233,-0.11915838718414307,-0.1191699430346489,0.6970393061637878
780.5744285643061,1.268766630494167,0.5244814340526436,0.5354763170628201,-1.0598258320244447,-1.5180400308930693,0.0,-0.03778823837637901,0.643127977848053,-0.9902631640434265,0.6959639191627502,-0.12477315217256546,-0.12478474527597427,0.6960564851760864
780.7743686199149,1.2615969383666839,0.532529997652819,0.5337941030238159,-1.0661908651641596,-1.5090281333066322,0.0,-0.03968377783894539,0.6378033757209778,-0.9985091090202332,0.694931149482727,-0.13040031492710114,-0.13041192293167114,0.6950246095657349
780.9743013180753,1.2543917391966166,0.5406184208014114,0.532103558021019,-1.072587420369079,-1.4999716053754502,0.0,-0.04167177528142929,0.6324917078018188,-1.0067411661148071,0.6938474178314209,-0.1360466480255127,-0.1360582858324051,0.6939418315887451
781.174443358924,1.247142604172666,0.548756165525885,0.5304027044151604,-1.0790229804797908,-1.4908598525603358,0.0,-0.04375487565994263,0.6271885633468628,-1.014967918395996,0.6927107572555542,-0.14171841740608215,-0.14173009991645813,0.6928061246871948
781.3741375639995,1.2398722696605633,0.5569177084031455,0.5286968768054037,-1.0854773608469703,-1.4817214531873615,0.0,-0.04592715948820114,0.6219125390052795,-1.023161768913269,0.6915242075920105,-0.1473972350358963,-0.14740893244743347,0.6916205286979675
781.574468998607,1.2325407812372655,0.5651479015285475,0.5269767007457941,-1.0919860317840175,-1.4725061868060279,0.0,-0.04820089787244797,0.6166360974311829,-1.0313667058944702,0.690280556678772,-0.1531137228012085,-0.15312545001506805,0.6903777718544006
781.7739581264516,1.225201386611362,0.5733869700105725,0.5252546696658039,-1.0985017216056556,-1.4632809827750832,0.0,-0.050560012459754944,0.6114000082015991,-1.0395219326019287,0.688988208770752,-0.15882587432861328,-0.15883761644363403,0.6890864372253418
781.9744697160979,1.2177844127602144,0.5817131274940955,0.5235144362893246,-1.1050862838880429,-1.4539582660448058,0.0,-0.05302739888429642,0.6061561703681946,-1.0477027893066406,0.6876342296600342,-0.1645873785018921,-0.16459915041923523,0.6877334117889404
782.1738879702946,1.2103674389090668,0.5900392849776186,0.5217742029128452,-1.11167084617043,-1.4446355493145284,0.0,-0.055577632039785385,0.6009615659713745,-1.0558226108551025,0.6862320899963379,-0.17033737897872925,-0.17034916579723358,0.6863322257995605
782.374453856047,1.2028665142436692,0.598459684090456,0.5200142722835681,-1.1183299374151918,-1.4352073111578263,0.0,-0.05823993682861328,0.5957590341567993,-1.063971996307373,0.684765100479126,-0.1761402189731598,-0.1761520355939865,0.6848662495613098
782.5739951938351,1.1953614033592608,0.6068847825752266,0.518253359448045,-1.1249927450570123,-1.425773811160542,0.0,-0.060986489057540894,0.5906067490577698,-1.0720622539520264,0.6832482218742371,-0.18193377554416656,-0.1819455921649933,0.6833503842353821
782.7744154393633,1.1877797447646004,0.6153958121018684,0.5164744863388377,-1.131723509412156,-1.4162440950199415,0.0,-0.06384406238794327,0.5854567289352417,-1.0801697969436646,0.6816661357879639,-0.18777307868003845,-0.18778491020202637,0.6817692518234253
782.9740641400178,1.1801832501838132,0.6239234962317747,0.5146921322846052,-1.1384674447015153,-1.4066957308836967,0.0,-0.06678995490074158,0.5803530216217041,-1.0882272720336914,0.680030882358551,-0.19361011683940887,-0.19362196326255798,0.6801349520683289
783.1743776187261,1.1725160280819622,0.6325305777669594,0.5128931835388904,-1.145274169718447,-1.3970584662528365,0.0,-0.06984589993953705,0.5752604007720947,-1.0962920188903809,0.6783297657966614,-0.19948707520961761,-0.19949890673160553,0.6784348487854004
783.3741040289362,1.164825008474157,0.6411643739416003,0.5110886512202832,-1.152102021432501,-1.387391289502647,0.0,-0.07299363613128662,0.5702122449874878,-1.1043128967285156,0.6765722632408142,-0.20536720752716064,-0.20537905395030975,0.6766783595085144
783.5743367433508,1.1570670936258527,0.6498732654743307,0.509268423372397,-1.158989260692784,-1.3776400292178124,0.0,-0.07625125348567963,0.5651827454566956,-1.1123331785202026,0.674747884273529,-0.2112828642129898,-0.2112947255373001,0.6748550534248352
783.7741205789109,1.1492783468567564,0.6586167683503376,0.5074409614774855,-1.165903871588294,-1.3678500149519657,0.0,-0.07960376888513565,0.5601974725723267,-1.1203138828277588,0.6728642582893372,-0.21720565855503082,-0.21721751987934113,0.6729724407196045
783.9743052184542,1.1414241106734675,0.6674337884298581,0.5055981339001986,-1.172876621980483,-1.3579776841956468,0.0,-0.08306626230478287,0.5552369356155396,-1.1282881498336792,0.6709120869636536,-0.22316135466098785,-0.22317323088645935,0.6710212826728821
784.1741140879651,1.1335340926562294,0.6762909765334931,0.5037469108852359,-1.1798811383892365,-1.3480603776973756,0.0,-0.0866260677576065,0.5503219962120056,-1.1362241506576538,0.6688980460166931,-0.22912652790546417,-0.22913838922977448,0.6690082550048828
784.374289265271,1.1255776775832556,0.6852227007422291,0.5018801092293328,-1.18694460007104,-1.338059613854536,0.0,-0.09029717743396759,0.5454365611076355,-1.144150733947754,0.666813313961029,-0.2351233959197998,-0.2351352423429489,0.6669244766235352
784.5740899391433,1.1175830960875237,0.694197269870314,0.500004352643282,-1.1940419447343384,-1.32801087697645,0.0,-0.09406690299510956,0.5406003594398499,-1.152037501335144,0.6646644473075867,-0.2411300390958786,-0.2411418855190277,0.6647767424583435
784.7742830164691,1.109518218532068,0.7032507520531672,0.49811210259887184,-1.2012016960870424,-1.3178737819262565,0.0,-0.09795023500919342,0.5357968807220459,-1.1599140167236328,0.6624417901039124,-0.2471695840358734,-0.24718143045902252,0.6625550985336304
784.9740339018365,1.1014154265959675,0.7123467962175611,0.4962109567605744,-1.2083951066659706,-1.3076890306435007,0.0,-0.10193199664354324,0.5310479998588562,-1.1677463054656982,0.6601535081863403,-0.2532169222831726,-0.25322872400283813,0.6602679491043091
785.1742876268884,1.0932354149184034,0.7215295258336182,0.49429169297092457,-1.2156570705669543,-1.2974072185121974,0.0,-0.10603167861700058,0.5263332724571228,-1.1755704879760742,0.6577874422073364,-0.2593003809452057,-0.2593121826648712,0.6579027771949768
785.3739520668944,1.0850208348203692,0.730751061318291,0.49236431844497147,-1.2229497232531703,-1.2870819558310704,0.0,-0.1102278083562851,0.5216807126998901,-1.1833429336547852,0.6553548574447632,-0.2653873562812805,-0.26539915800094604,0.6554713845252991
785.5742902070244,1.0767184899497106,0.7400711199113148,0.49041635180292564,-1.2303202908172246,-1.2766463777935069,0.0,-0.11454783380031586,0.5170629024505615,-1.1911115646362305,0.6528390645980835,-0.27151617407798767,-0.2715279757976532,0.6529567837715149
785.7738304831048,1.0683882122643562,0.749422535364803,0.48846183132674087,-1.2377156562788825,-1.2661756897873608,0.0,-0.11896047741174698,0.5125159025192261,-1.198818325996399,0.650257408618927,-0.2776415944099426,-0.27765336632728577,0.6503761410713196
785.9742967173418,1.0599560797761238,0.7588882911336585,0.48648341281193824,-1.245201445315811,-1.2555769760534847,0.0,-0.12350503355264664,0.5080029964447021,-1.2065285444259644,0.6475854516029358,-0.28381702303886414,-0.2838287651538849,0.6477052569389343
786.173650803413,1.0515064235080123,0.7683737187732675,0.48450088271912006,-1.2527027914279498,-1.2449562359192012,0.0,-0.1281357705593109,0.5035721063613892,-1.2141625881195068,0.6448492407798767,-0.289979487657547,-0.289991170167923,0.6449701189994812
786.3742785476109,1.0429364793202112,0.7779941794037973,0.48249012965331695,-1.2603109254720557,-1.234184300671675,0.0,-0.13290907442569733,0.49917295575141907,-1.2218105792999268,0.6420140862464905,-0.29620271921157837,-0.29621440172195435,0.6421361565589905
786.5737643599471,1.0343477048065322,0.7876357786094217,0.4804749584565833,-1.2679357765029042,-1.2233886967693008,0.0,-0.1377684473991394,0.49486100673675537,-1.2293789386749268,0.6391125321388245,-0.30241185426712036,-0.30242353677749634,0.6392356753349304
786.7742235161325,1.0256472457860726,0.7974027527739691,0.4784335828926461,-1.2756597776191692,-1.2124527117572224,0.0,-0.14276614785194397,0.4905930757522583,-1.2369464635849,0.6361119747161865,-0.3086726665496826,-0.3086843192577362,0.6362362504005432
786.9739475049039,1.0169074482113643,0.8072138876709695,0.47638297738311913,-1.2834187022993768,-1.2014672804068929,0.0,-0.14786043763160706,0.4864082634449005,-1.244447112083435,0.633036196231842,-0.3149318993091583,-0.3149435520172119,0.6331616044044495
787.1741026028951,1.0080754517655675,0.8171285233131379,0.4743107393916714,-1.2912594783142703,-1.1903659602890877,0.0,-0.15308162569999695,0.4822850823402405,-1.2519233226776123,0.6298653483390808,-0.3212260901927948,-0.3212376534938812,0.629991888999939
787.3741035111209,0.9991753130477834,0.8271196542078495,0.4722225132818291,-1.2991607489517645,-1.1791789891885713,0.0,-0.15841549634933472,0.4782382845878601,-1.2593512535095215,0.6266067028045654,-0.32753655314445496,-0.327548086643219,0.6267344355583191
787.5738891720732,0.9902075596295206,0.8371866881130998,0.47011842283689886,-1.3071220458500277,-1.1679070302328975,0.0,-0.1638609766960144,0.4742720127105713,-1.2667269706726074,0.6232593059539795,-0.33386150002479553,-0.3338729739189148,0.6233883500099182
787.7741930954119,0.981137326054495,0.8473687643444073,0.46799028762751277,-1.3151743214935927,-1.156506259515022,0.0,-0.16943895816802979,0.470375120639801,-1.2740757465362549,0.6198089718818665,-0.34022393822669983,-0.3402353525161743,0.6199389696121216
787.9735363408884,0.9720295770602568,0.8575929546905403,0.465853350231958,-1.3232599021776381,-1.145058334036545,0.0,-0.17510852217674255,0.46657904982566833,-1.2813414335250854,0.6162788271903992,-0.34657683968544006,-0.34658822417259216,0.6164101362228394
788.1741730630358,0.9627791905505824,0.8679772672698667,0.4636829460115118,-1.3314721120804252,-1.1334311212667532,0.0,-0.1809350550174713,0.4628446400165558,-1.2886039018630981,0.6126267910003662,-0.35299181938171387,-0.3530031442642212,0.6127592921257019
788.3738680317958,0.953486577996421,0.878408982024711,0.46150263435800093,-1.339721808972575,-1.1217508327467578,0.0,-0.18685434758663177,0.45921722054481506,-1.2957801818847656,0.6088908910751343,-0.3593972623348236,-0.35940852761268616,0.6090245842933655
788.5739901609679,0.9440860326147206,0.8889618601728431,0.45929699858812256,-1.3480673253241846,-1.1099348787657215,0.0,-0.19290748238563538,0.4556749761104584,-1.3029170036315918,0.6050434112548828,-0.3658369481563568,-0.3658481538295746,0.6051784157752991
788.7740962713917,0.9345959385950183,0.8996152639635621,0.4570703521565112,-1.3564923402146942,-1.0980063672103393,0.0,-0.19908171892166138,0.4522297978401184,-1.309996247291565,0.6010902523994446,-0.37229612469673157,-0.37230730056762695,0.6012265086174011
788.9735869824847,0.9250424028078461,0.9103398863075062,0.45482882047878337,-1.36497367676382,-1.0859981129406289,0.0,-0.20535889267921448,0.44889554381370544,-1.3169941902160645,0.5970409512519836,-0.37875545024871826,-0.37876656651496887,0.5971785187721252
789.1741185955664,0.9153435579439121,0.9212276299299107,0.4525531951517638,-1.3735840142620308,-1.073807213378084,0.0,-0.21179184317588806,0.44564855098724365,-1.3239660263061523,0.5928593277931213,-0.385267972946167,-0.38527899980545044,0.5929979681968689
789.3738426960965,0.905585915765475,0.9321813783286546,0.4502637742996151,-1.3822465502157237,-1.061542408915965,0.0,-0.2183219939470291,0.4425234794616699,-1.3308446407318115,0.5885803699493408,-0.39177340269088745,-0.39178431034088135,0.588720440864563
789.5738618768712,0.8957133006392739,0.9432641932292684,0.4479473775183198,-1.3910111556320488,-1.0491330899597733,0.0,-0.22498548030853271,0.43950653076171875,-1.3376648426055908,0.5841785073280334,-0.39830711483955383,-0.39831796288490295,0.5843198299407959
789.7740785166582,0.8857276180272007,0.9544739355955211,0.4456044518835247,-1.3998761389002818,-1.036581651567361,0.0,-0.231779545545578,0.4366043508052826,-1.3444201946258545,0.5796524882316589,-0.40486541390419006,-0.40487614274024963,0.5797950625419617
789.9735779821833,0.8756720145231519,0.9657621698601762,0.4432451208154125,-1.408803195795481,-1.0239423265674856,0.0,-0.23867303133010864,0.4338341951370239,-1.3510764837265015,0.5750203132629395,-0.41141754388809204,-0.4114282429218292,0.5751643180847168
790.1739522948822,0.8654632037433314,0.9772223917752259,0.4408498429554997,-1.4178662654190084,-1.0111104286852324,0.0,-0.24572136998176575,0.4311792552471161,-1.3576830625534058,0.5702418684959412,-0.4180154502391815,-0.41802603006362915,0.570387065410614
790.3739989310463,0.8551593500406443,0.9887893071152981,0.4384322653180915,-1.4270137112393078,-0.9981590672232383,0.0,-0.25288259983062744,0.4286607801914215,-1.3641961812973022,0.5653421878814697,-0.42461854219436646,-0.4246290326118469,0.5654887557029724
790.5734236858746,0.8447733598998738,1.0004484272996024,0.43599541613222603,-1.4362340752743759,-0.9851044649030649,0.0,-0.2601452171802521,0.42628639936447144,-1.3706026077270508,0.5603259801864624,-0.4312160611152649,-0.4312264621257782,0.5604739785194397
790.7739423535725,0.8342121944397929,1.0123041960531314,0.43351746582567213,-1.4456099545941794,-0.9718296771119918,0.0,-0.26757195591926575,0.42404210567474365,-1.376952886581421,0.5551463961601257,-0.43786412477493286,-0.4378744661808014,0.5552957057952881
790.9739478252789,0.8235574568535889,1.0242650071424975,0.4310175608324421,-1.4550689043824405,-0.9584372744495167,0.0,-0.27510344982147217,0.4219517409801483,-1.3831908702850342,0.5498409271240234,-0.4445081949234009,-0.44451838731765747,0.5499916672706604
791.1734278261622,0.8128075134979608,1.0363326944654159,0.42849531785327455,-1.4646123749376612,-0.9449252035183859,0.0,-0.2827374339103699,0.42002004384994507,-1.3893122673034668,0.5444074273109436,-0.45114636421203613,-0.4511564075946808,0.5445596575737
791.3738633081277,0.8018790370749871,1.0486007997033178,0.4259311859300666,-1.4743143416835105,-0.9311887266169427,0.0,-0.2905302047729492,0.4182392656803131,-1.3953568935394287,0.5388016700744629,-0.4578268229961395,-0.457836776971817,0.5389553308486938
791.5739372879227,0.7908404219422698,1.0609925446170174,0.42334121232767996,-1.4841140862034985,-0.9173138115852614,0.0,-0.29843005537986755,0.41662782430648804,-1.4012788534164429,0.5330561399459839,-0.46450379490852356,-0.4645136296749115,0.533211350440979
791.773575129356,0.7796935697581615,1.0735057944400672,0.4207258432293427,-1.494009920263567,-0.9033028487003597,0.0,-0.30643171072006226,0.4151920676231384,-1.4070711135864258,0.5271704196929932,-0.4711732566356659,-0.4711829125881195,0.5273268222808838
791.9736731931528,0.7683856407279609,1.0861998661474097,0.4180726809138021,-1.5040487534155338,-0.8890894213281804,0.0,-0.31456953287124634,0.41393154859542847,-1.4127531051635742,0.5211144089698792,-0.4778628647327423,-0.4778723418712616,0.5212723016738892
792.1738961659332,0.756932122590217,1.0990573734905813,0.41538535924577047,-1.5142168361193382,-0.874692996680309,0.0,-0.32282814383506775,0.4128563404083252,-1.4183084964752197,0.5148938894271851,-0.48455920815467834,-0.48456862568855286,0.5150533318519592
792.3737594619354,0.7453581240031285,1.1120501299548986,0.41266976943181155,-1.5244918776770422,-0.8601451349203055,0.0,-0.3311852514743805,0.4119752049446106,-1.423716425895691,0.5085205435752869,-0.49124377965927124,-0.49125298857688904,0.5086815357208252
792.5733262434562,0.7336587254391465,1.125183658110879,0.4099247572106042,-1.5348782454945709,-0.8454396524802208,0.0,-0.3396395444869995,0.4112943708896637,-1.4289727210998535,0.5019899606704712,-0.4979156255722046,-0.4979247748851776,0.5021524429321289
792.7736899018248,0.7217664712567405,1.1385336824124308,0.4071344955668212,-1.5454358246250288,-0.8304917614330021,0.0,-0.3482345640659332,0.4108177125453949,-1.434097409248352,0.4952620267868042,-0.5046084523200989,-0.50461745262146,0.4954261779785156
792.9738146200737,0.7097406111173684,1.1520336902869013,0.4043128861590747,-1.5561120150331589,-0.8153759352527665,0.0,-0.3569221496582031,0.41055595874786377,-1.4390554428100586,0.48836788535118103,-0.5112841129302979,-0.5112928748130798,0.48853349685668945
793.1736909545918,0.6975802934251553,1.1656846377200476,0.40145972917871037,-1.566907572739703,-0.8000911035316539,0.0,-0.3656970262527466,0.4105156660079956,-1.443838357925415,0.4813050925731659,-0.5179387331008911,-0.517947256565094,0.4814722537994385
793.3733775414487,0.6852817535869302,1.1794907507744437,0.3985741413449163,-1.577825839835209,-0.7846325343889216,0.0,-0.37455612421035767,0.41070300340652466,-1.4484392404556274,0.4740698039531708,-0.5245696306228638,-0.5245780944824219,0.47423872351646423
793.573513044413,0.6728039035782262,1.1934981541054088,0.39564648223654697,-1.5889032930097111,-0.7689485825011803,0.0,-0.3835219144821167,0.41112685203552246,-1.452863097190857,0.4666357636451721,-0.5311940312385559,-0.5312022566795349,0.46680617332458496
793.7736815534493,0.6601725146726999,1.2076779173584187,0.39268279852863064,-1.6001170533155564,-0.7530716409021521,0.0,-0.39256933331489563,0.41179385781288147,-1.457090139389038,0.45901602506637573,-0.5377926230430603,-0.5378007292747498,0.4591881036758423
793.973683989044,0.647400548558798,1.2220154899820719,0.3896861314025579,-1.6114556137626197,-0.7370180017012824,0.0,-0.40168142318725586,0.4127102792263031,-1.4611066579818726,0.4512166380882263,-0.5443536639213562,-0.544361412525177,0.45139041543006897
794.1735579580029,0.6344870294155848,1.236511967414879,0.38665625190293595,-1.6229198406548488,-0.7207864383468339,0.0,-0.4108513295650482,0.4138823449611664,-1.4649031162261963,0.44323545694351196,-0.5508723855018616,-0.5508798956871033,0.44341087341308594
794.3733432650527,0.6214318427368122,1.2511674781994333,0.3835931331633366,-1.6345098356473846,-0.7043768069109276,0.0,-0.42007124423980713,0.4153159558773041,-1.4684700965881348,0.43507105112075806,-0.5573436617851257,-0.5573510527610779,0.4352482557296753
794.5733294211288,0.6082183843491035,1.2660006618732598,0.3804928793716297,-1.6462403394169425,-0.6877682368865294,0.0,-0.4293439984321594,0.4170195460319519,-1.4718017578125,0.4267115294933319,-0.5637702345848083,-0.5637773871421814,0.42689040303230286
794.7734675876757,0.594854166770971,1.2810030850222076,0.3773572531786913,-1.6581046825796153,-0.6709701710846061,0.0,-0.4386559724807739,0.4189980924129486,-1.4748857021331787,0.41816002130508423,-0.5701426863670349,-0.5701495409011841,0.41834068298339844
794.9735105358025,0.5813604589816467,1.2961508714840904,0.3741912448930064,-1.6700839831868826,-0.6540093434093754,0.0,-0.4479829668998718,0.4212538003921509,-1.4777073860168457,0.40942925214767456,-0.5764452219009399,-0.57645183801651,0.40961167216300964
795.1734817534646,0.5677418172341752,1.3114389064936223,0.3709959235413479,-1.6821741963368007,-0.6368914808132762,0.0,-0.4573124647140503,0.42379021644592285,-1.4802565574645996,0.4005213677883148,-0.5826706886291504,-0.5826770067214966,0.400705486536026
795.3734095901211,0.5540042095884884,1.3268604904172516,0.367772689400607,-1.6943700237685,-0.6196240848101726,0.0,-0.4666312336921692,0.42660972476005554,-1.4825234413146973,0.3914397954940796,-0.5888110995292664,-0.5888171792030334,0.3916257619857788
795.5733105674346,0.5401550676524666,1.3424072806696048,0.3645232861377202,-1.7066648679280552,-0.6022164965109422,0.0,-0.47592443227767944,0.4297139346599579,-1.4844986200332642,0.3821892738342285,-0.5948580503463745,-0.5948638916015625,0.3823769688606262
795.7732080057224,0.5262030804620129,1.358069523099897,0.36124975244806284,-1.7190510149554434,-0.5846796375423844,0.0,-0.48517706990242004,0.43310263752937317,-1.4861727952957153,0.3727755546569824,-0.600803017616272,-0.6008086204528809,0.37296515703201294
795.9731633163949,0.5121550320908829,1.3738396020325712,0.3579536800686174,-1.7315224421577091,-0.567022035101597,0.0,-0.4943747818470001,0.43677592277526855,-1.48753821849823,0.363203763961792,-0.6066385507583618,-0.606643795967102,0.36339515447616577
796.1732068233152,0.4980210589630313,1.3897061385058207,0.35463744729323243,-1.7440701507280345,-0.549256430100317,0.0,-0.5035014748573303,0.44073161482810974,-1.4885867834091187,0.3534812331199646,-0.6123558282852173,-0.6123607754707336,0.3536745607852936
796.3732121087571,0.4838239508884841,1.4056435491009769,0.35130640126062596,-1.7566739085708873,-0.5314114680410726,0.0,-0.5125335454940796,0.44496265053749084,-1.4893115758895874,0.34362468123435974,-0.6179418563842773,-0.617946445941925,0.34381985664367676
796.5731848351618,0.46957716903204966,1.421636722563725,0.34796370034357316,-1.7693217652763227,-0.5135040688468524,0.0,-0.5214532613754272,0.4494631886482239,-1.4897072315216064,0.3336450755596161,-0.6233879327774048,-0.6233922243118286,0.333842009305954
796.7731427162846,0.45529517217281984,1.4376694277364321,0.3446127369835825,-1.7820008847829805,-0.49555240638538806,0.0,-0.5302437543869019,0.45422565937042236,-1.4897704124450684,0.323554128408432,-0.6286857724189758,-0.6286897659301758,0.3237529993057251
796.9730956241449,0.440992983234081,1.4537248001636403,0.3412570359864628,-1.7946979301995587,-0.47757536362176317,0.0,-0.5388880968093872,0.4592410922050476,-1.4894989728927612,0.313364714384079,-0.6338275074958801,-0.6338312029838562,0.3135654032230377
797.1730523690542,0.426686012609252,1.4697855404230968,0.3379002130695552,-1.8073992206506357,-0.4595923105491085,0.0,-0.5473699569702148,0.4644990563392639,-1.488891839981079,0.3030902147293091,-0.6388057470321655,-0.638809084892273,0.30329281091690063
797.3730179987808,0.4123898476869065,1.4858341504010661,0.33454592547830675,-1.8200909181299112,-0.44162283963345583,0.0,-0.5556735992431641,0.46998801827430725,-1.487950325012207,0.2927444875240326,-0.643613874912262,-0.6436169147491455,0.2929489314556122
797.5730057567318,0.3981198655089701,1.5018533681150643,0.33119778110484804,-1.832759371370398,-0.4236862789469943,0.0,-0.5637848377227783,0.47569525241851807,-1.4866763353347778,0.28234171867370605,-0.6482462286949158,-0.6482487916946411,0.2825480103492737
797.7730244159659,0.3838908917694596,1.5178265505155586,0.3278592584793823,-1.845391418574901,-0.4058012635487687,0.0,-0.5716906785964966,0.48160701990127563,-1.4850740432739258,0.2718959152698517,-0.6526978015899658,-0.6527001261711121,0.27210408449172974
797.9730047233363,0.3697226468325799,1.533731559886912,0.3245349845611889,-1.857969552607902,-0.3879925808214762,0.0,-0.5793761014938354,0.48770689964294434,-1.4831489324569702,0.2614250183105469,-0.6569632291793823,-0.6569651961326599,0.26163503527641296
798.1729257427116,0.3556308559359132,1.549550743368645,0.3212286489390197,-1.8704798130849727,-0.3702799964995565,0.0,-0.586830198764801,0.4939788579940796,-1.4809083938598633,0.2509443163871765,-0.6610391139984131,-0.6610406637191772,0.25115615129470825
798.3728400565644,0.341624508294545,1.5652740098343827,0.31794236073883814,-1.8829142196562032,-0.3526748095180682,0.0,-0.5940462350845337,0.5004091858863831,-1.4783600568771362,0.2404641956090927,-0.6649246215820312,-0.664925754070282,0.24067789316177368
798.5727670922836,0.32771450574543254,1.5808891210838576,0.3146786778421899,-1.8952630940045498,-0.3351907228696103,0.0,-0.6010177731513977,0.5069829821586609,-1.4755122661590576,0.22999674081802368,-0.6686189770698547,-0.6686197519302368,0.23021221160888672
798.7727187335452,0.3139105101267726,1.5963852309164466,0.3114398671915834,-1.9075178586459005,-0.3178398809384575,0.0,-0.6077395677566528,0.5136853456497192,-1.4723742008209229,0.21955303847789764,-0.6721223592758179,-0.6721227765083313,0.21977028250694275
798.972714444991,0.3002208326422919,1.6117530093287689,0.3082278788322008,-1.9196711351480698,-0.3006327304377285,0.0,-0.6142081022262573,0.5205020904541016,-1.4689557552337646,0.20914316177368164,-0.6754356026649475,-0.6754356622695923,0.20936211943626404
799.1727799311241,0.2866522771079555,1.626984818483028,0.30504430913310965,-1.9317168832915719,-0.2835778233793623,0.0,-0.6204215288162231,0.5274195671081543,-1.4652669429779053,0.198775976896286,-0.6785605549812317,-0.6785601377487183,0.19899679720401764
799.3729367800017,0.27321007429722105,1.6420747864098142,0.3018903853827886,-1.9436504593558945,-0.26668173454981575,0.0,-0.6263790130615234,0.5344247221946716,-1.4613181352615356,0.18845948576927185,-0.6814994812011719,-0.6814987659454346,0.18868198990821838
799.5727754145821,0.2599275390274647,1.656985514512129,0.29877392418653975,-1.9554422874662474,-0.2499863387907087,0.0,-0.6320688724517822,0.5414896607398987,-1.4571287631988525,0.17822284996509552,-0.6842495203018188,-0.6842483878135681,0.17844708263874054
799.7726003773471,0.24678805211022384,1.671735659183154,0.2956910262092659,-1.9671071216292797,-0.2334707467218938,0.0,-0.6375017762184143,0.548612654209137,-1.4527047872543335,0.16805705428123474,-0.6868186593055725,-0.6868171095848083,0.16828295588493347
799.9725125864109,0.23378934508830918,1.6863277669509185,0.29264115920628164,-1.9786469757118255,-0.21713210702095612,0.0,-0.6426826119422913,0.5557851195335388,-1.448054313659668,0.15796373784542084,-0.6892117261886597,-0.6892098188400269,0.15819142758846283
800.1725369267126,0.22093183318083057,1.7007613716981393,0.2896244205998199,-1.9900614810950723,-0.20097094159483786,0.0,-0.6476142406463623,0.562997579574585,-1.4431877136230469,0.14794665575027466,-0.6914328932762146,-0.6914305686950684,0.1481759250164032
800.3727214172443,0.2082148366822128,1.7150372364497075,0.28664065091158764,-2.0013512412008185,-0.18498639609206566,0.0,-0.652301549911499,0.5702409744262695,-1.4381135702133179,0.13800835609436035,-0.6934865713119507,-0.6934838891029358,0.13823923468589783
800.5727489612957,0.1956593222418358,1.7291318244333298,0.2836947695148733,-2.0124976424797287,-0.16920482440532822,0.0,-0.6567413210868835,0.577494740486145,-1.4328505992889404,0.12816831469535828,-0.695374071598053,-0.6953710317611694,0.12840086221694946
800.772465890642,0.18327435044975834,1.7430349643984075,0.2807889022822427,-2.0234926412173775,-0.15363761518398958,0.0,-0.6609357595443726,0.5847445726394653,-1.4274133443832397,0.11843666434288025,-0.6970992684364319,-0.6970958113670349,0.11867091059684753
800.9723680973013,0.1710285288106777,1.756781896978781,0.2779156836399195,-2.034364106709878,-0.1382453098365755,0.0,-0.6649006605148315,0.5920004844665527,-1.4217978715896606,0.10879170149564743,-0.6986711621284485,-0.6986672878265381,0.10902740806341171
801.1725104175468,0.1589184835273017,1.7703764095368077,0.27507432199893883,-2.0451150341111632,-0.12302366769066482,0.0,-0.6686421632766724,0.5992571711540222,-1.4160113334655762,0.09923306852579117,-0.7000944018363953,-0.7000901699066162,0.09947048872709274
801.3728268951138,0.1469466681882184,1.7838157477193795,0.2722653930410868,-2.055743245200411,-0.10797577276837236,0.0,-0.6721636652946472,0.6065057516098022,-1.4100637435913086,0.08976539969444275,-0.7013729214668274,-0.7013682723045349,0.09000429511070251
801.5724135883113,0.1351649212139545,1.797041718675656,0.2695010595367054,-2.066202719415136,-0.09316678303304102,0.0,-0.6754565238952637,0.6137075424194336,-1.4039909839630127,0.08043193817138672,-0.7025061249732971,-0.702501118183136,0.08067244291305542
801.7722823977431,0.1235106388816046,1.810124600185555,0.2667666328688089,-2.0765490344236497,-0.07851800914497316,0.0,-0.6785436272621155,0.6208939552307129,-1.3977705240249634,0.07118552923202515,-0.7035049200057983,-0.7034994959831238,0.07142746448516846
801.972493505474,0.11197892764648848,1.8230698856517067,0.26406096487239744,-2.0867865345650825,-0.06402330019521613,0.0,-0.6814313530921936,0.6280620098114014,-1.3914072513580322,0.062024183571338654,-0.7043734192848206,-0.7043675780296326,0.06226762384176254
802.172612784799,0.10059237193312975,1.8358522222174023,0.2613893544968988,-2.096895170078861,-0.04971104352833562,0.0,-0.6841185688972473,0.635191798210144,-1.3849215507507324,0.052967850118875504,-0.7051140069961548,-0.7051078081130981,0.053212687373161316
802.3722429521342,0.08937036542483423,1.8484498388929327,0.25875635205294617,-2.10685772384677,-0.035605615907611333,0.0,-0.6866070628166199,0.6422654390335083,-1.378333568572998,0.04403381422162056,-0.7057299613952637,-0.7057233452796936,0.0442800410091877
802.5722920283636,0.07825888531492688,1.8609233806805725,0.2561492822509736,-2.1167221556624316,-0.021639113719829118,0.0,-0.6889142394065857,0.6493116021156311,-1.3716195821762085,0.035180702805519104,-0.7062283158302307,-0.706221342086792,0.0354284830391407
802.7727978438099,0.0672535317659931,1.8732777867563186,0.2535671127637715,-2.1264923715667834,-0.007806006618152204,0.0,-0.6910446882247925,0.6563283205032349,-1.3647834062576294,0.02640671655535698,-0.7066125869750977,-0.7066051363945007,0.026655932888388634
802.9722456209322,0.0564341128999001,1.885423466000604,0.2510285688504783,-2.136097520352902,0.005793391101066617,0.0,-0.6929890513420105,0.6632600426673889,-1.3578827381134033,0.017777012661099434,-0.7068840265274048,-0.7068762183189392,0.018027566373348236
803.1722003728112,0.04571216576304,1.8974597252868213,0.24851289458185138,-2.145616136722325,0.019270272368281667,0.0,-0.6947688460350037,0.670158863067627,-1.3508689403533936,0.009222373366355896,-0.7070490717887878,-0.7070409059524536,0.00947433803230524
803.3727104723414,0.03508294217320392,1.909391894836382,0.2460189758990678,-2.155052435965832,0.03263060538003848,0.0,-0.6963881850242615,0.6770239472389221,-1.3437443971633911,0.0007403905619867146,-0.7071104645729065,-0.7071018815040588,0.0009936766000464559
803.5722025617918,0.024626620288995087,1.9211299681333314,0.24356562488242697,-2.1643352383692145,0.045773610724730844,0.0,-0.6978406310081482,0.6837996244430542,-1.336569905281067,0.007603755220770836,0.7070717215538025,0.7070627808570862,0.007349143270403147
803.7721660681029,0.014261376073983095,1.9327657993255922,0.2411336432817999,-2.1735371848066203,0.058802136589325996,0.0,-0.6991426944732666,0.6905351281166077,-1.329296588897705,0.015874218195676804,0.7069360613822937,0.706926703453064,0.015618274919688702
803.9726995438298,0.003980432428299617,1.9443069962599648,0.23872144099647657,-2.182664291779802,0.07172470140514013,0.0,-0.7002983093261719,0.6972317695617676,-1.321924090385437,0.02407524548470974,0.7067060470581055,0.7066962718963623,0.023818014189600945
804.1721107199749,-0.006133430457216274,1.9556606314272955,0.23634844061765134,-2.1916430695700053,0.08443725515318104,0.0,-0.7013036012649536,0.7038321495056152,-1.314518928527832,0.032139938324689865,0.706386923789978,0.7063767910003662,0.031881317496299744
804.3722187302967,-0.016175196302249676,1.9669333317922122,0.23399235625858172,-2.2005578418152303,0.0970591869981389,0.0,-0.7021726369857788,0.7103954553604126,-1.307017207145691,0.04014292731881142,0.7059789896011353,0.70596843957901,0.03988310694694519
804.5724251441618,-0.026117408536053703,1.9780942751168882,0.2316596300130079,-2.209384233412669,0.1095559855831457,0.0,-0.7029064893722534,0.7169010639190674,-1.299444556236267,0.048061590641736984,0.7054858207702637,0.7054749131202698,0.04780043289065361
804.772029606994,-0.035927866262981195,1.9891073132722275,0.22935781712845835,-2.218093657393136,0.12188717620320602,0.0,-0.7035074234008789,0.7233251333236694,-1.2918304204940796,0.05586940050125122,0.7049121856689453,0.7049008011817932,0.0556069053709507
804.9724160641392,-0.04567777950604959,2.0000523853112653,0.22707020970474603,-2.226749331834663,0.13414226583060723,0.0,-0.7039834856987,0.7297118306159973,-1.2841252088546753,0.06362217664718628,0.7042564749717712,0.7042447924613953,0.06335854530334473
805.1721291936894,-0.05529883486252262,2.01085280387325,0.2248128360124147,-2.235290610190012,0.14623538838096375,0.0,-0.7043352127075195,0.7360142469406128,-1.2763876914978027,0.07126506417989731,0.7035258412361145,0.7035138010978699,0.0710001289844513
805.3720793634614,-0.06483719831739956,2.0215603940379503,0.22257486419610592,-2.2437584772070926,0.15822457188691455,0.0,-0.7045684456825256,0.7422604560852051,-1.2685850858688354,0.07883390039205551,0.7027195692062378,0.7027071714401245,0.07856777310371399
805.5724460020622,-0.07430405299143795,2.0321877097696177,0.22035367037708067,-2.252162860918095,0.1701238728988905,0.0,-0.7046866416931152,0.7484557032585144,-1.2607128620147705,0.08633700013160706,0.7018389701843262,0.7018262147903442,0.08606972545385361
805.7719646714588,-0.08364219416621975,2.042670534110784,0.21816267641205322,-2.260452976725576,0.1818613883205418,0.0,-0.7046930193901062,0.7545607089996338,-1.2528231143951416,0.0937284305691719,0.7008918523788452,0.7008785605430603,0.09345999360084534
805.972405294325,-0.09293665690501958,2.0531043258486377,0.2159819306525141,-2.2687043161549965,0.19354400241800712,0.0,-0.7045910358428955,0.7606293559074402,-1.2448480129241943,0.10107501596212387,0.6998717784881592,0.6998581886291504,0.10080536454916
806.1720148421784,-0.10210859358162062,2.063400572098241,0.21382993299795758,-2.2768468806980606,0.20507260818365416,0.0,-0.7043848037719727,0.7666086554527283,-1.2368595600128174,0.10831385850906372,0.6987897753715515,0.6987758278846741,0.10804303735494614
806.3721080444714,-0.11122058300746522,2.073629522674363,0.2116920006763372,-2.2849362259074475,0.21652586364488088,0.0,-0.7040767669677734,0.7725375890731812,-1.2288068532943726,0.115494005382061,0.6976406574249268,0.6976263523101807,0.11522187292575836
806.5721778891941,-0.12025166183142924,2.0837676445072715,0.20957305228707654,-2.2929537411619116,0.227877419054719,0.0,-0.7036699056625366,0.778401255607605,-1.2207123041152954,0.12259820103645325,0.6964290142059326,0.6964142918586731,0.12232500314712524
806.7719535663684,-0.12919156262227607,2.093803411568813,0.20747549686206473,-2.300890311350383,0.23911436883268683,0.0,-0.7031683921813965,0.7841916680335999,-1.2125885486602783,0.12961827218532562,0.6951583623886108,0.6951432824134827,0.12934385240077972
806.9724096491893,-0.1380861634442104,2.103788325724205,0.20538857010036454,-2.3087866656135088,0.25029437911126606,0.0,-0.7025724649429321,0.7899371981620789,-1.2043976783752441,0.1365896463394165,0.6938238739967346,0.6938084363937378,0.13631407916545868
807.1718849003275,-0.14686376238782053,2.1136418957378567,0.20332909531272497,-2.316579149191575,0.261327324644787,0.0,-0.7018898725509644,0.7955904006958008,-1.196209192276001,0.1434558480978012,0.6924384832382202,0.6924225687980652,0.14317914843559265
807.3724410258194,-0.15561671429610258,2.12346779744611,0.20127540342177214,-2.324349751886353,0.27232929024859315,0.0,-0.7011159062385559,0.8012096881866455,-1.1879398822784424,0.15028873085975647,0.6909893155097961,0.6909731030464172,0.15001098811626434
807.5718786328991,-0.16425093074937486,2.13316040893154,0.1992495702513604,-2.332014944879771,0.28318201209947325,0.0,-0.7002624273300171,0.8067336082458496,-1.1796817779541016,0.15701456367969513,0.689493715763092,0.6894771456718445,0.15673582255840302
807.7722248196562,-0.1728561567382255,2.1428204762585112,0.19723053906984583,-2.339654401026544,0.2939982945758717,0.0,-0.6993226408958435,0.8122187256813049,-1.171352505683899,0.16370296478271484,0.6879380345344543,0.6879210472106934,0.16342316567897797
807.971909506615,-0.1813664138317731,2.1523739332624325,0.1952337902968513,-2.3472095466959493,0.3046952065209909,0.0,-0.6983070969581604,0.817622184753418,-1.1630184650421143,0.1703026443719864,0.6863357424736023,0.6863183975219727,0.17002145946025848
808.1720750912984,-0.18983248230283234,2.1618777849371176,0.19324740943363486,-2.354725463059335,0.3153365758663345,0.0,-0.6972116231918335,0.8229751586914062,-1.1546332836151123,0.1768522709608078,0.6846789717674255,0.6846612095832825,0.17657002806663513
808.3719546481927,-0.19822292345479445,2.171296738783997,0.19127877289411532,-2.362174239804483,0.3258828859479997,0.0,-0.696042537689209,0.828257143497467,-1.1462301015853882,0.18332743644714355,0.6829752922058105,0.6829572319984436,0.18304426968097687
808.5719778336545,-0.2065579834571868,2.180653522778024,0.18932313035010437,-2.369573850860776,0.33635958505624125,0.0,-0.6947999596595764,0.8334801197052002,-1.1377921104431152,0.18974369764328003,0.6812223196029663,0.6812037825584412,0.1894593983888626
808.7719894520899,-0.21483234698423267,2.1899421700329205,0.1873817289284638,-2.3769195774447405,0.34675999212711855,0.0,-0.693486750125885,0.8386401534080505,-1.1293268203735352,0.19609656929969788,0.6794223785400391,0.67940354347229,0.19581127166748047
808.9719066157897,-0.22304411237759678,2.199160545782258,0.18545501481241783,-2.384209731322334,0.3570817168836352,0.0,-0.692105770111084,0.8437353372573853,-1.1208386421203613,0.2023845911026001,0.6775776147842407,0.6775583624839783,0.20209813117980957
809.1720182396432,-0.23120646686370291,2.2083234537621945,0.1835398939029408,-2.391456019709393,0.3673413349237204,0.0,-0.6906565427780151,0.8487734198570251,-1.112316370010376,0.2086174339056015,0.675686240196228,0.6756666302680969,0.20833010971546173
809.3718645483216,-0.2393022705345601,2.217411653029448,0.18164038771076654,-2.398643226320414,0.3775173023522239,0.0,-0.6891447305679321,0.853743314743042,-1.1037805080413818,0.21478213369846344,0.6737536191940308,0.6737337112426758,0.21449367702007294
809.5720249175986,-0.247356290039404,2.2264529461657747,0.17975068527437787,-2.405793338228251,0.38764074944677857,0.0,-0.6875669956207275,0.8586593866348267,-1.0952070951461792,0.22089701890945435,0.671775221824646,0.6717548966407776,0.22060774266719818
809.7718344017824,-0.25534296274790563,2.235418637035785,0.17787678431513412,-2.412883661712408,0.39767954542652667,0.0,-0.6859315633773804,0.8635060787200928,-1.0866254568099976,0.2269429713487625,0.6697585582733154,0.6697378754615784,0.22665268182754517
809.9720117583831,-0.26329233963009263,2.244342460301891,0.176011634019309,-2.4199408751039355,0.40767146266152926,0.0,-0.6842334270477295,0.8683009743690491,-1.0780055522918701,0.2329424023628235,0.6676973700523376,0.6676762700080872,0.2326509803533554
810.1718184485992,-0.27117629533826487,2.2531928429696424,0.17416183339476946,-2.426940009580324,0.4175811491801046,0.0,-0.6824808120727539,0.8730266094207764,-1.0693798065185547,0.23887395858764648,0.6656000018119812,0.6655785441398621,0.23858143389225006
810.3719764895698,-0.27902454655691117,2.2620031444386957,0.17232041006070048,-2.433907446704159,0.42744595717429373,0.0,-0.6806690096855164,0.8777007460594177,-1.0607179403305054,0.24475973844528198,0.6634597778320312,0.6634379625320435,0.24446631968021393
810.5718125909527,-0.28681184700374823,2.2707450237001203,0.170493287514197,-2.4408207735990524,0.4372341534948445,0.0,-0.678805410861969,0.8823078870773315,-1.0520497560501099,0.2505810558795929,0.6612848043441772,0.6612626314163208,0.2502865195274353
810.771922929581,-0.2945625056612207,2.2794457695674075,0.16867476217541003,-2.4477015710352945,0.4469762931581127,0.0,-0.6768864393234253,0.8868619799613953,-1.0433498620986938,0.2563557028770447,0.6590693593025208,0.6590467691421509,0.25606009364128113
810.9718197531959,-0.3022588245324706,2.288085514597049,0.16686898649862175,-2.4545341272731753,0.45665013078279965,0.0,-0.6749173998832703,0.8913523554801941,-1.0346403121948242,0.26207032799720764,0.6568194627761841,0.6567965149879456,0.2617739140987396
811.1718548409601,-0.3099152564899874,2.296680483316037,0.1650725694281811,-2.461331273130354,0.4662738328123717,0.0,-0.672897458076477,0.8957874774932861,-1.0259062051773071,0.2677357494831085,0.6545321345329285,0.6545088887214661,0.26743853092193604
811.3718418352266,-0.31752589187282176,2.305224041648435,0.1632868975389141,-2.468087762190789,0.47583997113718346,0.0,-0.670828640460968,0.900163471698761,-1.0171564817428589,0.2733475863933563,0.6522100567817688,0.652186393737793,0.2730492949485779
811.5717802703341,-0.3250913923344066,2.3137169323541333,0.16151181558807473,-2.474804181850139,0.4853493774181862,0.0,-0.6687135696411133,0.9044806361198425,-1.0083913803100586,0.2789061665534973,0.6498540639877319,0.6498300433158875,0.27860692143440247
811.7718881502708,-0.33262131365233827,2.32216988257209,0.159745081517993,-2.4814890154351628,0.49481406272747724,0.0,-0.6665499806404114,0.908744215965271,-0.9996022582054138,0.2844184339046478,0.6474621295928955,0.6474377512931824,0.2841182053089142
811.9717115856668,-0.3400991090052818,2.330564317147119,0.15799057768437616,-2.488127573184532,0.504213228646296,0.0,-0.6643450260162354,0.9129446744918823,-0.9908092021942139,0.28987225890159607,0.6450405716896057,0.6450157761573792,0.28957101702690125
812.1719690918883,-0.34755297027954307,2.3389318837686774,0.15624168946750464,-2.4947448829916916,0.513582310781589,0.0,-0.6620913743972778,0.9170976877212524,-0.9819813370704651,0.29528799653053284,0.6425809264183044,0.642555832862854,0.29498592019081116
812.3716541513761,-0.35494622009478277,2.3472314090888577,0.15450702242575162,-2.501308383801413,0.5228752077402308,0.0,-0.6598020792007446,0.9211826324462891,-0.9731633067131042,0.3006390929222107,0.6400964260101318,0.6400709748268127,0.3003361225128174
812.5720828160604,-0.3623283291983999,2.3555184280524952,0.15277496931234627,-2.507861994228478,0.5321541014543263,0.0,-0.6574625372886658,0.9252268671989441,-0.9642976522445679,0.3059612810611725,0.6375712752342224,0.6375453472137451,0.30565738677978516
812.7716153249105,-0.36963980713388733,2.3637261577748743,0.1510594882832796,-2.5143529004671543,0.5413442157839967,0.0,-0.6550934910774231,0.9291976690292358,-0.9554572105407715,0.3112117052078247,0.6350265741348267,0.6350002884864807,0.3109067678451538
812.9721574619373,-0.3769512850693744,2.3719338874972524,0.149344007254213,-2.5208438067058307,0.5505343301136666,0.0,-0.6526734232902527,0.9331334233283997,-0.9465579986572266,0.3164408802986145,0.6324387192726135,0.6324121356010437,0.316135048866272
813.1716064870318,-0.384186914448377,2.380056471034831,0.14764632245743753,-2.5272673769184912,0.559629107096772,0.0,-0.6502282619476318,0.936992883682251,-0.93769371509552,0.32159456610679626,0.6298351883888245,0.6298083066940308,0.32128793001174927
813.3719526179095,-0.3914198238862469,2.3881760012168667,0.1459492758363434,-2.5336885324506966,0.5687204652676756,0.0,-0.6477352380752563,0.9408155083656311,-0.9287763833999634,0.32672494649887085,0.6271908283233643,0.6271635293960571,0.3264174163341522
813.5716397821864,-0.3985942800912373,2.3962299128822213,0.14426594400902654,-2.5400577949925496,0.5777383510301498,0.0,-0.6452147960662842,0.9445714354515076,-0.9198753833770752,0.331792414188385,0.6245265603065491,0.6244988441467285,0.3314839005470276
813.7717795133551,-0.4057513687926067,2.4042643281096563,0.14258668709286262,-2.546411639196469,0.5867344068226363,0.0,-0.6426530480384827,0.9482822418212891,-0.9109418988227844,0.3368258476257324,0.6218279004096985,0.6217998266220093,0.3365165889263153
813.9717161044439,-0.41286796372205237,2.4122532857786707,0.14091693116926735,-2.552729534269566,0.5956795642335775,0.0,-0.6400604248046875,0.9519361853599548,-0.9020052552223206,0.34180912375450134,0.619104266166687,0.6190758347511292,0.34149885177612305
814.1716401040514,-0.41995186003170504,2.420205536582681,0.13925484727346546,-2.5590184005092205,0.6045836213284167,0.0,-0.6374346613883972,0.9555367827415466,-0.8930573463439941,0.34674760699272156,0.6163535118103027,0.6163246631622314,0.34643635153770447
814.3718421965798,-0.42701379811596996,2.428133137489536,0.13759791540293356,-2.565287772908721,0.6134600781755946,0.0,-0.6347728967666626,0.9590899348258972,-0.8840855956077576,0.35164874792099,0.6135721206665039,0.6135429739952087,0.35133662819862366
814.5715536311229,-0.43402746151063437,2.436006546123889,0.13595231014993706,-2.5715142885169326,0.6222758564676879,0.0,-0.6320861577987671,0.9625821113586426,-0.8751246929168701,0.3564942181110382,0.6107711791992188,0.6107416152954102,0.3561813235282898
814.7720381006559,-0.44103775943118695,2.4438761767393324,0.13430749453305016,-2.5777378163602758,0.631087404549127,0.0,-0.6293588876724243,0.966035783290863,-0.8661180734634399,0.36131519079208374,0.6079333424568176,0.6079033613204956,0.36100131273269653
814.9715280480643,-0.4479835833662694,2.4516734300527405,0.13267780635003068,-2.5839041061734687,0.6398179124765799,0.0,-0.6266154646873474,0.9694209098815918,-0.8571456074714661,0.3660694360733032,0.6050840020179749,0.605053722858429,0.3657546043395996
815.171857098486,-0.45492940730135156,2.459470683366148,0.13104811816701128,-2.590070395986661,0.6485484204040323,0.0,-0.6238313317298889,0.9727689623832703,-0.848125159740448,0.37080109119415283,0.6021975874900818,0.6021668910980225,0.3704856038093567
815.3715686820408,-0.4618253966397589,2.4672119932842613,0.12943012260016898,-2.596192444170826,0.6572162890614143,0.0,-0.621027946472168,0.9760559797286987,-0.839122474193573,0.3754764795303345,0.5992951989173889,0.5992641448974609,0.37516000866889954
815.5716465547641,-0.4687060319061171,2.4749360670054483,0.12781572953606987,-2.6023008614799576,0.6658648585184427,0.0,-0.6181920170783997,0.9792985320091248,-0.8300935626029968,0.38011860847473145,0.5963631272315979,0.596331775188446,0.3798013925552368
815.7716861687561,-0.47555796192467065,2.4826279167470684,0.1262080715409237,-2.608383795149023,0.6744773471021491,0.0,-0.6153304576873779,0.9824901819229126,-0.8210567235946655,0.38471880555152893,0.5934076309204102,0.5933758616447449,0.38440069556236267
815.9715164400598,-0.4823758774701543,2.490281582471166,0.12460839431023857,-2.614436531810397,0.6830470814165909,0.0,-0.6124460697174072,0.9856289029121399,-0.8120201826095581,0.38927316665649414,0.5904315114021301,0.590399444103241,0.3889542520046234
816.171888666596,-0.48918595874697623,2.497926453590354,0.12301055522218128,-2.620482313447933,0.6916069684983219,0.0,-0.6095283627510071,0.9887261390686035,-0.8029500842094421,0.3937995135784149,0.5874240398406982,0.5873914957046509,0.393479585647583
816.3714691199323,-0.49594345362175407,2.505512292188503,0.12142505440224016,-2.626481410487894,0.7001007574462376,0.0,-0.6065981388092041,0.9917622804641724,-0.7939070463180542,0.39826780557632446,0.5844054222106934,0.5843725204467773,0.3979471027851105
816.5718013182243,-0.5027009484965317,2.5130981307866525,0.11983955358229911,-2.6324805075278546,0.7085945463941529,0.0,-0.6036331653594971,0.9947608113288879,-0.7848213315010071,0.40271297097206116,0.5813527703285217,0.5813195705413818,0.40239137411117554
816.7715139262339,-0.5094131464575132,2.520633119908269,0.11826468070885232,-2.6384393913547073,0.717031399682788,0.0,-0.6006544232368469,0.9977015256881714,-0.7757553458213806,0.40710511803627014,0.5782871842384338,0.5782535672187805,0.4067826569080353
816.9715724274477,-0.5161126303711869,2.5281538364758416,0.11669279091312959,-2.6443869880396558,0.7254522721328862,0.0,-0.5976478457450867,1.0005991458892822,-0.7666656374931335,0.4114656448364258,0.575194239616394,0.5751602649688721,0.41114240884780884
817.1716489963194,-0.522789158162688,2.535648782925808,0.11512628727769286,-2.6503142049822404,0.7338442900354917,0.0,-0.5946196913719177,1.0034489631652832,-0.7575669884681702,0.4157879650592804,0.5720793008804321,0.5720449686050415,0.41546380519866943
817.3714424803813,-0.5294328782352884,2.5431069000381332,0.11356748126780841,-2.6562122962365344,0.7421950704905863,0.0,-0.5915743112564087,1.0062470436096191,-0.748473584651947,0.4200654923915863,0.5689473748207092,0.56891268491745,0.4197406768798828
817.571885971721,-0.5360753890411348,2.5505636596499963,0.11200895898635664,-2.662109313940831,0.7505443309657506,0.0,-0.588498592376709,1.0090069770812988,-0.7393430471420288,0.42431867122650146,0.5657840967178345,0.5657489895820618,0.4239931106567383
817.7714249439498,-0.5426656357505137,2.5579617485550914,0.11046269935095027,-2.6679599331805752,0.7588278984269833,0.0,-0.5854169726371765,1.0117074251174927,-0.7302463054656982,0.42851492762565613,0.5626142024993896,0.5625787973403931,0.4281884431838989
817.971622081842,-0.5492558824598929,2.565359837460187,0.10891643971554384,-2.6738105524203193,0.7671114658882163,0.0,-0.582305908203125,1.014370083808899,-0.7211123704910278,0.4326874017715454,0.5594133138656616,0.5593774318695068,0.4323600232601166
818.1715125352105,-0.5558145608847773,2.5727224883937514,0.10737758689906626,-2.679633146303688,0.7753553538009018,0.0,-0.5791808366775513,1.0169819593429565,-0.7119853496551514,0.43681612610816956,0.556196928024292,0.5561608076095581,0.43648800253868103
818.3714399620851,-0.5623534082789302,2.5800628773794854,0.10584338700738817,-2.6854381348051866,0.7835743152293243,0.0,-0.5760369300842285,1.0195485353469849,-0.7028499245643616,0.44090864062309265,0.5529599785804749,0.5529234409332275,0.44057968258857727
818.5717122390827,-0.5688830387980595,2.587392919672014,0.10431134965718113,-2.6912349408472536,0.7917816915670202,0.0,-0.5728696584701538,1.0220733880996704,-0.6936920881271362,0.4449714124202728,0.5496975779533386,0.5496606826782227,0.4446416199207306
818.7713751703461,-0.5753725474657501,2.59467792191717,0.10278872603640087,-2.6969961279381165,0.7999386370061895,0.0,-0.5696953535079956,1.0245450735092163,-0.6845554709434509,0.4489852786064148,0.5464255809783936,0.5463883876800537,0.44865474104881287
818.9716434240302,-0.5818620561334408,2.601962924162327,0.10126610241562055,-2.70275731502898,0.8080955824453592,0.0,-0.5664949417114258,1.0269789695739746,-0.6753847599029541,0.4529751241207123,0.5431243777275085,0.5430867075920105,0.45264366269111633
819.1714261792561,-0.5883166155016266,2.609208692971118,0.0997516788962163,-2.7084874752018657,0.8162085985912962,0.0,-0.5632855892181396,1.0293618440628052,-0.6662302613258362,0.45691919326782227,0.5398119688034058,0.5397739410400391,0.4565871059894562
819.3714225426277,-0.5947589581171013,2.6164407474795683,0.0982401217750557,-2.714206789715764,0.8243062589698846,0.0,-0.5600575804710388,1.0317025184631348,-0.6570597887039185,0.4608319103717804,0.5364773273468018,0.5364389419555664,0.4604988396167755
819.5716039411684,-0.6011887533011807,2.6236587164739125,0.09673150863877913,-2.719914965004263,0.832388147936717,0.0,-0.5568112134933472,1.0340008735656738,-0.6478750109672546,0.46471261978149414,0.5331209301948547,0.5330821871757507,0.46437880396842957
819.7713356040379,-0.607585839790844,2.6308399672936673,0.09523056989408948,-2.725594102515377,0.8404289239242161,0.0,-0.5535577535629272,1.0362498760223389,-0.6387050151824951,0.46854931116104126,0.5297537446022034,0.5297145843505859,0.46821460127830505
819.9716206587811,-0.6139829262805071,2.638021218113422,0.09372963114939992,-2.731273240026491,0.8484696999117147,0.0,-0.5502809286117554,1.0384610891342163,-0.6295040249824524,0.4723615348339081,0.5263589024543762,0.5263194441795349,0.47202610969543457
820.1713754370769,-0.6203455492333458,2.6451637808049995,0.09223677853232211,-2.7369217818648623,0.8564671571822022,0.0,-0.5469992756843567,1.0406227111816406,-0.6203218102455139,0.47612887620925903,0.5229551792144775,0.5229153633117676,0.47579270601272583
820.3713898308536,-0.6266993449182754,2.652296434169102,0.09074599704378633,-2.7425624871250687,0.864453519076075,0.0,-0.5436999201774597,1.0427440404891968,-0.6111224293708801,0.4798664450645447,0.5195293426513672,0.5194889903068542,0.479529470205307
820.5715407192667,-0.6330408223804342,2.6594152593244553,0.08925810576126109,-2.7481922566442747,0.8724243976604721,0.0,-0.5403853058815002,1.044823169708252,-0.6019114851951599,0.4835722744464874,0.5160834789276123,0.5160427689552307,0.4832345247268677
820.7712966524025,-0.6393532857071079,2.6665015137486523,0.08777702202153893,-2.7537962683023895,0.8803588071171989,0.0,-0.5370650291442871,1.0468555688858032,-0.5927135944366455,0.4872364401817322,0.5126270055770874,0.5125860571861267,0.4868979752063751
820.9715594485363,-0.6456657490337813,2.6735877681728493,0.08629593828181685,-2.759400279960505,0.8882932165739255,0.0,-0.5337244272232056,1.048850417137146,-0.583487331867218,0.4908759891986847,0.5091446042060852,0.5091032981872559,0.49053671956062317
821.1713386461099,-0.6519472152346578,2.6806392257976905,0.08482212735092069,-2.764976773319448,0.8961886643962907,0.0,-0.530380129814148,1.050797700881958,-0.5742784738540649,0.49447301030158997,0.5056537389755249,0.5056119561195374,0.4941328465938568
821.371334618326,-0.6582201215681891,2.6876810742739785,0.08335032480877597,-2.7705456674902598,0.90407335294943,0.0,-0.5270209312438965,1.05270516872406,-0.5650549530982971,0.49804019927978516,0.5021421909332275,0.5021001100540161,0.49769940972328186
821.5715098701378,-0.6644834867896333,2.694712212074538,0.081880760883355,-2.7761060913539026,0.911946048864188,0.0,-0.5236482620239258,1.054572582244873,-0.5558184385299683,0.5015770196914673,0.4986109435558319,0.49856850504875183,0.5012354850769043
821.7712580174168,-0.6707187301848277,2.7017117808337634,0.08041779513956848,-2.781641549521272,0.919783397233528,0.0,-0.5202723741531372,1.056394100189209,-0.5465970635414124,0.5050733089447021,0.4950707256793976,0.49502789974212646,0.5047308206558228
821.9714710250457,-0.6769539735800225,2.7087113495929893,0.0789548293957819,-2.787177007688642,0.9276207456028683,0.0,-0.5168784856796265,1.0581785440444946,-0.5373498797416687,0.5085445046424866,0.49150609970092773,0.4914628565311432,0.5082013010978699
822.1713156759699,-0.6831637773192262,2.71568236026554,0.07749783252007145,-2.7926898813083674,0.9354261177631402,0.0,-0.5134812593460083,1.0599182844161987,-0.5281153321266174,0.511976420879364,0.4879317879676819,0.4878881573677063,0.5116324424743652
822.3712706886192,-0.6893630771899133,2.722641579489825,0.07604330015117217,-2.7981934299152456,0.9432182871546393,0.0,-0.5100729465484619,1.0616182088851929,-0.5188714861869812,0.5153774619102478,0.4843396246433258,0.48429563641548157,0.5150328874588013
822.5715051352938,-0.6955573400640813,2.729595144275102,0.07458994960516128,-2.803692506830843,0.9510041253263359,0.0,-0.506650984287262,1.063279390335083,-0.5096105337142944,0.5187507271766663,0.4807266592979431,0.48068228363990784,0.5184052586555481
822.7712245233317,-0.7017224784768096,2.7365160144793497,0.07314343248756557,-2.8091657279413456,0.9587533556968765,0.0,-0.5032292604446411,1.0648959875106812,-0.5003694295883179,0.5220828652381897,0.4771074056625366,0.4770627021789551,0.5217366814613342
822.9713612183889,-0.7078876168895382,2.7434368846835984,0.07169691536996979,-2.8146389490518486,0.9665025860674173,0.0,-0.4997921586036682,1.066475510597229,-0.4911050796508789,0.5253897309303284,0.47346505522727966,0.4734199047088623,0.5250427722930908
823.1713102519473,-0.7140341417371056,2.7503368596443183,0.07025476552506486,-2.820095645609136,0.9742284202390743,0.0,-0.49635040760040283,1.0680134296417236,-0.48184558749198914,0.5286614298820496,0.4698109030723572,0.46976539492607117,0.5283136367797852
823.3712100744208,-0.720166792295061,2.7572212595844703,0.06881587098378408,-2.8255400249969274,0.9819368152132253,0.0,-0.49290212988853455,1.06951105594635,-0.4725845754146576,0.5319002270698547,0.466142475605011,0.4660966098308563,0.531551718711853
823.5715042747518,-0.7262994428530162,2.7641056595246223,0.06737697644250337,-2.8309844043847185,0.989645210187376,0.0,-0.48943954706192017,1.0709720849990845,-0.46330177783966064,0.5351135730743408,0.462451696395874,0.4624054431915283,0.5347644090652466
823.7712006032427,-0.7324018117511576,2.770956065834281,0.06594518684134522,-2.83640190064213,0.9973155428274492,0.0,-0.48598092794418335,1.0723894834518433,-0.4540429711341858,0.5382857322692871,0.4587571918964386,0.45871058106422424,0.5379357933998108
823.9712617307862,-0.7385037130483356,2.777805947223759,0.06451350695269513,-2.8418189817777244,1.0049852877195522,0.0,-0.48250913619995117,1.0737696886062622,-0.44476380944252014,0.5414321422576904,0.45504117012023926,0.45499417185783386,0.541081428527832
824.1713231936058,-0.7445944251623844,2.784643267843478,0.06308445236518911,-2.8472261294991417,1.0126409684411661,0.0,-0.4790308475494385,1.0751112699508667,-0.43548139929771423,0.5445470809936523,0.45131048560142517,0.45126309990882874,0.5441956520080566
824.3711611017545,-0.7506671579262951,2.791460405177709,0.06165961624546056,-2.8526173157040216,1.0202740501363181,0.0,-0.475551038980484,1.0764122009277344,-0.4262058138847351,0.547627329826355,0.4475695490837097,0.44752177596092224,0.5472750067710876
824.5713526144584,-0.7567398906902056,2.798277542511939,0.06023478012573208,-2.858008501908902,1.0279071318314696,0.0,-0.47205913066864014,1.0776770114898682,-0.41691073775291443,0.5506818890571594,0.4438076615333557,0.4437594711780548,0.5503287315368652
824.7711957007607,-0.7627913938146929,2.805070847846124,0.05881492508424879,-2.8633808410899384,1.0355135290703184,0.0,-0.4685681462287903,1.0789011716842651,-0.4076286256313324,0.5536998510360718,0.44003820419311523,0.4399896562099457,0.5533462166786194
824.971167011555,-0.7688365528269738,2.811857031397439,0.05739655855223407,-2.868747548162411,1.043111952118858,0.0,-0.4650694727897644,1.0800877809524536,-0.39833763241767883,0.5566890835762024,0.4362521469593048,0.4362031817436218,0.5563344955444336
825.1713488385042,-0.7748779726101083,2.818639017359364,0.055979069349908483,-2.87411093566174,1.0507056751677994,0.0,-0.46156278252601624,1.081237554550171,-0.389033704996109,0.5596504807472229,0.432448148727417,0.43239882588386536,0.5592952370643616
825.3711210511585,-0.7808972219239316,2.8253961151630356,0.05456678197132416,-2.8794546408972588,1.0582715311904696,0.0,-0.45805853605270386,1.08234703540802,-0.3797459900379181,0.562575101852417,0.42863816022872925,0.42858847975730896,0.5622192621231079
825.5712165631314,-0.7869164712377553,2.8321532129667077,0.05315449459273977,-2.8847983461327784,1.06583738721314,0.0,-0.45454472303390503,1.083420753479004,-0.3704403042793274,0.5654739737510681,0.4248083531856537,0.4247582256793976,0.5651171207427979
825.7712019555231,-0.7929233158001233,2.838896385426131,0.051745117722260606,-2.8901310388097805,1.0733876511646705,0.0,-0.4510284960269928,1.0844565629959106,-0.36113715171813965,0.5683406591415405,0.4209669828414917,0.42091652750968933,0.5679833292961121
825.9710968978663,-0.7989181179948981,2.8456260393467177,0.050338566334308193,-2.8954530406415624,1.0809227785410847,0.0,-0.4475105404853821,1.0854544639587402,-0.35183537006378174,0.571175754070282,0.4171139597892761,0.4170631170272827,0.5708174705505371
826.1712828785141,-0.8049129201896725,2.852355693267304,0.048932014946355844,-2.900775042473344,1.0884579059174984,0.0,-0.4439839720726013,1.086416482925415,-0.3425174355506897,0.5739845037460327,0.41324183344841003,0.4131906032562256,0.5736256241798401
826.3711085863372,-0.8108881634136672,2.8590633906495238,0.04753005265018723,-2.9060796804497495,1.0959684487736245,0.0,-0.4404605031013489,1.087339997291565,-0.33321377635002136,0.5767581462860107,0.4093635678291321,0.4093119502067566,0.5763985514640808
826.571104502674,-0.816860216058549,2.86576750634672,0.04612883895477872,-2.911381485927712,1.1034749812522204,0.0,-0.4369312822818756,1.0882275104522705,-0.32389965653419495,0.5795040130615234,0.40546873211860657,0.40541672706604004,0.5791437029838562
826.7712340079208,-0.8228279549928454,2.872466779552303,0.044728637378771946,-2.9166794618254994,1.110976091640534,0.0,-0.4333970546722412,1.0890789031982422,-0.3145768940448761,0.5822216868400574,0.40155839920043945,0.4015059769153595,0.5818604826927185
826.9710553385278,-0.8287786533293766,2.8791469232984253,0.04333243401249082,-2.9219623096023626,1.1184557829610349,0.0,-0.4298657774925232,1.0898925065994263,-0.3052661716938019,0.584905207157135,0.39764103293418884,0.39758822321891785,0.5845434069633484
827.171143437173,-0.8347293516659074,2.8858270670445467,0.04193623064620976,-2.9272451573792253,1.1259354742815355,0.0,-0.42632758617401123,1.0906713008880615,-0.2959407866001129,0.5875624418258667,0.39370572566986084,0.3936525881290436,0.587199866771698
827.3711238376757,-0.8406694189286505,2.892495276544121,0.04054252163272062,-2.9325185672142955,1.1334018029434303,0.0,-0.42278963327407837,1.0914132595062256,-0.28661808371543884,0.5901885628700256,0.3897598385810852,0.3897062838077545,0.5898252129554749
827.5710364937743,-0.8466002358325835,2.8991531017622116,0.03915098301695282,-2.937783764864054,1.140856504427372,0.0,-0.41925084590911865,1.0921193361282349,-0.2772965431213379,0.5927839279174805,0.3858025074005127,0.3857485353946686,0.5924201011657715
827.7711902692874,-0.8525310527365166,2.905810926980302,0.03775944440118496,-2.9430489625138128,1.148311205911314,0.0,-0.4157066345214844,1.092790126800537,-0.2679615318775177,0.5953529477119446,0.3818279206752777,0.38177359104156494,0.5949882864952087
827.97104574218,-0.8584461320632247,2.9124510854856585,0.03637159826940068,-2.9483001888243847,1.1557461261505821,0.0,-0.4121663570404053,1.0934245586395264,-0.258638471364975,0.5978885293006897,0.377846896648407,0.3777921795845032,0.5975232124328613
828.1710430368742,-0.8643586174757816,2.9190883321110275,0.03498436074377736,-2.953549112337397,1.1631777859864378,0.0,-0.408622682094574,1.0940239429473877,-0.249306783080101,0.6003963947296143,0.3738507926464081,0.37379565834999084,0.6000303626060486
828.3711535990199,-0.8702681421532172,2.925722255069982,0.033597817890965394,-2.9587954074004243,1.170605724345664,0.0,-0.4050763249397278,1.0945886373519897,-0.23996788263320923,0.6028764247894287,0.36983996629714966,0.36978450417518616,0.6025094985961914
828.5710026271602,-0.8761636096781866,2.9323403977299156,0.03221457324661302,-2.9640292229539127,1.1780159936591164,0.0,-0.4015337824821472,1.0951169729232788,-0.23063941299915314,0.6053236722946167,0.3658224642276764,0.36576658487319946,0.6049561500549316
828.7710578128656,-0.8820590772031559,2.938958540389849,0.030831328602260642,-2.9692630385074006,1.1854262629725687,0.0,-0.39798739552497864,1.095611572265625,-0.22129951417446136,0.6077442169189453,0.36178866028785706,0.3617323935031891,0.6073759198188782
828.971052350845,-0.8879471195294321,2.9455683476592434,0.02944982612106702,-2.974490262196843,1.1928271992311295,0.0,-0.39444202184677124,1.0960705280303955,-0.21196065843105316,0.6101348996162415,0.3577440083026886,0.3576872944831848,0.609765887260437
