Sungjin-Park-dev/lg_sgu_vision_v2/data/sample/ik/74/rollaug/glns_trajectory_comp000.csv
time,ur20-shoulder_pan_joint,ur20-shoulder_lift_joint,ur20-elbow_joint,ur20-wrist_1_joint,ur20-wrist_2_joint,ur20-wrist_3_joint,target-POS_X,target-POS_Y,target-POS_Z,target-ROT_X,target-ROT_Y,target-ROT_Z,target-ROT_W
0.0,0.914708439503805,-1.1447830200195312,2.0943493843078613,0.9674710035324097,0.7843653559684753,1.0994298458099365,-0.1284196972846985,0.7432079315185547,0.1503361463546753,-0.7421419620513916,-0.5305218696594238,0.23819997906684875,0.3332156836986542
0.16647790355243886,0.9251548964215103,-1.1543560875705003,2.0896992088732333,0.917527632466678,0.7556418265381406,1.0640759493184313,-0.13085022568702698,0.7655209302902222,0.15298496186733246,-0.7223669290542603,-0.554538905620575,0.20775067806243896,0.35708850622177124
0.33295719787992284,0.9363234566337759,-1.16936912077649,2.0862979860858952,0.8675838441684328,0.7231439430975771,1.0265008738551027,-0.13549497723579407,0.7877882719039917,0.1616256982088089,-0.6986873745918274,-0.5789480805397034,0.1749955713748932,0.38214075565338135
0.4994364922074065,0.9485912738904396,-1.192481149984346,2.084993370762691,0.8176400558701877,0.6849308886601644,0.985517313825359,-0.14370137453079224,0.8093166947364807,0.178640216588974,-0.6696836352348328,-0.6039595007896423,0.1391088366508484,0.4091520309448242
0.6659157865348905,0.9617390403470387,-1.2207956087099752,2.086707388451874,0.7676962675719425,0.642375208092013,0.9416309559851389,-0.15590710937976837,0.8280181288719177,0.2018594890832901,-0.6356202960014343,-0.6284469962120056,0.10176070779561996,0.43667611479759216
0.8323950808623741,0.9752134248951659,-1.2488766475669841,2.0920228911759047,0.7177524792736975,0.5985261835678924,0.8962871267412695,-0.17145994305610657,0.8420683145523071,0.2264251857995987,-0.5983274579048157,-0.6509248614311218,0.06565505266189575,0.46259111166000366
0.9988743751898578,0.9882173805548442,-1.2745988027888429,2.100459126103328,0.6678086909754524,0.5551756579995837,0.8505272709987076,-0.1888572871685028,0.8514575362205505,0.2498779594898224,-0.5593462586402893,-0.6707417368888855,0.031516820192337036,0.48604923486709595
1.1653536695173417,0.9998121070661262,-1.2988565953390667,2.1107285671543328,0.6178649026772072,0.5128635050526726,0.8049328629283165,-0.20633530616760254,0.8572851419448853,0.27245286107063293,-0.5193439722061157,-0.6878823637962341,-0.001675020670518279,0.5070471167564392
1.3318329638448256,1.009363858557789,-1.3221209172781743,2.1218200424676184,0.567921114378962,0.4720638275091358,0.7599374021452613,-0.2226259410381317,0.8605039119720459,0.29423636198043823,-0.4788532853126526,-0.7024140954017639,-0.034592751413583755,0.5254687070846558
1.4983122581723092,1.0164677704470604,-1.342784179341832,2.133105524660207,0.5179773260807169,0.43404694676213285,0.716078747655688,-0.2366311252117157,0.8619585037231445,0.31366097927093506,-0.4390498697757721,-0.7143564820289612,-0.0668250247836113,0.5407997369766235
1.664791552499793,1.0209238899750204,-1.358544588760152,2.1441485687268664,0.46803353778247175,0.4002497282426896,0.6738683216639286,-0.24742522835731506,0.8626561164855957,0.3286820948123932,-0.4013795256614685,-0.7238796949386597,-0.09758143126964569,0.5526033043861389
1.8312709168455452,1.0231373367333274,-1.3691154108615526,2.154760299603184,0.41808972847874604,0.3706251563070865,0.6332607723733266,-0.2551519274711609,0.8632684946060181,0.33912697434425354,-0.3661448657512665,-0.7314186692237854,-0.12672173976898193,0.5611650347709656
1.997750240495835,1.023544211522115,-1.3753613408215548,2.164912267896293,0.36814593138365914,0.3444541469554168,0.5939866997207764,-0.26030874252319336,0.864084005355835,0.3458038866519928,-0.3330420255661011,-0.7373748421669006,-0.15451766550540924,0.5669969916343689
2.1642294514068148,1.0223552259228073,-1.378218711980115,2.17457270269445,0.31820216811036517,0.3211054106057675,0.5558348399983367,-0.26321977376937866,0.865265429019928,0.34954705834388733,-0.3017518222332001,-0.742032527923584,-0.18130934238433838,0.570491373538971
2.3307088291508027,1.019998469235499,-1.3790263697074263,2.183800264652306,0.26825835478716886,0.29959228682763833,0.5184462219544393,-0.26456648111343384,0.8666497468948364,0.3515470325946808,-0.2715552747249603,-0.7455979585647583,-0.20749853551387787,0.5720889568328857
2.4971881234782867,1.0166480845124308,-1.378447801672068,2.192590637744187,0.21831456648892367,0.27944975885085815,0.48165922998377203,-0.2646336555480957,0.8681954145431519,0.35238486528396606,-0.24212917685508728,-0.748184859752655,-0.23327778279781342,0.571991503238678
2.663667443816101,1.0123996173960463,-1.3768018575815988,2.2008900142172085,0.16837077038757942,0.2604419466466909,0.44539315031852106,-0.26354682445526123,0.8699300289154053,0.3523586392402649,-0.2133176624774933,-0.7498736381530762,-0.2587299942970276,0.5703015923500061
2.830146761803791,1.0073234927094883,-1.3741535181395943,2.2086098089891784,0.1184269749912723,0.2424796105241965,0.40961378603175447,-0.2613445222377777,0.8719338774681091,0.35156816244125366,-0.18507616221904755,-0.7507345676422119,-0.28385260701179504,0.5670732259750366
2.996626023691982,1.0014847392597408,-1.3705281343624949,2.215665177127756,0.06848319642481508,0.22549813307848793,0.3742945371290852,-0.2580519914627075,0.8742820620536804,0.3500805199146271,-0.15737389028072357,-0.75082927942276,-0.3086261451244354,0.5623511075973511
3.1631052837347706,0.9949451453382147,-1.3659530616373006,2.2219831434906676,0.018539418411978537,0.20943487993928908,0.3394093379019365,-0.2536935806274414,0.8770334720611572,0.34795844554901123,-0.13017752766609192,-0.7502092719078064,-0.33302658796310425,0.5561771392822266
3.329584674741412,0.9877823274567834,-1.360499957039758,2.2275287290914143,-0.03140439889001393,0.19419626468347698,0.30491726598236923,-0.2483309805393219,0.8801997900009155,0.3452862501144409,-0.10342578589916229,-0.7489128112792969,-0.35702869296073914,0.5486010313034058
3.496064048493035,0.9801492462615418,-1.3544250374293143,2.2323917585680557,-0.08134821101550073,0.17955059359888542,0.2707130475831391,-0.24219056963920593,0.8836410641670227,0.34225431084632874,-0.0769445151090622,-0.7469431757926941,-0.3806130290031433,0.5397119522094727
3.662543236275389,0.9722294927563272,-1.3480718398859157,2.2367160793732124,-0.13129196735020687,0.16520349162501566,0.23666229571409278,-0.23557491600513458,0.8871445059776306,0.33909812569618225,-0.050504397600889206,-0.7442706823348999,-0.4037626087665558,0.5296093821525574
3.8290223742703757,0.9641989645863036,-1.3417814814074578,2.2406353097972107,-0.18123570874870298,0.1508665234366344,0.20263364657002025,-0.22878214716911316,0.8904992341995239,0.3360443115234375,-0.023874524980783463,-0.7408416867256165,-0.42645755410194397,0.5183796882629395
3.995501658518817,0.9562319358108441,-1.3359007300461712,2.2442708843994654,-0.23117949402323526,0.13624836322007322,0.1684950502765951,-0.22211238741874695,0.8934959769248962,0.3333178758621216,0.0031846226193010807,-0.7365764379501343,-0.44867613911628723,0.5060974359512329
4.16198096741205,0.9484979991458958,-1.3307723459413938,2.247731348574045,-0.28112328669120523,0.12106338134731108,0.13411706597774412,-0.2158614695072174,0.89593106508255,0.3311292827129364,0.030911069363355637,-0.7313709855079651,-0.47038865089416504,0.4928240180015564
4.328460261739534,0.9411062160623951,-1.3266086133092847,2.2510796375001876,-0.3310670749894504,0.10513942078762095,0.09941933821261548,-0.21021607518196106,0.89767986536026,0.3295789659023285,0.059441469609737396,-0.7251267433166504,-0.4915390908718109,0.47858867049217224
4.494939383216129,0.9341283175330605,-1.3235356304087798,2.254352385127794,-0.38101081143242876,0.08837841325517398,0.06435303149319421,-0.20529299974441528,0.8986671566963196,0.32869061827659607,0.08884166181087494,-0.7177513241767883,-0.5120508074760437,0.4634050726890564
4.661418457064768,0.9276377441868817,-1.3216791336072657,2.2575868955802623,-0.43095453358702046,0.07068406258979523,0.028869210826280897,-0.20120775699615479,0.898815929889679,0.3284742832183838,0.1191704049706459,-0.7091413736343384,-0.5318378210067749,0.4472866356372833
4.82789783429361,0.921781386924132,-1.321324494473818,2.2608303780282926,-0.4808983467556732,0.05183723712790832,-0.007137846941327912,-0.19818685948848724,0.8979729413986206,0.3290444016456604,0.15060743689537048,-0.6991326212882996,-0.55082768201828,0.4302555322647095
4.994377102338804,0.9166265144352901,-1.3225318926212812,2.264144271623271,-0.5308421271692313,0.03177784709744443,-0.04369363012348605,-0.1963270902633667,0.8960572481155396,0.33031579852104187,0.1831388771533966,-0.6876072287559509,-0.5688860416412354,0.41234081983566284
5.160856534694804,0.9122459738266819,-1.325318748648049,2.26760138957119,-0.5807859568760312,0.010448426342606853,-0.08080149973212992,-0.1957225799560547,0.8929828405380249,0.33215829730033875,0.21671275794506073,-0.6744502782821655,-0.5858579277992249,0.3936023414134979
5.327335979373144,0.9087131313618358,-1.3296796194189409,2.271282823955845,-0.6307297902795332,-0.012201354653982081,-0.11845523385709657,-0.19645440578460693,0.888664722442627,0.33441105484962463,0.2512483298778534,-0.6595515012741089,-0.6015813946723938,0.37412020564079285
5.493815322031921,0.9061020157108247,-1.3355923454166039,2.2752780227574085,-0.6806735930771664,-0.03621444974335657,-0.15664205304935006,-0.19858907163143158,0.8830173015594482,0.33688703179359436,0.28663718700408936,-0.6428081393241882,-0.6158931851387024,0.3539946377277374
5.660294616359404,0.9045880056200339,-1.343164898197975,2.27971893872692,-0.7306173813754113,-0.061757919764062676,-0.195387131325528,-0.20232327282428741,0.8758532404899597,0.33946049213409424,0.3228624761104584,-0.6240589022636414,-0.6286280751228333,0.3333720862865448
5.826773796258235,0.9039511616625487,-1.3519459258831839,2.284538624293962,-0.7805611353450606,-0.08844455470722973,-0.23451446720527067,-0.2072046846151352,0.867452085018158,0.34170135855674744,0.3594357967376709,-0.6034213304519653,-0.6396644115447998,0.31227877736091614
5.993253006332223,0.9040923490313776,-1.3616935479911938,2.289704555567271,-0.8305048983672569,-0.11606561595806855,-0.27391817298554394,-0.21295759081840515,0.8579867482185364,0.3433476388454437,0.3960403501987457,-0.5809605121612549,-0.6489107608795166,0.2907777726650238
6.159732101977558,0.9049413326071344,-1.372182858409701,2.2951984304142323,-0.8804486270608574,-0.14443283946825514,-0.3134917195436872,-0.21933935582637787,0.8476248383522034,0.34417906403541565,0.43237990140914917,-0.5567630529403687,-0.6562950015068054,0.26895958185195923
6.326211321478574,0.9063248668292065,-1.3830693032857677,2.3009531175881097,-0.9303923929111622,-0.1732451468627048,-0.35310795171744547,-0.22596457600593567,0.8366618156433105,0.34396976232528687,0.4680830240249634,-0.5310144424438477,-0.6617928743362427,0.24688465893268585
6.492690491950376,0.9079874028149055,-1.3939683273619559,2.306851286834007,-0.9803361440527028,-0.2021581310110674,-0.39266773335480903,-0.23236218094825745,0.825484573841095,0.34255167841911316,0.5027809143066406,-0.5039622783660889,-0.6654342412948608,0.2245674580335617
6.65916978627786,0.9097345899705828,-1.4045705196794416,2.3128026891145588,-1.030279932350948,-0.2309003142275434,-0.43209379109505497,-0.23817530274391174,0.8144257068634033,0.3398441672325134,0.5361914038658142,-0.47584617137908936,-0.6672675013542175,0.2020474374294281
6.825649473890605,0.911387518377037,-1.4145959779929278,2.3187248910404783,-1.0802238386347716,-0.2592253351529147,-0.4713171954932012,-0.2431010752916336,0.8038008809089661,0.3358270525932312,0.5680824518203735,-0.44691741466522217,-0.6673634052276611,0.17936861515045166
6.992128320833328,0.9127770490335011,-1.42376046241485,2.324542062398154,-1.1301674927175884,-0.2868863652324804,-0.5102658223778964,-0.2468797266483307,0.7939160466194153,0.3305175006389618,0.5982528328895569,-0.41744935512542725,-0.665816068649292,0.15658366680145264
7.158607373930065,0.913904173718529,-1.4321930975166548,2.330261073692387,-1.1801112086466095,-0.31396845864057316,-0.5489941712055099,-0.24953177571296692,0.7847925424575806,0.32409027218818665,0.6267608404159546,-0.3874894976615906,-0.6626725196838379,0.1337449848651886
7.325086963587795,0.9147783638362738,-1.439991906965579,2.3358933373911603,-1.2300550855439285,-0.34053867727863835,-0.5875428497101921,-0.2510822117328644,0.7764459848403931,0.3166953921318054,0.6536489725112915,-0.35708969831466675,-0.6579724550247192,0.11091505736112595
7.491566257915279,0.9154056904049019,-1.4472379822665729,2.341448832534396,-1.2799988738421737,-0.3666512773233495,-0.6259458297122147,-0.2515500783920288,0.768890917301178,0.30846941471099854,0.6789504289627075,-0.3263043165206909,-0.6517518162727356,0.08815494924783707
7.6580457483448505,0.9157945693238875,-1.4540081013159787,2.3469370153143525,-1.3299427209710453,-0.3923593444723395,-0.6642341139392366,-0.2509562075138092,0.7621338963508606,0.29954126477241516,0.7026969790458679,-0.2951831817626953,-0.6440420150756836,0.06552552431821823
7.824525243934543,0.9159741636202736,-1.4603974520778373,2.3523721995271987,-1.3798865696479532,-0.41773749938636656,-0.7024359718456267,-0.2493409663438797,0.7561554908752441,0.2900356650352478,0.7249299883842468,-0.2637566328048706,-0.634863555431366,0.04309520497918129
7.991004768197931,0.9159926574172537,-1.466519032563887,2.3577732755244876,-1.4298304269269697,-0.44288077976145374,-0.7405772310025431,-0.2467598170042038,0.7509145140647888,0.28007209300994873,0.7456958889961243,-0.23203618824481964,-0.6242262125015259,0.020939253270626068
8.157483986408218,0.915897782858427,-1.4724814737649423,2.3631584685933706,-1.4797741923900558,-0.4678812603552028,-0.7786814609023871,-0.24326133728027344,0.746369481086731,0.26976174116134644,-0.7650336027145386,0.20003142952919006,0.612135648727417,0.0008675646968185902
8.323963126916995,0.9157343995991533,-1.478388251441056,2.3685457189580332,-1.5297179345426888,-0.4928267044312856,-0.8167713131965694,-0.23888520896434784,0.7424806356430054,0.25920891761779785,-0.7829734683036804,0.16775305569171906,0.5985952615737915,0.02225160039961338
8.490442694795815,0.915542366366908,-1.4843314138674022,2.3739507268759072,-1.579661804906335,-0.5177952476535065,-0.8548677098290174,-0.23366062343120575,0.7392159104347229,0.248512402176857,-0.7995352149009705,0.13521680235862732,0.5836083889007568,0.04314079508185387
8.656922112936261,0.9153445178689814,-1.4903541964621958,2.379378810548179,-1.6296056303484687,-0.5428236775414694,-0.8929832587582581,-0.2275947779417038,0.7365707755088806,0.23776331543922424,-0.8147177696228027,0.10246627032756805,0.5671926736831665,0.06346644461154938
8.823401407263745,0.9151518293330833,-1.4964663226576445,2.3848283783964064,-1.679549418646714,-0.5679211411537465,-0.9311257927881915,-0.220683291554451,0.7345571517944336,0.22704944014549255,-0.8285095691680908,0.06956445425748825,0.5493783354759216,0.08316315710544586
8.989880338667707,0.9149747536712433,-1.5026753153212118,2.3902971158058537,-1.7294930980679026,-0.5930944210875998,-0.969303877184013,-0.21292494237422943,0.7331839203834534,0.21646086871623993,-0.8408997654914856,0.03657551854848862,0.530199408531189,0.10216782242059708
9.156359973677333,0.9148271290922788,-1.5089969539852757,2.395783069373736,-1.7794369885707906,-0.6183574081605948,-1.00753036071936,-0.20432354509830475,0.7324519753456116,0.20609094202518463,-0.85188227891922,0.003557673655450344,0.509689211845398,0.12041941285133362
9.322838789766038,0.9147230813182112,-1.5154468935588754,2.401284200005424,-1.8293806333974023,-0.6437241617211731,-1.0458176898712523,-0.19488658010959625,0.7323588132858276,0.1960342824459076,-0.8614515662193298,-0.029430346563458443,0.48788318037986755,0.1378580778837204
9.489317789845082,0.9146585355147495,-1.5220050641355574,2.4067959600038824,-1.8793243334211152,-0.6691804490071,-1.0841552446334293,-0.1846144050359726,0.7329108715057373,0.18638069927692413,-0.8695971965789795,-0.06229821965098381,0.4648362100124359,0.15442416071891785
9.655797084172566,0.9146280421007394,-1.528651128277258,2.412314605816326,-1.9292681217193604,-0.6947124341391,-1.1225299407672122,-0.1735135316848755,0.7341078519821167,0.17722003161907196,-0.8763148188591003,-0.09495408087968826,0.4406077563762665,0.17006076872348785
9.82227580489382,0.9146282012879207,-1.5353652198405814,2.417833437942727,-1.9792117379357368,-0.720309667310757,-1.1609252302917266,-0.16159622371196747,0.7359426617622375,0.1686423122882843,-0.8816076517105103,-0.12730692327022552,0.4152608811855316,0.18471357226371765
9.988754878098936,0.9146479592739116,-1.5421108968883923,2.4233460225092,-2.0291554598972716,-0.7459456605720718,-1.1993198624224657,-0.14887923002243042,0.738406777381897,0.16073265671730042,-0.8854829668998718,-0.15925519168376923,0.3888718783855438,0.19833403825759888
10.155234172426418,0.9146858598254257,-1.5488831242806298,2.428851710603778,-2.0790992481955164,-0.7716168664879753,-1.237710827597005,-0.1353907287120819,0.7414722442626953,0.15357951819896698,-0.8879576921463013,-0.19072061777114868,0.3615061938762665,0.2108793407678604
10.205234172426419,0.9193508618208625,-1.5513623630469082,2.4281817587252337,-2.078735894170301,-0.7630878291395815,-1.2368115347202973,-0.14011023938655853,0.7440631985664368,0.1580153852701187,-0.8863077163696289,-0.19180814921855927,0.3631434440612793,0.21399784088134766
10.371713466753903,0.928569277487479,-1.5496000029203412,2.4214284314541805,-2.0287921058720557,-0.7208375955111808,-1.1971913615313825,-0.1623084843158722,0.7460700273513794,0.17389245331287384,-0.8807113766670227,-0.16277973353862762,0.39342448115348816,0.20752625167369843
10.538192363717089,0.9377877836771523,-1.5478377921654647,2.4146749916255894,-1.9788484367831,-0.6785872821615585,-1.1575711520088499,-0.1831231713294983,0.7485471963882446,0.19048652052879333,-0.873896598815918,-0.13303063809871674,0.4228019416332245,0.19961489737033844
10.704671658044573,0.9470062570076582,-1.5460755083552855,2.4079216577750557,-1.9289046484848549,-0.6363369096292939,-1.1179507967250206,-0.2025241255760193,0.7515591382980347,0.20765052735805511,-0.8658440113067627,-0.10263002663850784,0.4511757493019104,0.1903194934129715
10.871150476641521,0.9562247037236918,-1.544313302494156,2.4011683774145314,-1.8789610029057706,-0.5940866099117377,-1.078330592895704,-0.2204916924238205,0.7551612257957458,0.22523388266563416,-0.8565388917922974,-0.07164937257766724,0.4784499704837799,0.17970268428325653
11.037629451970945,0.9654431335490891,-1.5425508417103375,2.394414843165594,-1.8290173103069436,-0.5518363052930263,-1.0387102890183264,-0.23701626062393188,0.7593998908996582,0.24308384954929352,-0.845970094203949,-0.04016125574707985,0.5045332908630371,0.16783270239830017
11.204108746298427,0.9746615307212761,-1.5407885735581823,2.3876614701008543,-1.7790735220086988,-0.509585964912057,-0.9990900128580327,-0.25209811329841614,0.7643110156059265,0.26104748249053955,-0.8341307044029236,-0.008239868097007275,0.5293391346931458,0.15478424727916718
11.370587911327618,0.9838800348147599,-1.5390263810031204,2.380908292812071,-1.7291297724999415,-0.4673355072338318,-0.9594697072703615,-0.2657473087310791,0.7699201107025146,0.2789706885814667,-0.8210176825523376,0.024039894342422485,0.5527867078781128,0.14063690602779388
11.537066937589097,0.9930984591328059,-1.5372640360210454,2.37415482536739,-1.679186064621498,-0.42508526316499484,-0.919849468411049,-0.27798211574554443,0.7762421369552612,0.2967018783092499,-0.8066327571868896,0.0566021203994751,0.574800431728363,0.12547560036182404
11.703545803757532,1.0023168478601638,-1.5355017714587718,2.3674015500343604,-1.6292424047709675,-0.3828350562862459,-0.8802293519598257,-0.28882986307144165,0.7832804918289185,0.31409192085266113,-0.7909812331199646,0.08937045931816101,0.5953111052513123,0.10938993841409683
11.870024731515468,1.0115353339468713,-1.5337395030809313,2.360648294306752,-1.5792987264435867,-0.3405847136925083,-0.8406090427740668,-0.2983250021934509,0.7910284996032715,0.33099526166915894,-0.7740728855133057,0.12226840853691101,0.6142557263374329,0.09247363358736038
12.036504355503233,1.0207538606299926,-1.5319773258404894,2.3538949866925947,-1.5293548392472571,-0.2983341713852498,-0.8009885207324198,-0.3065093755722046,0.7994678616523743,0.34727197885513306,-0.7559213638305664,0.15521925687789917,0.6315782070159912,0.07482457160949707
12.202983635807929,1.0299723342552949,-1.5302148662555235,2.34714156077491,-1.4794110551558484,-0.2560839078171731,-0.7613682850040377,-0.31343063712120056,0.8085688352584839,0.36278748512268066,-0.7365450859069824,0.18814648687839508,0.6472287178039551,0.05654361844062805
12.369462383340734,1.0391907310354866,-1.5284526963844978,2.3403882384221384,-1.4294674308960067,-0.21383368548862725,-0.7217481022254725,-0.3191424012184143,0.8182912468910217,0.3774152994155884,-0.7159659266471863,0.22097398340702057,0.6611651182174683,0.03773505240678787
12.535941511461104,1.048409189449563,-1.5266904237647612,2.3336348462210093,-1.379523692459896,-0.17158324421601648,-0.6821277577800133,-0.32370269298553467,0.8285850882530212,0.39103662967681885,-0.6942101120948792,0.25362691283226013,0.6733522415161133,0.018504967913031578
12.70242093844571,1.0576276721258497,-1.5249280764446067,2.3268815318744567,-1.329579864364514,-0.1293328980136556,-0.6425074341149338,-0.32717376947402954,0.839389443397522,0.4035418927669525,0.6713078022003174,-0.2860307991504669,-0.6837624907493591,0.0010382855543866754
12.868900497480372,1.0668461141816434,-1.523165726109102,2.32012803689448,-1.279635996654116,-0.0870824029244189,-0.6028870207143372,-0.3296204209327698,0.8506346940994263,0.41483235359191895,0.6472932696342468,-0.31811246275901794,-0.6923755407333374,0.020784584805369377
13.035379825966007,1.0760646814852577,-1.521403384003339,2.313374653382437,-1.229692198108425,-0.04483204166073156,-0.563266711824103,-0.331110417842865,0.862241268157959,0.4248189330101013,0.6222042441368103,-0.34980034828186035,-0.6991789937019348,0.04062357544898987
13.20185929990872,1.085283077681718,-1.5196412207134806,2.3066213807911313,-1.179748355925611,-0.0025816426927157427,-0.5236463710341914,-0.33171218633651733,0.8741229772567749,0.43342503905296326,0.5960825085639954,-0.38102445006370544,-0.704167902469635,0.06044382601976395
13.368338380462822,1.0945015154514237,-1.5178789561512072,2.299868119556826,-1.1298046317593808,0.039668690418943775,-0.4840260827666016,-0.3314952850341797,0.8861849904060364,0.4405858516693115,0.5689733624458313,-0.41171666979789734,-0.7073450684547424,0.08013451844453812
13.534817192338634,1.1037199071985941,-1.5161165723796441,2.293114748167971,-1.0798609881966372,0.08191892123385477,-0.4444058993712383,-0.33052900433540344,0.898327112197876,0.4462496340274811,0.5409255027770996,-0.4418109655380249,-0.7087209820747375,0.09958519786596298
13.70129570535369,1.1129383966536928,-1.5143543078173705,2.2863614744870437,-1.0299174342921205,0.12416912829044892,-0.4047857273413956,-0.3288816511631012,0.9104427099227905,0.4503776729106903,0.5119908452033997,-0.47124382853507996,-0.708313524723053,0.11868660897016525
13.867774482014015,1.122156929111514,-1.5125921584395357,2.2796082438088394,-0.9799738012940229,0.16641933400320796,-0.3651655606868932,-0.3266199827194214,0.9224212169647217,0.45294439792633057,0.4822244644165039,-0.4999540448188782,-0.7061484456062317,0.13733109831809998
14.034253565612103,1.1313752800544221,-1.5108298570978504,2.2728547908114587,-0.9300300762145969,0.20866967587357782,-0.32554531683891463,-0.3238080143928528,0.9341490268707275,0.45393839478492737,0.4516845941543579,-0.5278833508491516,-0.7022584080696106,0.15541309118270874
14.200732182469865,1.1405937461817688,-1.5090675141305498,2.2661015010311285,-0.8800864911572681,0.25091986692524854,-0.2859251623979033,-0.32050764560699463,0.9455096125602722,0.45336171984672546,0.42043235898017883,-0.5549761652946472,-0.6966835260391235,0.17282985150814056
14.367210693809858,1.1498122123091155,-1.5073052495682764,2.259348107135874,-0.8301429377552703,0.29317004488284526,-0.24630500936354185,-0.3167767822742462,0.956385612487793,0.45123061537742615,0.3885310888290405,-0.5811798572540283,-0.6894710063934326,0.1894814521074295
14.533689268430075,1.1590306784364621,-1.505542985006003,2.252594758253418,-0.7801993653692048,0.33542031116090076,-0.20668482635530694,-0.3126692473888397,0.9666597247123718,0.4475746750831604,0.35604697465896606,-0.6064453721046448,-0.68067467212677,0.2052716314792633
14.700168058200427,1.1682490436523825,-1.5037807204437292,2.2458414234602895,-0.7302557284380992,0.37767058800595144,-0.16706462456906318,-0.308234840631485,0.9762158393859863,0.4424368143081665,0.3230479955673218,-0.6307269334793091,-0.6703549027442932,0.22010846436023712
14.866646532335897,1.1774674914818661,-1.5020184558814558,2.2390880154757076,-0.6803121861974583,0.419920740358215,-0.12744450656318673,-0.3035183548927307,0.9849404096603394,0.43587350845336914,0.2896046042442322,-0.6539821028709412,-0.6585783362388611,0.23390398919582367
15.033125125405306,1.1866858862488492,-1.5002561199588187,2.2323347397847044,-0.6303686082766357,0.46217090467271005,-0.08782438421173065,-0.2985595762729645,0.9927231073379517,0.42795342206954956,0.2557886242866516,-0.6761723160743713,-0.6454175114631653,0.2465754598379135
15.199604066587241,1.1959044207167469,-1.498493923737096,2.225581511116576,-0.580424925922055,0.504421278196649,-0.04820411956235818,-0.29339271783828735,0.9994593262672424,0.4187583923339844,0.22167357802391052,-0.6972624659538269,-0.6309506297111511,0.25804486870765686
15.3660827494709,1.205122728845316,-1.4967315429853456,2.21882805610912,-0.5304813210569574,0.5466714253812589,-0.008583966250626084,-0.28804680705070496,1.005049467086792,0.40838053822517395,0.18733443319797516,-0.7172215580940247,-0.6152609586715698,0.2682403326034546
15.532561368003726,1.2143412042110875,-1.4949693650614861,2.2120747683388657,-0.48053773549710965,0.588921609845451,0.031036187341886443,-0.2825455665588379,1.0094006061553955,0.39692366123199463,0.152847021818161,-0.7360224723815918,-0.5984367728233337,0.277095764875412
15.699040046841054,1.2235595837000204,-1.4932070261190364,2.2053213969500107,-0.4305941318459114,0.6311718452678755,0.07065636286942502,-0.27690672874450684,1.0124293565750122,0.3845013976097107,0.11828811466693878,-0.7536420822143555,-0.5805705785751343,0.2845510244369507
15.86551906175149,1.232777992740016,-1.4914447543331124,2.1985681498050322,-0.38065042737278026,0.6734221468394384,0.11027666838757019,-0.27114272117614746,1.0140596628189087,0.3712361454963684,0.08373481780290604,-0.7700613141059875,-0.5617589354515076,0.2905528247356415
16.0319978092843,1.2419964986618885,-1.4896824674434264,2.1918144849250214,-0.33070680311293793,0.7156723389426558,0.14989684721600308,-0.26526105403900146,1.0142269134521484,0.35725998878479004,0.04926534742116928,-0.7852649688720703,-0.542102038860321,0.2950543463230133
16.198476434529123,1.2512149820820604,-1.4879201009646885,2.185061282783445,-0.2807632155394901,0.7579225621068425,0.18951702216181482,-0.25926363468170166,1.0128757953643799,0.342710018157959,0.014956857077777386,-0.7992426753044128,-0.5217028856277466,0.2980160415172577
16.36495537703802,1.260433448209407,-1.4861579087678165,2.1783080050823656,-0.23081953278682132,0.8001728938191315,0.22913727851870333,-0.2531479597091675,1.0099632740020752,0.32773083448410034,-0.01911287195980549,-0.8119873404502869,-0.5006672739982605,0.2994052469730377
16.53143425140436,1.2696519143367537,-1.484395691049431,2.1715547784243134,-0.18087587047691944,0.8424231872491501,0.2687574768652603,-0.24690687656402588,1.0054585933685303,0.31247198581695557,-0.05286667123436928,-0.8234965801239014,-0.47910305857658386,0.2991967499256134
16.69791281340745,1.2788702612548108,-1.4826333500922066,2.1648014070354584,-0.13093230187599222,0.8846733890061674,0.3083776608567472,-0.24052917957305908,0.9993435144424438,0.2970864474773407,-0.08622804284095764,-0.8337720632553101,-0.4571196138858795,0.29737281799316406
16.86439142424159,1.2880887273821577,-1.480871074281432,2.158048098778278,-0.08098871862575065,0.9269236177946046,0.34799781529775864,-0.23400062322616577,0.9916123747825623,0.28172990679740906,-0.11912145465612411,-0.8428192734718323,-0.4348272681236267,0.29392313957214355
17.030870618402318,1.2973071935095044,-1.4791088840993345,2.151294876149775,-0.031044960377531964,0.9691739759509996,0.38761808894805955,-0.2273033857345581,0.982273280620575,0.2665596008300781,-0.15147259831428528,-0.8506482839584351,-0.41233718395233154,0.288845032453537
17.19734922209475,1.306525601544462,-1.4773465135910473,2.1445414151026934,0.018898620730198067,1.0114241991151862,0.4272382433890709,-0.22041688859462738,0.9713485240936279,0.25173264741897583,-0.18320848047733307,-0.8572726845741272,-0.38976049423217773,0.282143235206604
17.363827827955184,1.3157440065549082,-1.4755842490287738,2.137788159898616,0.06884220248832781,1.0536743193578704,0.4668583978300823,-0.21331945061683655,0.958873450756073,0.23740531504154205,-0.21425761282444,-0.8627102375030518,-0.367207795381546,0.27383023500442505
17.530306587442062,1.3249625012235813,-1.4738219844665001,2.131034788509761,0.11878583033439179,1.0959245547755965,0.5064785652807607,-0.20598752796649933,0.9448967576026917,0.2237313985824585,-0.24455080926418304,-0.8669825196266174,-0.3447886109352112,0.26392608880996704
17.696785639934156,1.3341809112780116,-1.4720597199042267,2.1242815087986058,0.16872954608202007,1.1381748686077455,0.5460988740663262,-0.19839659333229065,0.9294819235801697,0.2108612209558487,-0.2740207016468048,-0.8701146841049194,-0.3226112127304077,0.252457857131958
17.863264231668772,1.3433994039272117,-1.4702973371424002,2.1175280477515237,0.2186731236024054,1.1804250917719321,0.5857190104171618,-0.1905226856470108,0.9127042293548584,0.19894017279148102,-0.3026021420955658,-0.8721359372138977,-0.3007817268371582,0.239460289478302
18.029743025083647,1.3526178710642949,-1.468535146960303,2.1107746743431957,0.268616761626868,1.2226754025748725,0.6253392491822825,-0.1823420226573944,0.8946527242660522,0.1881081461906433,-0.3302328884601593,-0.873078465461731,-0.2794038653373718,0.22497501969337463
18.196222688784694,1.361836313992676,-1.4667727944961186,2.1040213161266736,0.3185606607371817,1.2649258105445778,0.6649596683499058,-0.17383211851119995,0.8754286766052246,0.17849746346473694,-0.3568531572818756,-0.8729780912399292,-0.25857821106910706,0.209050714969635
18.36270222167663,1.3710547721227897,-1.4650105256206631,2.097268076968924,0.36850452060476274,1.3071762981266857,0.7045800484115501,-0.16497239470481873,0.8551446795463562,0.17023253440856934,-0.3824062645435333,-0.8718740940093994,-0.2384023368358612,0.19174286723136902
18.529181800452857,1.3802732227841594,-1.4632482527170576,2.090514583955665,0.41844839423763014,1.349426767113617,0.744200447686304,-0.1557445377111435,0.8339248895645142,0.16342920064926147,-0.4068383574485779,-0.8698083758354187,-0.2189697027206421,0.17311325669288635
18.695660772012513,1.3894917068513153,-1.4614859212999278,2.083761275723683,0.4683920857055271,1.3916770914858192,0.7838207231833539,-0.1461334377527237,0.8119032382965088,0.15819236636161804,-0.43009912967681885,-0.8668259382247925,-0.20036949217319489,0.15322986245155334
18.86214018521126,1.398710161960299,-1.4597236818196615,2.0770077670244613,0.518335909665151,1.4339274903006094,0.8234410589731727,-0.1361275315284729,0.7892227172851562,0.15461674332618713,-0.4521419107913971,-0.8629746437072754,-0.18268617987632751,0.13216663897037506
19.028618657821404,1.4079286228581112,-1.4579613737763806,2.070254447639625,0.568279451448194,1.4761776979846002,0.8630611664847617,-0.12571930885314941,0.7660347819328308,0.152784526348114,-0.47292327880859375,-0.8583047986030579,-0.1659991443157196,0.1100030317902565
19.195098780763562,1.4171470403671265,-1.456199049949646,2.0635011196136475,0.6182234883308411,1.5184283256530762,0.9026817083358765,-0.11490552127361298,0.7424978017807007,0.15276628732681274,-0.4924040138721466,-0.8528687953948975,-0.15038220584392548,0.08682319521903992
19.245098780763563,1.41763430401561,-1.4626285155089807,2.0757465976081164,0.6123836043425817,1.518593185576586,0.9031408452210518,-0.11639454215765,0.7345994114875793,0.1499055027961731,-0.492404043674469,-0.8528687953948975,-0.1503821313381195,0.08682317286729813
19.415730282587226,1.4181199460687506,-1.4690359078938653,2.0879499297169923,0.6065638158259051,1.518757596892297,0.9035984573161981,-0.11787448078393936,0.7267033457756042,0.14703327417373657,-0.4924040734767914,-0.8528687953948975,-0.1503821164369583,0.08682315796613693
19.586371451539215,1.4186039709988127,-1.4754219645191513,2.1001126263622454,0.600763406426543,1.5189214607403183,0.9040545456242772,-0.11934547871351242,0.7188091278076172,0.14414995908737183,-0.492404043674469,-0.8528687953948975,-0.1503821462392807,0.08682315796613693
19.754608970058378,1.4151002529819852,-1.4822949286413354,2.112804716348501,0.5951237253259835,1.5177366159419523,0.9007523645373712,-0.11872810125350952,0.710923433303833,0.14128738641738892,-0.49240419268608093,-0.8528693318367004,-0.15037952363491058,0.0868215560913086
19.925278842372116,1.4096995213979735,-1.489398241734514,2.125746219535588,0.5895616510404126,1.5159101754437003,0.8956623330146934,-0.11719600111246109,0.7030338048934937,0.13841912150382996,-0.49240419268608093,-0.8528695702552795,-0.15037882328033447,0.08682122826576233
20.227209258316645,1.4043048063861292,-1.4964936415301722,2.1386733055114746,0.5840057730674744,1.5140857696533203,0.8905779719352722,-0.11575786024332047,0.695133626461029,0.13552719354629517,-0.4924040138721466,-0.8528687953948975,-0.1503821611404419,0.08682318776845932
20.393850853583064,1.404305100440979,-1.4964936971664429,2.1386733055114746,0.584005952072954,1.5140860080718994,0.9405704505151982,-0.11575791984796524,0.6951335072517395,0.1355271339416504,-0.5135664343833923,-0.8402954936027527,-0.14816509187221527,0.09055452793836594
20.56049304489593,1.4043051462334208,-1.4964936971664429,2.1386730670928955,0.5840060343822744,1.514086099656783,0.9905631079090584,-0.11575784534215927,0.6951337456703186,0.13552719354629517,-0.5344080328941345,-0.8271969556808472,-0.14585565030574799,0.09422942996025085
20.7271352362088,1.4043052599552948,-1.4964938566807586,2.1386730670928955,0.584006130695343,1.5140862867955047,1.0405557653029187,-0.11575785279273987,0.6951336860656738,0.13552725315093994,-0.554915726184845,-0.8135817646980286,-0.14345498383045197,0.09784542769193649
20.893777427521666,1.4043053484406005,-1.4964941644225587,2.1386733055114746,0.5840061354858642,1.5140863752808105,1.090548422696779,-0.11575792729854584,0.6951335072517395,0.13552746176719666,-0.5750768184661865,-0.7994582056999207,-0.14096471667289734,0.10140032321214676
21.060419618834533,1.4043054580688477,-1.4964942199886409,2.1386733055114746,0.5840061902999878,1.5140864849090576,1.1405410800906395,-0.11575797200202942,0.6951334476470947,0.13552743196487427,-0.5948785543441772,-0.784835159778595,-0.13838627934455872,0.10489179939031601
21.2270618101474,1.4043054580688477,-1.4964942019946463,2.1386735439300537,0.5840062499046326,1.5140864849090576,1.1905337374844998,-0.1157580018043518,0.6951330900192261,0.13552725315093994,-0.614308774471283,-0.7697218656539917,-0.13572128117084503,0.10831775516271591
21.393704001460268,1.4043054580688477,-1.4964942932128906,2.13867371878567,0.5840062499046326,1.5140864849090576,1.24052639487836,-0.1157580316066742,0.6951329708099365,0.1355271339416504,-0.6333550810813904,-0.7541274428367615,-0.13297158479690552,0.11167608946561813
21.560346192773135,1.404305338859558,-1.4964943868775653,2.138674020767212,0.5840063095092773,1.5140863401551532,1.2905190522722203,-0.11575804650783539,0.6951327919960022,0.1355271339416504,-0.652005672454834,-0.7380620241165161,-0.13013873994350433,0.11496463418006897
21.726988384086003,1.404305255659071,-1.4964943764133778,2.1386741871681862,0.5840063095092773,1.5140862464904785,1.3405117096660806,-0.11575806140899658,0.6951324939727783,0.13552692532539368,-0.6702489852905273,-0.7215353846549988,-0.12722454965114594,0.11818134039640427
21.89363057539887,1.404305100440979,-1.496494174003601,2.138674259185791,0.5840063095092773,1.5140860781156538,1.3905043670599408,-0.11575804650783539,0.6951324939727783,0.13552680611610413,-0.6880735754966736,-0.7045579552650452,-0.12423089891672134,0.12132423371076584
22.060272766711737,1.4043050092316471,-1.4964940827942692,2.138674259185791,0.5840063095092773,1.5140858888626099,1.4404970244538013,-0.11575809121131897,0.6951324939727783,0.13552674651145935,-0.7054681777954102,-0.6871402859687805,-0.1211596429347992,0.12439136952161789
22.226914958024604,1.4043048620224,-1.4964940057121854,2.1386741610215387,0.5840062499046326,1.5140857696533203,1.4904896818476616,-0.1157580241560936,0.6951327323913574,0.13552671670913696,-0.7224220037460327,-0.669293224811554,-0.11801280081272125,0.12738080322742462
22.39355714933747,1.4043047428131104,-1.496493911997187,2.138673973591542,0.5840061785060703,1.5140856740318658,1.540482339241522,-0.11575796455144882,0.6951329112052917,0.1355268955230713,-0.7389244437217712,-0.6510281562805176,-0.11479225754737854,0.1302906572818756
22.56019934065034,1.4043047428131104,-1.4964938163757324,2.1386737240723046,0.584006101557179,1.5140856795821949,1.5904749966353822,-0.11575794219970703,0.6951330304145813,0.13552695512771606,-0.7549651265144348,-0.6323563456535339,-0.11150000244379044,0.1331191211938858
22.726841531963206,1.4043047428131104,-1.4964937118727515,2.1386733055114746,0.5840059518814087,1.5140858888626099,1.6404676540292424,-0.11575772613286972,0.6951335072517395,0.1355271339416504,-0.770534336566925,-0.6132893562316895,-0.10813827067613602,0.13586442172527313
22.82768531774126,1.3997644466319548,-1.4899596692277686,2.1257733387984743,0.5695227513210379,1.5120024728718595,1.6707207897626586,-0.11034449934959412,0.7148271799087524,0.13937640190124512,-0.7793074250221252,-0.5990432500839233,-0.11322212964296341,0.14494094252586365
22.994327509054127,1.3840933406839295,-1.4673213710556297,2.0816245233390585,0.5195300939271776,1.5046153355335765,1.6523769582723682,-0.09053604304790497,0.7818303108215332,0.15396049618721008,-0.7716442346572876,-0.5971548557281494,-0.13940905034542084,0.16892701387405396
23.160969700366994,1.3684304804210592,-1.4440620311988808,2.0402613886018415,0.46953743653331736,1.4957940386631723,1.6325378340348538,-0.07003456354141235,0.8452421426773071,0.16853702068328857,-0.7626359462738037,-0.5955913066864014,-0.16471312940120697,0.19112008810043335
23.327611991020937,1.3527815044739566,-1.419763547827524,2.0035593129174902,0.4195447493371346,1.4845733392172558,1.6101967696692319,-0.0498555451631546,0.9034483432769775,0.18088817596435547,-0.7522790431976318,-0.5951012372970581,-0.188080295920372,0.21108418703079224
23.49425403892811,1.337150394931965,-1.3936350345475017,1.9754601046733946,0.3695521349649836,1.4689400566720332,1.5832193761366804,-0.03203216567635536,0.9532793760299683,0.18662670254707336,-0.7405083179473877,-0.5971978306770325,-0.2073879987001419,0.22801823914051056
23.660895952711936,1.3213530338178137,-1.3670033214040593,1.9596191554003706,0.31955956082983517,1.447406116612743,1.5492007848347777,-0.01825171336531639,0.9919966459274292,0.18331539630889893,-0.7270219326019287,-0.6032007336616516,-0.22167721390724182,0.24175821244716644
23.826210571853807,1.3049255368967871,-1.345590143809201,1.9613274251155224,0.2699651750872743,1.4187092326628667,1.5042620031096094,-0.01038624532520771,1.01531982421875,0.17192783951759338,-0.7107264995574951,-0.6144741177558899,-0.2312076985836029,0.252650648355484
23.992852763166674,1.290326845650555,-1.3407720660884421,1.9823585951233498,0.23027250603547403,1.3886576663573487,1.4542693457157492,-0.010351743549108505,1.0175822973251343,0.16034060716629028,-0.6934216618537903,-0.6289658546447754,-0.23660196363925934,0.25997644662857056
24.15949495447954,1.2779782862825122,-1.3510432892086566,2.0137340295346338,0.20033118834328734,1.360449668781315,1.404276688321889,-0.01551924366503954,1.0067625045776367,0.15392187237739563,-0.6758863925933838,-0.6439791917800903,-0.2408188432455063,0.2654704451560974
24.32613714579241,1.266853795967811,-1.3695072779383084,2.0477810350525663,0.1745995221066692,1.3327653747963253,1.3542840309280286,-0.02313859388232231,0.9919914603233337,0.1526941955089569,-0.6572756767272949,-0.6587543487548828,-0.24607521295547485,0.2710689604282379
24.492779337105276,1.2564238314286338,-1.3923814538047075,2.0803707903621196,0.1501047741499809,1.3048372095350977,1.3042913735341684,-0.03160296753048897,0.9780812859535217,0.15651848912239075,-0.6370569467544556,-0.6728857159614563,-0.2536388337612152,0.27757981419563293
24.659421528418143,1.2465559300994897,-1.4174756724488036,2.108515758009978,0.12490711144808517,1.2758164503203484,1.254298716140308,-0.04003140330314636,0.9683390259742737,0.16594372689723969,-0.6145675182342529,-0.6861225366592407,-0.2645530700683594,0.2855769395828247
24.82606371973101,1.237479064112911,-1.443132636925656,2.1334784843113006,0.09877796101365653,1.245038022623452,1.2043060587464476,-0.04924614727497101,0.9614719152450562,0.17861783504486084,-0.589941143989563,-0.6986947059631348,-0.2775819003582001,0.29452210664749146
24.992705911043878,1.2299349599363283,-1.4682820368501324,2.1558768855507493,0.0714775005809769,1.210985449074556,1.1543134013525873,-0.06080154329538345,0.9567804932594299,0.19343365728855133,-0.5627521276473999,-0.7109134197235107,-0.2917129099369049,0.3046567738056183
25.159348102356745,1.2240992802568122,-1.4921229099290183,2.177101371356156,0.04317011678596948,1.1733462927598022,1.104320743958727,-0.07541847229003906,0.9526945352554321,0.20872291922569275,-0.5331685543060303,-0.7228683233261108,-0.3058723509311676,0.31564971804618835
25.325990293669612,1.2205517321134034,-1.5134834609188272,2.1975773384511275,0.013502074558298896,1.1308484641992356,1.0543280865648668,-0.09429305791854858,0.9486427307128906,0.2235042154788971,-0.5008281469345093,-0.734693169593811,-0.31918036937713623,0.3279038071632385
25.492632329943973,1.2185232651089104,-1.5319833168869552,2.2168970742438363,-0.01783666001914318,1.084743399291023,1.0043354756825584,-0.11584839224815369,0.944769024848938,0.2378365695476532,-0.46609577536582947,-0.745837390422821,-0.3321438431739807,0.34082502126693726
25.659274676295347,1.21720577049916,-1.546856258012226,2.2340433633782517,-0.05154733935814822,1.0361751851011134,0.9543427717771462,-0.1383015513420105,0.9419419765472412,0.2520255744457245,-0.42926502227783203,-0.7557487487792969,-0.34548938274383545,0.35385340452194214
25.825916867608214,1.215716252845496,-1.5575215560953861,2.2480805272244253,-0.08821992474963201,0.986480464176168,0.9043501143832859,-0.1597783863544464,0.9410449266433716,0.2663726806640625,-0.3907598555088043,-0.7639321684837341,-0.3599626421928406,0.36625292897224426
25.992559079518003,1.2133394357094054,-1.563796370851013,2.2584552523298296,-0.1281384097481877,0.9368787030549353,0.854357450810349,-0.17880648374557495,0.9426496028900146,0.2810651659965515,-0.35103198885917664,-0.7700580954551697,-0.3761023283004761,0.37727198004722595
26.159201448916097,1.209969028518605,-1.5656699781716352,2.265089374943829,-0.17137490711073117,0.8878530356543056,0.8043647399909206,-0.19501319527626038,0.9468203783035278,0.2960302233695984,-0.31026843190193176,-0.7740505933761597,-0.3939518928527832,0.3864981532096863
26.32584344227803,1.206106555311237,-1.5646567111826275,2.269354565734421,-0.21681405165082174,0.8393613069507838,0.7543721419823414,-0.209425151348114,0.9519368410110474,0.3109818994998932,-0.26857808232307434,-0.7760761976242065,-0.41285884380340576,0.3938513696193695
26.492485542411575,1.2021116853296703,-1.5611706882978837,2.2717423757444783,-0.26418178216370913,0.7915669947284268,0.7043795119422775,-0.2224719077348709,0.9574499130249023,0.32559847831726074,-0.22604987025260925,-0.7761915922164917,-0.43248450756073,0.39923086762428284
26.659127625490402,1.1983681740164729,-1.5565480946086991,2.2734358118021887,-0.3124853709355008,0.7443792357544179,0.6543868870186291,-0.23502644896507263,0.9620263576507568,0.3396049737930298,-0.18283838033676147,-0.7745068669319153,-0.45224693417549133,0.402718186378479
26.825770096755402,1.1949232069330915,-1.5512750563691067,2.274859342373589,-0.3614037775954281,0.6980476192125225,0.6043941456391293,-0.24718068540096283,0.9653208255767822,0.35278454422950745,-0.13919496536254883,-0.7710302472114563,-0.47193580865859985,0.4042443037033081
26.992412764431865,1.1914810735136292,-1.5458862628434387,2.276302141277801,-0.41053986440727325,0.6526027834558951,0.5544013453361907,-0.2587651014328003,0.9671475887298584,0.3651067018508911,-0.0954168438911438,-0.7657487392425537,-0.4914272427558899,0.40376198291778564
27.159055071316786,1.1877037741576988,-1.5408986476302744,2.278056202466993,-0.4595523937613939,0.6083685213736477,0.5044086532707146,-0.26944056153297424,0.9674593210220337,0.3765299916267395,-0.051900044083595276,-0.758696973323822,-0.5106751918792725,0.40111851692199707
27.32569699480309,1.1833584580149261,-1.5366957555925813,2.2803164750705354,-0.5081504626078843,0.565329063927026,0.45441607622482416,-0.27908453345298767,0.9662357568740845,0.3870696425437927,-0.008884217590093613,-0.7499399185180664,-0.5295711159706116,0.3963150680065155
27.49233886757631,1.1782103732844957,-1.5336055994860056,2.283264355602198,-0.5561066021012814,0.5236314543985782,0.4044235143928574,-0.2875024080276489,0.9635509252548218,0.3967321217060089,0.033354952931404114,-0.7395786643028259,-0.5480470657348633,0.38930076360702515
27.65898117073191,1.172373765118232,-1.531434403330798,2.2867702857342187,-0.6035111798591015,0.48292030157760896,0.3544308234461777,-0.29490432143211365,0.9595746994018555,0.4054795801639557,0.07487843930721283,-0.7276738286018372,-0.5659264326095581,0.38027796149253845
27.825623159832418,1.165732120695652,-1.5302893905339259,2.2908870231660448,-0.6502724141267149,0.44315931160158656,0.304438226716025,-0.3012319803237915,0.9544217586517334,0.4133090376853943,0.11555153131484985,-0.714320182800293,-0.583110511302948,0.3692919909954071
27.992265553046543,1.1584421338807276,-1.5299324501928464,2.29546368111554,-0.6965179144197334,0.4040066984102351,0.2544455087517868,-0.30670905113220215,0.9482357501983643,0.4201667308807373,0.15547220408916473,-0.699558675289154,-0.5994279980659485,0.3565559983253479
28.15890780026528,1.1504570226140722,-1.5303766913074235,2.3005001326156536,-0.7422222834949004,0.36540647195355175,0.20445283458616603,-0.31132057309150696,0.9411351680755615,0.42603227496147156,0.19456295669078827,-0.6834686994552612,-0.6147781014442444,0.34214553236961365
28.325550034011325,1.1420217502893624,-1.5313001012989291,2.3058058632973295,-0.7875926984295935,0.3271181805537511,0.15446016446235264,-0.3152936100959778,0.9332823157310486,0.4308193027973175,0.23293910920619965,-0.666060745716095,-0.6290079951286316,0.3262688219547272
28.49219231609436,1.1331864525419115,-1.532590343283586,2.311309958334313,-0.8326914166151701,0.2890431192847067,0.10446747983744187,-0.31866592168807983,0.9248026609420776,0.4344797730445862,0.2705865502357483,-0.647375226020813,-0.6420108675956726,0.30904722213745117
28.65883450412369,1.1241306189106148,-1.5340215028844901,2.3168799459599843,-0.8776658666239177,0.2510157812136659,0.054474823428643335,-0.32157373428344727,0.9158146977424622,0.4369380474090576,0.30756548047065735,-0.6274126172065735,-0.6536614894866943,0.2906605303287506
28.82547711919731,1.1149142680829587,-1.5355265930521387,2.3224782210400883,-0.9225588042768597,0.21296737226286208,0.004482038906557677,-0.3240429759025574,0.906402587890625,0.438153475522995,0.3438515365123749,-0.6062003970146179,-0.6638659238815308,0.271236389875412
28.992119730184463,1.1056255009002272,-1.537065186053685,2.3280888477184507,-0.9674086881582208,0.17486543039856906,-0.045510744389587965,-0.32611384987831116,0.8966333866119385,0.43809521198272705,0.3794165253639221,-0.5837629437446594,-0.672540009021759,0.2509061098098755
29.158762057698,1.0963265800005333,-1.538611216316605,2.333703006499185,-1.0122391202181285,0.13666991759913327,-0.09550344264364921,-0.32780200242996216,0.886568009853363,0.4367406666278839,0.414223313331604,-0.5601271390914917,-0.6796083450317383,0.2298024594783783
29.32540420625739,1.087080553007223,-1.5401373197997736,2.339310647574703,-1.0570772031968343,0.09836038567812457,-0.14549608721146648,-0.32910943031311035,0.8762735724449158,0.43407684564590454,0.44822871685028076,-0.5353200435638428,-0.6850082278251648,0.208055779337883
29.492046310331787,1.0779115091019082,-1.541629881412862,2.3449071402105353,-1.101934774039826,0.05992767052617441,-0.1954887184337861,-0.32999929785728455,0.8658250570297241,0.4301033616065979,0.48137277364730835,-0.5093809962272644,-0.6886906027793884,0.18578597903251648
29.658688658579216,1.0688147626549496,-1.5430860068452408,2.350490760446589,-1.1468144968534943,0.021392769112556324,-0.24548142290801467,-0.3304017186164856,0.8553124666213989,0.42483755946159363,0.5135796666145325,-0.48236408829689026,-0.690622866153717,0.16309784352779388
29.82533106223412,1.0597913405198394,-1.5444998354120574,2.356059399373331,-1.1917208805351263,-0.017234576381287267,-0.2954741440044864,-0.3302527070045471,0.8448177576065063,0.4183048903942108,0.5447813868522644,-0.4543243944644928,-0.6907774209976196,0.1401035487651825
29.991973183209712,1.0508357207342427,-1.5458703813038361,2.3616125976926545,-1.2366550616047227,-0.055935582224513426,-0.34546678029716354,-0.3294825553894043,0.8344234228134155,0.4105437695980072,0.5749089121818542,-0.42532482743263245,-0.6891371011734009,0.11691269278526306
30.158615600968066,1.0419419957975338,-1.5471981163799173,2.3671501299956996,-1.2816164579728107,-0.09469763810774033,-0.39545950562467014,-0.32802313566207886,0.8242048025131226,0.40160247683525085,0.6038986444473267,-0.39543136954307556,-0.685691237449646,0.09363794326782227
30.325257385437435,1.0330976539683645,-1.5484897014690446,2.3726740956551584,-1.3265996806623466,-0.13350252736067741,-0.4454520409654815,-0.3258034288883209,0.8142346143722534,0.39154252409935,0.6316880583763123,-0.36471685767173767,-0.6804388761520386,0.07038875669240952
30.4918994164614,1.0242946416910441,-1.5497483113229702,2.378185584536995,-1.3716018479779155,-0.17233708928784597,-0.49544465027267126,-0.3227587938308716,0.8045781850814819,0.38043212890625,0.6582220196723938,-0.3332560062408447,-0.6733861565589905,0.047278180718421936
30.658541607774268,1.0155205770365139,-1.5509812627600414,2.383687195109889,-1.416617893596303,-0.21118586194971556,-0.5454373076665315,-0.3188248574733734,0.7952951192855835,0.36835014820098877,0.6834490299224854,-0.3011281490325928,-0.6645472049713135,0.024416308850049973
30.825183573608903,1.0067706175905204,-1.552193459208897,2.3891813054175928,-1.4616447125693297,-0.25004235665661334,-0.5954298974169226,-0.31394705176353455,0.7864340543746948,0.3553798198699951,0.7073262333869934,-0.26841163635253906,-0.6539427042007446,0.0019177289213985205
30.991825791255625,0.9980357768677384,-1.553394270867836,2.394672502970585,-1.506677292082869,-0.28890178913630593,-0.6454225627109395,-0.30807310342788696,0.7780347466468811,0.3416128158569336,-0.7298159599304199,0.23518790304660797,0.6416003704071045,0.02010553888976574
31.158467866093417,0.9893127488211215,-1.5545891880147307,2.400164495543192,-1.5517126367575307,-0.3277601777865513,-0.695415185162277,-0.30115824937820435,0.7701290845870972,0.32714420557022095,-0.7508861422538757,0.20153886079788208,0.6275558471679688,0.041540518403053284
31.32511001300499,0.9805944842306588,-1.5557855404230665,2.4056598764120696,-1.5967471168635547,-0.3666145262866381,-0.7454078292357488,-0.29315876960754395,0.7627434134483337,0.3120768070220947,-0.7705102562904358,0.1675480455160141,0.6118520498275757,0.06227917596697807
31.491752365656456,0.97187803595283,-1.5569863725889097,2.4111605292474922,-1.6417789778313638,-0.4054631477584169,-0.7954005350311881,-0.284038245677948,0.7558951377868652,0.29651546478271484,-0.7886670827865601,0.13329920172691345,0.5945387482643127,0.08221342414617538
31.658394556969323,0.9631614362115091,-1.5581923140466343,2.4166659224413642,-1.68680842330422,-0.44430649252567994,-0.8453931924250484,-0.27376461029052734,0.7495953440666199,0.2805682420730591,-0.8053414821624756,0.09887565672397614,0.5756728649139404,0.10123880207538605
31.825036552544695,0.9544430058841078,-1.559403302048072,2.422174834067667,-1.731835463299712,-0.48314522450825287,-0.8953857910976595,-0.2623105049133301,0.7438483238220215,0.26434680819511414,-0.820523202419281,0.06436096876859665,0.555317759513855,0.11925436556339264
31.991678186607498,0.9457201860388261,-1.5606213113343856,2.427688279463354,-1.7768602164717457,-0.521978840906614,-0.9453782813165004,-0.2496548295021057,0.7386494874954224,0.24796536564826965,-0.8342060446739197,0.029839523136615753,0.5335438847541809,0.13616421818733215
32.15832046652317,0.9369923833648627,-1.5618448826969162,2.433204554839158,-1.8218834479999488,-0.5608093543054657,-0.9953709652912023,-0.23578231036663055,0.7339873909950256,0.23153917491436005,-0.8463900685310364,-0.0046056462451815605,0.5104275345802307,0.1518760770559311
32.32496220811034,0.9282586614963652,-1.5630728274783874,2.438723692084167,-1.866905943811417,-0.599638305466606,-1.045363487767354,-0.22068442404270172,0.7298421263694763,0.21518349647521973,-0.8570791482925415,-0.038891009986400604,0.4860517084598541,0.16630256175994873
32.491604122758616,0.9195189962576299,-1.5643024440993967,2.4442446531762227,-1.9119298413549675,-0.6384688756676241,-1.0953560621618368,-0.20435869693756104,0.7261876463890076,0.1990136206150055,-0.8662827014923096,-0.07293500006198883,0.46050435304641724,0.17936140298843384
32.65824610392562,0.9107721035837445,-1.5655306863796643,2.4497668569123694,-1.9569575742356136,-0.6773051320722154,-1.145348656511938,-0.1868089884519577,0.7229898571968079,0.18314343690872192,-0.8740145564079285,-0.10665608942508698,0.43387895822525024,0.19097615778446198
32.82488821339636,0.9020182454408805,-1.5667555793921715,2.4552892189021374,-2.0019905282651456,-0.7161491773780017,-1.1953412893531605,-0.16804689168930054,0.7202093005180359,0.1676873415708542,-0.8802931904792786,-0.13997481763362885,0.4062742292881012,0.20107755064964294
32.991530485306626,0.8932579269879686,-1.5679771283815236,2.4608121129458813,-2.0470283588358495,-0.7550008444191241,-1.2453339709262394,-0.14809338748455048,0.7177990078926086,0.15275874733924866,-0.8851404786109924,-0.1728121042251587,0.37779441475868225,0.2096031904220581
33.15817209328149,0.8844935171388545,-1.5691965137989972,2.466335128629661,-2.092069212095777,-0.7938571048265759,-1.2953264533186988,-0.12697824835777283,0.7157080173492432,0.13847056031227112,-0.8885827660560608,-0.20509164035320282,0.3485485315322876,0.21649916470050812
33.31007023252644,0.8842079781136362,-1.5627231865014675,2.4614695807758125,-2.046499770322292,-0.7705564002528801,-1.2605588285557934,-0.1397009789943695,0.7129337787628174,0.14487525820732117,-0.8868077993392944,-0.17645777761936188,0.37406226992607117,0.20618444681167603
33.47671271202315,0.8842079803205497,-1.555808376850436,2.4561131533134115,-1.9965070264732787,-0.7444694268614109,-1.2219057959270743,-0.15319237112998962,0.7106196880340576,0.15293043851852417,-0.8834553956985474,-0.14440809190273285,0.4013109803199768,0.19391341507434845
33.64335515059995,0.8842079639434814,-1.5488934666031975,2.450756547669728,-1.946514294900239,-0.7183820139985412,-1.183252074461278,-0.1658446490764618,0.7089346051216125,0.1616932600736618,-0.8786670565605164,-0.11188818514347076,0.4275815784931183,0.18055203557014465
33.80999712891148,0.8842080123104473,-1.541977819511519,2.445399372510548,-1.896521701406779,-0.6922924157543726,-1.1445954847084454,-0.17762699723243713,0.7079077959060669,0.17107123136520386,-0.8724241852760315,-0.07897309213876724,0.4528084695339203,0.16614362597465515
33.976639681396044,0.8842079806100513,-1.535061053402962,2.440041251789967,-1.8465289356614116,-0.6661991583352206,-1.1059337406431355,-0.1885140836238861,0.7075613141059875,0.18096844851970673,-0.8647117018699646,-0.0457385778427124,0.47692859172821045,0.15073427557945251
34.1432812869582,0.8842079786235937,-1.5281433995892477,2.434682674255618,-1.7965364539927657,-0.6401031571360302,-1.06726831653444,-0.19848552346229553,0.7079110741615295,0.19128750264644623,-0.85551917552948,-0.012264004908502102,0.4998801350593567,0.1343739926815033
34.309922770362604,0.8842079639434814,-1.521225239423269,2.429323453053645,-1.7465440089714435,-0.6140056319604418,-1.028600959156359,-0.20752626657485962,0.7089657783508301,0.2019292712211609,-0.8448406457901001,0.02137048728764057,0.5216046571731567,0.1171155497431755
34.4765650047987,0.8842080064623179,-1.5143070431982952,2.423964249754691,-1.6965513386406155,-0.587907781152783,-0.9899332149838994,-0.2156272530555725,0.7107281684875488,0.21279428899288177,-0.8326746225357056,0.05508427321910858,0.5420467257499695,0.0990152359008789
34.64320736566509,0.884207975526491,-1.5073893088974764,2.4186052494117734,-1.6465586303806994,-0.5618110140369548,-0.9512671015145238,-0.2227841168642044,0.7131944894790649,0.22378353774547577,-0.8190240263938904,0.08879607170820236,0.561153769493103,0.08013249933719635
34.80984955697796,0.8842080235481262,-1.5004716158572995,2.4132466413903946,-1.5965659729868387,-0.5357155291018529,-0.912602763136834,-0.22899827361106873,0.7163556814193726,0.23479865491390228,-0.8038959503173828,0.12242572754621506,0.5788776278495789,0.06052910163998604
34.97649226818156,0.8842080235481262,-1.4935543703619372,2.407888215258979,-1.5465731596257577,-0.5096207016009123,-0.8739394275985475,-0.2342759370803833,0.7201972007751465,0.24574384093284607,-0.787301778793335,0.15589351952075958,0.5951733589172363,0.040269847959280014
35.14313538321044,0.8842080235481262,-1.4866370441359362,2.402529671866876,-1.4965802251170923,-0.48352616482794636,-0.8352763574176316,-0.2386285960674286,0.7246980667114258,0.25652432441711426,-0.7692570090293884,0.18912047147750854,0.6099998950958252,0.01942136511206627
35.30977741123669,0.8842080235481262,-1.4797198874948359,2.3971713405490425,-1.446587616709218,-0.4574316462704098,-0.7966133657032093,-0.2420724481344223,0.729831874370575,0.2670493721961975,0.7497814893722534,-0.22202754020690918,-0.6233198642730713,0.001946906908415258
35.476419841416586,0.8842080235481262,-1.4728025517140877,2.3918128460118377,-1.396594887655248,-0.4313369344138269,-0.7579500499357738,-0.2446286976337433,0.7355666160583496,0.27723008394241333,0.728899359703064,-0.2545371353626251,-0.6350997686386108,0.0237643551081419
35.64306128227323,0.8842080235481262,-1.4658853109101362,2.3864544137301715,-1.3466024553982545,-0.4052422716154012,-0.7192867845286096,-0.2463231086730957,0.7418646216392517,0.28698277473449707,0.7066392302513123,-0.28657203912734985,-0.6453102827072144,0.045957911759614944
35.809703533126296,0.8842080558661393,-1.4589678700221205,2.3810957957105545,-1.2966097801423353,-0.3791473906655201,-0.6806231843223548,-0.24718590080738068,0.7486834526062012,0.2962273359298706,0.683033287525177,-0.31805700063705444,-0.6539260745048523,0.06845374405384064
35.97634687544928,0.8842080235481262,-1.4520504962995333,2.375737478716859,-1.2466167774454404,-0.3530522964842272,-0.6419593182550514,-0.24725139141082764,0.755976140499115,0.30488917231559753,0.6581180691719055,-0.34891828894615173,-0.6609262824058533,0.09117621928453445
36.14298847993324,0.8842080235481262,-1.445133191835794,2.3703789092048133,-1.196624296100253,-0.3269574388424698,-0.6032957450730035,-0.2465575635433197,0.7636906504631042,0.3128989338874817,0.631934642791748,-0.37908312678337097,-0.6662938594818115,0.11404837667942047
36.309630857367054,0.8842080235481262,-1.4382158744176154,2.365020239840016,-1.1466315828701084,-0.3008625609818045,-0.5646320931392816,-0.24514609575271606,0.7717719078063965,0.32019343972206116,0.6045269966125488,-0.40848201513290405,-0.6700166463851929,0.13699322938919067
36.4762736355307,0.8842079907338684,-1.4312984346257738,2.3596619474554066,-1.0966387494210144,-0.27476754482065235,-0.5259683560456387,-0.2430620789527893,0.7801604270935059,0.32671526074409485,0.5759431719779968,-0.4370472729206085,-0.6720867156982422,0.15993309020996094
36.64291641369451,0.8842079683347439,-1.424381091405773,2.354303176833649,-1.0466459159718733,-0.24867257335748716,-0.48730459706370044,-0.24035297334194183,0.7887945175170898,0.33241453766822815,0.5462350249290466,-0.4647134244441986,-0.6725003719329834,0.18278922140598297
36.80955927196408,0.8842079995163933,-1.4174637121700484,2.348944740757402,-0.9966530584910003,-0.22257755210991284,-0.4486407893350635,-0.2370695024728775,0.797608494758606,0.33724740147590637,0.5154574513435364,-0.4914179742336273,-0.6712587475776672,0.2054838389158249
36.976202343553354,0.8842080163982097,-1.4105464290612553,2.3435861124272916,-0.9466601370142191,-0.1964825466681388,-0.40997701760928984,-0.2332638055086136,0.8065354228019714,0.3411780893802643,0.48366907238960266,-0.5171012282371521,-0.6683670878410339,0.22793863713741302
37.14284427990855,0.8842079852157207,-1.4036291213218808,2.338227478007216,-0.89666755610766,-0.17038773424335724,-0.3713134624638439,-0.22899018228054047,0.8155062198638916,0.34417787194252014,0.45093128085136414,-0.541706383228302,-0.6638352274894714,0.25007572770118713
37.30948626769921,0.8842080732426608,-1.3967117883127298,2.3328689033295964,-0.846674959770463,-0.14429289997339254,-0.33264988150359714,-0.22430437803268433,0.8244502544403076,0.3462257981300354,0.41730859875679016,-0.565180242061615,-0.657677412033081,0.2718183398246765
37.47612807085155,0.8842085107575115,-1.3897945347581224,2.327510685030208,-0.7966824188247588,-0.11819832539014244,-0.29398639152836675,-0.21926349401474,0.8332960605621338,0.3473084270954132,0.38286811113357544,-0.5874725580215454,-0.6499121785163879,0.29309073090553284
37.6427704575451,0.8842095024095176,-1.3828773263662237,2.322152553094469,-0.7466897028166953,-0.09210410939745924,-0.2553228903150065,-0.213924840092659,0.8419720530509949,0.3474208116531372,0.3476795554161072,-0.6085368990898132,-0.6405622363090515,0.3138180673122406
37.80941252439009,0.8842115392616573,-1.3759601506988617,2.3167951048750135,-0.6966970827631975,-0.06601077254915785,-0.216659722946646,-0.2083463817834854,0.850406289100647,0.3465651571750641,0.31181541085243225,-0.6283302307128906,-0.6296547055244446,0.3339269161224365
37.97605427505669,0.8842150621280674,-1.369043270837973,2.3114388136198643,-0.646704557563218,-0.03991853160328733,-0.17799691364893472,-0.2025860846042633,0.8585275411605835,0.3447519838809967,0.27535006403923035,-0.6468135118484497,-0.6172205805778503,0.3533458113670349
38.1426970027933,0.8842200005793175,-1.3621268685491679,2.306083149275631,-0.5967117392422363,-0.013827531647237101,-0.13933426686023676,-0.19670012593269348,0.8662664890289307,0.3419998288154602,0.23835960030555725,-0.6639518141746521,-0.6032953858375549,0.3720044791698456
38.3093396255173,0.8842259652034894,-1.3552123389639974,2.3007282160881832,-0.546718952425035,0.012261598863053915,-0.10067231986403684,-0.1907440423965454,0.873555064201355,0.3383353054523468,0.20092268288135529,-0.6797136068344116,-0.5879188179969788,0.3898344039916992
38.47598146127305,0.8842326125041753,-1.3483002835617046,2.2953736178854074,-0.49672640169830995,0.03834848847073062,-0.06201125583735852,-0.18477120995521545,0.8803274035453796,0.33379241824150085,0.16311903297901154,-0.6940721869468689,-0.5711343288421631,0.4067695438861847
38.642624615086675,0.8842397204147605,-1.3413917859907525,2.2900196667103843,-0.44673345555422184,0.064433034132191,-0.023350773462058133,-0.17883406579494476,0.8865205645561218,0.32841211557388306,0.12502893805503845,-0.707004964351654,-0.5529890060424805,0.422746866941452
38.8092662710039,0.8842491325937245,-1.3344851972696588,2.2846675232037708,-0.39674095877905435,0.09051551905007091,0.015308649244027285,-0.17298418283462524,0.8920737504959106,0.32224041223526,0.08673396706581116,-0.7184935808181763,-0.5335327982902527,0.43770653009414673
38.97590910880477,0.8842656549596191,-1.3275760797082725,2.2793212039734243,-0.3467481074387934,0.11659773087892737,0.05396790089255031,-0.16727474331855774,0.8969277739524841,0.3153267800807953,0.048314113169908524,-0.7285250425338745,-0.5128156542778015,0.4515940248966217
39.142551260805924,0.8842928526990431,-1.3206608301970515,2.273983640574327,-0.2967554618384472,0.14268100882739052,0.0926270176198281,-0.16175436973571777,0.9010279178619385,0.3077273666858673,0.009850981645286083,-0.737089991569519,-0.4908916652202606,0.46435612440109253
39.30919315931194,0.8843437017778171,-1.3137347818358411,2.268665852789909,-0.24676289228664275,0.1687630690021686,0.1312851684119062,-0.15648210048675537,0.9043169021606445,0.29950186610221863,-0.02857169136404991,-0.744183361530304,-0.46781259775161743,0.47594761848449707
39.47583533441607,0.8844976859671935,-1.3068117401975345,2.2634353556278692,-0.19677023975540386,0.19479094349447806,0.16992483875918063,-0.15161842107772827,0.9066856503486633,0.2907215654850006,-0.06683807075023651,-0.7497977018356323,-0.4436061978340149,0.48636355996131897
39.64247715187285,0.885006850958394,-1.2999337764976615,2.258507574338452,-0.14677769451836892,0.22059876908139592,0.20849067955832992,-0.1475847065448761,0.9078978300094604,0.2814689874649048,-0.10476216673851013,-0.7539246082305908,-0.41822507977485657,0.49569180607795715
39.80911966945791,0.8860001368611088,-1.2931278835557916,2.2539919474001193,-0.09678493924285334,0.2460966571813195,0.24695318422381315,-0.14461149275302887,0.9078325033187866,0.27184540033340454,-0.14220276474952698,-0.7565808892250061,-0.3916710913181305,0.5039419531822205
39.975761370940184,0.8878083908959741,-1.2864607905449248,2.2501683424161163,-0.04679242879816969,0.27105804944610035,0.28523729009671417,-0.14322958886623383,0.9062256813049316,0.2619767189025879,-0.17893348634243011,-0.7577887177467346,-0.3638576865196228,0.5112208127975464
40.14240374443929,0.8903738087718022,-1.2800643639839575,2.2469495597206404,0.0032002832515626127,0.2954181168339411,0.32332962587337905,-0.14337177574634552,0.9031378626823425,0.25211867690086365,-0.2148074060678482,-0.7575904130935669,-0.3349349796772003,0.5174291133880615
40.30904541086049,0.8937016579440059,-1.2743746822620339,2.2442226495505215,0.05319278317792245,0.3188586424108365,0.3611487237087918,-0.14506667852401733,0.8986261487007141,0.2428259253501892,-0.24948173761367798,-0.7560213804244995,-0.305189847946167,0.5225415825843811
40.475687856357254,0.8976077649261341,-1.2696965795694841,2.241739522986339,0.1031855168269514,0.3412579008259441,0.398673331134384,-0.14801986515522003,0.892924427986145,0.23453885316848755,-0.2827829122543335,-0.7531529664993286,-0.274974524974823,0.526482105255127
40.642330619776345,0.901976664274282,-1.266376886899814,2.239301798200001,0.15317834585267945,0.3624267186695028,0.4358612539989404,-0.15202435851097107,0.8862504959106445,0.22771471738815308,-0.31451842188835144,-0.7490723133087158,-0.2446458786725998,0.52926105260849
40.80897288514992,0.906588390615079,-1.2645910745106932,2.236644055326708,0.20317102546475108,0.38234810314553513,0.4727188240226441,-0.15669143199920654,0.8789145946502686,0.22263360023498535,-0.3446498513221741,-0.7438819408416748,-0.2145489752292633,0.5308717489242554
40.9756160414263,0.9109426476436598,-1.2637038356159729,2.2334324909651917,0.25316397234766386,0.40172772499126974,0.5094504084584011,-0.1611858606338501,0.8713187575340271,0.21877841651439667,-0.37368690967559814,-0.7376651167869568,-0.1847642958164215,0.5311030149459839
41.142257853704955,0.9143533606055396,-1.2632062972153564,2.2290902182477517,0.3031565160312605,0.42126227405611466,0.54626600065032,-0.16443035006523132,0.8640037775039673,0.21577030420303345,-0.40208083391189575,-0.7304444909095764,-0.15555647015571594,0.5297017693519592
41.30890004336643,0.9162997774465944,-1.2624629598298085,2.2232564647060014,0.35314917292970244,0.4416650068547897,0.5833728891696784,-0.16564059257507324,0.8572839498519897,0.21306873857975006,-0.43028736114501953,-0.7221938967704773,-0.1269979625940323,0.5264600515365601
41.47554213286447,0.9162035653170112,-1.2609096851557327,2.2154882936521787,0.40314179977911435,0.4636204717325593,0.6209729609047876,-0.16397510468959808,0.8514723181724548,0.2102149873971939,-0.45869922637939453,-0.7128344774246216,-0.09922890365123749,0.5211674571037292
41.64218430699578,0.9140014068206318,-1.2582298951775432,2.2058284482324995,0.4531344520185085,0.4873699936272927,0.6591293061597788,-0.1593940705060959,0.8464325666427612,0.2069445252418518,-0.4874129593372345,-0.7022837996482849,-0.07216989248991013,0.513826310634613
41.80882700784961,0.9104048084860349,-1.254500760697274,2.195030273515608,0.5031272622746572,0.5124962212595732,0.6976998876348615,-0.15301871299743652,0.8414643406867981,0.2033018320798874,-0.5161064267158508,-0.6905304789543152,-0.0454321913421154,0.5047153830528259
41.97546939269104,0.9058534782620147,-1.2495460139963817,2.1836435125769595,0.5531199777270865,0.5388793258042561,0.7366298842038114,-0.1455606371164322,0.836043119430542,0.19913707673549652,-0.5446327328681946,-0.6775446534156799,-0.018650492653250694,0.4939236640930176
42.14211131860276,0.901078793830294,-1.2434935247795877,2.1724355381179103,0.6031125555006018,0.5660781161316525,0.7757716209282857,-0.1381516456604004,0.8295385837554932,0.19456711411476135,-0.5726199150085449,-0.6633764505386353,0.00856283400207758,0.48162731528282166
42.308752957084515,0.8964859242730767,-1.235921413996456,2.162098656265694,0.6531050470451292,0.5943063321896701,0.8151658001452511,-0.13147670030593872,0.8213477730751038,0.18917302787303925,-0.6000438332557678,-0.6480002999305725,0.03674636036157608,0.46764594316482544
42.475395291792765,0.8923529880198773,-1.2265997796932009,2.1531408166323494,0.7030977474576035,0.6237751954609424,0.8548638498429288,-0.1260167360305786,0.8110061287879944,0.1827578991651535,-0.6267943382263184,-0.6314071416854858,0.0662340596318245,0.4517374038696289
42.642036892648896,0.8890265793774449,-1.2149479552193345,2.1463156606302345,0.7530902277144439,0.6549491333978699,0.8949797281919164,-0.12239941209554672,0.7977859973907471,0.17485259473323822,-0.6528162956237793,-0.6135349869728088,0.09762246161699295,0.43344616889953613
42.80867862845558,0.8867114301516881,-1.2007883254971077,2.142004702983535,0.8030827484564487,0.6879973919333932,0.9355553991943584,-0.12097667902708054,0.7812702655792236,0.1655578315258026,-0.6778193116188049,-0.5943818688392639,0.13109177350997925,0.41241490840911865
42.97532072094341,0.8852857248935695,-1.1845002160996352,2.1398751779940777,0.8530753762027974,0.7226449347330993,0.9765233803207992,-0.1214849203824997,0.7617086172103882,0.1556936502456665,-0.7013267278671265,-0.5740483999252319,0.16614580154418945,0.38859328627586365
43.14196210357589,0.8845674038057147,-1.1665225659354772,2.139479631945294,0.9030677909925434,0.7585619931752471,1.0178027092696171,-0.12350871413946152,0.7395225167274475,0.1461358666419983,-0.7229019403457642,-0.5526793599128723,0.20217838883399963,0.36205270886421204
43.308601313934204,0.884208083152771,-1.1476880311965942,2.139963388442993,0.9530595541000366,0.7951229214668274,1.059239387512207,-0.12627124786376953,0.7156447172164917,0.13801735639572144,-0.7421417832374573,-0.5305219888687134,0.23819997906684875,0.3332155644893646
43.474869587535586,0.8547339067741738,-1.1563583276358065,2.0900829063625785,0.9737591539802961,0.7577900635565002,1.0794381694628226,-0.08666358888149261,0.760211706161499,0.16763466596603394,-0.7493515014648438,-0.5126756429672241,0.2217976152896881,0.3555866479873657
43.64114421896574,0.8252586277313055,-1.1650288588229212,2.040200516933531,0.9944595196967417,0.7204558625947537,1.0996376157116092,-0.045500025153160095,0.8012596368789673,0.20038188993930817,-0.755174458026886,-0.4949299991130829,0.20532719790935516,0.3776196241378784
43.8074188503959,0.795783358612321,-1.173699312199982,1.990318127504484,1.0151599340480393,0.6831216035574291,1.1198371325073617,-0.003137931227684021,0.8386061191558838,0.2361236959695816,-0.759633481502533,-0.47736573219299316,0.1888142079114914,0.3992844521999359
43.973693481826054,0.7663081588414777,-1.1823698314916853,1.9404357380754367,1.0358601737899829,0.6457874450280291,1.1400366238943154,0.04005636274814606,0.872105598449707,0.2747119665145874,-0.7627566456794739,-0.46006128191947937,0.1722830832004547,0.42055267095565796
44.13996811325621,0.7368329175404533,-1.191040411543064,1.8905533486463892,1.0565605677467558,0.6084533120782943,1.1602360425097333,0.08370831608772278,0.9016470909118652,0.3159863352775574,-0.7645766735076904,-0.4430921673774719,0.15575924515724182,0.4413965940475464
44.306242744686365,0.7073576946529477,-1.1997109424308243,1.8406709592173418,1.0772609446913748,0.5711191337305782,1.1804354812938527,0.12743860483169556,0.9271555542945862,0.35977452993392944,-0.7651311755180359,-0.42653170228004456,0.13926826417446136,0.46178922057151794
44.47251737611652,0.6778823608882381,-1.208381387214159,1.7907885697882944,1.0979612764644409,0.5337848468792149,1.2006350065572227,0.17086800932884216,0.9485924243927002,0.4058924913406372,-0.7644621133804321,-0.4104504883289337,0.12283552438020706,0.48170462250709534
44.63879200754668,0.6484071790163569,-1.2170520973425805,1.7409061803592472,1.1186616436939985,0.4964507559756849,1.2208344201075862,0.2136184424161911,0.9659547209739685,0.45414668321609497,-0.7626157999038696,-0.3949161171913147,0.10648686438798904,0.5011176466941833
44.80506663897683,0.618931889159232,-1.225722651079246,1.6910237909302,1.1393620431811742,0.4591164987792244,1.2410338019948346,0.25531893968582153,0.9792754054069519,0.5043337345123291,-0.759642481803894,-0.37999260425567627,0.09024816751480103,0.5200040340423584
44.97134127040699,0.589456640317922,-1.2343931180859808,1.6411414015011525,1.160062386697801,0.4217823197095203,1.2612332593182853,0.29560714960098267,0.9886219501495361,0.5562416315078735,-0.755596399307251,-0.36574044823646545,0.07414533197879791,0.5383405089378357
45.137615901837144,0.5599813775884861,-1.2430636314470929,1.591259012072105,1.1807628043450564,0.384448122107159,1.2814327907723646,0.33413320779800415,0.9940956830978394,0.6096509099006653,-0.7505353093147278,-0.35221627354621887,0.05820425972342491,0.5561047792434692
45.3038905332673,0.5305061609261533,-1.2517342739692596,1.5413766226430576,1.2014631503861473,0.34711395724434746,1.3016322516499632,0.37056273221969604,0.995830774307251,0.6643354296684265,-0.7445206046104431,-0.3394729793071747,0.042450912296772,0.5732758045196533
45.470165164697455,0.5010309443560923,-1.2604047914886978,1.4914942332140104,1.2221634492661666,0.3097798417340926,1.3218315464918762,0.40458017587661743,0.9939917325973511,0.7200633883476257,-0.7376163005828857,-0.3275589644908905,0.026910999789834023,0.5898330211639404
45.63643979612761,0.47155570154867293,-1.2690754518353506,1.441611843784963,1.2428638600802684,0.272445672705129,1.342031111275764,0.4358910918235779,0.9887721538543701,0.7765986323356628,-0.7298896312713623,-0.31651806831359863,0.011610482819378376,0.6057578325271606
45.80271442755777,0.44208047818293633,-1.2777460436049322,1.3917294543559158,1.2635641245505678,0.23511149625273886,1.3622306371762865,0.4642248749732971,0.9803924560546875,0.8337010741233826,-0.7214100956916809,-0.3063901662826538,-0.0034254526253789663,0.6210319995880127
45.96898905898792,0.412605157982246,-1.2864164761956887,1.3418470649268683,1.284264605308473,0.19777723193229008,1.3824300874163724,0.4893372058868408,0.9690971970558167,0.891128659248352,-0.712249755859375,-0.29720965027809143,-0.018171241506934166,0.6356386542320251
46.13526369041808,0.38312992260281326,-1.295087075247441,1.291964675497821,1.304964936989112,0.16044302192164808,1.4026296024554057,0.5110116600990295,0.9551530480384827,0.9486376047134399,-0.7024821639060974,-0.28900671005249023,-0.03260190412402153,0.6495621800422668
46.301538321848234,0.3536547006155653,-1.303757654342351,1.2420822860687737,1.325665330184076,0.12310890013328701,1.4228289971389654,0.5290622115135193,0.9388450384140015,1.0059840679168701,-0.6921828985214233,-0.28180620074272156,-0.04669271782040596,0.6627879738807678
46.46781295327839,0.3241795162209236,-1.3124280640109656,1.1921998966397263,1.3463656080641735,0.08577477544085516,1.4430283268683255,0.5433344841003418,0.9204750061035156,1.0629246234893799,-0.6814284920692444,-0.2756282389163971,-0.06041928380727768,0.6753026843070984
46.634087584708546,0.29470423417862773,-1.3210985865003486,1.142317507210679,1.3670660310824523,0.0484405536652177,1.4632278069436615,0.5537063479423523,0.9003570079803467,1.1192182302474976,-0.6702966690063477,-0.27048739790916443,-0.07375752925872803,0.6870943903923035
46.8003622161387,0.26522893071031567,-1.3297693582512433,1.0924351177816316,1.38776642444516,0.011106271229177143,1.4834274314887712,0.5600895881652832,0.8788154721260071,1.1746270656585693,-0.6588656902313232,-0.2663935422897339,-0.0866839587688446,0.6981520652770996
46.96663684756886,0.2357536858627313,-1.3384398503654356,1.0425527283525842,1.4084668373249953,-0.02622793067363283,1.5036268117429459,0.5624308586120605,0.8561813831329346,1.2289161682128906,-0.6472142338752747,-0.2633512616157532,-0.09917547553777695,0.7084659337997437
47.13291147899901,0.20627845269580375,-1.3471104205597055,0.992670338923537,1.4291671808416222,-0.06356211858246098,1.52382623638503,0.5607106685638428,0.8327888250350952,1.2818567752838135,-0.6354207992553711,-0.261359840631485,-0.11120954155921936,0.718027651309967
47.29918611042917,0.17680318678854678,-1.3557808232509811,0.9427879494944895,1.4498674384731232,-0.10089630494930653,1.5440256695616281,0.5549444556236267,0.8089722394943237,1.3332254886627197,-0.6235637068748474,-0.26041361689567566,-0.1227642223238945,0.7268300652503967
47.46546055136117,0.14732800156015408,-1.3644513637574718,0.8929056172148906,1.4705677012334872,-0.13823041484280013,1.5642250472765307,0.5451816320419312,0.7850627899169922,1.3828065395355225,-0.6117205023765564,-0.2605016827583313,-0.1338181495666504,0.7348670959472656
47.63173533411618,0.11785270200493879,-1.3731220163822988,0.8430231823883878,1.4912681059324442,-0.1755646683572135,1.5844246605759125,0.5315049886703491,0.7613852620124817,1.4303916692733765,-0.5999675989151001,-0.26160770654678345,-0.14435040950775146,0.7421342134475708
47.798009719508066,0.08837749663392475,-1.3817925553635186,0.7931408667708214,1.5119684838933554,-0.2128988127833699,1.6046240581206768,0.5140305161476135,0.7382552623748779,1.4757819175720215,-0.5883804559707642,-0.26371118426322937,-0.15434125065803528,0.7486278414726257
47.9642842387855,0.058902242535875185,-1.3904630573132288,0.7432585109875895,1.5326688328214333,-0.2502329986142165,1.6248235207246378,0.49290478229522705,0.7159760594367981,1.5187878608703613,-0.5770325660705566,-0.2667860984802246,-0.16377125680446625,0.7543457746505737
48.13055887021566,0.029426985037889205,-1.399133627760276,0.6933761215585423,1.553369147343934,-0.28756720011937187,1.6450230585012426,0.46830445528030396,0.6948356032371521,1.559231162071228,-0.5659955739974976,-0.27080193161964417,-0.17262206971645355,0.7592871189117432
48.296833700327966,-4.827414433388605e-05,-1.407804232786665,0.6434936725248501,1.574069664965932,-0.32490140729357525,1.6652224630969115,0.4404340386390686,0.6751041412353516,1.5969440937042236,-0.5553388595581055,-0.2757234275341034,-0.18087591230869293,0.7634520530700684
48.463108254484005,-0.02952351881696367,-1.4164747001570333,0.5936113062780384,1.594769930003802,-0.3622355725542126,1.6854218877548606,0.40952396392822266,0.6570314764976501,1.6317713260650635,-0.5451294779777527,-0.2815108001232147,-0.1885158270597458,0.7668423652648926
48.62938276450613,-0.05899875965152632,-1.4251452860612317,0.5437289532714003,1.6154703491014955,-0.3995697698321127,1.705621343927607,0.37582796812057495,0.6408450603485107,1.6635708808898926,-0.5354312658309937,-0.28812021017074585,-0.19552601873874664,0.7694604992866516
48.795657567923826,-0.08847400976419915,-1.4338157885705585,0.49384651224609194,1.6361708158561918,-0.43690397479137594,1.7258207330252462,0.33962130546569824,0.626747727394104,1.6922134160995483,-0.5263054370880127,-0.29550349712371826,-0.20189137756824493,0.7713106870651245
48.961932137038865,-0.11794925287949441,-1.4424863294733137,0.4439641415115806,1.6568710938586413,-0.47423812792167985,1.746020346324628,0.30119752883911133,0.6149160861968994,1.7175835371017456,-0.5178094506263733,-0.30360859632492065,-0.20759771764278412,0.7723976969718933
49.128206823469355,-0.14742451412732116,-1.4511569641598374,0.3940817355824342,1.677571457736815,-0.5115723174238943,1.7662197438693923,0.26086539030075073,0.6054987907409668,1.7395808696746826,-0.5099973678588867,-0.3123801052570343,-0.21263211965560913,0.7727282643318176
49.29448138956784,-0.17689976002271143,-1.459827484461352,0.34419936575288856,1.698271885017599,-0.5489065334137131,1.7864191974784587,0.21894727647304535,0.5986157059669495,1.7581193447113037,-0.5029194355010986,-0.32175853848457336,-0.21698221564292908,0.7723095417022705
49.460756020998,-0.20637499983599383,-1.468498134195929,0.29431697632384113,1.718972354052785,-0.5862407494633798,1.8066187331435828,0.17577457427978516,0.5943566560745239,1.7731279134750366,-0.4966220557689667,-0.3316817283630371,-0.2206369787454605,0.7711503505706787
49.62703059990577,-0.23585022627422939,-1.4771685866316953,0.24443460265150774,1.7396726591783778,-0.6235749022708751,1.826818129594341,0.13168570399284363,0.5927811861038208,1.7845516204833984,-0.49114707112312317,-0.342084676027298,-0.2235865592956543,0.7692603468894958
49.79330514044435,-0.26532547333993967,-1.4858391212106588,0.19455224048993291,1.7603729706970919,-0.6609090621839101,1.8470175204358286,0.08702217787504196,0.593917727470398,1.7923500537872314,-0.48653218150138855,-0.3528992831707001,-0.22582188248634338,0.7666504979133606
49.95957964040558,-0.294800701166194,-1.4945097214096912,0.14466989050156423,1.7810733226289563,-0.6982432462916904,1.8672169656923818,0.04212591052055359,0.5977640151977539,1.7964991331100464,-0.48281028866767883,-0.3640555143356323,-0.2273351103067398,0.7633325457572937
50.125854191141556,-0.32427593675267635,-1.5031802084732526,0.09478752528077145,1.8017736969707099,-0.7355774347284165,1.8874165108601082,-0.0026634931564331055,0.6042872667312622,1.796990990638733,-0.48000991344451904,-0.37548086047172546,-0.22811949253082275,0.7593194246292114
50.292128680518694,-0.3537511482897507,-1.5118506190603431,0.044905178467630126,1.82247398737077,-0.7729115909581232,1.9076159141552893,-0.04701227694749832,0.6134244203567505,1.793832778930664,-0.4781544804573059,-0.3871013820171356,-0.2281695306301117,0.7546252608299255
50.45840319307847,-0.3832263957342474,-1.520521234368551,-0.0049771753003023285,1.8431743824934845,-0.8102457922183224,1.9278154239706045,-0.09059649705886841,0.6250840425491333,1.7870473861694336,-0.4772627353668213,-0.3988417983055115,-0.22748082876205444,0.7492649555206299
50.62467769656993,-0.41270162457001236,-1.52919181066639,-0.05485952634774241,1.8638747076493996,-0.8475799343333211,1.9480148044989107,-0.13310229778289795,0.6391459703445435,1.7766737937927246,-0.4773480296134949,-0.4106253385543823,-0.22605016827583313,0.7432542443275452
50.790952302545925,-0.4421768804014376,-1.537862358819955,-0.10474190814053941,1.8845751375279691,-0.8849141199934536,1.9682142885766336,-0.17423079907894135,0.6554637551307678,1.7627657651901245,-0.4784190356731415,-0.42237454652786255,-0.223875492811203,0.7366102337837219
50.9572268142393,-0.47165213020062713,-1.5465330007907896,-0.15462426164855148,1.905275432914673,-0.9222482783674051,1.9884138118913621,-0.2137005627155304,0.6738663911819458,1.7453923225402832,-0.4804791808128357,-0.4340117871761322,-0.2209559679031372,0.7293503880500793
51.123501480837156,-0.5011273418929116,-1.5552033827847471,-0.20450666162790915,1.925975829548181,-0.9595824206725971,2.0086132792016542,-0.25124821066856384,0.6941592693328857,1.7246367931365967,-0.4835265576839447,-0.4454587697982788,-0.217291921377182,0.7214934229850769
51.289776072660054,-0.5306025742568797,-1.5638739554599046,-0.2543890391747783,1.946676200772757,-0.9969165890533561,2.028812626257629,-0.28663304448127747,0.7161274552345276,1.7005969285964966,-0.48755425214767456,-0.4566378593444824,-0.21288511157035828,0.7130586504936218
51.45605070409021,-0.5600778348646848,-1.5725445373184046,-0.3042714286038257,1.9673765215649013,-1.0342508050066133,2.0490120463755748,-0.3196367919445038,0.739537239074707,1.6733839511871338,-0.4925503432750702,-0.46747180819511414,-0.20773829519748688,0.7040660977363586
51.622325335520365,-0.5895531090762981,-1.5812151470659515,-0.35415381803287316,1.988076868485288,-1.0715849663957673,2.06921146958834,-0.3500668406486511,0.7641385793685913,1.6431224346160889,-0.49849769473075867,-0.47788384556770325,-0.2018553912639618,0.6945368051528931
51.78859998244939,-0.619028339229151,-1.589885650410233,-0.4040362121115808,2.008777093980226,-1.1089190994321954,2.0894110298188617,-0.37775665521621704,0.7896682024002075,1.6099497079849243,-0.5053741335868835,-0.4877989590167999,-0.19524171948432922,0.684492290019989
51.954874697721756,-0.6485036203892608,-1.5985562194627088,-0.45391862669329,2.029477566934475,-1.1462532852331142,2.109610562444005,-0.40256786346435547,0.8158519268035889,1.5740141868591309,-0.5131525993347168,-0.4971431493759155,-0.18790388107299805,0.6739548444747925
52.12114926629606,-0.6779788089524447,-1.6072266540898308,-0.5038009972655799,2.0501777673990094,-1.1835875340711823,2.129809873452272,-0.4243902862071991,0.8424072265625,1.5354764461517334,-0.5218009352684021,-0.5058447122573853,-0.1798495501279831,0.6629472374916077
52.287423861241,-0.7074540595058448,-1.6158972764911381,-0.5536833757490625,2.070878293674219,-1.2209216544373978,2.150009366514155,-0.443143367767334,0.8690470457077026,1.4945067167282104,-0.5312827229499817,-0.5138333439826965,-0.17108777165412903,0.6514928340911865
52.45369849267116,-0.736929301425811,-1.6245677295696996,-0.6035657651781099,2.0915787056058464,-1.25825585606456,2.1702089821358146,-0.4587754011154175,0.8954812288284302,1.4512852430343628,-0.5415564775466919,-0.521041750907898,-0.16162849962711334,0.6396157145500183
52.619973124101314,-0.7664045347206184,-1.6332383227965004,-0.6534481546071573,2.112278987861454,-1.2955900399179363,2.1904083149770623,-0.4712650775909424,0.9214210510253906,1.4060002565383911,-0.5525766015052795,-0.527405321598053,-0.1514832079410553,0.6273399591445923
52.78624775553147,-0.7958797988625895,-1.641908834150797,-0.7033305440362043,2.132979328109775,-1.3329243646543305,2.210607776987048,-0.4806198477745056,0.9465806484222412,1.3588488101959229,-0.5642932057380676,-0.5328619480133057,-0.14066435396671295,0.6146907210350037
52.952522386961626,-0.8253550695400365,-1.6505794366529807,-0.7532129334652518,2.153679651312032,-1.3702585808976073,2.23080726343997,-0.4868762493133545,0.9706809520721436,1.310034155845642,-0.5766522288322449,-0.5373532772064209,-0.1291857361793518,0.6016930937767029
53.11879701839178,-0.8548303179830278,-1.659249881856077,-0.8030953228942992,2.1743800325070035,-1.4075926783012056,2.251006666735151,-0.4900985360145569,0.9934513568878174,1.2597662210464478,-0.5895957350730896,-0.5408241748809814,-0.11706236749887466,0.5883727073669434
53.28507164982194,-0.8843055864061871,-1.6679206282590275,-0.8529777123233466,2.195080314762611,-1.4449270441277124,2.2712062119028773,-0.4903784394264221,1.0146331787109375,1.2082594633102417,-0.6030621528625488,-0.5432233810424805,-0.10430990159511566,0.5747552514076233
53.45134628125209,-0.9137808106638646,-1.6765911566649838,-0.9028601017523941,2.2157807790431394,-1.4822611541608213,2.291405680521824,-0.4878327250480652,1.033982276916504,1.1557323932647705,-0.6169868111610413,-0.5445035696029663,-0.09094584733247757,0.5608670711517334
53.61762091268225,-0.943256079574228,-1.6852617006557848,-0.952742491181441,2.2364812166317685,-1.5195953616738243,2.3116051603657843,-0.482602596282959,1.0512703657150269,1.1024072170257568,-0.6313015222549438,-0.5446215271949768,-0.07698827236890793,0.5467343926429749
53.783895140284876,-0.9727311881062054,-1.6939320969237295,-1.0026247594622295,2.257181498887376,-1.556929411332891,2.331804467114932,-0.47485145926475525,1.0662875175476074,1.0485079288482666,-0.6459352374076843,-0.5435386896133423,-0.062456563115119934,0.5323837399482727
53.95016948199064,-1.0022065289771136,-1.7026027223612756,-1.0525070619739583,2.277881831526752,-1.5942636142435505,2.3520040614476505,-0.46476316452026367,1.0788456201553345,0.9942586421966553,-0.6608148217201233,-0.5412207245826721,-0.04737105965614319,0.517841637134552
54.116444605500845,-1.0316818619997188,-1.7112733299720653,-1.1023895990270198,2.2985822612773186,-1.6315979337965054,2.3722037505424525,-0.4525396525859833,1.088778018951416,0.9398850202560425,-0.6758642792701721,-0.5376380681991577,-0.031753018498420715,0.5031346082687378
54.282719729007546,-1.0611571216363107,-1.719943964658589,-1.1522721360790293,2.319282717895723,-1.668932163371557,2.392403295710179,-0.43839892745018005,1.0959420204162598,0.8856110572814941,-0.6910058856010437,-0.5327666401863098,-0.015624942258000374,0.48828935623168945
54.44899485251881,-1.0906325336101352,-1.7286144485248467,-1.202154673132407,2.3399832560887726,-1.7062664526697653,2.412602796925094,-0.4225718080997467,1.100219964981079,0.831659197807312,-0.7061600685119629,-0.5265862941741943,0.0009896791307255626,0.4733326733112335
54.6152694959918,-1.1201078046205766,-1.7372849679102471,-1.2520370661743043,2.3606835649253832,-1.7436007053853426,2.4328023112031083,-0.40530121326446533,1.1015208959579468,0.7782490849494934,-0.7212460041046143,-0.5190829634666443,0.018066825345158577,0.4582909345626831
54.78154395003886,-1.149582950862389,-1.745955563702426,-1.3019194023884229,2.3813839877998255,-1.780934773839145,2.453001700916231,-0.38683730363845825,1.0997800827026367,0.7255959510803223,-0.7361819744110107,-0.5102471113204956,0.03558111935853958,0.44319066405296326
54.94781863358507,-1.179058188926201,-1.7546260029493925,-1.3518018074522868,2.4020843195113684,-1.8182689645619818,2.4732011615984306,-0.36743634939193726,1.0949609279632568,0.673911452293396,-0.7508850693702698,-0.5000747442245483,0.05350660905241966,0.42805829644203186
55.11409339028227,-1.2085334889661012,-1.763296698647921,-1.4016842344614466,2.422784809073587,-1.8556031443017502,2.4934006924772083,-0.34735703468322754,1.0870541334152222,0.6234000325202942,-0.7652724981307983,-0.4885671138763428,0.07181636989116669,0.41291946172714233
55.28036802171243,-1.238008759593817,-1.7719672107347204,-1.4515666238904936,2.443485125636149,-1.8929372962593745,2.5136000148148887,-0.3268589973449707,1.0760776996612549,0.5742616653442383,-0.7792611122131348,-0.4757307767868042,0.0904829278588295,0.39780038595199585
55.44664265314258,-1.2674839251831338,-1.7806377491178187,-1.501449013319541,2.4641854350894814,-1.9302715120053469,2.5337995842165393,-0.30619877576828003,1.0620774030685425,0.5266873836517334,-0.7927680015563965,-0.4615776240825653,0.10947787761688232,0.38272625207901
55.61291728457274,-1.296959215265255,-1.789308310682904,-1.5513314027485885,2.484885722644222,-1.9676057282245678,2.553998982622359,-0.2856278717517853,1.0451252460479736,0.48086103796958923,-0.8057111501693726,-0.4461249113082886,0.12877203524112701,0.36772239208221436
55.779192264302964,-1.3264345559291029,-1.7979788622096473,-1.601213896667656,2.5055863510703165,-2.004939944238861,2.574198368502041,-0.2653900980949402,1.0253196954727173,0.436957448720932,-0.8180092573165894,-0.42939481139183044,0.148335799574852,0.3528136909008026
55.94546694479735,-1.3559097641349613,-1.8066494414467837,-1.651096300815973,2.5262866390986187,-2.0422742261943596,2.5943978560331398,-0.24571946263313293,1.002783179283142,0.39514172077178955,-0.8295820355415344,-0.4114152491092682,0.16813874244689941,0.33802416920661926
56.11174157622751,-1.385384977695032,-1.815319975301476,-1.7009786902450204,2.54698690796815,-2.079608453573253,2.614597306989297,-0.2268369197845459,0.977662205696106,0.35556966066360474,-0.8403514623641968,-0.3922187387943268,0.18815010786056519,0.32337796688079834
56.278016207657664,-1.4148601432843486,-1.8239905842075326,-1.7508610796740673,2.567687299590321,-2.116942521695389,2.6347966633121143,-0.20894911885261536,0.950124979019165,0.3183852434158325,-0.8502407073974609,-0.3718433976173401,0.20833821594715118,0.30889859795570374
56.444291168881456,-1.4443355247354495,-1.8326611067336356,-1.8007435680412054,2.5883878838564858,-2.154276935792523,2.6549962102913915,-0.19224581122398376,0.9203596115112305,0.2837217152118683,-0.8591757416725159,-0.3503313660621643,0.22867156565189362,0.29460880160331726
56.61056580950786,-1.4738108729456398,-1.8413317558606355,-1.8506259602291266,2.6090882483264637,-2.1916112701450885,2.6751960498968828,-0.1768985390663147,0.8885727524757385,0.25170090794563293,-0.8670845627784729,-0.32773029804229736,0.24911779165267944,0.2805306315422058
56.776839704583836,-1.5032859887820318,-1.8500020947396618,-1.9005081287519197,2.6297885091422666,-2.2289452445712903,2.6953949964745343,-0.163058340549469,0.8549872636795044,0.2224320024251938,-0.8738982081413269,-0.30409273505210876,0.26964378356933594,0.2666862905025482
56.94311462550488,-1.5327611555398157,-1.8586727137917363,-1.9503906050282334,2.650488789684033,-2.2662792833680725,2.715594543103238,-0.1508547067642212,0.8198395371437073,0.19601121544837952,-0.8795511722564697,-0.2794744670391083,0.2902170717716217,0.253096342086792
57.109389642161766,-1.5622365526354354,-1.8673432256106368,-2.0002731100252977,2.67118906279864,-2.3036136987016187,2.735793830466842,-0.14039447903633118,0.7833772301673889,0.17252317070960999,-0.8839806318283081,-0.253936231136322,0.3108043670654297,0.23978129029273987
57.275663201510014,-1.5917116110965102,-1.876013764752919,-2.0501551778297724,2.6918892986895004,-2.3409474688170637,2.755993325818139,-0.13176080584526062,0.7458586096763611,0.1520383208990097,-0.8871281147003174,-0.22754302620887756,0.33137187361717224,0.22676104307174683
57.410073203904126,-1.613776935068553,-1.8819292447893183,-2.090478178548007,2.701113204123175,-2.359965477654694,2.7634390521891548,-0.12357649952173233,0.7129759192466736,0.13504138588905334,-0.8904694318771362,-0.2088116556406021,0.3429393768310547,0.21413657069206238
57.57634752641766,-1.6078561773311988,-1.8773314988495744,-2.094982830652207,2.6667422491805195,-2.3100831809006337,2.7225269531686664,-0.11025021225214005,0.6992505192756653,0.12150634825229645,-0.8983917832374573,-0.222368061542511,0.3209625780582428,0.20106592774391174
57.74262125411892,-1.6016014262886642,-1.872290910379729,-2.0999038807458583,2.6311145871238804,-2.260201062590256,2.680480389768273,-0.0962233617901802,0.6835022568702698,0.10921615362167358,-0.9051494598388672,-0.23744888603687286,0.29932376742362976,0.18635372817516327
57.90889470722157,-1.5949892525221308,-1.8667697383754045,-2.1052525617594657,2.594113500848114,-2.210319026659462,2.6371856698838267,-0.08150440454483032,0.665743887424469,0.09835395216941833,-0.9105939269065857,-0.25410401821136475,0.2781344950199127,0.16997356712818146
58.07516903652235,-1.5881429506995997,-1.8609168138942815,-2.110838669956481,2.5561402050275177,-2.1604367278692287,2.592985832023103,-0.06599530577659607,0.6464095711708069,0.08902153372764587,-0.9146044254302979,-0.27216780185699463,0.2574630677700043,0.1521053910255432
58.2414429903362,-1.581093413699007,-1.854758411308908,-2.1165868471588527,2.517244369152816,-2.1105545417250715,2.5479071374065465,-0.04967819154262543,0.6257110238075256,0.08136814832687378,-0.9170482158660889,-0.29158511757850647,0.2374000996351242,0.13282254338264465
58.40771829938266,-1.573901345404173,-1.8483863662887614,-2.122424048577156,2.477633478258917,-2.0606719490111347,2.5021486814935434,-0.03252418339252472,0.6039386987686157,0.07547208666801453,-0.9178228378295898,-0.31219935417175293,0.21802876889705658,0.11223259568214417
58.57399280636098,-1.5666079974096974,-1.8418883556493693,-2.1283216974148633,2.4374350240241065,-2.0107895969176384,2.4558621686977697,-0.014529362320899963,0.5813199281692505,0.07139202952384949,-0.9168384075164795,-0.3338525593280792,0.19944044947624207,0.0904056578874588
58.74026704116942,-1.559241055655631,-1.8353296093032758,-2.1342630416686483,2.396729408183617,-1.9609073264751051,2.4091509075073376,0.004292219877243042,0.5580646991729736,0.06918838620185852,-0.9140090346336365,-0.3563985824584961,0.18172362446784973,0.06740979850292206
58.90654161075218,-1.5518207293298134,-1.8287559081330034,-2.1402365616492323,2.355578532334085,-1.9110249556002763,2.3620915042325663,0.023913301527500153,0.5343829393386841,0.06892171502113342,-0.9092538356781006,-0.37969523668289185,0.16496044397354126,0.04332241415977478
59.072816899044135,-1.5443579312681,-1.822189194599682,-2.146236744871835,2.3140399821642035,-1.8611423691126887,2.314739419838546,0.044292695820331573,0.510490357875824,0.07064822316169739,-0.9024973511695862,-0.4036063551902771,0.14922365546226501,0.018236881121993065
59.23909191414195,-1.5368540492486034,-1.8156243868279,-2.15226460508488,2.2721735945228554,-1.8112598645833442,2.267131138469883,0.06537634134292603,0.4866091310977936,0.07441776990890503,0.8936693072319031,0.42800095677375793,-0.13457463681697845,0.007735222578048706
59.40536723115588,-1.5293047435792297,-1.8090505983030527,-2.1583260568593556,2.2300095757205503,-1.761377269479166,2.2192758831282173,0.08710050582885742,0.4629497230052948,0.08026698231697083,0.8827049136161804,0.4527517557144165,-0.1210724413394928,0.034488070756196976
59.57164191148665,-1.5217057084580634,-1.802456683919803,-2.164425758209096,2.1875836233762387,-1.711494865379934,2.17118658319033,0.10939434170722961,0.43973082304000854,0.0882112979888916,0.869550347328186,0.477723091840744,-0.10876758396625519,0.061907101422548294
59.73791606775104,-1.5140627431200344,-1.7958390109622635,-2.1705606559030106,2.1449618392223435,-1.6616126185006175,2.1229155417705714,0.13218377530574799,0.41718965768814087,0.0982351303100586,0.8541780114173889,0.502752959728241,-0.09769420325756073,0.08986195176839828
59.90419037961837,-1.5063820903289278,-1.7891993032895288,-2.1767258072474833,2.1021814528606355,-1.6117303249404182,2.0745111314300733,0.15538738667964935,0.39554789662361145,0.11030566692352295,0.8365744352340698,0.5276746153831482,-0.08788342028856277,0.11823303997516632
60.070465087014476,-1.4986702025675103,-1.7825403815746739,-2.1829161000544595,2.0592752454173398,-1.5618479127215863,2.0260194505066043,0.17891669273376465,0.37502020597457886,0.12436974048614502,0.8167406916618347,0.5523200035095215,-0.07935729622840881,0.14689967036247253
60.23674002622155,-1.4909318599377746,-1.7758644232986203,-2.1891278999656634,2.016267422707313,-1.5119654309594655,1.9774816153065096,0.20267589390277863,0.3558086156845093,0.14035668969154358,0.7946905493736267,0.5765225887298584,-0.07213050127029419,0.1757432073354721
