Sungjin-Park-dev/lg_sgu_vision_v2/data/sample/trajectory/471/trajectory_dp_ee_s0005.csv
time,ur20-shoulder_pan_joint,ur20-shoulder_lift_joint,ur20-elbow_joint,ur20-wrist_1_joint,ur20-wrist_2_joint,ur20-wrist_3_joint,target-POS_X,target-POS_Y,target-POS_Z,target-ROT_X,target-ROT_Y,target-ROT_Z,target-ROT_W
0.0,-0.9363371729850769,-2.6697807947741907,-0.9711833596229553,-2.6732943058013916,0.7558966279029846,0.0,-0.28413447737693787,1.2017611265182495,0.12817822396755219,0.5184145569801331,0.4696711301803589,0.4676915109157562,0.5402962565422058
1.0,-0.9283463753435807,-2.6500663136523666,-1.0105559384668499,-2.646070223435043,0.7343233677456518,0.0,-0.28465527296066284,1.1968103647232056,0.12853839993476868,0.514124870300293,0.47728437185287476,0.4756743013858795,0.5306684970855713
2.0,-0.920817535988107,-2.631491552032582,-1.0476523379035017,-2.620420000274337,0.7139972854963728,0.0,-0.28496605157852173,1.191841721534729,0.12895239889621735,0.5099687576293945,0.4843234419822693,0.48312801122665405,0.5214881896972656
3.0,-0.9136870712791673,-2.613899639660252,-1.082785849793282,-2.596127011356879,0.6947467203951103,0.0,-0.2850955128669739,1.186867117881775,0.12941280007362366,0.5059309005737305,0.4908688962459564,0.4901251494884491,0.5126975774765015
4.0,-0.9069005352616549,-2.597156250301343,-1.1162247424313387,-2.573005763164646,0.6764246812644227,0.0,-0.28506606817245483,1.1818923950195312,0.12991368770599365,0.5019973516464233,0.496987521648407,0.49672722816467285,0.5042461156845093
5.0,-0.9024262039132267,-2.587012012403662,-1.1377801348194623,-2.558393103251524,0.6683893349045827,0.0,-0.28501006960868835,1.176977276802063,0.12962457537651062,0.500004768371582,0.4999952018260956,0.49999526143074036,0.5000047087669373
6.0,-0.9001715536784012,-2.5832946286693637,-1.1478772105546033,-2.552013294292975,0.6706439266605552,0.0,-0.2850116491317749,1.1721149682998657,0.1284734308719635,0.5000048279762268,0.4999951720237732,0.4999951720237732,0.5000047087669373
7.0,-0.8979053592388866,-2.579621772820492,-1.1578906481137332,-2.5456726999847175,0.6729100878539559,0.0,-0.28500938415527344,1.1672521829605103,0.12732331454753876,0.5000047087669373,0.4999952018260956,0.4999952018260956,0.5000047087669373
8.0,-0.8956225906900359,-2.5760005785753695,-1.167810125840463,-2.539374533478083,0.6751928544558089,0.0,-0.2850121259689331,1.162389874458313,0.12617143988609314,0.5000047087669373,0.49999526143074036,0.49999526143074036,0.5000047087669373
9.0,-0.8933311395035287,-2.5724217908106572,-1.1776475500747168,-2.533115977387907,0.6774843171653432,0.0,-0.2850083112716675,1.1575299501419067,0.1250227689743042,0.5000048279762268,0.4999952018260956,0.49999526143074036,0.5000047087669373
10.0,-0.8910203994090221,-2.568894425175338,-1.1873939136088143,-2.5268970067791847,0.6797950884429467,0.0,-0.2850128412246704,1.1526696681976318,0.12387081980705261,0.5000048279762268,0.49999523162841797,0.4999951720237732,0.5000047087669373
11.0,-0.8886990660157665,-2.5654000316155856,-1.1970804004561735,-2.520704920706566,0.6821164515873989,0.0,-0.2850074768066406,1.1478041410446167,0.12272126227617264,0.5000047087669373,0.4999951720237732,0.4999951720237732,0.5000048279762268
12.0,-0.8863595248561473,-2.5619623104732434,-1.2066639712290788,-2.5145590437859577,0.6844560200370636,0.0,-0.2850133180618286,1.1429443359375,0.12156881392002106,0.5000047087669373,0.4999952018260956,0.4999952018260956,0.5000046491622925
13.0,-0.884010314402977,-2.5585529857570948,-1.216196432295046,-2.5084358981086923,0.6868052013302656,0.0,-0.28500643372535706,1.1380785703659058,0.12041980028152466,0.5000047087669373,0.4999951720237732,0.4999951720237732,0.500004768371582
14.0,-0.8816413928725718,-2.5552015478086756,-1.2256247050482312,-2.5023590905936532,0.6891739786260507,0.0,-0.2850137948989868,1.1332191228866577,0.11926694214344025,0.5000047087669373,0.4999952018260956,0.49999526143074036,0.500004768371582
15.0,-0.8792638038573258,-2.5518744007185017,-1.2350097445330472,-2.4963012096398907,0.691551473779372,0.0,-0.28500545024871826,1.1283527612686157,0.11811834573745728,0.5000047087669373,0.49999529123306274,0.49999523162841797,0.5000047087669373
16.0,-0.87686503370505,-2.5486066143317503,-1.2442891328631887,-2.4902895804068144,0.6939502731678285,0.0,-0.28501439094543457,1.1234937906265259,0.11696507036685944,0.5000046491622925,0.49999526143074036,0.49999526143074036,0.5000046491622925
17.0,-0.8744586609221818,-2.5453591586304474,-1.253532668988126,-2.4842934579784264,0.6963566751869957,0.0,-0.2850048542022705,1.1186270713806152,0.11581694334745407,0.500004768371582,0.49999526143074036,0.4999952018260956,0.5000046491622925
18.0,-0.8720296799490312,-2.5421721609508268,-1.2626695902424006,-2.4783434486403446,0.6987856853967974,0.0,-0.2850148677825928,1.1137683391571045,0.11466317623853683,0.500004768371582,0.49999523162841797,0.49999523162841797,0.5000046491622925
19.0,-0.8695941333714663,-2.539001897461995,-1.271777376895711,-2.4724058637878286,0.7012212612109041,0.0,-0.2850036323070526,1.1089013814926147,0.11351555585861206,0.5000047087669373,0.4999952018260956,0.4999952018260956,0.5000046491622925
20.0,-0.8671343216719786,-2.5358934800964055,-1.2807774880632696,-2.466514197275506,0.7036811021465298,0.0,-0.2850150763988495,1.1040431261062622,0.11236125975847244,0.5000048279762268,0.4999951720237732,0.49999523162841797,0.5000046491622925
21.0,-0.8646690782595267,-2.5327983431730656,-1.2897546697772544,-2.460632160077716,0.7061463849828592,0.0,-0.28500258922576904,1.0991758108139038,0.11121414601802826,0.5000048875808716,0.4999951720237732,0.4999951720237732,0.5000045895576477
22.0,-0.8621780900801128,-2.529766151750184,-1.298623172434977,-2.454795763078569,0.7086374608731245,0.0,-0.2850152254104614,1.0943176746368408,0.1100594699382782,0.5000048279762268,0.4999951720237732,0.49999523162841797,0.500004768371582
23.0,-0.8596974767487118,-2.526457592327364,-1.3074172308421954,-2.4493104337070033,0.7111181933562782,0.0,-0.28499653935432434,1.0894733667373657,0.10930734872817993,0.5000047087669373,0.4999951422214508,0.4999951422214508,0.5000048279762268
24.0,-0.8618806726714808,-2.528971818774663,-1.2996475097754236,-2.45456595822271,0.708934988467672,0.0,-0.2850154638290405,1.093738079071045,0.11049017310142517,0.5000048279762268,0.4999951720237732,0.49999523162841797,0.500004768371582
25.0,-0.8643747033178394,-2.5319988667082005,-1.2907900522067646,-2.4603962782003697,0.7064409266377947,0.0,-0.28499987721443176,1.0985952615737915,0.11164570599794388,0.500004768371582,0.4999951720237732,0.4999951720237732,0.500004768371582
26.0,-0.8668405781083559,-2.5350942607200597,-1.2818148298655052,-2.466276020370447,0.7039750206645375,0.0,-0.28501519560813904,1.1034635305404663,0.1127919852733612,0.5000048875808716,0.4999952018260956,0.4999952018260956,0.5000046491622925
27.0,-0.8693032548039824,-2.5381974178503643,-1.272826231162341,-2.4721613761813215,0.7015123127862588,0.0,-0.2850012481212616,1.1083208322525024,0.11394688487052917,0.5000048279762268,0.4999951720237732,0.4999951720237732,0.5000046491622925
28.0,-0.8717394786289262,-2.541367837974733,-1.2637203815874107,-2.478096793562593,0.6990760611232397,0.0,-0.2850150763988495,1.1131888628005981,0.11509398370981216,0.5000049471855164,0.49999523162841797,0.49999523162841797,0.5000045895576477
29.0,-0.874171370038211,-2.544549274341998,-1.2545953288220608,-2.484040409960678,0.6966441424236498,0.0,-0.28500235080718994,1.1180464029312134,0.11624869704246521,0.5000048875808716,0.49999523162841797,0.4999951720237732,0.5000046491622925
30.0,-0.8765782514747624,-2.5477969406625367,-1.245353767581346,-2.4900342568995626,0.6942371377348981,0.0,-0.2850147783756256,1.12291419506073,0.11739574372768402,0.5000048279762268,0.49999523162841797,0.49999523162841797,0.5000047087669373
31.0,-0.8789796647465496,-2.5510590874585524,-1.2360867330005945,-2.496039086212407,0.6918355802298622,0.0,-0.28500351309776306,1.1277719736099243,0.11855001002550125,0.5000048875808716,0.49999529123306274,0.49999529123306274,0.5000045299530029
32.0,-0.881357991580512,-2.554386435016654,-1.226703757716051,-2.5020948139518473,0.6894574261321483,0.0,-0.28501462936401367,1.1326395273208618,0.11969766765832901,0.5000048875808716,0.49999526143074036,0.4999952018260956,0.5000045299530029
33.0,-0.8837298765895716,-2.5577319755890295,-1.2172884314157897,-2.50816474391488,0.6870858023035576,0.0,-0.28500428795814514,1.137497901916504,0.12085128575563431,0.5000048875808716,0.4999951422214508,0.4999951422214508,0.5000045895576477
34.0,-0.8860797321521529,-2.5611414177967906,-1.2077580731277753,-2.514285720219043,0.6847359689319668,0.0,-0.28501391410827637,1.1423650979995728,0.12199942767620087,0.5000048279762268,0.4999951422214508,0.4999951422214508,0.5000047087669373
35.0,-0.8884219727726246,-2.5645729489505737,-1.1981879516106506,-2.52042434176604,0.6823936678907393,0.0,-0.2850053310394287,1.1472235918045044,0.12315264344215393,0.500004768371582,0.4999952018260956,0.4999951422214508,0.500004768371582
36.0,-0.8907439016629065,-2.5680673279803385,-1.188503803382011,-2.5266140570225364,0.6800717225148709,0.0,-0.28501367568969727,1.1520904302597046,0.1243014708161354,0.5000048279762268,0.4999951422214508,0.4999951422214508,0.5000047087669373
37.0,-0.8930573091899374,-2.5715880735271743,-1.1787718176220507,-2.5328252075804274,0.6777583169343385,0.0,-0.2850062847137451,1.1569494009017944,0.12545426189899445,0.5000048279762268,0.4999951422214508,0.4999951422214508,0.5000047087669373
38.0,-0.8953490647431175,-2.5751663392122484,-1.1689382509731239,-2.539080478575635,0.6754665827550121,0.0,-0.2850131094455719,1.161810040473938,0.12660203874111176,0.5000049471855164,0.4999951422214508,0.4999952018260956,0.5000046491622925
39.0,-0.8976351236314687,-2.578781669544216,-1.1590312547536754,-2.545372144463116,0.673180555065616,0.0,-0.28500738739967346,1.1666721105575562,0.12775495648384094,0.5000048279762268,0.4999951124191284,0.4999951720237732,0.5000047087669373
40.0,-0.899901311578007,-2.5824534541951523,-1.1490229273266197,-2.551708723833168,0.6709143580366077,0.0,-0.28501272201538086,1.1715351343154907,0.12890371680259705,0.5000048875808716,0.49999508261680603,0.4999951422214508,0.5000047087669373
41.0,-0.9021590653099829,-2.5861644895935867,-1.1389389794052394,-2.5580816948487093,0.6686565711639985,0.0,-0.28500834107398987,1.1763973236083984,0.1300562620162964,0.5000048279762268,0.4999951422214508,0.4999951422214508,0.5000046491622925
42.0,-0.9044379823242357,-2.5904629279004245,-1.1286413640628903,-2.5640809328311702,0.6663776417081588,0.0,-0.28501105308532715,1.181343913078308,0.1305592805147171,0.5000048279762268,0.4999951422214508,0.4999951422214508,0.5000047087669373
43.0,-0.9067293996901624,-2.595168807027207,-1.1182045030420928,-2.56981197733045,0.6640862264263071,0.0,-0.2850053310394287,1.1863375902175903,0.1306038498878479,0.500004768371582,0.4999952018260956,0.4999951422214508,0.500004768371582
44.0,-0.905893879229328,-2.59329059080137,-1.1220007203841649,-2.567893968993483,0.6649217571645595,0.0,-0.2850091755390167,1.184515357017517,0.13081178069114685,0.5000048279762268,0.4999951422214508,0.4999952018260956,0.5000047087669373
45.0,-0.9035998043542346,-2.5885272930893786,-1.132410483973824,-2.5622475617440967,0.6672157378245527,0.0,-0.2850075960159302,1.1795178651809692,0.13086125254631042,0.500004768371582,0.49999529123306274,0.4999951720237732,0.500004768371582
46.0,-0.9013235983022279,-2.5843862992846987,-1.14262748749961,-2.556171509148977,0.6694919064465977,0.0,-0.28501203656196594,1.1745973825454712,0.13019686937332153,0.5000048279762268,0.4999951720237732,0.49999523162841797,0.5000047087669373
47.0,-0.8990646216228706,-2.580684795813198,-1.1526892664771136,-2.5498111206197978,0.6717508850719577,0.0,-0.285009503364563,1.1697345972061157,0.12904702126979828,0.500004768371582,0.4999952018260956,0.4999952018260956,0.5000047087669373
48.0,-0.8967893066950414,-2.5770349663252348,-1.162656701411819,-2.543493529238019,0.6740262008705922,0.0,-0.28501152992248535,1.1648722887039185,0.1278955191373825,0.5000048279762268,0.4999952018260956,0.4999951422214508,0.5000046491622925
49.0,-0.8945019798468625,-2.5734289118710354,-1.1725424519783538,-2.5372139500573105,0.6763135277187711,0.0,-0.2850102484226227,1.160009503364563,0.12674503028392792,0.500004768371582,0.4999951720237732,0.4999951720237732,0.5000047087669373
50.0,-0.8922016805897482,-2.569872708492818,-1.1823343515993376,-2.5309782346593934,0.67861382597718,0.0,-0.2850107252597809,1.1551510095596313,0.1255950778722763,0.500004768371582,0.4999951124191284,0.49999523162841797,0.5000047087669373
51.0,-0.8898856057888325,-2.5663583534559624,-1.1920521569734541,-2.5247746361939765,0.6809298988315915,0.0,-0.2850111722946167,1.150288462638855,0.12444412708282471,0.5000048875808716,0.4999951720237732,0.4999951720237732,0.5000046491622925
52.0,-0.8875558471179334,-2.562886227037511,-1.2016934547205962,-2.5186054424774125,0.6832596990085597,0.0,-0.28500983119010925,1.1454250812530518,0.12329357862472534,0.5000048279762268,0.4999952018260956,0.49999526143074036,0.5000046491622925
53.0,-0.8852109251782359,-2.5594608946833572,-1.2112499734019944,-2.512474373096687,0.6856047106046705,0.0,-0.28501155972480774,1.1405633687973022,0.1221422404050827,0.5000048875808716,0.4999951422214508,0.4999952018260956,0.5000046491622925
54.0,-0.8828530534056758,-2.556072974265749,-1.2207392724545354,-2.5063730468744327,0.6879625565526712,0.0,-0.2850089371204376,1.1356995105743408,0.12099200487136841,0.500004768371582,0.4999951124191284,0.4999951720237732,0.500004768371582
55.0,-0.880478406864245,-2.5527335159862408,-1.2301414975077727,-2.5003102489184625,0.6903370276794556,0.0,-0.28501248359680176,1.1308380365371704,0.1198403537273407,0.5000048279762268,0.4999951720237732,0.49999523162841797,0.5000046491622925
56.0,-0.8780920162615327,-2.549426972897978,-1.2394852597679256,-2.4942730124858588,0.6927234169293285,0.0,-0.28500843048095703,1.1259735822677612,0.11869043856859207,0.500004768371582,0.49999529123306274,0.49999523162841797,0.5000047087669373
57.0,-0.8756877804916069,-2.5461704446280615,-1.2487401874849569,-2.4882746169318724,0.6951279158343102,0.0,-0.2850128710269928,1.1211129426956177,0.117538221180439,0.5000047087669373,0.4999952018260956,0.4999952018260956,0.5000047087669373
58.0,-0.8732726060757936,-2.54294272694834,-1.2579443398259256,-2.4822981624270004,0.6975432283939182,0.0,-0.28500720858573914,1.1162480115890503,0.11638885736465454,0.5000048279762268,0.4999951124191284,0.4999951124191284,0.500004768371582
59.0,-0.870837836536699,-2.5397666195933764,-1.2670575348615913,-2.47636101238145,0.6999779121716551,0.0,-0.2850133180618286,1.1113876104354858,0.11523646116256714,0.5000048875808716,0.4999951720237732,0.4999951720237732,0.500004768371582
60.0,-0.8683931960405594,-2.5366155098968575,-1.2761272636065075,-2.4704423508939133,0.7024224750034088,0.0,-0.28500640392303467,1.1065222024917603,0.1140875294804573,0.5000048875808716,0.4999951720237732,0.4999951720237732,0.5000047087669373
61.0,-0.8659275317035898,-2.5335176419265326,-1.2851044148663793,-2.4645630676043657,0.7048880789214786,0.0,-0.28501391410827637,1.1016623973846436,0.11293457448482513,0.5000048279762268,0.4999951422214508,0.4999952018260956,0.5000047087669373
62.0,-0.863453040322655,-2.5304410474868955,-1.2940449091619022,-2.458699136005905,0.7073625345099996,0.0,-0.2850055396556854,1.0967966318130493,0.1117861270904541,0.5000048279762268,0.4999951422214508,0.4999952018260956,0.5000046491622925
63.0,-0.860955937832247,-2.527418946729759,-1.302891504000582,-2.452874528870891,0.7098596642905132,0.0,-0.2850143611431122,1.0919370651245117,0.11063265800476074,0.5000048875808716,0.4999951422214508,0.4999952018260956,0.5000045299530029
64.0,-0.8584755335690162,-2.5245643498725903,-1.3116365221885165,-2.446984088870886,0.7123400892375329,0.0,-0.2850029766559601,1.0871162414550781,0.10933566838502884,0.5000048875808716,0.4999951422214508,0.4999951422214508,0.5000045895576477
65.0,-0.8560474099678165,-2.522234192807155,-1.3200635129300922,-2.4408875320341252,0.7147682128387326,0.0,-0.28500720858573914,1.0824432373046875,0.10756781697273254,0.5000048875808716,0.4999951720237732,0.4999951720237732,0.5000047087669373
66.0,-0.8535532589191865,-2.5196155606360464,-1.328590427899076,-2.4349793660133656,0.7172623335021254,0.0,-0.28501129150390625,1.0776718854904175,0.10612130910158157,0.5000047087669373,0.4999951720237732,0.4999951720237732,0.5000048279762268
67.0,-0.850998072667278,-2.5167302645637744,-1.3372097119625754,-2.4292453468390756,0.7198174612809456,0.0,-0.28501126170158386,1.0728094577789307,0.10497042536735535,0.5000047087669373,0.4999952018260956,0.4999951422214508,0.5000047087669373
68.0,-0.8484270650152091,-2.5138789923018217,-1.3457722294183654,-2.42353407233446,0.7223884535793176,0.0,-0.2850104570388794,1.067946434020996,0.1038198247551918,0.5000047087669373,0.49999523162841797,0.4999951720237732,0.5000048279762268
69.0,-0.8458389820261791,-2.5110644404325018,-1.3542734811868617,-2.417847345145178,0.7249765677515014,0.0,-0.28501200675964355,1.0630842447280884,0.10266849398612976,0.500004768371582,0.4999952018260956,0.4999951422214508,0.500004768371582
70.0,-0.8432361392216579,-2.5082805132389123,-1.3627242336344143,-2.412180478810704,0.7275794546687383,0.0,-0.28500983119010925,1.0582209825515747,0.10151837766170502,0.500004768371582,0.4999951422214508,0.4999952018260956,0.5000047087669373
71.0,-0.8406146813931606,-2.505535209771569,-1.3711112965276708,-2.406538660911874,0.7302009729166655,0.0,-0.28501275181770325,1.0533591508865356,0.10036663711071014,0.500004768371582,0.4999951720237732,0.4999951720237732,0.500004768371582
72.0,-0.8379581818851403,-2.5028086891718604,-1.379428430947934,-2.400948031142854,0.7328574966969108,0.0,-0.2850399315357208,1.0484901666641235,0.09924114495515823,0.5000048279762268,0.4999951422214508,0.4999951422214508,0.5000046491622925
73.0,-0.8352498871340506,-2.5001099316020037,-1.3876422038197371,-2.3954330627480003,0.7355657622909002,0.0,-0.2851198613643646,1.043615698814392,0.09814828634262085,0.5000048875808716,0.4999951124191284,0.4999951720237732,0.5000047087669373
74.0,-0.8325434832813506,-2.497413058271793,-1.3958502419354213,-2.38992194483687,0.7382721370068571,0.0,-0.28516387939453125,1.0387362241744995,0.09706736356019974,0.500004768371582,0.4999951422214508,0.49999508261680603,0.500004768371582
75.0,-0.8298412122591922,-2.494720303218481,-1.4040457459163436,-2.3844192427120228,0.7409743789367661,0.0,-0.2851724624633789,1.03385591506958,0.09599993377923965,0.5000048279762268,0.4999951422214508,0.4999952018260956,0.5000046491622925
76.0,-0.8271402801954136,-2.492028882408446,-1.4122371890763326,-2.3789192671416415,0.74367528192271,0.0,-0.28514528274536133,1.0289703607559204,0.09494398534297943,0.500004768371582,0.4999952018260956,0.49999526143074036,0.500004768371582
77.0,-0.8244441057626581,-2.489342202475575,-1.4204142031936127,-2.373428979654404,0.7463714273288509,0.0,-0.28508251905441284,1.0240856409072876,0.09390139579772949,0.500004768371582,0.4999951720237732,0.4999951720237732,0.500004768371582
78.0,-0.8224021360705166,-2.4872861035865053,-1.4266333360474521,-2.369265976411504,0.7484133677343004,0.0,-0.28500211238861084,1.0203710794448853,0.09313154965639114,0.5000047087669373,0.4999952018260956,0.49999526143074036,0.500004768371582
79.0,-0.8251303441908965,-2.4898279287377227,-1.4185764461478454,-2.3747809553967794,0.7456851284308579,0.0,-0.2850160598754883,1.0252366065979004,0.09427759796380997,0.5000047087669373,0.4999951720237732,0.4999951720237732,0.500004768371582
80.0,-0.827855671539724,-2.4923750863392873,-1.4105110635898481,-2.3802990872473404,0.7429597676639442,0.0,-0.28500059247016907,1.0300959348678589,0.09543368965387344,0.500004768371582,0.4999951720237732,0.4999951720237732,0.5000047087669373
81.0,-0.8305487058201177,-2.4949820200046133,-1.4023504794535244,-2.385852562301126,0.7402666749111464,0.0,-0.28501614928245544,1.0349619388580322,0.09657949954271317,0.500004768371582,0.49999523162841797,0.49999523162841797,0.5000046491622925
82.0,-0.8332402532745428,-2.497591821462412,-1.3941852831192707,-2.3914077943826944,0.7375750753795175,0.0,-0.28499922156333923,1.039820909500122,0.09773599356412888,0.5000048875808716,0.49999526143074036,0.49999526143074036,0.5000045299530029
83.0,-0.835898849255405,-2.500265179778819,-1.3859178699006183,-2.397001966229748,0.7349165690537571,0.0,-0.2850160300731659,1.044687271118164,0.09888122975826263,0.5000048279762268,0.4999952018260956,0.49999526143074036,0.5000045895576477
84.0,-0.8385572939148934,-2.5029388387792224,-1.3776499661764314,-2.4025963280196847,0.732258213512092,0.0,-0.28499746322631836,1.049545168876648,0.10003812611103058,0.5000048875808716,0.49999523162841797,0.49999523162841797,0.5000046491622925
85.0,-0.8411818565396282,-2.50567982326941,-1.3692722344409671,-2.408233219501164,0.7296336197042945,0.0,-0.28501594066619873,1.0544127225875854,0.10118291527032852,0.5000048279762268,0.4999951124191284,0.4999951720237732,0.500004768371582
86.0,-0.843806419164363,-2.5084208077595975,-1.3608945027055026,-2.413870110982643,0.727009025896497,0.0,-0.2849985361099243,1.0592705011367798,0.10233958065509796,0.5000047087669373,0.4999952018260956,0.4999952018260956,0.500004768371582
87.0,-0.8463988196332551,-2.5112285334485196,-1.352406864920113,-2.419550028020243,0.7244167410599811,0.0,-0.28501585125923157,1.0641381740570068,0.10348470509052277,0.500004768371582,0.49999523162841797,0.49999523162841797,0.500004768371582
88.0,-0.848990079232843,-2.5140386266088677,-1.3439153285018293,-2.4252314712781784,0.7218256023006676,0.0,-0.2849996089935303,1.0689960718154907,0.10464069247245789,0.5000048279762268,0.4999951124191284,0.4999951124191284,0.5000048279762268
89.0,-0.8515507344550834,-2.516914030225349,-1.3353148424011603,-2.4309564706481765,0.7192649558928585,0.0,-0.2850154638290405,1.0738636255264282,0.1057862788438797,0.5000048875808716,0.4999951720237732,0.4999951124191284,0.5000048279762268
90.0,-0.8541089816598673,-2.519794572607331,-1.326705783907918,-2.4366848971056467,0.7167067086880747,0.0,-0.2850007116794586,1.0787216424942017,0.10694201290607452,0.500004768371582,0.4999951422214508,0.4999951422214508,0.500004768371582
91.0,-0.8521418797014151,-2.5171358408868074,-1.3333030471539584,-2.4327463985621955,0.7186736502264615,0.0,-0.2850138545036316,1.074985384941101,0.1066206693649292,0.500004768371582,0.49999523162841797,0.49999523162841797,0.500004768371582
92.0,-0.8495806134594496,-2.514259898037462,-1.3419022001561456,-2.427023250776209,0.7212350353625134,0.0,-0.2850077152252197,1.070120930671692,0.10547179728746414,0.500004768371582,0.4999951422214508,0.49999508261680603,0.500004768371582
93.0,-0.846997829925564,-2.511429813120246,-1.35042487922536,-2.421330675873767,0.7238178020823592,0.0,-0.2850133180618286,1.0652599334716797,0.10431909561157227,0.5000048279762268,0.4999951720237732,0.4999951124191284,0.5000048279762268
94.0,-0.8444034973614595,-2.5086243416462968,-1.3589065122481592,-2.4156545104320166,0.7264120449934601,0.0,-0.2850087881088257,1.0603960752487183,0.1031697690486908,0.5000047087669373,0.4999952018260956,0.4999951422214508,0.500004768371582
95.0,-0.8417887415245217,-2.5058609190439705,-1.367318902697874,-2.41000548859043,0.7290267839327031,0.0,-0.2850128710269928,1.0555343627929688,0.10201767086982727,0.500004768371582,0.4999951720237732,0.4999951720237732,0.5000047087669373
96.0,-0.8391610352148536,-2.5031241597864335,-1.3756873861762724,-2.4043736786059524,0.7316545194790863,0.0,-0.2850094139575958,1.0506709814071655,0.10086777061223984,0.5000048279762268,0.4999952018260956,0.4999952018260956,0.5000047087669373
97.0,-0.8365137415658979,-2.5004262399711945,-1.383992591907854,-2.398766356091248,0.7343018088444448,0.0,-0.28501227498054504,1.0458089113235474,0.09971603751182556,0.500004768371582,0.4999951720237732,0.4999951720237732,0.5000047087669373
98.0,-0.8338518672023594,-2.4977572320369603,-1.3922506940102892,-2.393177261923047,0.7369636539720379,0.0,-0.2850106954574585,1.0409457683563232,0.0985659509897232,0.5000048875808716,0.4999951720237732,0.4999951720237732,0.5000046491622925
99.0,-0.8311715899756985,-2.495123562953767,-1.4004520521630661,-2.3876095728534636,0.7396439644723034,0.0,-0.28501203656196594,1.0360833406448364,0.097414530813694,0.5000048875808716,0.4999951720237732,0.49999523162841797,0.5000047087669373
100.0,-0.8284752868130545,-2.4925206683300005,-1.4086039954558502,-2.382060524184446,0.7423403553443234,0.0,-0.2850114405155182,1.03122079372406,0.0962638407945633,0.5000048279762268,0.4999951720237732,0.4999951124191284,0.500004768371582
101.0,-0.8257614926208441,-2.489949988090741,-1.4167045654992791,-2.3765306343802766,0.7450541357766575,0.0,-0.28501129150390625,1.0263580083847046,0.09511300921440125,0.5000048875808716,0.4999951124191284,0.4999951720237732,0.5000047087669373
102.0,-0.8230299117722208,-2.487412066711478,-1.424752894001888,-2.3710202272569303,0.7477855996811567,0.0,-0.2850123643875122,1.0214955806732178,0.09396196156740189,0.5000048279762268,0.4999951422214508,0.4999951422214508,0.5000047087669373
103.0,-0.820282044594648,-2.484903364603366,-1.4327553602875975,-2.365526477332365,0.7505334033663408,0.0,-0.28501096367836,1.0166325569152832,0.09281155467033386,0.5000048279762268,0.49999523162841797,0.49999523162841797,0.5000047087669373
104.0,-0.817514831778957,-2.4824293704670426,-1.4407033493578363,-2.360052513581877,0.7533006161820318,0.0,-0.28501319885253906,1.0117703676223755,0.09165994822978973,0.500004768371582,0.4999952018260956,0.4999952018260956,0.5000046491622925
105.0,-0.8172859054732682,-2.473910954921056,-1.4557538844553146,-2.3596340899302817,0.7344631925689613,0.0,-0.27925530076026917,1.0125616788864136,0.095671646296978,0.4930535554885864,0.5048261284828186,0.5046471357345581,0.49737295508384705
106.0,-0.8205854722691264,-2.456990139109063,-1.4806777276138738,-2.3662434144439315,0.6855929849104611,0.0,-0.2660638093948364,1.0210554599761963,0.10648834705352783,0.47625046968460083,0.5163571834564209,0.5153687596321106,0.4908723533153534
107.0,-0.8238850390649844,-2.4400693232970707,-1.5056015707724328,-2.3728527389575818,0.6367227772519619,0.0,-0.25362253189086914,1.0292842388153076,0.11677426099777222,0.4591958224773407,0.5278597474098206,0.5255248546600342,0.4840732216835022
108.0,-0.8271846058608426,-2.423148507485078,-1.5305254139309923,-2.379462063471232,0.5878525695934615,0.0,-0.24192556738853455,1.0372061729431152,0.12650203704833984,0.4419086277484894,0.5393252968788147,0.5351091623306274,0.4769727289676666
109.0,-0.8304841726567008,-2.4062276916730854,-1.555449257089551,-2.386071387984882,0.5389823619349624,0.0,-0.23096498847007751,1.0447783470153809,0.1356465220451355,0.42440783977508545,0.5507454872131348,0.5441162586212158,0.4695688486099243
110.0,-0.833783739452559,-2.3893068758610925,-1.5803731002481105,-2.392680712498532,0.49011215427646215,0.0,-0.2207304835319519,1.0519574880599976,0.1441851556301117,0.40671271085739136,0.5621115565299988,0.5525409579277039,0.4618590176105499
111.0,-0.8370833062484172,-2.3723860600491,-1.6052969434066693,-2.399290037012182,0.44124194661796295,0.0,-0.21121028065681458,1.058700680732727,0.15209850668907166,0.38884246349334717,0.5734145641326904,0.5603792071342468,0.45384183526039124
112.0,-0.8403828730442753,-2.3554652442371076,-1.630220786565228,-2.405899361525832,0.39237173895946376,0.0,-0.2023906707763672,1.0649653673171997,0.15936914086341858,0.37081679701805115,0.5846455693244934,0.5676270723342896,0.4455154240131378
113.0,-0.8436824398401335,-2.3385444284251147,-1.6551446297237875,-2.4125086860394824,0.3435015313009635,0.0,-0.19425657391548157,1.0707087516784668,0.16598299145698547,0.35265490412712097,0.5957954525947571,0.5742815136909485,0.4368785321712494
114.0,-0.8469820066359917,-2.3216236126131222,-1.6800684728823465,-2.4191180105531322,0.2946313236424643,0.0,-0.18679112195968628,1.0758886337280273,0.1719282865524292,0.3343765139579773,0.6068550944328308,0.5803403258323669,0.4279302656650543
115.0,-0.8502815734318498,-2.3047027968011293,-1.7049923160409057,-2.4257273350667825,0.245761115983964,0.0,-0.17997592687606812,1.0804635286331177,0.1771966964006424,0.31600114703178406,0.6178150177001953,0.5858014822006226,0.418669730424881
116.0,-0.8535811402277079,-2.287781980989137,-1.7299161591994647,-2.4323366595804323,0.19689090832546485,0.0,-0.17379164695739746,1.0843920707702637,0.18178227543830872,0.29754841327667236,0.6286658644676208,0.5906640887260437,0.40909644961357117
117.0,-0.8568807070235662,-2.270861165177144,-1.7548400023580242,-2.4389459840940826,0.1480207006669646,0.0,-0.1682170033454895,1.0876346826553345,0.18568222224712372,0.2790378928184509,0.6393982172012329,0.5949274897575378,0.39921048283576965
118.0,-0.8601802738194243,-2.2539403493651515,-1.779763845516583,-2.445555308607733,0.09915049300846546,0.0,-0.16323025524616241,1.0901519060134888,0.18889698386192322,0.26048916578292847,0.6500022411346436,0.5985920429229736,0.38901159167289734
119.0,-0.8634798406152825,-2.237019533553159,-1.8046876886751424,-2.4521646331213827,0.05028028534996509,0.0,-0.15880785882472992,1.091905951499939,0.19142936170101166,0.24192167818546295,0.6604683995246887,0.6016582250595093,0.37850067019462585
120.0,-0.8667794074111407,-2.220098717741166,-1.8296115318337012,-2.458773957635033,0.0014100776914659496,0.0,-0.15492621064186096,1.0928599834442139,0.1932855099439621,0.2233549803495407,0.6707869172096252,0.6041276454925537,0.36767810583114624
121.0,-0.8700789742069989,-2.2031779019291737,-1.8545353749922606,-2.465383282148683,-0.047460129967034304,0.0,-0.15155982971191406,1.0929789543151855,0.19447435438632965,0.20480820536613464,0.6809478998184204,0.6060023903846741,0.35654523968696594
122.0,-0.873378541002857,-2.1862570861171813,-1.8794592181508194,-2.471992606662333,-0.09633033762553356,0.0,-0.14868342876434326,1.092228889465332,0.19500769674777985,0.1863008737564087,0.6909418106079102,0.6072851419448853,0.3451032340526581
123.0,-0.8766781077987151,-2.1693362703051884,-1.9043830613093788,-2.4786019311759833,-0.1452005452840338,0.0,-0.14627034962177277,1.0905778408050537,0.1949000209569931,0.16785180568695068,0.7007583975791931,0.6079790592193604,0.33335402607917786
124.0,-0.8799776745945733,-2.152415454493196,-1.9293069044679376,-2.485211255689633,-0.19407075294253295,0.0,-0.14429372549057007,1.087996006011963,0.1941688060760498,0.14948005974292755,0.7103880047798157,0.6080881357192993,0.3212995231151581
125.0,-0.8832772413904315,-2.135494638681203,-1.954230747626497,-2.4918205802032833,-0.2429409606010332,0.0,-0.14272616803646088,1.084454894065857,0.19283390045166016,0.13120445609092712,0.7198207378387451,0.6076169013977051,0.3089420199394226
126.0,-0.8865768081862897,-2.1185738228692106,-1.9791545907850558,-2.4984299047169336,-0.29181116825953235,0.0,-0.14153999090194702,1.0799281597137451,0.19091807305812836,0.11304351687431335,0.7290465831756592,0.6065704822540283,0.29628434777259827
127.0,-0.8898763749821479,-2.1016530070572177,-2.004078433943615,-2.5050392292305834,-0.3406813759180327,0.0,-0.14070716500282288,1.0743921995162964,0.18844635784626007,0.09501567482948303,0.7380558252334595,0.604954719543457,0.2833293676376343
128.0,-0.893175941778006,-2.0847321912452252,-2.0290022771021743,-2.5116485537442337,-0.38955158357653197,0.0,-0.1401994675397873,1.067825436592102,0.18544600903987885,0.0771389752626419,0.7468384504318237,0.6027755737304688,0.2700805068016052
129.0,-0.8964755085738642,-2.067811375433233,-2.053926120260733,-2.5182578782578835,-0.438421791235031,0.0,-0.13998864591121674,1.0602082014083862,0.18194697797298431,0.05943136662244797,0.7553846836090088,0.6000403165817261,0.2565414309501648
130.0,-0.8997750753697223,-2.05089055962124,-2.0788499634192923,-2.5248672027715338,-0.48729199889353136,0.0,-0.14004649221897125,1.0515244007110596,0.17798113822937012,0.04191051051020622,0.7636846899986267,0.5967562198638916,0.24271604418754578
131.0,-0.9030746421655804,-2.0339697438092474,-2.103773806577851,-2.531476527285184,-0.5361622065520306,0.0,-0.14034497737884521,1.0417600870132446,0.17358198761940002,0.02459370531141758,0.7717288136482239,0.5929314494132996,0.22860871255397797
132.0,-0.9063742089614386,-2.0170489279972545,-2.1286976497364107,-2.538085851798834,-0.5850324142105308,0.0,-0.14085572957992554,1.0309033393859863,0.1687854528427124,0.007497955579310656,0.7795074582099915,0.5885744690895081,0.21422426402568817
133.0,-0.9096737757572968,-2.000128112185262,-2.1536214928949695,-2.544695176312484,-0.63390262186903,0.0,-0.14155155420303345,1.0189459323883057,0.16362890601158142,-0.009359962306916714,0.7870107293128967,0.5836943984031677,0.19956742227077484
134.0,-0.912973342553155,-1.9832072963732692,-2.1785453360535287,-2.5513045008261344,-0.6827728295275302,0.0,-0.14240452647209167,1.0058820247650146,0.15815091133117676,-0.02596382051706314,0.7942295670509338,0.5783007740974426,0.18464377522468567
135.0,-0.9162729093490132,-1.9662864805612768,-2.203469179212088,-2.557913825339784,-0.7316430371860294,0.0,-0.14338776469230652,0.9917086362838745,0.15239211916923523,-0.042297326028347015,0.8011543154716492,0.5724039077758789,0.1694587767124176
136.0,-0.9195724761448714,-1.9493656647492839,-2.228393022370647,-2.5645231498534344,-0.7805132448445298,0.0,-0.1444748342037201,0.9764260053634644,0.1463940590620041,-0.058345068246126175,0.8077756762504578,0.5660145282745361,0.15401846170425415
137.0,-0.9228720429407294,-1.9324448489372914,-2.253316865529206,-2.5711324743670843,-0.8293834525030288,0.0,-0.1456395983695984,0.9600369334220886,0.1401989459991455,-0.07409163564443588,0.8140847086906433,0.5591436624526978,0.13832908868789673
138.0,-0.9261716097365876,-1.9155240331252985,-2.2782407086877656,-2.5777417988807345,-0.8782536601615292,0.0,-0.14685656130313873,0.9425476789474487,0.1338501125574112,-0.08952230960130692,0.8200720548629761,0.5518028736114502,0.12239734828472137
139.0,-0.9294711765324458,-1.898603217313306,-2.3031645518463244,-2.5843511233943848,-0.9271238678200284,0.0,-0.14810076355934143,0.9239673614501953,0.12739147245883942,-0.10462241619825363,0.8257289528846741,0.5440044403076172,0.10623010247945786
140.0,-0.932770743328304,-1.8816824015013134,-2.3280883950048836,-2.5909604479080346,-0.9759940754785286,0.0,-0.14934810996055603,0.9043077230453491,0.12086762487888336,-0.11937824636697769,0.8310468792915344,0.5357607007026672,0.08983466029167175
141.0,-0.8957060465464033,-1.863078591586722,-2.26373431232265,-2.5990955300755387,-1.0105030318061314,0.0,-0.2319452315568924,0.9416353702545166,0.169610396027565,-0.1294892430305481,0.8152802586555481,0.5621535181999207,0.05033966153860092
142.0,-0.8124276372916537,-1.8425478939091176,-2.097164456843508,-2.6089774773972314,-1.0285695541357058,0.0,-0.4094792902469635,1.0159586668014526,0.303903728723526,0.13226233422756195,-0.7712884545326233,-0.6223040819168091,0.01893368922173977
143.0,-0.7291492280369058,-1.8220171962315135,-1.93059460136437,-2.6188594247189236,-1.04663607646528,0.0,-0.5806756615638733,1.048988699913025,0.46486812829971313,0.13135986030101776,-0.7217419147491455,-0.6733298897743225,0.09197781980037689
144.0,-0.6458708187821562,-1.801486498553909,-1.7640247458852283,-2.628741372040616,-1.0647025987948546,0.0,-0.7349014282226562,1.0413992404937744,0.6472147107124329,0.12623459100723267,-0.6672508716583252,-0.7146982550621033,0.1674737185239792
145.0,-0.5625924095274084,-1.780955800876305,-1.5974548904060901,-2.638623319362308,-1.0827691211244286,0.0,-0.8622440099716187,0.9966510534286499,0.8448802828788757,0.11641330271959305,-0.6085148453712463,-0.7460516095161438,0.24405869841575623
146.0,-0.47931400027266063,-1.760425103198701,-1.4308850349269522,-2.6485052666840003,-1.1008356434540028,0.0,-0.9542315602302551,0.9207326173782349,1.0512371063232422,0.10150852054357529,-0.5463122725486755,-0.7672117352485657,0.3203515410423279
147.0,-0.39603559101791097,-1.7398944055210965,-1.2643151794478105,-2.658387214005693,-1.1189021657835774,0.0,-1.00445556640625,0.82171630859375,1.2593215703964233,0.0812293216586113,-0.4814877212047577,-0.7781808376312256,0.3949759006500244
148.0,-0.31275718176316325,-1.7193637078434925,-1.0977453239686723,-2.6682691613273852,-1.1369686881131513,0.0,-1.0090516805648804,0.7091635465621948,1.462075114250183,0.05539025366306305,-0.4149390459060669,-0.779137909412384,0.46658504009246826
149.0,-0.22947877250841353,-1.698833010165888,-0.9311754684895306,-2.678151108649078,-1.155035210442726,0.0,-0.9670029878616333,0.5934225916862488,1.6525901556015015,0.023918284103274345,-0.3476012945175171,-0.770433783531189,0.5338848829269409
150.0,-0.1462003632536658,-1.6783023124882839,-0.7646056130103924,-2.68803305597077,-1.1731017327723001,0.0,-0.8802438974380493,0.48486629128456116,1.8243505954742432,-0.013142292387783527,-0.2804308831691742,-0.7525820136070251,0.5956560373306274
151.0,-0.0629219539989162,-1.6577716148106796,-0.5980357575312507,-2.6979150032924624,-1.1911682551018745,0.0,-0.7535561919212341,0.3931301236152649,1.9714572429656982,-0.055626872926950455,-0.21438905596733093,-0.7262470126152039,0.650775134563446
152.0,0.02035645525583163,-1.6372409171330755,-0.43146590205211277,-2.7077969506141546,-1.2092347774314487,0.0,-0.5942615866661072,0.3264012634754181,2.088834762573242,-0.10325033962726593,-0.1504242867231369,-0.692230224609375,0.6982328295707703
153.0,0.10363486451058135,-1.616710219455471,-0.26489604657297106,-2.7176788979358473,-1.2273012997610233,0.0,-0.4117361605167389,0.29081305861473083,2.172410011291504,-0.15560902655124664,-0.08945520967245102,-0.6514533758163452,0.7371512055397034
154.0,0.18691327376532896,-1.596179521777867,-0.0983261910938329,-2.7275608452575395,-1.2453678220905973,0.0,-0.2167782187461853,0.2899883985519409,2.2192530632019043,-0.2121846079826355,-0.03235359862446785,-0.6049401164054871,0.7667973637580872
155.0,0.2701916830200788,-1.5756488241002624,0.06824366438530882,-2.7374427925792317,-1.2634343444201719,0.0,-0.020875167101621628,0.3247649073600769,2.2276828289031982,-0.2723512649536133,0.020072516053915024,-0.553795576095581,0.7865952849388123
156.0,0.3534700922748264,-1.5551181264226583,0.23481351986444698,-2.747324739900924,-1.281500866749746,0.0,0.164577454328537,0.39312273263931274,2.19732403755188,-0.33538419008255005,0.06709406524896622,-0.4991854131221771,0.7961341738700867
157.0,0.4367485015295762,-1.5345874287450538,0.4013833753435887,-2.7572066872226166,-1.2995673890793205,0.0,0.329049676656723,0.4903203845024109,2.1291251182556152,-0.40047067403793335,0.10807523131370544,-0.4423134922981262,0.7951740622520447
158.0,0.5200269107843238,-1.51405673106745,0.5679532308227269,-2.767088634544309,-1.3176339114088946,0.0,0.46358853578567505,0.6092287302017212,2.025325059890747,-0.4667230248451233,0.14248664677143097,-0.3843991160392761,0.7836480736732483
159.0,0.6033053200390734,-1.4935260333898455,0.7345230863018686,-2.7769705818660015,-1.3357004337384693,0.0,0.5614151358604431,0.7408394813537598,1.8893771171569824,-0.5331931710243225,0.16991615295410156,-0.3266547918319702,0.7616627216339111
160.0,0.6865837292938213,-1.4729953357122414,0.9010929417810067,-2.7868525291876938,-1.3537669560680432,0.0,0.6183655858039856,0.8749125599861145,1.7258321046829224,-0.5988889336585999,0.19007772207260132,-0.2702634632587433,0.7294930219650269
161.0,0.7698621385485691,-1.4524646380346373,1.0676627972601445,-2.796734476509386,-1.3718334783976174,0.0,0.6331453919410706,1.0007133483886719,1.5401804447174072,-0.6627909541130066,0.20281881093978882,-0.2163577675819397,0.6875768899917603
162.0,0.8531405478033187,-1.4319339403570328,1.2342326527392866,-2.8066164238310782,-1.389900000727192,0.0,0.6073771119117737,1.1077895164489746,1.3386645317077637,-0.7238715887069702,0.2081241011619568,-0.16599920392036438,0.6365049481391907
163.0,0.9364189570580665,-1.411403242679429,1.4008025082184243,-2.8164983711527705,-1.407966523056766,0.0,0.5454405546188354,1.1867300271987915,1.1280628442764282,-0.7811126112937927,0.20611780881881714,-0.12016012519598007,0.5770094394683838
164.0,1.0196973663128162,-1.3908725450018244,1.567372363697566,-2.826380318474463,-1.4260330453863406,0.0,0.45411595702171326,1.229848861694336,0.915456235408783,-0.833525538444519,0.19706299901008606,-0.07970649749040604,0.509949266910553
165.0,1.1029757755675638,-1.3703418473242204,1.7339422191767042,-2.8362622657961554,-1.4440995677159147,0.0,0.3420577347278595,1.2317512035369873,0.7079850435256958,-0.880169153213501,0.18135805428028107,-0.045383304357528687,0.4362933933734894
166.0,1.1862541848223138,-1.3498111496466159,1.900512074655846,-2.8461442131178476,-1.4621660900454891,0.0,0.21913649141788483,1.1897333860397339,0.512602686882019,-0.920168399810791,0.15953099727630615,-0.017802704125642776,0.3571036458015442
167.0,1.2695325940770612,-1.3292804519690118,2.067081930134984,-2.85602616043954,-1.4802326123750633,0.0,0.09569714218378067,1.1039912700653076,0.33583593368530273,-0.9527319669723511,0.13223111629486084,0.0025659867096692324,0.27351436018943787
168.0,1.3528110033318113,-1.3087497542914073,2.233651785614126,-2.8659081077612325,-1.498299134704638,0.0,-0.01821259781718254,0.977623462677002,0.18356037139892578,-0.9771682024002075,0.1002180352807045,0.015402982011437416,0.1867121011018753
169.0,1.3641952281117828,-1.3040669717607942,2.2545753283050196,-2.8635540473501844,-1.5005743158990765,0.0,-0.032523464411497116,0.9578711986541748,0.1634562909603119,-0.9801532626152039,0.09560217708349228,0.016857612878084183,0.17284546792507172
170.0,1.3621878543152983,-1.3023361514712537,2.24836959803385,-2.8589208081024564,-1.499908072790416,0.0,-0.03001796454191208,0.9619330763816833,0.1649359166622162,-0.9800642728805542,0.09653245657682419,0.017019208520650864,0.1728169023990631
171.0,1.3602144238567804,-1.3018797948026508,2.2465783533588226,-2.857447062054738,-1.4992479842921551,0.0,-0.02813584916293621,0.9631375670433044,0.1653793752193451,-0.9799745082855225,0.09744606912136078,0.017179707065224648,0.17279785871505737
172.0,1.3583109410606802,-1.3040497488171652,2.253884120549138,-2.862484141901222,-1.4986005787130285,0.0,-0.02757638692855835,0.9584734439849854,0.1636786311864853,-0.9798839092254639,0.09832541644573212,0.017337879166007042,0.17279775440692902
173.0,1.356987081005971,-1.3049957112894124,2.257022113802612,-2.864599889935275,-1.4981526221973809,0.0,-0.026925813406705856,0.9564790725708008,0.162955641746521,-0.9798210263252258,0.09893732517957687,0.017447223886847496,0.17279396951198578
174.0,1.35709555714293,-1.302917003990976,2.2498609020350666,-2.8594965815313818,-1.498197534735369,0.0,-0.02600865811109543,0.9610985517501831,0.1646321713924408,-0.9798285365104675,0.09888862073421478,0.017435740679502487,0.1727805882692337
175.0,1.3572861045752156,-1.3008302842144348,2.2426881712860425,-2.8543974613026184,-1.4982693263612885,0.0,-0.025161609053611755,0.9657134413719177,0.16632136702537537,-0.9798396229743958,0.09880185127258301,0.017417754977941513,0.17276903986930847
176.0,1.356235489895605,-1.302656410274575,2.248856060620259,-2.8586669471636585,-1.497917361643308,0.0,-0.025154391303658485,0.9617566466331482,0.16487327218055725,-0.979790449142456,0.09928809106349945,0.01750343292951584,0.1727602332830429
177.0,1.3549917367856945,-1.3048225486188028,2.2561662594460845,-2.8637254670609296,-1.4975006800328865,0.0,-0.025160416960716248,0.957056999206543,0.16316908597946167,-0.9797319769859314,0.09986366331577301,0.017604947090148926,0.1727501004934311
178.0,1.3598971322270241,-1.3037071156688713,2.2528341698508982,-2.861836607018623,-1.4991461736804736,0.0,-0.028737680986523628,0.9590958952903748,0.16390319168567657,-0.9799613356590271,0.09759378433227539,0.01720428839325905,0.1727866232395172
179.0,1.3655078022617082,-1.302215303966538,2.248281466446183,-2.859150919493466,-1.5010281878486496,0.0,-0.03275548294186592,0.9618893265724182,0.1649208813905716,-0.980216383934021,0.09499708563089371,0.01674654148519039,0.17283190786838531
180.0,1.3711998323342363,-1.301088574893315,2.245012039311336,-2.8573830307957073,-1.5029386107062264,0.0,-0.03704150766134262,0.9638298749923706,0.16563400626182556,-0.9804676175117493,0.09236259013414383,0.016282295808196068,0.1728789359331131
181.0,1.3771254770008945,-1.3010101323313037,2.245427370356132,-2.858250480112009,-1.5049306053602294,0.0,-0.04201262444257736,0.963354229927063,0.16546094417572021,-0.980722188949585,0.08962023258209229,0.01579878479242325,0.1729237586259842
182.0,1.3771524376465998,-1.3026418873253316,2.25110511033641,-2.8623227786102174,-1.5049328626718619,0.0,-0.04275740683078766,0.9596830010414124,0.16411840915679932,-0.980721116065979,0.08960656821727753,0.015798674896359444,0.17293639481067657
183.0,1.3753463643869748,-1.3048050913839129,2.2584181598142288,-2.8673909936876214,-1.5043168030846215,0.0,-0.0422067753970623,0.9550140500068665,0.16242295503616333,-0.9806418418884277,0.09044086933135986,0.015948722139000893,0.17293855547904968
184.0,1.3792102048255686,-1.3053156462649975,2.26065184606881,-2.8693015599478144,-1.5056280267674889,0.0,-0.045660462230443954,0.9533924460411072,0.16183370351791382,-0.9808094501495361,0.08865499496459961,0.015630437061190605,0.17294102907180786
185.0,1.3842545018272605,-1.3047289321955715,2.259215512587613,-2.8687051027050288,-1.5073385715085266,0.0,-0.04961617663502693,0.9540948271751404,0.16208910942077637,-0.9810222387313843,0.08632291108369827,0.015215227380394936,0.17295131087303162
186.0,1.3860048583030982,-1.3025659138137615,2.251932279466323,-2.863714431406293,-1.5079229511601084,0.0,-0.050166286528110504,0.9587643146514893,0.16378413140773773,-0.9810910820960999,0.08551183342933655,0.015073630958795547,0.17297646403312683
187.0,1.38856574308281,-1.3007899294844338,2.2461071158352706,-2.859835715248785,-1.5087817349940658,0.0,-0.051581740379333496,0.9624387621879578,0.16512802243232727,-0.981191873550415,0.08432580530643463,0.014865708537399769,0.17300431430339813
188.0,1.3945266231279325,-1.300637471365977,2.2463982461568817,-2.8606214163577115,-1.5107915864914534,0.0,-0.05655309557914734,0.961965024471283,0.16495490074157715,-0.9814251661300659,0.08156724274158478,0.01437932439148426,0.17304517328739166
189.0,1.39514648655718,-1.3020965498303758,2.251565480566569,-2.864348338423563,-1.5110038698019836,0.0,-0.057662345468997955,0.9585687518119812,0.16371320188045502,-0.9814503788948059,0.08128101378679276,0.014327911660075188,0.17304137349128723
190.0,1.3934457572382364,-1.304255817112107,2.25885131010524,-2.869353177506782,-1.5104351363138764,0.0,-0.0571100227534771,0.9539002776145935,0.16201694309711456,-0.9813869595527649,0.08206907659769058,0.01446545496582985,0.17301711440086365
191.0,1.396861957418174,-1.304860163717402,2.2614776233129836,-2.871556034583884,-1.5115896109472948,0.0,-0.06021152436733246,0.9520061612129211,0.16132912039756775,-0.9815189838409424,0.08048855513334274,0.014186172746121883,0.17303428053855896
192.0,1.4021811262998995,-1.3043416625470656,2.260467417226783,-2.8713639699079474,-1.513383757235937,0.0,-0.06444954872131348,0.9523749351501465,0.16146375238895416,-0.9817171096801758,0.07802657783031464,0.013752506114542484,0.1730729341506958
193.0,1.4038318348594532,-1.3021864069138094,2.25317936332906,-2.866345230529259,-1.5139365104603293,0.0,-0.06499896943569183,0.9570453763008118,0.16315795481204987,-0.9817752838134766,0.07726170867681503,0.01361902803182602,0.1730961948633194
194.0,1.4060412964069198,-1.3002794736576722,2.2468507759456893,-2.862062840870744,-1.5146788687811632,0.0,-0.0661320835351944,0.9610466957092285,0.1646214723587036,-0.9818533658981323,0.07623842358589172,0.013439830392599106,0.17312116920948029
195.0,1.4120335693260873,-1.3000537067350204,2.2470178689788383,-2.862765609511652,-1.5167048718080944,0.0,-0.07110362499952316,0.9605743885040283,0.16444815695285797,-0.9820648431777954,0.07346536964178085,0.01295076310634613,0.17315775156021118
196.0,1.4132171935159432,-1.3013332782175078,2.2516961670545337,-2.8662102491760773,-1.5171078419090644,0.0,-0.0725661963224411,0.957444429397583,0.16330429911613464,-0.9821069240570068,0.07291813939809799,0.012853491120040417,0.1731579303741455
197.0,1.4116170380129933,-1.303484306676564,2.2589860513979003,-2.871242188164122,-1.5165712203795403,0.0,-0.07201258093118668,0.9527767300605774,0.16160735487937927,-0.982053816318512,0.07365955412387848,0.012982901185750961,0.17313551902770996
198.0,1.414597995308828,-1.304191426727797,2.2619889725995117,-2.8736756018537823,-1.5175815898274536,0.0,-0.07476180046796799,0.9506147503852844,0.16082294285297394,-0.9821575284004211,0.07228048145771027,0.01273913774639368,0.17314699292182922
199.0,1.4202147629277195,-1.3037326226090096,2.261345585628485,-2.873773237209652,-1.5194813809245062,0.0,-0.07928280532360077,0.950654923915863,0.16083881258964539,-0.9823448657989502,0.06968094408512115,0.012281117029488087,0.17318293452262878
200.0,1.4217640783733598,-1.301585915368963,2.2540542853852488,-2.8687284176372865,-1.5200017699672357,0.0,-0.07983161509037018,0.9553261399269104,0.1625319868326187,-0.982393205165863,0.06896308064460754,0.012155812233686447,0.17320439219474792
201.0,1.4236035784346308,-1.2995591486033047,2.2472390253164343,-2.8640511744286568,-1.5206208128977206,0.0,-0.08068231493234634,0.959653913974762,0.16411492228507996,-0.982450544834137,0.06811109185218811,0.012006741017103195,0.17322653532028198
202.0,1.4296235722684236,-1.2992602832467637,2.24728175453252,-2.86466935563865,-1.522661095760243,0.0,-0.08565417677164078,0.9591833353042603,0.16394168138504028,-0.9826399683952332,0.06532526761293411,0.011515486054122448,0.1732589304447174
203.0,1.4313618143727471,-1.3003515921376667,2.2514533603534925,-2.8678156400917603,-1.5232523972688046,0.0,-0.08747046440839767,0.9563201665878296,0.1628953069448471,-0.9826940894126892,0.06452127546072006,0.011373128741979599,0.17326228320598602
204.0,1.4298638158519208,-1.3024936248117003,2.2587456604718485,-2.8728727196906143,-1.5227485273103938,0.0,-0.08691573143005371,0.9516530632972717,0.16119742393493652,-0.9826505780220032,0.06521530449390411,0.011494352482259274,0.17324140667915344
205.0,1.4324320678491003,-1.3032878851413507,2.2620580935858516,-2.875491201135041,-1.5236214284917824,0.0,-0.08931715041399002,0.9492762684822083,0.16033557057380676,-0.9827300310134888,0.06402724236249924,0.011284243315458298,0.1732477992773056
206.0,1.43837378266828,-1.3028302288558156,2.2615948743965726,-2.8757480983377404,-1.5256362856224768,0.0,-0.0941181406378746,0.9490991234779358,0.16027337312698364,-0.9829049110412598,0.06127746403217316,0.010799594223499298,0.17328089475631714
207.0,1.4398307107347288,-1.3006919341858825,2.2543022655598026,-2.8706812315677035,-1.5261267966288432,0.0,-0.09467542916536331,0.953769862651825,0.16196580231189728,-0.9829445481300354,0.06060251593589783,0.010681799612939358,0.17330104112625122
208.0,1.441452198084129,-1.2986170314440688,2.2472683820298243,-2.8658152641324595,-1.526673358863897,0.0,-0.09540574997663498,0.958245575428009,0.1636025607585907,-0.9829883575439453,0.05985140800476074,0.010550531558692455,0.17332153022289276
209.0,1.4474957886491928,-1.2982456220826062,2.2471870689693625,-2.8663479443971713,-1.5287261522527034,0.0,-0.10037745535373688,0.9577755928039551,0.1634291410446167,-0.9831547737121582,0.05705473944544792,0.010057304054498672,0.17334969341754913
210.0,1.4494836847449726,-1.2992309724561808,2.251091244152885,-2.869332107386601,-1.529403482063328,0.0,-0.10232581943273544,0.9550362825393677,0.16242891550064087,-0.9832088351249695,0.05613524466753006,0.009894541464745998,0.1733526736497879
211.0,1.448023723657672,-1.301369741518858,2.258383592280443,-2.8744003431250076,-1.5289114925344371,0.0,-0.10171724110841751,0.9503744840621948,0.16073429584503174,-0.9831724762916565,0.05681164190173149,0.010012571699917316,0.17333199083805084
212.0,1.4518322873689011,-1.3016128318079576,2.2600678220454458,-2.8759771217004535,-1.530207069360144,0.0,-0.10495711863040924,0.9489158391952515,0.1602042019367218,-0.9832738041877747,0.055049482733011246,0.009701479226350784,0.17334343492984772
213.0,1.4571084472604638,-1.3006880209605343,2.257914708422268,-2.874955242679512,-1.5319993327394177,0.0,-0.1090928390622139,0.9498339891433716,0.16053886711597443,-0.9834067225456238,0.05260763689875603,0.009271323680877686,0.17337165772914886
214.0,1.4585808524432051,-1.2985480638769766,2.250623116788122,-2.869887751563194,-1.53249593987435,0.0,-0.10975442081689835,0.954489529132843,0.16223090887069702,-0.9834402203559875,0.05192550644278526,0.009152282029390335,0.1733933836221695
215.0,1.462321764687906,-1.2972464055141033,2.2468330204001057,-2.8675447123447877,-1.5337666017441722,0.0,-0.11255183815956116,0.956611692905426,0.16300538182258606,-0.9835290312767029,0.05019407346844673,0.008847614750266075,0.17341551184654236
216.0,1.468384911832791,-1.2968029003298538,2.2466273494695814,-2.8679906515639164,-1.5358296512376244,0.0,-0.11752255260944366,0.9561299085617065,0.16283255815505981,-0.9836678504943848,0.04738834127783775,0.008353039622306824,0.17344148457050323
217.0,1.4668970268666406,-1.298942334505802,2.253908721428946,-2.8730495170860633,-1.5353276402342884,0.0,-0.11679732799530029,0.9514931440353394,0.16114044189453125,-0.9836374521255493,0.048077672719955444,0.008473149500787258,0.17341890931129456
218.0,1.4688258431407775,-1.2998250432851879,2.2575144666081806,-2.8758149200797796,-1.535986768520912,0.0,-0.11861593276262283,0.9489138722419739,0.16020400822162628,-0.9836825132369995,0.04718561843037605,0.008315089158713818,0.173415869474411
219.0,1.4750401707939496,-1.299131766821624,2.256510930497492,-2.875704384735014,-1.538102292731986,0.0,-0.12361372262239456,0.9489082098007202,0.1602039337158203,-0.9838159680366516,0.04430985450744629,0.007808260153979063,0.1734405755996704
220.0,1.4767823528364652,-1.2970486688179366,2.249493862594064,-2.8708574439621124,-1.5386927257991951,0.0,-0.12459790706634521,0.9533429145812988,0.16181494295597076,-0.9838489890098572,0.04350302740931511,0.007666738238185644,0.17346380650997162
221.0,1.4795548851090297,-1.2966548038182009,2.248771656101572,-2.870611292959228,-1.539637285932271,0.0,-0.12682530283927917,0.9535093903541565,0.1618739664554596,-0.9839049577713013,0.04222005978226662,0.007440540473908186,0.17347341775894165
222.0,1.4833305194477493,-1.2976860673977224,2.253390949421155,-2.8742817396730795,-1.5409261661482312,0.0,-0.13018453121185303,0.9500334858894348,0.1606103479862213,-0.9839805960655212,0.04047343134880066,0.007132008671760559,0.1734735071659088
223.0,1.487849529707058,-1.299215637272387,2.2520863223268486,-2.8715418383075764,-1.5424685268579004,0.0,-0.13384248316287994,0.9498348236083984,0.1621692180633545,-0.9840669631958008,0.038382790982723236,0.006763029377907515,0.1734738051891327
224.0,1.4927233164582772,-1.3009830240501707,2.2479545015549034,-2.8657425954426627,-1.544131861247016,0.0,-0.13766548037528992,0.9511801600456238,0.16508877277374268,-0.9841545820236206,0.03612781688570976,0.0063652233220636845,0.17347608506679535
225.0,1.4975942225549712,-1.3027493662129601,2.243825122898055,-2.8599467802236545,-1.545794212521363,0.0,-0.14150354266166687,0.9524940252304077,0.1680256724357605,-0.9842362999916077,0.03387409821152687,0.005967698525637388,0.17348109185695648
226.0,1.5024270073975023,-1.3045018844224254,2.2397280620667175,-2.8541963248906015,-1.5474435537080222,0.0,-0.14532852172851562,0.953767716884613,0.1709582805633545,-0.9843116402626038,0.03163788840174675,0.005573405418545008,0.17348900437355042
227.0,1.5072597922400333,-1.306254402631891,2.2356310012353804,-2.848445869557549,-1.5490928948946814,0.0,-0.14917021989822388,0.9550101161003113,0.17390911281108856,-0.9843812584877014,0.02940152958035469,0.005179158411920071,0.17349952459335327
228.0,1.5120748924566578,-1.3080005078455497,2.2315489327925886,-2.84271645688513,-1.5507362006415621,0.0,-0.15301404893398285,0.9562175869941711,0.17686772346496582,-0.9844450354576111,0.027173299342393875,0.0047864653170108795,0.17351292073726654
229.0,1.5168676183055703,-1.3097384994170502,2.2274858325324427,-2.837013667123998,-1.5523718704254537,0.0,-0.1568557769060135,0.9573886394500732,0.17983058094978333,-0.9845026731491089,0.02495536394417286,0.004395696334540844,0.1735289841890335
230.0,1.5216603441544825,-1.3114764909885506,2.223422732272297,-2.8313108773628666,-1.5540075402093452,0.0,-0.1607130467891693,0.9585291743278503,0.18281134963035583,-0.9845547080039978,0.022737368941307068,0.004005047492682934,0.17354784905910492
231.0,1.526422352306172,-1.3132033433669172,2.2193856733688886,-2.825644638110721,-1.5556327266042922,0.0,-0.16456076502799988,0.9596314430236816,0.1857907772064209,-0.9846009612083435,0.02053351327776909,0.0036170443054288626,0.17356930673122406
232.0,1.53117622943236,-1.31492724718235,2.215355507655884,-2.8199880738390433,-1.5572551380287645,0.0,-0.16841654479503632,0.9607011675834656,0.18878242373466492,-0.984641432762146,0.018333444371819496,0.0032298187725245953,0.17359338700771332
233.0,1.5349224084880526,-1.3163065264002634,2.2112578222728922,-2.8145931779958815,-1.558533514363601,0.0,-0.17144660651683807,0.962041974067688,0.19158756732940674,-0.9846689701080322,0.016599681228399277,0.0029247961938381195,0.1736166924238205
234.0,1.531156255353374,-1.315116648711617,2.2066567815643543,-2.811149005505576,-1.5572471285398526,0.0,-0.16820575296878815,0.9656151533126831,0.19288408756256104,-0.9846370220184326,0.01834230124950409,0.003231514012441039,0.17361770570278168
235.0,1.5278372714286046,-1.3145870662101433,2.2041947462695357,-2.8091826188551994,-1.5561132479096824,0.0,-0.16537435352802277,0.9677092432975769,0.19365060329437256,-0.9846062660217285,0.01987803727388382,0.0035020019859075546,0.17361733317375183
236.0,1.5265696850131976,-1.3170866008133189,2.2115454402078076,-2.8139956036915503,-1.5556789878422403,0.0,-0.1645304560661316,0.9630810022354126,0.19196605682373047,-0.9845960140228271,0.020464571192860603,0.003606203244999051,0.17360509932041168
237.0,1.5213218573896172,-1.3180465441276772,2.213207816882514,-2.814608853798155,-1.553887531695719,0.0,-0.16022972762584686,0.9627354145050049,0.19183865189552307,-0.98454350233078,0.022893037647008896,0.0040337033569812775,0.173590749502182
238.0,1.5178597448032343,-1.3176214434527593,2.211061897316488,-2.8128410612607095,-1.5527055054347603,0.0,-0.15728424489498138,0.964621901512146,0.19252632558345795,-0.9845040440559387,0.024495061486959457,0.004315664991736412,0.1735888421535492
239.0,1.519115085866495,-1.3146805339938485,2.202286068807217,-2.804810737766299,-1.5532371595421022,0.0,-0.15802663564682007,0.9694840312004089,0.19393974542617798,-0.9847098588943481,0.02393762394785881,0.004192502237856388,0.17249907553195953
240.0,1.5193013519885576,-1.309316088357583,2.1854167891283365,-2.7784068449005885,-1.5539923819629473,0.0,-0.15759125351905823,0.9757083654403687,0.19391925632953644,-0.9859679937362671,0.024005092680454254,0.004036324564367533,0.1651497781276703
241.0,1.5194876181106203,-1.3039516427213174,2.1685475094494553,-2.752002952034877,-1.5547476043837927,0.0,-0.15716497600078583,0.9818031191825867,0.19401925802230835,-0.9871715307235718,0.024065399542450905,0.0038776355795562267,0.1577913612127304
242.0,1.519673884232683,-1.2985871970850518,2.151678229770574,-2.725599059169166,-1.5555028268046378,0.0,-0.15674757957458496,0.9877683520317078,0.1942395269870758,-0.9883202910423279,0.024118591099977493,0.0037164741661399603,0.15042398869991302
243.0,1.5198601503547455,-1.2932227514487864,2.1348089500916934,-2.6991951663034555,-1.5562580492254832,0.0,-0.1563388705253601,0.9936045408248901,0.1945808231830597,-0.9894142150878906,0.02416474185883999,0.00355281843803823,0.14304831624031067
244.0,1.5200464164768082,-1.2878583058125206,2.117939670412812,-2.672791273437744,-1.5570132716463283,0.0,-0.1559390127658844,0.9993113875389099,0.19504289329051971,-0.9904533624649048,0.024203719571232796,0.0033868574537336826,0.1356646567583084
245.0,1.5202326825988708,-1.282493860176255,2.101070390733931,-2.646387380572033,-1.5577684940671737,0.0,-0.15554779767990112,1.0048893690109253,0.19562605023384094,-0.9914374351501465,0.024235641583800316,0.0032185616437345743,0.12827347218990326
246.0,1.5204189487209334,-1.2771294145399894,2.08420111105505,-2.619983487706321,-1.5585237164880188,0.0,-0.1551651656627655,1.010338306427002,0.19633054733276367,-0.9923664927482605,0.02426041103899479,0.0030479361303150654,0.12087506055831909
247.0,1.520605214842996,-1.271764968903724,2.067331831376169,-2.593579594840611,-1.5592789389088642,0.0,-0.154790997505188,1.0156584978103638,0.19715619087219238,-0.9932405948638916,0.02427813410758972,0.002875138074159622,0.11346998065710068
248.0,1.5207914809650587,-1.2664005232674582,2.050462551697288,-2.5671757019748993,-1.5600341613297093,0.0,-0.15442541241645813,1.0208503007888794,0.19810321927070618,-0.9940595626831055,0.024288702756166458,0.002700169337913394,0.1060585156083107
249.0,1.5209777470871213,-1.2610360776311926,2.0335932720184067,-2.540771809109188,-1.5607893837505546,0.0,-0.1540679782629013,1.0259138345718384,0.1991717517375946,-0.9948233366012573,0.02429223619401455,0.002523068804293871,0.09864111244678497
250.0,1.521164013209184,-1.255671631994927,2.0167239923395255,-2.5143679162434767,-1.5615446061713998,0.0,-0.1537189483642578,1.0308492183685303,0.20036140084266663,-0.9955318570137024,0.024288630113005638,0.0023438415955752134,0.09121812880039215
251.0,1.5213502793312466,-1.2503071863586617,1.999854712660645,-2.4879640233777662,-1.5622998285922451,0.0,-0.1533779501914978,1.0356569290161133,0.20167315006256104,-0.9961852431297302,0.024277999997138977,0.0021626378875225782,0.08379026502370834
252.0,1.5215365454533092,-1.2449427407223959,1.9829854329817638,-2.461560130512055,-1.5630550510130903,0.0,-0.1530451476573944,1.040337324142456,0.2031061351299286,-0.9967832565307617,0.02426024153828621,0.0019794623367488384,0.07635780423879623
253.0,1.5217228115753718,-1.2395782950861303,1.9661161533028826,-2.4351562376463436,-1.5638102734339356,0.0,-0.15272025763988495,1.0448906421661377,0.20466014742851257,-0.9973260164260864,0.024235473945736885,0.001794366049580276,0.06892085820436478
254.0,1.5219090776974344,-1.2342138494498647,1.9492468736240012,-2.4087523447806323,-1.5645654958547808,0.0,-0.15240338444709778,1.0493167638778687,0.2063359022140503,-0.9978134632110596,0.024203602224588394,0.0016073386650532484,0.061480190604925156
255.0,1.522095343819497,-1.2288494038135993,1.9323775939451209,-2.382348451914922,-1.5653207182756261,0.0,-0.15209420025348663,1.0536167621612549,0.20813289284706116,-0.9982455372810364,0.02416473999619484,0.001418546075001359,0.05403612554073334
256.0,1.5222816099415597,-1.2234849581773335,1.9155083142662395,-2.3559445590492105,-1.5660759406964713,0.0,-0.15179292857646942,1.0577906370162964,0.2100508064031601,-0.9986221790313721,0.024118779227137566,0.0012279882794246078,0.04658906161785126
257.0,1.5224678760636223,-1.218120512541068,1.8986390345873583,-2.3295406661834988,-1.5668311631173166,0.0,-0.15149915218353271,1.0618385076522827,0.21208976209163666,-0.9989433884620667,0.024065854027867317,0.0010357125429436564,0.0391392856836319
258.0,1.522654142185685,-1.2127560669048025,1.8817697549084778,-2.3031367733177888,-1.5675863855381618,0.0,-0.15121300518512726,1.0657613277435303,0.21424934267997742,-0.9992091059684753,0.024005860090255737,0.0008417131030000746,0.03168749436736107
259.0,1.5228404083077476,-1.207391621268537,1.8649004752295966,-2.2767328804520774,-1.5683416079590071,0.0,-0.15093424916267395,1.0695593357086182,0.2165299654006958,-0.9994193911552429,0.023938918486237526,0.0006461568991653621,0.024233967065811157
260.0,1.5230266744298102,-1.2020271756322711,1.8480311955507154,-2.2503289875863657,-1.5690968303798525,0.0,-0.15066300332546234,1.0732330083847046,0.21893060207366943,-0.9995742440223694,0.023864934220910072,0.0004490422725211829,0.0167790949344635
261.0,1.5232129405518728,-1.1966627299960055,1.831161915871834,-2.2239250947206544,-1.5698520528006976,0.0,-0.1503988802433014,1.076782464981079,0.2214515656232834,-0.9996735453605652,0.023784030228853226,0.0002504196891095489,0.009323332458734512
262.0,1.5233992066739355,-1.1912982843597402,1.8142926361929534,-2.197521201854944,-1.5706072752215428,0.0,-0.15014205873012543,1.0802085399627686,0.2240920215845108,-0.9997174143791199,0.023696107789874077,5.028546729590744e-05,0.0018669595010578632
263.0,1.5227153594459268,-1.1967797761926924,1.8319388221887014,-2.231339990092249,-1.5693235173897015,0.0,-0.14996136724948883,1.0790839195251465,0.22223490476608276,-0.9996304512023926,0.0240268986672163,0.00043103061034344137,0.012705936096608639
264.0,1.5217408808010526,-1.2058839801397074,1.8611137115332272,-2.2852740921963766,-1.5673587083824587,0.0,-0.14982900023460388,1.076066017150879,0.21933121979236603,-0.9992603063583374,0.024463552981615067,0.0009910964872688055,0.029652835801243782
265.0,1.5207664021561786,-1.2149881840867227,1.8902886008777529,-2.3392081943005043,-1.5653938993752157,0.0,-0.14972586929798126,1.0725823640823364,0.21697473526000977,-0.9986034035682678,0.02485949918627739,0.0015333817573264241,0.046591680496931076
266.0,1.5197919235113044,-1.2240923880337375,1.9194634902222774,-2.3931422964046294,-1.5634290903679728,0.0,-0.14965415000915527,1.068622350692749,0.21516229212284088,-0.9976600408554077,0.025214243680238724,0.002057187259197235,0.06351740658283234
267.0,1.5188174448664304,-1.2331965919807528,1.9486383795668032,-2.4470763985087576,-1.56146428136073,0.0,-0.14961546659469604,1.064176082611084,0.21389111876487732,-0.9964303374290466,0.025527549907565117,0.002561800880357623,0.08042534440755844
268.0,1.5178429662215562,-1.242300795927768,1.9778132689113288,-2.5010105006128853,-1.5594994723534872,0.0,-0.14961206912994385,1.0592337846755981,0.2131563425064087,-0.9949149489402771,0.025798983871936798,0.0030465556774288416,0.09731028228998184
269.0,1.5168684875766822,-1.2514049998747832,2.006988158255855,-2.554944602717013,-1.5575346633462441,0.0,-0.14964559674263,1.0537867546081543,0.21295392513275146,-0.993114173412323,0.026028338819742203,0.0035107561852782965,0.11416757851839066
270.0,1.5158940089318083,-1.260509203821798,2.036163047600379,-2.608878704821138,-1.5555698543390013,0.0,-0.14971834421157837,1.0478253364562988,0.21327829360961914,-0.9910288453102112,0.026215238496661186,0.003953760955482721,0.1309920698404312
271.0,1.514919530286934,-1.2696134077688133,2.0653379369449048,-2.662812806925266,-1.5536050453317585,0.0,-0.14983192086219788,1.0413415431976318,0.21412384510040283,-0.9886593222618103,0.026359517127275467,0.004374897573143244,0.14777907729148865
272.0,1.51394505164206,-1.2787176117158285,2.0945128262894306,-2.7167469090293936,-1.5516402363245156,0.0,-0.14998869597911835,1.0343271493911743,0.2154846489429474,-0.9860065579414368,0.026460831984877586,0.004773553926497698,0.16452345252037048
273.0,1.5132767014333193,-1.2848552955300847,2.1137106966840373,-2.748145894757579,-1.5505281082326758,0.0,-0.15009091794490814,1.0281561613082886,0.21564874053001404,-0.9844499826431274,0.02656278945505619,0.004991334863007069,0.17357304692268372
274.0,1.51297008716758,-1.2874875978410427,2.121119246217851,-2.752916313483448,-1.550423548529152,0.0,-0.1500907689332962,1.0234613418579102,0.21393945813179016,-0.9844461679458618,0.026704682037234306,0.005016270559281111,0.1735723912715912
275.0,1.5126605153180563,-1.2901041134020252,2.1285162855775925,-2.7576908693156343,-1.5503178787756011,0.0,-0.1500910222530365,1.0187649726867676,0.21223080158233643,-0.9844422340393066,0.026847945526242256,0.005041481927037239,0.17357169091701508
276.0,1.5123470790882307,-1.2927000019883956,2.1358982857387177,-2.7624708306927945,-1.5502107586301863,0.0,-0.15009085834026337,1.0140702724456787,0.21052105724811554,-0.9844383001327515,0.026992950588464737,0.005067130550742149,0.17357073724269867
277.0,1.5120308233559272,-1.2952808892109713,2.143269902539887,-2.767255397154223,-1.5501027483335346,0.0,-0.1500912606716156,1.0093735456466675,0.20881254971027374,-0.9844343066215515,0.027139296755194664,0.005092939827591181,0.17356997728347778
278.0,1.511710487742222,-1.2978400691338987,2.1506264943933915,-2.772046627272736,-1.5499934499686845,0.0,-0.15009097754955292,1.004679560661316,0.2071029394865036,-0.9844301342964172,0.027287520468235016,0.005119039677083492,0.17356938123703003
279.0,1.511387366333499,-1.3003847860550821,2.1579735855316415,-2.7768427067699726,-1.5498831693072137,0.0,-0.15009143948554993,0.9999825358390808,0.2053946554660797,-0.9844260811805725,0.027437075972557068,0.005145370028913021,0.17356853187084198
280.0,1.5110597732706057,-1.302906287505764,2.1653054264764235,-2.7816465703089115,-1.5497713118998755,0.0,-0.15009096264839172,0.9952887892723083,0.2036847621202469,-0.9844217896461487,0.027588659897446632,0.005172077566385269,0.1735677421092987
281.0,1.5107295131234213,-1.3054141054766153,2.17262879123441,-2.7864555776835784,-1.5496585236426164,0.0,-0.15009163320064545,0.9905912280082703,0.20197656750679016,-0.9844175577163696,0.027741458266973495,0.005199031438678503,0.17356695234775543
282.0,1.5103944903342292,-1.3078974887057255,2.1799370199715997,-2.7912737704627735,-1.5495440731563266,0.0,-0.15009109675884247,0.9858975410461426,0.2002662867307663,-0.9844131469726562,0.027896516025066376,0.0052263857796788216,0.17356610298156738
283.0,1.5101461050400544,-1.3087321357014055,2.1823956208173056,-2.7928933229428434,-1.549482950653691,0.0,-0.14996711909770966,0.9843363165855408,0.19969181716442108,-0.9844098091125488,0.028013460338115692,0.005235003307461739,0.17356552183628082
284.0,1.5100703641119948,-1.3062813111832314,2.1751902657389577,-2.7881388773431985,-1.5495280959503759,0.0,-0.14959031343460083,0.9890289902687073,0.20137245953083038,-0.9844088554382324,0.028054697439074516,0.005206184461712837,0.17356513440608978
285.0,1.5099945544716076,-1.3038282632719562,2.167978373947494,-2.7833801185006157,-1.549573282202968,0.0,-0.14921323955059052,0.9937136769294739,0.20306196808815002,-0.9844079613685608,0.02809593826532364,0.005177367478609085,0.17356468737125397
286.0,1.509918533134129,-1.3013683652674002,2.160746343074656,-2.7786080709074046,-1.5496185946373782,0.0,-0.14883527159690857,0.9983993172645569,0.20476405322551727,-0.9844069480895996,0.028137240558862686,0.005148477852344513,0.17356428503990173
287.0,1.509842465567326,-1.2989069713746266,2.1535099143325755,-2.773833121385026,-1.549663934626726,0.0,-0.14845700562000275,1.0030757188796997,0.20647448301315308,-0.9844061136245728,0.028178609907627106,0.0051195817068219185,0.1735638678073883
288.0,1.5097661617364393,-1.2964379324499875,2.146251009412063,-2.769043340981104,-1.5497094154410207,0.0,-0.1480775773525238,1.0077542066574097,0.2081979513168335,-0.9844050407409668,0.02822011336684227,0.005090541206300259,0.17356355488300323
289.0,1.509799861545401,-1.293948247175111,2.13897200687487,-2.7642595179891294,-1.5498103727863712,0.0,-0.14778682589530945,1.0124211311340332,0.20992465317249298,-0.9844052791595459,0.0282122865319252,0.005043673794716597,0.17356470227241516
290.0,1.5109463936951448,-1.29124969675454,2.1314896903578266,-2.7595359621000517,-1.550472548633206,0.0,-0.14840033650398254,1.0170860290527344,0.21161776781082153,-0.984417736530304,0.027704939246177673,0.004816346801817417,0.1735822558403015
291.0,1.5120813385308087,-1.2885506901912516,2.124006483540801,-2.7548094357187702,-1.5511187887312337,0.0,-0.14901979267597198,1.0217398405075073,0.21331682801246643,-0.9844298958778381,0.027201946824789047,0.004595885053277016,0.1735990345478058
292.0,1.5130033113548262,-1.2858432998358715,2.1165069132268584,-2.7500283124139986,-1.551472133646022,0.0,-0.1495458334684372,1.0264151096343994,0.21501322090625763,-0.9844422340393066,0.02677873708307743,0.004501764662563801,0.17359770834445953
293.0,1.513898362464182,-1.2832103054209587,2.10921524137733,-2.7453801659568704,-1.55181488953135,0.0,-0.15006528794765472,1.0309484004974365,0.21666796505451202,-0.9844539165496826,0.026367854326963425,0.004410597030073404,0.17359626293182373
294.0,1.5128783444169533,-1.2858694468434266,2.116712372615072,-2.7501912929027954,-1.5514043975655334,0.0,-0.1494508981704712,1.0263121128082275,0.21492719650268555,-0.9844418168067932,0.0268345195800066,0.00452454574406147,0.1735907942056656
295.0,1.5118583263697245,-1.2885285882658948,2.124209503852814,-2.755002419848721,-1.5509939055997168,0.0,-0.14884695410728455,1.021662712097168,0.21319323778152466,-0.9844292998313904,0.027301130816340446,0.004638449754565954,0.17358554899692535
296.0,1.5108404736272567,-1.2911820848357074,2.131690720103554,-2.7598033336850736,-1.550584285030451,0.0,-0.14825458824634552,1.0170094966888428,0.21146976947784424,-0.9844167232513428,0.027766820043325424,0.004752133972942829,0.17358025908470154
297.0,1.5098249361458715,-1.2938295456234425,2.1391549191885373,-2.7645933271117227,-1.5501755962055555,0.0,-0.14767417311668396,1.0123540163040161,0.20975708961486816,-0.9844037890434265,0.028231343254446983,0.004865624010562897,0.17357532680034637
298.0,1.5088093986644862,-1.2964770064111775,2.14661911827352,-2.7693833205383718,-1.54976690738066,0.0,-0.14710398018360138,1.0076854228973389,0.2080514132976532,-0.9843906164169312,0.028695935383439064,0.004979053046554327,0.17357052862644196
299.0,1.507798007169866,-1.299113658796871,2.154052844361508,-2.7741537585574503,-1.549359887050025,0.0,-0.14654642343521118,1.0030231475830078,0.20635953545570374,-0.9843772649765015,0.02915867604315281,0.005092020146548748,0.1735658347606659
300.0,1.5067868732676388,-1.301749639650719,2.161484677145765,-2.7789229815885146,-1.5489529703838376,0.0,-0.1459994912147522,0.9983492493629456,0.20467489957809448,-0.9843637347221375,0.029621243476867676,0.005205023568123579,0.173561230301857
301.0,1.5057773778696655,-1.3043813489972687,2.168904466926018,-2.7836844762739967,-1.5485467131107211,0.0,-0.14546389877796173,0.9936704635620117,0.20299997925758362,-0.9843499064445496,0.03008303977549076,0.005317826755344868,0.17355689406394958
302.0,1.504770459613093,-1.3070063398514655,2.176305314720537,-2.788433815336871,-1.5481414929720383,0.0,-0.14494004845619202,0.9889912605285645,0.2013365626335144,-0.9843358397483826,0.03054363839328289,0.0054303319193422794,0.1735527366399765
303.0,1.5037635413565205,-1.3096313307056624,2.183706162515056,-2.793183154399745,-1.5477362728333557,0.0,-0.14442646503448486,0.9842997193336487,0.19968003034591675,-0.9843215346336365,0.031004291027784348,0.005542834755033255,0.17354871332645416
304.0,1.5044308160230084,-1.3079740503596167,2.1788963032280195,-2.7900439237375294,-1.547953153202396,0.0,-0.1447906494140625,0.9873347878456116,0.20078903436660767,-0.9843311905860901,0.030694615095853806,0.00549377640709281,0.1735500693321228
305.0,1.5054528471239659,-1.3054093696527735,2.1714990319128127,-2.7852331289262904,-1.5483018547940457,0.0,-0.14534927904605865,0.9919971227645874,0.2024896740913391,-0.9843459129333496,0.030221646651625633,0.005410485435277224,0.17355258762836456
306.0,1.5064568448479922,-1.3028156946877922,2.164083931089658,-2.78043264289474,-1.5486446061281418,0.0,-0.14590148627758026,0.9966675043106079,0.2041860967874527,-0.9843599796295166,0.029757080599665642,0.005328509956598282,0.1735551506280899
307.0,1.5074559802041874,-1.3002142019553125,2.1566640228681875,-2.775634936435697,-1.54898575308492,0.0,-0.1464594453573227,1.0013304948806763,0.20588624477386475,-0.9843738675117493,0.029294775798916817,0.005247002467513084,0.17355762422084808
308.0,1.5074234608496295,-1.2977074044521415,2.149440520482103,-2.7709210690931503,-1.5489944884166842,0.0,-0.14612756669521332,1.0059994459152222,0.2075648009777069,-0.984373152256012,0.02931147627532482,0.005239800084382296,0.17355898022651672
309.0,1.5070475161046426,-1.2952321298468532,2.1422823992259614,-2.766235110779677,-1.5488925679341399,0.0,-0.14549478888511658,1.0106624364852905,0.20924033224582672,-0.9843676090240479,0.02948771044611931,0.005257387645542622,0.17355993390083313
310.0,1.5066706603341318,-1.2927508569176773,2.13510693172079,-2.7615377970005808,-1.5487904004680633,0.0,-0.14485783874988556,1.0153242349624634,0.21092677116394043,-0.9843620657920837,0.029664337635040283,0.00527502316981554,0.17356087267398834
311.0,1.5062933139777757,-1.2902663539003,2.1279221232871555,-2.756834368320686,-1.5486881000017336,0.0,-0.14421728253364563,1.01997971534729,0.21262279152870178,-0.9843564629554749,0.029841231182217598,0.0052927215583622456,0.1735619306564331
312.0,1.5059151634300558,-1.2877765559706087,2.1207220027647917,-2.7521209158081525,-1.5485855815151424,0.0,-0.14357273280620575,1.024632453918457,0.21432891488075256,-0.984350860118866,0.03001847118139267,0.005310417618602514,0.1735629439353943
313.0,1.5055363746281138,-1.2852825556827558,2.1135097296557137,-2.7473995077842903,-1.5484828899946699,0.0,-0.14292427897453308,1.0292805433273315,0.21604478359222412,-0.9843451380729675,0.030196046456694603,0.005328108090907335,0.17356398701667786
314.0,1.5048737497793314,-1.2852510056045077,2.113254096670604,-2.747163849779582,-1.5482707009461794,0.0,-0.1423150897026062,1.0295220613479614,0.21614590287208557,-0.9843354225158691,0.030503826215863228,0.0053752451203763485,0.17356319725513458
315.0,1.503894913386836,-1.2879627828476583,2.1207486065483945,-2.7519256047323033,-1.5479365246351384,0.0,-0.1417592316865921,1.0248565673828125,0.2144472897052765,-0.9843213558197021,0.030956745147705078,0.005455114413052797,0.1735607385635376
316.0,1.502906638476721,-1.2906594855728164,2.1282320681335483,-2.7566909170666944,-1.5475991761399615,0.0,-0.14120446145534515,1.0201891660690308,0.21274890005588531,-0.9843068718910217,0.03141402453184128,0.005535772070288658,0.17355811595916748
317.0,1.5019061340009163,-1.29333665611978,2.1357012143541487,-2.7614608387300663,-1.547257717419447,0.0,-0.14064818620681763,1.0155237913131714,0.21105000376701355,-0.9842919707298279,0.03187698870897293,0.0056174276396632195,0.1735554039478302
318.0,1.500896688997099,-1.2959998357722289,2.1431606351294334,-2.7662345926657905,-1.5469131853809381,0.0,-0.14009375870227814,1.010856032371521,0.20935237407684326,-0.9842767715454102,0.032344091683626175,0.005699784494936466,0.17355282604694366
319.0,1.4998737290303972,-1.2986418660675225,2.150605354420389,-2.7710141396618932,-1.5465640075565688,0.0,-0.13953706622123718,1.0061910152435303,0.2076529562473297,-0.9842610359191895,0.03281741589307785,0.005783281289041042,0.17354996502399445
320.0,1.4988424081828005,-1.3012710251917763,2.1580416219761585,-2.7757976628451675,-1.5462120427373085,0.0,-0.13898299634456635,1.0015227794647217,0.20595543086528778,-0.9842450022697449,0.033294677734375,0.005867404397577047,0.1735471487045288
321.0,1.497796266660731,-1.303877368605764,2.165462907807214,-2.780588234301996,-1.5458551376319045,0.0,-0.13842588663101196,0.9968583583831787,0.20425570011138916,-0.9842285513877869,0.03377872332930565,0.005952740553766489,0.17354419827461243
322.0,1.4967423952325172,-1.3064719879739577,2.1728769597380264,-2.785382843197018,-1.5454955924023361,0.0,-0.13787226378917694,0.9921895861625671,0.2025585174560547,-0.9842117428779602,0.034266404807567596,0.0060386983677744865,0.17354123294353485
323.0,1.4956723382929766,-1.309042058573713,2.1802758647353406,-2.7901859060111946,-1.5451305190643065,0.0,-0.13731476664543152,0.9875255823135376,0.20085862278938293,-0.9841943979263306,0.034761521965265274,0.006126035004854202,0.1735382229089737
324.0,1.493231818745191,-1.3110205529931231,2.185651266963713,-2.793521153413084,-1.5442981010360044,0.0,-0.13550275564193726,0.9843270778656006,0.19969815015792847,-0.9841539859771729,0.035890866070985794,0.006325136870145798,0.17353010177612305
325.0,1.4873664366505397,-1.3115206655205411,2.1859698228358755,-2.793188248177311,-1.5422977625430645,0.0,-0.13053153455257416,0.9848014712333679,0.19987139105796814,-0.9840512275695801,0.03860492259263992,0.006803698837757111,0.1735123097896576
326.0,1.487021097529152,-1.3095901022363339,2.180187486715161,-2.7893285256746188,-1.5421799320968543,0.0,-0.1299227774143219,0.9885922074317932,0.20124655961990356,-0.9840448498725891,0.03876470774412155,0.006831861566752195,0.1735118180513382
327.0,1.4881394261040513,-1.307015032798306,2.1727874678025265,-2.7845336494911854,-1.5425612583110804,0.0,-0.1304812878370285,0.9932552576065063,0.20294716954231262,-0.984065055847168,0.0382472388446331,0.006740592420101166,0.17351551353931427
328.0,1.4892389233189016,-1.3044127618550967,2.1653706204928356,-2.7797480480139907,-1.54293617622277,0.0,-0.13103394210338593,0.9979248046875,0.20464369654655457,-0.9840847253799438,0.03773843124508858,0.0066509065218269825,0.1735188066959381
329.0,1.490332241522472,-1.3018015654595083,2.15794825139104,-2.7749654897856275,-1.5433089914199687,0.0,-0.1315920650959015,1.0025883913040161,0.20634397864341736,-0.9841039776802063,0.03723252937197685,0.00656173238530755,0.17352236807346344
330.0,1.4914082249421396,-1.299164870561214,2.1505090132120253,-2.770190425619873,-1.5436759522141168,0.0,-0.13214510679244995,1.0072574615478516,0.20804080367088318,-0.9841226935386658,0.03673464059829712,0.0064739640802145,0.1735255867242813
331.0,1.4924773145235823,-1.2965180352104269,2.1430630664008166,-2.7654183417540494,-1.5440405847815177,0.0,-0.13270272314548492,1.0119215250015259,0.20974066853523254,-0.9841410517692566,0.03623995929956436,0.006386725697666407,0.17352882027626038
332.0,1.493530518728643,-1.2938475794549051,2.1356007346824604,-2.7606527021778375,-1.544399916800933,0.0,-0.133256196975708,1.0165903568267822,0.21143794059753418,-0.9841588735580444,0.03575260564684868,0.006300774868577719,0.1735319346189499
333.0,1.4945761799345967,-1.2911659078057511,2.1281306227682175,-2.7558901226028243,-1.5447567319124855,0.0,-0.13381335139274597,1.0212544202804565,0.21313749253749847,-0.9841763377189636,0.03526875376701355,0.006215359084308147,0.17353497445583344
334.0,1.495607291844954,-1.2884621067890647,2.1206443014427636,-2.75113269573937,-1.5451085023130826,0.0,-0.1343671828508377,1.0259228944778442,0.2148350328207016,-0.9841932654380798,0.03479166701436043,0.006131211295723915,0.17353804409503937
335.0,1.4966302398339029,-1.2857458885102406,2.1131488846694695,-2.746378160172742,-1.5454574420183043,0.0,-0.13492389023303986,1.0305877923965454,0.21653421223163605,-0.9842098951339722,0.03431832417845726,0.00604778528213501,0.17354097962379456
336.0,1.4945505498308922,-1.2861376841246572,2.1138909113816244,-2.7466750477114066,-1.544748095806469,0.0,-0.1330953985452652,1.0303575992584229,0.21644824743270874,-0.9841760993003845,0.03528064489364624,0.006217487622052431,0.17353348433971405
337.0,1.490428728085012,-1.2885751498575715,2.1200547581273517,-2.7502967419135342,-1.5433421941892487,0.0,-0.1297169327735901,1.0268964767456055,0.21518674492835999,-0.9841060042381287,0.037187978625297546,0.006553764455020428,0.17352069914340973
338.0,1.4865000352349105,-1.29102846622235,2.126301893618264,-2.7539906504499823,-1.5420021825785326,0.0,-0.12654632329940796,1.023342251777649,0.21389994025230408,-0.9840352535247803,0.03900580480694771,0.006874415557831526,0.1735101342201233
339.0,1.4854094013063688,-1.2937147100679813,2.13377297007039,-2.7587457597713,-1.541630434779646,0.0,-0.12598568201065063,1.018681526184082,0.21219852566719055,-0.984015166759491,0.039510492235422134,0.0069633955135941505,0.17350652813911438
340.0,1.4843181256069409,-1.2964000306778818,2.141243397721217,-2.763501097392152,-1.5412584682463824,0.0,-0.12543584406375885,1.0140089988708496,0.21050351858139038,-0.9839947819709778,0.040015436708927155,0.00705238152295351,0.17350322008132935
341.0,1.4832030996113605,-1.2990511846988957,2.148689814898334,-2.768264883793841,-1.5408784069142756,0.0,-0.12487459927797318,1.0093488693237305,0.20880165696144104,-0.9839736223220825,0.040531426668167114,0.007143343333154917,0.17349930107593536
342.0,1.4820880736157802,-1.3017023387199096,2.1561362320754514,-2.7730286701955307,-1.5404983455821688,0.0,-0.12432513386011124,1.004676103591919,0.20710662007331848,-0.9839522838592529,0.041047364473342896,0.007234315387904644,0.1734955757856369
343.0,1.4809481050859201,-1.3043186724452107,2.1635597666807493,-2.7778028890489237,-1.5401098245061475,0.0,-0.12376365065574646,1.000016212463379,0.2054046243429184,-0.9839301109313965,0.0415748730301857,0.007327320519834757,0.17349165678024292
344.0,1.4798078537309032,-1.306934611340721,2.17098304181895,-2.7825772261966226,-1.539721207504493,0.0,-0.12321387976408005,0.9953436851501465,0.20370936393737793,-0.9839076399803162,0.042102497071027756,0.007420378737151623,0.17348766326904297
345.0,1.4786426788686233,-1.3095164582863448,2.17838513658776,-2.787363082995633,-1.53932418114183,0.0,-0.12265276908874512,0.9906830191612244,0.20200757682323456,-0.9838844537734985,0.04264165088534355,0.007515475153923035,0.17348352074623108
346.0,1.4774762291151402,-1.312096561355132,2.18578614793495,-2.792149529049678,-1.5389267246221967,0.0,-0.12210261076688766,0.9860111474990845,0.20031221210956573,-0.9838609099388123,0.0431814081966877,0.007610649801790714,0.17347945272922516
347.0,1.4720279097269358,-1.3127083877965287,2.186604712383556,-2.7921853289648637,-1.5370711151155636,0.0,-0.1175130233168602,0.9860496520996094,0.20032447576522827,-0.9837472438812256,0.04570259898900986,0.008055152371525764,0.17345796525478363
348.0,1.4691335711091784,-1.3118745213678153,2.1836223151946097,-2.78994639790554,-1.5360853743425016,0.0,-0.11485022306442261,0.9882766604423523,0.20113378763198853,-0.9836839437484741,0.04704184830188751,0.008291353471577168,0.17344820499420166
349.0,1.4703478063181807,-1.309289765765495,2.176220749102307,-2.7851689376099364,-1.536498957080171,0.0,-0.11540418863296509,0.992944598197937,0.20283162593841553,-0.983710527420044,0.04648001492023468,0.008192208595573902,0.1734529584646225
350.0,1.4715517125352489,-1.3066914421268963,2.1688107637275147,-2.7803959446669078,-1.5369089544828305,0.0,-0.11596116423606873,0.9976093769073486,0.20453089475631714,-0.9837367534637451,0.045922938734292984,0.008093914948403835,0.17345750331878662
351.0,1.4727388469280869,-1.3040710872270618,2.1613871074420508,-2.775630205641071,-1.5373131301548721,0.0,-0.11651505529880524,1.0022773742675781,0.20622844994068146,-0.983762264251709,0.04537356644868851,0.007997139357030392,0.17346197366714478
352.0,1.4739169379231918,-1.301438628058884,2.15395541867633,-2.7708679460656973,-1.5377142806721882,0.0,-0.11707255244255066,1.0069419145584106,0.2079281508922577,-0.9837871789932251,0.04482843726873398,0.007901053875684738,0.1734665036201477
353.0,1.4750777571512597,-1.2987830512407756,2.146508388870458,-2.766112331808773,-1.5381096535195171,0.0,-0.117625892162323,1.011610507965088,0.20962543785572052,-0.9838114976882935,0.04429127275943756,0.007806337438523769,0.17347072064876556
354.0,1.4762308090501104,-1.2961168298490446,2.1390538883333305,-2.7613593708870687,-1.538502422983787,0.0,-0.11818388104438782,1.0162744522094727,0.2113254964351654,-0.9838354587554932,0.043757688254117966,0.007712251506745815,0.17347507178783417
355.0,1.4773662619480332,-1.2934264902751407,2.131582460818781,-2.7566124218193333,-1.538889293774319,0.0,-0.11873669177293777,1.0209436416625977,0.21302247047424316,-0.9838587045669556,0.043232329189777374,0.007619600743055344,0.1734790802001953
356.0,1.476693305470631,-1.2915578721988823,2.1261564467414042,-2.753033295097727,-1.538660168528826,0.0,-0.11781255155801773,1.0244812965393066,0.21431386470794678,-0.983845055103302,0.0435437448322773,0.007674467749893665,0.173475980758667
357.0,1.4711011193153944,-1.2919244984391414,2.126294360069443,-2.752630875167127,-1.5367554127412721,0.0,-0.1128414198756218,1.0249563455581665,0.21448688209056854,-0.9837271571159363,0.04613140597939491,0.00813076738268137,0.17345529794692993
358.0,1.4689214705922875,-1.294091330697833,2.1321042002559225,-2.7562045450619688,-1.5360132394623922,0.0,-0.11127910017967224,1.021457552909851,0.21320956945419312,-0.9836791753768921,0.04714003577828407,0.00830860249698162,0.17344744503498077
359.0,1.4677415054198437,-1.2967855231335847,2.139575599353834,-2.7609429879954974,-1.5356116381576885,0.0,-0.11072687059640884,1.0167880058288574,0.21151259541511536,-0.9836528897285461,0.04768604412674904,0.008404838852584362,0.1734428107738495
360.0,1.4665420002672704,-1.299454359167855,2.147029192134176,-2.7656877140133145,-1.535203308963144,0.0,-0.11016826331615448,1.0121245384216309,0.20981240272521973,-0.9836258292198181,0.04824109748005867,0.008502712473273277,0.1734379678964615
361.0,1.4653354845360604,-1.3021140978005237,2.154476396341514,-2.7704346942840123,-1.534792565927824,0.0,-0.10961557924747467,1.0074554681777954,0.2081156075000763,-0.9835982918739319,0.04879938066005707,0.008601224049925804,0.17343318462371826
362.0,1.4641099541257276,-1.304749392306777,2.1619073543284366,-2.7751885403706082,-1.5343754692981193,0.0,-0.10905733704566956,1.002791404724121,0.20641547441482544,-0.9835699200630188,0.04936651512980461,0.00870123878121376,0.17342810332775116
363.0,1.462876218195654,-1.307374138290989,2.169331301485386,-2.7799453493043558,-1.5339556308633169,0.0,-0.1085042804479599,0.9981228709220886,0.20471836626529694,-0.9835411310195923,0.04993738979101181,0.008801918476819992,0.1734231561422348
364.0,1.461623828103376,-1.309975246101611,2.1767403001798975,-2.784709515734714,-1.5335295771493043,0.0,-0.10794650763273239,0.9934584498405457,0.20301853120326996,-0.9835115075111389,0.05051693692803383,0.008904078975319862,0.1734178513288498
365.0,1.4603618763089556,-1.3125642375184456,2.184141636630254,-2.789477453451626,-1.5331003376235737,0.0,-0.10739289969205856,0.9887903928756714,0.20132121443748474,-0.9834814071655273,0.05110091716051102,0.009006966836750507,0.17341260612010956
366.0,1.4562483787746423,-1.3137583590197048,2.1869764365223285,-2.79096671485835,-1.5317016861631922,0.0,-0.1040884405374527,0.9873335957527161,0.20079202950000763,-0.9833808541297913,0.053004443645477295,0.009342514909803867,0.17339351773262024
367.0,1.451330102007536,-1.3137328509238644,2.1860958615803088,-2.7899297169892217,-1.5300294385097566,0.0,-0.09982374310493469,0.9883409738540649,0.2011599838733673,-0.9832553267478943,0.055280327796936035,0.009743879549205303,0.17337273061275482
368.0,1.4526395648466326,-1.3111394357817678,2.1786944125088143,-2.785171331085287,-1.5304743516209494,0.0,-0.10037392377853394,0.9930120706558228,0.2028554379940033,-0.9832892417907715,0.05467434599995613,0.009637136943638325,0.1733786016702652
369.0,1.4539463658618692,-1.308542823795728,2.1712909566158523,-2.7804139433410597,-1.5309183887701554,0.0,-0.10093532502651215,0.9976736903190613,0.20455709099769592,-0.9833226203918457,0.05406961962580681,0.009530582465231419,0.1733846366405487
370.0,1.4552265285289612,-1.3059142192187427,2.163867417347085,-2.775666544734813,-1.531353659681779,0.0,-0.10148502886295319,1.0023449659347534,0.20625242590904236,-0.9833549857139587,0.053477223962545395,0.009426084347069263,0.17339009046554565
371.0,1.4565051673194955,-1.3032837472684349,2.156442628999173,-2.770919655336222,-1.5317884232589516,0.0,-0.10204678773880005,1.0070056915283203,0.20795419812202454,-0.9833870530128479,0.052885547280311584,0.009321752935647964,0.17339585721492767
372.0,1.4577567779124767,-1.3006201546989944,2.148995686390971,-2.7661817974861793,-1.5322141885116218,0.0,-0.10259584337472916,1.0116779804229736,0.20964962244033813,-0.9834179878234863,0.052306387573480606,0.009219595231115818,0.173401340842247
373.0,1.4590079573923618,-1.2979560151532292,2.1415483577979435,-2.7614440670980644,-1.5326398069626899,0.0,-0.10315773636102676,1.0163382291793823,0.21135136485099792,-0.9834486246109009,0.05172739923000336,0.009117423556745052,0.17340686917304993
374.0,1.4602324487868688,-1.295258015001112,2.1340771347882246,-2.756714227249196,-1.5330563376506436,0.0,-0.1037067100405693,1.0210108757019043,0.21304678916931152,-0.9834781885147095,0.05116076022386551,0.009017515927553177,0.1734120100736618
375.0,1.4614569401813757,-1.2925600148489946,2.126605911778506,-2.7519843874003276,-1.5334728683385974,0.0,-0.10426858067512512,1.0256710052490234,0.2147480547428131,-0.9835076332092285,0.050594184547662735,0.008917625062167645,0.1734170913696289
376.0,1.456027646725522,-1.2927901542248479,2.1264662723184466,-2.7514168643367727,-1.5316264137166136,0.0,-0.09941727668046951,1.0262423753738403,0.21495389938354492,-0.9833753108978271,0.05310659110546112,0.00936059933155775,0.173392653465271
377.0,1.45253283043965,-1.2942476077077516,2.1300868667702972,-2.753451653027606,-1.5304380131068889,0.0,-0.09657393395900726,1.0242323875427246,0.2142208218574524,-0.9832863807678223,0.05472370609641075,0.009645825251936913,0.17337816953659058
378.0,1.4512641056977498,-1.2969490911358739,2.1375575046828286,-2.7581723653603456,-1.5300068549892414,0.0,-0.09601787477731705,1.0195664167404175,0.21252211928367615,-0.9832535982131958,0.055310823023319244,0.009749325923621655,0.17337238788604736
379.0,1.4499828231877077,-1.299635356767193,2.145017398165865,-2.762896596582979,-1.5295714338702602,0.0,-0.0954631045460701,1.0148991346359253,0.21082395315170288,-0.983220100402832,0.05590371787548065,0.00985389482229948,0.1733664870262146
380.0,1.4486859240684795,-1.3023026978266725,2.152463930074261,-2.7676252038322775,-1.5291307113613313,0.0,-0.09490662068128586,1.0102335214614868,0.20912499725818634,-0.9831857681274414,0.05650390684604645,0.009959730319678783,0.1733604520559311
381.0,1.4473770279328337,-1.3049557885402487,2.159900870950535,-2.772357480056317,-1.52868598882689,0.0,-0.09435251355171204,1.0055657625198364,0.207426980137825,-0.9831507205963135,0.05710954591631889,0.01006651483476162,0.17335429787635803
382.0,1.4460507451575388,-1.3075882269832546,2.167323912052601,-2.77709507353087,-1.5282354692676094,0.0,-0.09379545599222183,1.0009008646011353,0.20572775602340698,-0.9831148982048035,0.05772329494357109,0.010174774564802647,0.17334794998168945
383.0,1.44471326251835,-1.3102076131778904,2.1747386117542664,-2.7818365222506056,-1.5277812121917533,0.0,-0.09324172884225845,0.9962327480316162,0.2040300965309143,-0.9830784201622009,0.058342259377241135,0.01028386503458023,0.17334146797657013
384.0,1.4433567782226457,-1.3128048549658957,2.182139159460267,-2.7865845117681096,-1.5273206140561433,0.0,-0.09268419444561005,0.9915682673454285,0.20233061909675598,-0.9830409288406372,0.05896996334195137,0.010394535958766937,0.17333483695983887
385.0,1.440514685659582,-1.3146288762215481,2.1870591753923616,-2.789561096470155,-1.5263559339955564,0.0,-0.09066405147314072,0.988615095615387,0.20125910639762878,-0.9829613566398621,0.06028520688414574,0.010626371018588543,0.17331980168819427
386.0,1.434701133740849,-1.3149063300304946,2.1870177223365967,-2.788994582007218,-1.5243830076934086,0.0,-0.08569269627332687,0.9890884757041931,0.2014324814081192,-0.9827925562858582,0.0629754438996315,0.011100826784968376,0.17329062521457672
387.0,1.434934762533717,-1.3127719871230634,2.1808106245927297,-2.7849329521545325,-1.5244622007442024,0.0,-0.08534452319145203,0.9930785894393921,0.20288017392158508,-0.9827994108200073,0.06286731362342834,0.011081727221608162,0.17329220473766327
388.0,1.4363381329085905,-1.3101711162514391,2.173410870086065,-2.7801952416619127,-1.5249383472602314,0.0,-0.08590474724769592,0.9977414011955261,0.20458093285560608,-0.9828407168388367,0.062217846512794495,0.010967203415930271,0.17329970002174377
389.0,1.4377165631092146,-1.307541904815729,2.1659929920008274,-2.7754655230524357,-1.525406072297886,0.0,-0.08645572513341904,1.0024116039276123,0.20627720654010773,-0.9828808903694153,0.061579979956150055,0.01085471361875534,0.1733066290616989
390.0,1.4390887764087243,-1.3049056288550211,2.15857059620474,-2.7707377966001396,-1.5258716980920564,0.0,-0.08701534569263458,1.0070748329162598,0.20797768235206604,-0.9829204678535461,0.060944970697164536,0.010742762126028538,0.17331376671791077
391.0,1.4404377610610064,-1.3022431065044817,2.1511306304396283,-2.766016935373326,-1.526329587728968,0.0,-0.08756694197654724,1.0117442607879639,0.20967435836791992,-0.9829590320587158,0.06032073497772217,0.010632702149450779,0.17332036793231964
392.0,1.4417795330191607,-1.299572434424862,2.1436852090484897,-2.7612982058578868,-1.5267850752227208,0.0,-0.0881258174777031,1.0164079666137695,0.211374431848526,-0.9829968214035034,0.05969983711838722,0.010523263365030289,0.17332719266414642
393.0,1.443100177058312,-1.296877028250559,2.1362220217498407,-2.7565847279664335,-1.527233484436802,0.0,-0.08867819607257843,1.021077036857605,0.21307122707366943,-0.9830337762832642,0.059088680893182755,0.010415496304631233,0.17333345115184784
394.0,1.4444128306621815,-1.2941722678098566,2.128752115505793,-2.7518732362034566,-1.5276792166936493,0.0,-0.08923659473657608,1.0257409811019897,0.2147711217403412,-0.9830700755119324,0.058481257408857346,0.01030838955193758,0.17333997786045074
395.0,1.4409985944812476,-1.29348166714352,2.1263575983468836,-2.75002627113936,-1.526520263608001,0.0,-0.0859932154417038,1.02752685546875,0.21542134881019592,-0.9829750657081604,0.06006129831075668,0.01058689970523119,0.17332197725772858
396.0,1.4362522588156224,-1.2941829109378427,2.127720874269083,-2.7504895188227216,-1.524909142887239,0.0,-0.08187004923820496,1.0270063877105713,0.21523287892341614,-0.9828382134437561,0.062257617712020874,0.010974247008562088,0.1732991635799408
397.0,1.4348960035344356,-1.2968907407227142,2.135189522851176,-2.755191359823419,-1.5244491121711146,0.0,-0.08130981028079987,1.0223439931869507,0.21353238821029663,-0.9827982187271118,0.06288524717092514,0.011084872297942638,0.17329205572605133
398.0,1.4335350580071358,-1.2995932934237224,2.142654381086621,-2.759894274492934,-1.5239875057470758,0.0,-0.08075951784849167,1.0176732540130615,0.21183617413043976,-0.9827576875686646,0.06351499259471893,0.01119588315486908,0.1732850968837738
399.0,1.4321486129771426,-1.3022671561560324,2.150098632310788,-2.7646030263872463,-1.5235173326578277,0.0,-0.08019856363534927,1.0130113363265991,0.21013537049293518,-0.9827160835266113,0.06415663659572601,0.011308991350233555,0.17327769100666046
400.0,1.4307584826498172,-1.3049369705865,2.1575401553851767,-2.7693127873342496,-1.5230459261984628,0.0,-0.07964900135993958,1.0083401203155518,0.20843952894210815,-0.9826737642288208,0.06479990482330322,0.01142246462404728,0.1732703596353531
401.0,1.4293407755635208,-1.307576491926863,2.164961263952379,-2.7740300989346527,-1.5225652905379334,0.0,-0.07908743619918823,1.003678321838379,0.20673812925815582,-0.9826303124427795,0.06545599550008774,0.011538156308233738,0.17326253652572632
402.0,1.4279204732301578,-1.3102131921431939,2.1723805527798556,-2.778748181370104,-1.5220837876202076,0.0,-0.07853855937719345,0.9990068674087524,0.2050427794456482,-0.9825863242149353,0.06611322611570358,0.011654060333967209,0.17325501143932343
403.0,1.4264705193354652,-1.3128176600786945,2.1797790504754273,-2.7834750708524787,-1.5215923760004222,0.0,-0.07797639816999435,0.994345486164093,0.20334097743034363,-0.9825409650802612,0.06678421050310135,0.011772383004426956,0.17324678599834442
404.0,1.4248339541394324,-1.3153188200522652,2.1868524303634116,-2.787971044061308,-1.5210377940426414,0.0,-0.07723929733037949,0.9898947477340698,0.20172670483589172,-0.9824892282485962,0.06754152476787567,0.01190594956278801,0.17323759198188782
