Sungjin-Park-dev/lg_sgu_vision_v2/data/square_structure/trajectory/71/ans_glns_trajectory_joined.csv
time,ur20-shoulder_pan_joint,ur20-shoulder_lift_joint,ur20-elbow_joint,ur20-wrist_1_joint,ur20-wrist_2_joint,ur20-wrist_3_joint,target-POS_X,target-POS_Y,target-POS_Z,target-ROT_X,target-ROT_Y,target-ROT_Z,target-ROT_W
0.0,0.1628604233264923,-1.862444281578064,2.66947078704834,-0.8070264458656311,5.66064834991564,-7.400303303484179e-08,-0.13359227776527405,0.593639075756073,0.3763071894645691,0.27059781551361084,-0.6532816290855408,-0.653281569480896,0.27059778571128845
0.19751355051994324,0.17884311455262142,-1.8340780141754363,2.6674774296700954,-0.8333994672442615,5.676630970861702,-4.259271844081131e-08,-0.12814268469810486,0.5988104939460754,0.3698972463607788,0.2705978453159332,-0.653281569480896,-0.6532815098762512,0.2705977261066437
0.45600021718931305,0.19457688757931274,-1.8061535297057787,2.665515117309389,-0.8593617489732033,5.692364674702885,-1.1671595488031936e-08,-0.12304046750068665,0.6041006445884705,0.36329931020736694,0.2705978751182556,-0.653281569480896,-0.6532815098762512,0.27059775590896606
0.6829125762975827,0.21056959682585852,-1.7949919385681423,2.6530489507727384,-0.8580571931775289,5.708357440186073,6.900592184239357e-08,-0.11720822751522064,0.6098669171333313,0.36611175537109375,0.2705979347229004,-0.653281569480896,-0.6532815098762512,0.27059781551361084
0.8803293251491204,0.22655535848469294,-1.7877318902900556,2.6381178375569436,-0.8503861218823537,5.724343283674351,1.5478352190302198e-07,-0.11127418279647827,0.6159341931343079,0.37115246057510376,0.27059781551361084,-0.6532816290855408,-0.653281569480896,0.27059778571128845
1.0779400684929505,0.24208059332791274,-1.775465956135922,2.6241323193658075,-0.8486664234986349,5.739868480401999,6.539724250943259e-08,-0.10442231595516205,0.622371256351471,0.37419238686561584,0.27059775590896606,-0.6532816290855408,-0.6532815098762512,0.27059778571128845
1.2754969255126134,0.2574972969772014,-1.763285768606034,2.6102445687770524,-0.8469587468924072,5.755285146202167,-2.336417035417435e-08,-0.0977369099855423,0.6290420293807983,0.3770868480205536,0.27059781551361084,-0.653281569480896,-0.653281569480896,0.27059775590896606
1.4730511934555188,0.27280705373184966,-1.7511900760020456,2.5964531586144224,-0.8452629165740919,5.770594865370257,-1.1150983826441021e-07,-0.09122346341609955,0.6359392404556274,0.3798387050628662,0.27059775590896606,-0.653281569480896,-0.6532816290855408,0.27059778571128845
1.669516223768057,0.2863331690820131,-1.7340287871070394,2.5850379607103293,-0.8510089656288536,5.784120976461871,-1.8106520662191398e-07,-0.08409510552883148,0.6426938772201538,0.37959855794906616,0.2705978453159332,-0.6532815098762512,-0.6532816290855408,0.27059778571128845
1.8670601354039327,0.2994956592247698,-1.7164019800981585,2.5740397888315587,-0.8576375682080518,5.797283466604628,-2.4755954796556586e-07,-0.07705685496330261,0.6495731472969055,0.3787632882595062,0.27059778571128845,-0.653281569480896,-0.653281569480896,0.27059775590896606
2.0645839118457454,0.3125145227103267,-1.6989675135461617,2.5631616269695185,-0.8641938407022866,5.810302330090185,-3.13328315358825e-07,-0.07021276652812958,0.6566135883331299,0.3777003884315491,0.2705978453159332,-0.6532815098762512,-0.6532816290855408,0.2705978751182556
2.2621213787294048,0.3250467158561,-1.6817935553885874,2.5523497893321077,-0.8705559868074577,5.822834535537051,-3.1499162637259954e-07,-0.06345237791538239,0.663707971572876,0.3764677047729492,0.2705978751182556,-0.6532815098762512,-0.6532816290855408,0.27059781551361084
2.4596720703936237,0.33611860521815956,-1.6650838104078205,2.5414608020682454,-0.8763769893971228,5.833906484092879,-7.427528007623736e-08,-0.056444987654685974,0.6705566644668579,0.3752196729183197,0.27059781551361084,-0.653281569480896,-0.6532816290855408,0.2705977261066437
2.688163952971423,0.3470952185021877,-1.6485178565104552,2.530665516969055,-0.8821479009608737,5.844883156061299,1.6436964835789996e-07,-0.04960767924785614,0.6775386333465576,0.37376439571380615,0.2705978453159332,-0.653281569480896,-0.653281569480896,0.2705978751182556
2.9018022558775045,0.3557214229621411,-1.6432935644005227,2.51707427456724,-0.8737807516176294,5.8535093102500655,7.821568572125063e-08,-0.04380476474761963,0.6833480596542358,0.3779967129230499,0.2705977261066437,-0.6532816290855408,-0.653281569480896,0.27059778571128845
3.1471249919717104,0.3635924697934938,-1.6414051812490937,2.5026653516676474,-0.8612598814500672,5.861380274354221,-1.0842913556533475e-07,-0.03838720917701721,0.6888296604156494,0.3840135633945465,0.2705978453159332,-0.6532815098762512,-0.6532814502716064,0.2705978751182556
3.3950225454401024,0.3727103343798616,-1.6264095936503806,2.491285144383148,-0.8648753969660915,5.870498169488884,-5.1659833575460166e-08,-0.03130492568016052,0.6956599950790405,0.38311609625816345,0.27059778571128845,-0.6532815098762512,-0.653281569480896,0.27059778571128845
3.592618816031123,0.38177165254108164,-1.6115070044575628,2.479975513935285,-0.8684684900743731,5.879559518008948,4.757401211040237e-09,-0.024360716342926025,0.7026047706604004,0.3820396363735199,0.2705978751182556,-0.653281569480896,-0.653281569480896,0.27059778571128845
3.7901919711958416,0.3907750647946505,-1.596699649527377,2.468738157124064,-0.872038621698022,5.888562960427354,6.081410443586803e-08,-0.017558366060256958,0.7096580266952515,0.3807876408100128,0.27059778571128845,-0.6532816290855408,-0.6532816290855408,0.2705976665019989
3.9877764512430676,0.3987897635031242,-1.5828571258488464,2.456968391937331,-0.8741115612811061,5.896577650513097,2.0783815168358656e-07,-0.010494276881217957,0.7165241837501526,0.3800435960292816,0.27059781551361084,-0.6532816290855408,-0.6532816290855408,0.2705976665019989
4.185364079160596,0.4067302387147179,-1.5691133747703994,2.4452290281396634,-0.8761161307457874,5.904518115603363,3.578220960454339e-07,-0.003534942865371704,0.7234815359115601,0.37916889786720276,0.2705978751182556,-0.653281569480896,-0.653281569480896,0.2705977261066437
4.527211650867585,0.41444725705256524,-1.5555337298880478,2.4339404186796063,-0.8784073406174938,5.912235124037068,5.015303246947799e-07,0.0031406134366989136,0.7303697466850281,0.3780025541782379,0.2705978751182556,-0.6532816290855408,-0.6532815098762512,0.2705976665019989
4.876813364756131,0.4113259723831579,-1.5478400751762589,2.4456358794548687,-0.8977962311250857,5.90911383936766,3.217108504983277e-07,0.00034424662590026855,0.727522075176239,0.3689623177051544,0.2705978751182556,-0.6532816290855408,-0.6532815098762512,0.2705976963043213
5.141352945816997,0.4099719429992399,-1.5393308328107989,2.453319154765409,-0.9139885353549099,5.907759806856458,1.7795806860141888e-07,-0.0009417533874511719,0.7262635827064514,0.36148276925086975,0.270597904920578,-0.653281569480896,-0.6532815098762512,0.27059775590896606
5.4810570223102815,0.4174445815785379,-1.527082243640527,2.4407946954672672,-0.9137125168698861,5.915232426891111,2.185906926019669e-07,0.006055191159248352,0.7332319021224976,0.36120879650115967,0.2705976963043213,-0.653281569480896,-0.653281569480896,0.27059778571128845
5.675394592450064,0.42289542622931925,-1.5245765562288929,2.428126041264384,-0.9035494632697444,5.920683263411499,1.4039402224938691e-07,0.011275127530097961,0.7384700179100037,0.36566489934921265,0.2705977261066437,-0.6532816290855408,-0.6532815098762512,0.2705978453159332
5.931025561178878,0.42681707679458136,-1.529336661498967,2.4153693683960302,-0.8860326570387836,5.924604913976761,-1.7400714108567806e-08,0.01509605348110199,0.742323637008667,0.37383127212524414,0.2705978453159332,-0.6532815098762512,-0.653281569480896,0.27059778571128845
6.188583744184994,0.43353943554599955,-1.5188773294519025,2.402092776209776,-0.88321586133417,5.93132727272818,4.1702012990913206e-07,0.02208995819091797,0.7492450475692749,0.3747110068798065,0.2705978453159332,-0.6532816290855408,-0.653281569480896,0.27059778571128845
6.383570260528977,0.44839388301914396,-1.4970854883859739,2.3731319127177155,-0.876047175887787,5.92213674558107,7.262782002172819e-07,0.028292089700698853,0.756048858165741,0.3768617808818817,0.27843213081359863,-0.6499812602996826,-0.6499810814857483,0.27843207120895386
6.724302015874082,0.4960773325680849,-1.4294253665746695,2.2808200917989176,-0.8513953615024811,5.850878723985865,5.890443319456499e-07,0.032861948013305664,0.7628745436668396,0.3822720944881439,0.31657201051712036,-0.6322833299636841,-0.6322832107543945,0.316571980714798
7.093967816634243,0.5478096094534286,-1.356020187445463,2.1806700245379473,-0.8246503483046037,5.773570145467832,4.401578621404777e-07,0.03860872983932495,0.7706000208854675,0.38410285115242004,0.3566802740097046,-0.6105565428733826,-0.6105563640594482,0.35668012499809265
7.434377641740838,0.5954478698274724,-1.2884241865211121,2.0884456866989187,-0.8000218962213611,5.702379654456743,3.030540491675665e-07,0.04455310106277466,0.7781764268875122,0.38211390376091003,0.39230531454086304,-0.5882997512817383,-0.5882996320724487,0.3923052251338959
8.048455926774514,0.6359929442405701,-1.2308930158615112,2.009953260421753,-0.7790605425834656,5.641789201890127,1.8636455934029073e-07,0.050033122301101685,0.7850882411003113,0.3776896297931671,0.42154011130332947,-0.5677182078361511,-0.5677180886268616,0.4215399920940399
8.208285331375956,0.669633306802844,-1.234356351755319,1.9637760287748236,-0.8015973254874518,5.593840380509694,0.019912394051589552,0.04486212134361267,0.7842732071876526,0.3825073540210724,0.4640667736530304,-0.5545951128005981,-0.5452501177787781,0.42399105429649353
8.368118696392468,0.7041208634357631,-1.2373681181388736,1.9185095271407797,-0.8244316439101294,5.545890371004741,0.03966481386618474,0.04021856188774109,0.7838072776794434,0.3862805664539337,0.5054180026054382,-0.5408827066421509,-0.5207437872886658,0.4252345561981201
8.527952061408982,0.7395603625637257,-1.2400297409289927,1.8738792049249136,-0.8473496309027779,5.497940361499786,0.05933663064342352,0.03621593117713928,0.7840490937232971,0.3893727660179138,0.5455310344696045,-0.5265888571739197,-0.49433964490890503,0.42512139678001404
8.687785426425496,0.7760537539430752,-1.2423035728759744,1.8297905549398454,-0.8702910877014927,5.449990351994832,0.07896009658946287,0.03283548355102539,0.7853052616119385,0.392017126083374,0.5843058228492737,-0.5117095708847046,-0.4662005603313446,0.42355290055274963
8.847618791442008,0.8135409111685846,-1.244126072640114,1.786521484199478,-0.8931767050553451,5.402040342489879,0.09845499010205835,0.029943078756332397,0.7876871228218079,0.3943379521369934,0.6215102672576904,-0.4962613880634308,-0.43657252192497253,0.4205402433872223
9.007452156458521,0.8519396026474134,-1.2455555689239706,1.7440856356068706,-0.9160443448100933,5.354090332984924,0.11785700468172361,0.02750486135482788,0.7914026975631714,0.3965635299682617,0.657056450843811,-0.4803032875061035,-0.405676007270813,0.415947824716568
9.167285521475035,0.8911511323371092,-1.2467540107925,1.7027325437013912,-0.9388235167632685,5.30614032347997,0.13711080209629764,0.02531874179840088,0.7964745163917542,0.39894044399261475,0.690817654132843,-0.4638839066028595,-0.3737660348415375,0.4097335934638977
9.327118886491547,0.9312145396858822,-1.2478696782929328,1.6625474537801919,-0.9615358410396532,5.258190313975017,0.1562393550058146,0.02313309907913208,0.8029822111129761,0.401725172996521,0.7227658629417419,-0.4470314383506775,-0.3410448729991913,0.4018217623233795
9.486952251508061,0.9722004329317675,-1.2489284898142985,1.6237305070196892,-0.9842198141365773,5.210240304470062,0.17525656489386884,0.020613014698028564,0.8109235167503357,0.405036598443985,0.7528327703475952,-0.429763525724411,-0.3077193796634674,0.3922431468963623
9.646785616524575,1.0143555455221542,-1.249737554142986,1.5862583461329367,-1.0069778461556995,5.162290294965108,0.1942448459437677,0.01737472414970398,0.8204261064529419,0.40889036655426025,0.7810053825378418,-0.4120528995990753,-0.27394574880599976,0.38104668259620667
9.806618981541087,1.0577372023720053,-1.2500431432619232,1.5498800399548969,-1.0298963130198142,5.1143402854601545,0.2133133539202541,0.0132218599319458,0.831717848777771,0.41334009170532227,0.807269275188446,-0.3939499855041504,-0.2399102747440338,0.3681885600090027
9.966451551829005,1.1030689477920532,-1.2491888999938965,1.513820767402649,-1.0531718730926514,5.066390514373779,0.2328023463487625,0.007542252540588379,0.8454156517982483,0.41835153102874756,0.8317458033561707,-0.37532633543014526,-0.2056383192539215,0.3536127209663391
10.155185974794803,1.1024651450978702,-1.205459883500366,1.4895832036981063,-0.996551546202912,5.060600932107592,0.21058514077371554,0.00942760705947876,0.8421032428741455,0.4091845452785492,0.820451021194458,-0.3661712110042572,-0.20888152718544006,0.38619571924209595
10.389729490550364,1.1017766580333568,-1.1555979328736221,1.461946415766198,-0.9319901207113136,5.053999414372153,0.18525193375853574,0.011867105960845947,0.8388901948928833,0.4001193046569824,0.8060459494590759,-0.3552168607711792,-0.21325534582138062,0.42264989018440247
10.665171387918036,1.1009700058668759,-1.097178170802357,1.4295663232286608,-0.85634801147185,5.046264877504541,0.15557078595492127,0.0152357816696167,0.8361176252365112,0.3912251591682434,0.7871081233024597,-0.34176507592201233,-0.21927309036254883,0.4643023610115051
10.993668775297603,1.1000106503280136,-1.0276992495883,1.3910565139012105,-0.7663864648653668,5.037066153329724,0.12027084537531986,0.020138531923294067,0.8345587849617004,0.3827728033065796,0.761714518070221,-0.32503610849380493,-0.22764000296592712,0.5121741890907288
11.38970720307614,1.0989569673245945,-0.9513888980934024,1.3487602744888945,-0.6675795587907168,5.026962975807404,0.08150008114483878,0.026877999305725098,0.8354636430740356,0.37564337253570557,0.7302828431129456,-0.3059469163417816,-0.2382647693157196,0.5624172687530518
11.778040691263996,1.1004584364430374,-0.8983906627459333,1.3170867052032966,-0.5983516209989124,5.022669416803329,0.055169863409124394,0.030164510011672974,0.8399249315261841,0.3725314140319824,0.7067170739173889,-0.29262587428092957,-0.2465607076883316,0.5950872302055359
12.089220480768665,1.1076246668631153,-0.8884663244166702,1.3040695520276455,-0.5835209752935863,5.030260914744546,0.052078100637009704,0.023561254143714905,0.8470364809036255,0.3746107220649719,0.703370988368988,-0.2909427881240845,-0.24840880930423737,0.599094808101654
12.287583192585691,1.1147704523770647,-0.878570299740979,1.291089536155588,-0.5687326406976574,5.037830754512122,0.048995158513400854,0.01689945161342621,0.8541010618209839,0.3766309916973114,0.6999976634979248,-0.2893258035182953,-0.2501955032348633,0.6030721068382263
12.485998561381086,1.1219023209579555,-0.8686935482876211,1.2781347998013164,-0.55397310745075,5.045385851470373,0.04591822064209904,0.010173067450523376,0.8611243963241577,0.37859317660331726,0.6965953707695007,-0.2877732813358307,-0.25192272663116455,0.6070225834846497
12.684467481224521,1.1290204710362515,-0.8588357952550703,1.2652049825243208,-0.5392419648973681,5.052926415825276,0.042847201413252906,0.0033822357654571533,0.8681055903434753,0.38049641251564026,0.6931651830673218,-0.28628525137901306,-0.2535906732082367,0.6109455823898315
12.882942119388565,1.1361235008321686,-0.8489989819340789,1.2523026305980396,-0.5245421140465667,5.060450962610853,0.03978270560375323,-0.003471478819847107,0.8750417232513428,0.3823395371437073,0.6897090077400208,-0.28486165404319763,-0.2551991641521454,0.6148403286933899
13.081310586779102,1.1432074507824266,-0.8391885918275934,1.23943493640099,-0.5098817492874054,5.067955297290407,0.03672644150786702,-0.010383814573287964,0.8819281458854675,0.38412052392959595,0.6862301230430603,-0.2835032641887665,-0.25674760341644287,0.618704080581665
13.279734002201542,1.1502782243134613,-0.8293964494238296,1.226591176609797,-0.4952486533702586,5.075445673618981,0.03367586218068573,-0.017360270023345947,0.888769268989563,0.3858403265476227,0.6827268600463867,-0.28220856189727783,-0.25823724269866943,0.622539758682251
13.478210745154604,1.1573359293428973,-0.8196224052702923,1.2137711551966792,-0.48064260295761685,5.082922205918384,0.030630921062766735,-0.02440066635608673,0.8955639004707336,0.387498140335083,0.6792004704475403,-0.2809774875640869,-0.2596684694290161,0.6263469457626343
13.933030071557527,1.1643774101058868,-0.8098708297090161,1.2009806044744433,-0.4660701289628954,5.090381551150374,0.027592979661583583,-0.03150185942649841,0.9023082256317139,0.38909244537353516,0.6756535768508911,-0.27981051802635193,-0.26104095578193665,0.6301237344741821
14.25418610288333,1.1610261729149085,-0.8338088788748129,1.2179468176976624,-0.5081085683116532,5.084877828650228,0.04505259581798914,-0.027786418795585632,0.8975698351860046,0.38582149147987366,0.6899892091751099,-0.2854851484298706,-0.2544606029987335,0.6145428419113159
14.452432604269495,1.1554895639419556,-0.8653687238693237,1.2414733171463013,-0.5630289912223816,5.076593820248739,0.06726852804422379,-0.02140800654888153,0.8913212418556213,0.3815174102783203,0.707732617855072,-0.2931528389453888,-0.24598446488380432,0.5938582420349121
14.616778040895506,1.1523599610661024,-0.8945258076714045,1.2658640789330546,-0.6123326222101847,5.05709795700047,0.09184413236745127,-0.013351187109947205,0.8807164430618286,0.37708836793899536,0.7235137224197388,-0.29806390404701233,-0.23199039697647095,0.577811598777771
14.781124272250114,1.1521899830649482,-0.9253953577163283,1.2892828097364823,-0.661636491616567,5.038951435101696,0.11653181832867074,-0.007844850420951843,0.8716705441474915,0.3742583096027374,0.7396900653839111,-0.3029700219631195,-0.21748101711273193,0.5601513981819153
14.94547050360472,1.1541011341130691,-0.957162892331228,1.3116288095056674,-0.7109403610229492,5.022079181666791,0.1412983775461265,-0.003958851099014282,0.8643880486488342,0.3725429177284241,0.755835771560669,-0.3080548048019409,-0.20284037292003632,0.5409899950027466
15.109816734959328,1.1580281666751453,-0.9899589540221905,1.3331722512582607,-0.7602442304293314,5.006208869143534,0.16615714447159238,-0.0015783905982971191,0.8586544394493103,0.372108519077301,0.7718549370765686,-0.31318429112434387,-0.18812069296836853,0.520351767539978
15.274162966313934,1.163414820915712,-1.023656954879604,1.35405226579925,-0.8095480998357136,4.991054249904879,0.1910570922578169,-0.00014252960681915283,0.8543218374252319,0.3729444146156311,0.7875567078590393,-0.3183954060077667,-0.1735057532787323,0.4982714354991913
15.438509197668543,1.1704268150059665,-1.0575832855435292,1.374543279627301,-0.858851969242096,4.9770292844312305,0.21602148423603282,-1.1906027793884277e-05,0.8514206409454346,0.3746005892753601,0.8025994896888733,-0.32362818717956543,-0.15926438570022583,0.47511422634124756
15.60285542902315,1.1790917891462565,-1.0916812052345228,1.3948700836920578,-0.9081558386484782,4.963648301881968,0.24100517338102193,-0.0011123865842819214,0.8496299386024475,0.37704598903656006,0.8169609308242798,-0.3286536633968353,-0.14533697068691254,0.4510418772697449
15.767201660377756,1.1887090207653495,-1.126153193211951,1.4146720113445195,-0.9574597080548604,4.950967324837131,0.26602068380169064,-0.0028502941131591797,0.8490813970565796,0.380700945854187,0.8306208848953247,-0.3337118327617645,-0.1320277452468872,0.4257626533508301
15.931547891732365,1.1985825173182132,-1.1606261855438136,1.4333551857762994,-1.0067635774612427,4.938981089934747,0.29084196977183857,-0.004540681838989258,0.8501096963882446,0.38567042350769043,0.8435014486312866,-0.3389378488063812,-0.1196366474032402,0.39914095401763916
16.09589412308697,1.2090835608292287,-1.1947758887232014,1.4514445116618306,-1.0560674468676248,4.927561205191663,0.3155984794398684,-0.006625652313232422,0.8523449301719666,0.39162108302116394,0.855437159538269,-0.344135582447052,-0.10808712989091873,0.37163829803466797
16.260240354441578,1.2207735143920444,-1.228716315292157,1.469973530287236,-1.105371316274007,4.91660209288043,0.3405087980898766,-0.009852573275566101,0.8550234436988831,0.39823341369628906,0.8663175106048584,-0.3490738272666931,-0.09726867824792862,0.3437733054161072
16.424586585796185,1.2333118829746925,-1.2623785828233247,1.488962063123585,-1.1546751856803894,4.906138308737106,0.36526100822288216,-0.014007925987243652,0.858040988445282,0.40546026825904846,0.876146137714386,-0.3537200391292572,-0.08739717304706573,0.31561318039894104
16.58893281715079,1.2470434472771688,-1.29556202229057,1.5084187013446215,-1.2039790550867715,4.896041752255294,0.3900905378567546,-0.0193774476647377,0.8612769842147827,0.4131263792514801,0.8849565982818604,-0.3579631447792053,-0.07838661223649979,0.28734949231147766
16.753279048505398,1.2617756050118545,-1.3290030946339801,1.529091875233227,-1.2532829244931538,4.886141036197365,0.4155057354871643,-0.02595742791891098,0.8639954924583435,0.4213510751724243,0.8926774263381958,-0.36206161975860596,-0.07019015401601791,0.25905901193618774
16.91762448513141,1.2773622274398804,-1.361514925956726,1.5503411293029785,-1.302586555480957,4.876520156860352,0.4405204653739929,-0.03349076211452484,0.8667070269584656,0.42949479818344116,0.8994278311729431,-0.3656253218650818,-0.06303762644529343,0.23102818429470062
17.26677377051398,1.307480980926029,-1.414323924444481,1.610765940028175,-1.4073313410957276,4.84163896762523,0.4815721263596261,-0.04202175885438919,0.8640996217727661,0.4250974655151367,0.9102807641029358,-0.36803558468818665,-0.043706491589546204,0.1844676434993744
17.671758166509626,1.3424162527406756,-1.475578148723264,1.680853878847193,-1.528826659894422,4.801179865643126,0.5291887044091664,-0.05156698077917099,0.8619071245193481,0.4236980974674225,0.919092059135437,-0.3716922104358673,-0.025086961686611176,0.1283949613571167
18.07226212938212,1.3769650278148247,-1.5361547037928,1.7501664190935171,-1.6489778487561702,4.761168371772461,0.5762784895856631,-0.0608954131603241,0.8599305152893066,0.4263468086719513,0.9237445592880249,-0.3761664032936096,-0.010993408039212227,0.0712304413318634
18.41512536394196,1.4065415261022443,-1.5880130511126882,1.809503464285201,-1.7518368191241223,4.726915351878037,0.6165910896022619,-0.06892739236354828,0.8578155040740967,0.43180882930755615,0.9244787096977234,-0.3806275427341461,-0.0025417900178581476,0.02133641391992569
18.637546173830234,1.4237057254680583,-1.6129273202058898,1.837433089467684,-1.7953021043106752,4.7123889366733,0.6383083774679695,-0.07668480277061462,0.8538658618927002,0.435008704662323,-0.9238792657852173,0.38268381357192993,1.322475462472994e-08,3.077035160004016e-08
18.88956340678478,1.4326564179141978,-1.6185862412697107,1.8427892747031456,-1.7949992998035889,4.7123889366733,0.6472590676278537,-0.08498863130807877,0.8483672142028809,0.43500420451164246,0.9238793253898621,-0.38268378376960754,1.86393336321089e-08,9.081256990839393e-08
19.203981683542214,1.4311780008669013,-1.629215323868585,1.8524271831047507,-1.7940081024543544,4.7123889539833925,0.7218111753542436,-0.08498522639274597,0.8395903706550598,0.4352223873138428,-0.9086675047874451,0.4175204038619995,1.3550899957692764e-08,3.039020057826747e-08
19.514671562328903,1.4267571647455084,-1.6412689284592648,1.8632933761524162,-1.7928206805376603,4.712388976210601,0.8150181389902502,-0.08273368328809738,0.829885721206665,0.4353972375392914,0.8872124552726746,-0.46136099100112915,3.142164972658179e-09,2.503827900568467e-08
19.826136209508824,1.4223253043702455,-1.6533525911641578,1.8741866662621454,-1.7916302975429481,4.712388998493238,0.908457533144227,-0.08056299388408661,0.8201613426208496,0.4354473352432251,0.86358243227005,-0.5042077302932739,8.13306844094086e-09,3.130010384211346e-08
20.138383888213063,1.417882302164227,-1.6654666325618264,1.8851073424320155,-1.7904369218894562,4.712389020831893,1.0021318367554988,-0.07847367972135544,0.8104189038276672,0.4353717267513275,0.8378175497055054,-0.5459502339363098,3.0851154519950796e-08,7.659343737032032e-08
20.460107366989817,1.413428406230013,-1.6776103761897028,1.8960547948384012,-1.78924062021671,4.71238904322532,1.0960358189388575,-0.07646587491035461,0.800661563873291,0.4351697862148285,0.8099662065505981,-0.5864765644073486,3.038338247662864e-09,2.4052965841292462e-08
20.67818647644252,1.4155790100404781,-1.6862712448245876,1.9037850095386648,-1.7883099747009068,4.712389025186704,1.1537805090257687,-0.07931189984083176,0.7933096885681152,0.4350038468837738,0.7933530807495117,-0.6087617874145508,3.263979664325234e-08,7.450214667414912e-08
20.93052023278959,1.4262894185127384,-1.690394187014772,1.9073240630634691,-1.7877261189054714,4.712388954757778,1.164490917498029,-0.0882989689707756,0.7890129089355469,0.43500253558158875,0.7933530807495117,-0.6087617874145508,4.495912531155e-09,2.282724942404002e-08
21.144754605381653,1.4363817270243044,-1.683986301431104,1.9017923324274835,-1.7886022822933765,4.7123889366733,1.174583162166656,-0.09554050117731094,0.7933817505836487,0.43502068519592285,0.7933530807495117,-0.6087617874145508,1.392964055213497e-08,3.90964096652624e-08
21.343487443416283,1.4466401874832095,-1.6744337722280436,1.8934833990750843,-1.7898458781440378,4.7123889366733,1.1848415672592105,-0.10268480330705643,0.8002879619598389,0.43502697348594666,0.7933531403541565,-0.608761727809906,1.276019290230579e-08,3.518704971838815e-08
21.54302207568185,1.4575871519743937,-1.665776374680392,1.8858211960928608,-1.790841072709466,4.7123889366733,1.1957885317503947,-0.11061816662549973,0.8063374161720276,0.43505895137786865,0.7933531403541565,-0.608761727809906,4.287068033903552e-09,1.6039539474377307e-08
21.90424194970953,1.4684290044475767,-1.6572021048826848,1.8782325650691878,-1.7918267114834998,4.7123889366733,1.2066303842235777,-0.11861755698919296,0.8122565746307373,0.4350275695323944,0.7933531403541565,-0.608761727809906,8.81790285234274e-09,2.5031672734598942e-08
22.84664559210002,1.4646271365037145,-1.6552951057082683,1.8765596040887822,-1.7920607327213878,4.712388953629423,1.3624043381616802,-0.11535905301570892,0.8142930269241333,0.4350014626979828,0.7423088550567627,-0.6700578927993774,1.2292749929088131e-08,3.0023507235910074e-08
23.683700995589263,1.4521591920104215,-1.6573274710831312,1.8783819565508248,-1.7918506927961908,4.7123889806418,1.604152652143292,-0.10540039837360382,0.8139680027961731,0.4350012242794037,0.6513796448707581,-0.7587518692016602,6.28881053899022e-08,6.896411974821604e-08
24.327944189242803,1.4402597915022803,-1.6570530033806834,1.8781364293685934,-1.7918796216486363,4.712388973276254,1.7020598204892552,-0.09567736834287643,0.8153938055038452,0.4350009858608246,0.608761191368103,-0.7933535575866699,2.2514850428478894e-08,3.036928220012669e-08
24.721510557926695,1.4288060436842314,-1.6550268202513119,1.8763206377065766,-1.792090013115991,4.712388939809321,1.6906060344300735,-0.08609046787023544,0.8181256651878357,0.43500015139579773,0.608761191368103,-0.7933534383773804,2.29767636028555e-08,2.570510737598397e-08
25.263397881538953,1.4180127333037562,-1.6516983419830504,1.8732980463652111,-1.7923959313065876,4.7123889366733,1.7734361312179716,-0.07682763785123825,0.8217847347259521,0.43501922488212585,0.5709695816040039,-0.8209711909294128,2.502557272521244e-08,2.8982357846984996e-08
25.571198743542737,1.407315300984029,-1.6482441246472508,1.870158777189765,-1.7927109138743555,4.7123889366733,1.8657763898191069,-0.06755748391151428,0.825438380241394,0.43503090739250183,0.5279352068901062,-0.8492845892906189,3.12792991508104e-08,3.642919566004821e-08
25.878151789285894,1.396647334004355,-1.6447994217150363,1.8670281549149028,-1.7930250288443494,4.7123889366733,1.957862303542054,-0.058243826031684875,0.8289785981178284,0.43503233790397644,-0.48362424969673157,0.875275731086731,2.8385915840090092e-08,1.8704604087815824e-08
26.184280047701552,1.3860080320081274,-1.6413639747500288,1.8639059446679231,-1.7933382997828204,4.7123889366733,2.049700781066752,-0.04888748377561569,0.8324052095413208,0.4350235164165497,-0.43816104531288147,0.8988965153694153,2.233075235835713e-08,9.991771854345188e-09
26.580818812266305,1.3753974983307558,-1.637937817119391,1.8607921767736424,-1.7936507236470896,4.7123889366733,2.141290930401723,-0.03949030116200447,0.835718035697937,0.43500465154647827,-0.39167508482933044,0.9201035499572754,3.4906260992784155e-08,1.2963204731875066e-08
26.822442210459805,1.3657953923075552,-1.645344501428621,1.8673617805624414,-1.792813649640107,4.7123889366733,2.15119425210881,-0.0327330008149147,0.8299551010131836,0.43514782190322876,-0.38268306851387024,0.9238796234130859,3.1455698490390205e-08,1.5444328482772107e-08
27.093019413361127,1.3564165199961253,-1.6553218962662186,1.8762292375029108,-1.7917037117429788,4.7123889366733,2.1418154031881307,-0.026733722537755966,0.8220221996307373,0.43525347113609314,-0.38268306851387024,0.9238796830177307,2.4911651408388025e-08,1.0267616090686715e-08
27.292607186892802,1.346945329729384,-1.6653975004258068,1.885183978443671,-1.7905828485241508,4.7123889366733,2.1323442365423797,-0.020827723667025566,0.8139781355857849,0.4352737367153168,-0.38268306851387024,0.9238796234130859,7.510935517984763e-08,4.3294289042705714e-08
27.491824834206874,1.337429617766659,-1.6755204674798796,1.8941808133813365,-1.7894567164077435,4.7123889366733,2.122828548311681,-0.015048012137413025,0.8058658242225647,0.43520647287368774,-0.3826830983161926,0.9238796234130859,3.464497666527677e-08,1.352771938911701e-08
27.723693200394724,1.327853857744052,-1.6857073146234536,1.9032344220512463,-1.7883234779340793,4.7123889366733,2.113252812170859,-0.009387237951159477,0.7976745963096619,0.435050368309021,-0.3826829791069031,0.9238796830177307,7.051967543247883e-08,4.347710458318943e-08
27.934267460152917,1.3274086665236313,-1.69666292964308,1.9126029698317346,-1.786736365660006,4.7123889591907675,2.1128075783900098,-0.011231642216444016,0.7888210415840149,0.4350455701351166,0.382683128118515,-0.9238796234130859,1.6080504039450716e-08,1.6152890580656276e-08
28.265799002425467,1.3298200275510277,-1.7078721497980036,1.9220812233692055,-1.785005339861926,4.712388988781081,2.1152188760155965,-0.01535552553832531,0.7797508239746094,0.4350111186504364,0.3826830983161926,-0.9238796234130859,3.253547831150172e-08,2.9332570150586434e-08
28.923508710577806,1.3407821980880514,-1.7109112820192685,1.9246225977302363,-1.7845076044424533,4.71238899230957,1.9966191321681142,-0.024476146325469017,0.7770843505859375,0.4350036382675171,0.44168832898139954,-0.8971684575080872,2.4733505910035092e-08,2.7229599908196178e-08
29.374192144893637,1.352921961689207,-1.7128474473216717,1.9262274250207911,-1.7841762999770272,4.71238899230957,1.8614141018733645,-0.03425387293100357,0.7751666307449341,0.4350050389766693,-0.5065270066261292,0.8622239828109741,1.588397324780999e-08,6.7011325377563935e-09
29.825688528167333,1.3650836231623873,-1.714787105105593,1.9278351471208157,-1.7838443979000638,4.71238899230957,1.7259651868912562,-0.044005945324897766,0.7731227874755859,0.43500301241874695,-0.5687270164489746,0.8225263357162476,3.268682036150494e-08,2.178551028464426e-08
30.386499182579907,1.3766654018221525,-1.7177841543943129,1.9303031074203725,-1.7833152978288065,4.712388982069957,1.6384654006849446,-0.0534343421459198,0.7701331377029419,0.43500539660453796,-0.608761191368103,0.7933535575866699,2.5847672446843717e-08,1.6988524365046942e-08
30.769774363852456,1.387031506842182,-1.7229243453656655,1.934514524563611,-1.7823864219893157,4.7123889510191805,1.6488315411852743,-0.06218927726149559,0.7653701901435852,0.435006707906723,0.608761191368103,-0.7933534383773804,1.185801590253277e-08,2.3428551543247522e-08
30.959646846741883,1.391687362591145,-1.7318642820483738,1.9417276660289708,-1.7806596011902407,4.7123889366733,1.6534874133266186,-0.06706123054027557,0.7578412890434265,0.43503543734550476,0.6087611317634583,-0.7933535575866699,1.950685835083732e-08,2.9848873595028635e-08
31.337520104812313,1.3914393529883589,-1.744067375986544,1.9515186374978886,-1.7782475187757512,4.7123889366733,1.6532394037238325,-0.06865868717432022,0.7480101585388184,0.4350048005580902,0.6087610721588135,-0.7933535575866699,1.1770739938299357e-08,2.459978176716504e-08
31.689464160667587,1.4033361469666614,-1.7370436259170143,1.9458946460794881,-1.779647275800849,4.712388990675456,1.665136197702135,-0.07659303396940231,0.7528166174888611,0.4350297152996063,0.608761191368103,-0.7933535575866699,1.124275605945968e-08,1.2777096713989522e-08
32.04562557876919,1.415768769837436,-1.7290846831462938,1.9395208183726933,-1.781232387111317,4.712389047052075,1.6775688205729096,-0.08493807166814804,0.7582578659057617,0.4350082576274872,0.6087610721588135,-0.7933535575866699,1.1348150863454975e-08,2.5972786588113195e-08
32.327124640901985,1.4174806572546685,-1.73814278572807,1.946761765336725,-1.7794152956002294,4.712389021381674,1.6792807079901422,-0.08737058937549591,0.7507691979408264,0.4350377917289734,0.6087610721588135,-0.7933535575866699,1.228295065658358e-08,2.5484743204629012e-08
32.52618534173578,1.416858851789822,-1.750451553217495,1.95651785184002,-1.7768626691288116,4.71238899230957,1.6786588613301707,-0.08844737708568573,0.7408745884895325,0.4350263476371765,-0.6087611317634583,0.7933534979820251,3.001682813419393e-08,2.2653633635627557e-08
32.781525964511935,1.4153949908707524,-1.7629871712491099,1.9662450344938356,-1.7740542337510126,4.71238899230957,1.6771948579738452,-0.08894208073616028,0.7309227585792542,0.4350326955318451,-0.6087612509727478,0.7933534383773804,2.7027468263440824e-08,1.071776889460807e-08
32.995730628268504,1.4225525032238433,-1.7694157151358383,1.9712091273642698,-1.7725897638455403,4.71238899230957,1.6843523775975127,-0.09494247287511826,0.7251033782958984,0.4350021779537201,-0.608761191368103,0.7933534383773804,2.9405686774452988e-08,1.5853451884595415e-08
33.195002310918355,1.43511062476636,-1.7720295010679092,1.9731979295303852,-1.7719647493548056,4.71238899230957,1.696910600080405,-0.10432705283164978,0.7217563390731812,0.43500086665153503,-0.608761191368103,0.7933535575866699,1.8814759528140712e-08,1.794608905925088e-08
33.39362529014208,1.4485675342414477,-1.772533565314378,1.9735814830592908,-1.7718442326149288,4.71238899230957,1.710367554779758,-0.11407971382141113,0.7198819518089294,0.4350000321865082,-0.6087610721588135,0.7933535575866699,1.5233538874781516e-08,4.867541925079877e-09
33.71615479143714,1.4615209753714187,-1.773103649134629,1.9740077053723137,-1.7717003729440681,4.712388990473203,1.7233210261068923,-0.12344511598348618,0.7178862690925598,0.4350040853023529,0.608761191368103,-0.7933535575866699,1.2857436004765077e-08,2.8429326448531356e-08
34.05189357754702,1.4593546562688633,-1.7858544689236135,1.9835432642959179,-1.7684851524574834,4.712388950094407,1.721154707004337,-0.12303384393453598,0.7079269289970398,0.43502363562583923,-0.6087611317634583,0.7933535575866699,1.6561335414166933e-08,1.3921368946512303e-08
34.26573105333887,1.4651666147112246,-1.7946119794855186,1.9899967590624945,-1.7661811500832625,4.7123889366733,1.7269666654466982,-0.12788842618465424,0.7001990079879761,0.43502697348594666,0.6087610721588135,-0.7933535575866699,2.0781083520660104e-08,3.0441334786246443e-08
34.46494229315363,1.4749657698264347,-1.8013918669561135,1.9949234373322042,-1.7643279408823773,4.7123889366733,1.7367658205619083,-0.13526344299316406,0.6935040950775146,0.4350355565547943,0.608761191368103,-0.7933535575866699,1.429598661673026e-08,2.3900307510871244e-08
34.87268619538664,1.4848052043230322,-1.8081996231225275,1.9998703666899582,-1.7624671140737174,4.7123889366733,1.7466052550585058,-0.14254844188690186,0.6867108941078186,0.4350057542324066,-0.6087611317634583,0.7933535575866699,1.9247659466259393e-08,1.5007584508452965e-08
35.20305933152738,1.4727733861401537,-1.8114493609116935,2.00219869601919,-1.7615457438132225,4.712388970103745,1.7345734750750663,-0.13452981412410736,0.6857947707176208,0.43500182032585144,-0.608761191368103,0.7933535575866699,5.995744345455023e-08,5.2180691767489407e-08
35.4017396429688,1.4579003749248465,-1.8150729109881587,2.0047699832312134,-1.7604934899878701,4.712388978014353,1.719700472898849,-0.12464073300361633,0.6848509907722473,0.43500468134880066,-0.608761191368103,0.7933535575866699,3.191927788748217e-08,2.084400030355482e-08
35.6686987015939,1.4429595953964585,-1.8198830708911122,2.0081685043802784,-1.7590818114919764,4.712388943233923,1.7047596536284557,-0.11488291621208191,0.6828404068946838,0.435002863407135,-0.608761191368103,0.7933535575866699,7.503534504849085e-08,6.629456095197384e-08
35.90207505262571,1.4363881645868637,-1.812086559250734,2.002626126961241,-1.7613358665164278,4.7123889366733,1.6981882153223373,-0.10956104099750519,0.6897348165512085,0.43502077460289,0.608761191368103,-0.7933535575866699,3.1192237681665347e-09,1.4282694138501029e-08
36.12105025069484,1.4357527644202592,-1.8003616374056113,1.9939809467357719,-1.7644155606271577,4.7123889366733,1.656733439976859,-0.10785728693008423,0.6991181373596191,0.4351752996444702,0.6248253583908081,-0.7807645201683044,6.574671118642073e-08,6.982470068805924e-08
36.40146122975793,1.4397496532425245,-1.787500214499163,1.9841627776613584,-1.7674588144591923,4.7123889366733,1.5726101462579345,-0.10929407924413681,0.7089741230010986,0.4354531764984131,0.6586083769798279,-0.7524858713150024,8.103650195323553e-09,1.5075976023126714e-08
36.68098311929225,1.443733869265703,-1.774679570867725,1.9743757387208105,-1.7704924191500826,4.7123889366733,1.4887535793976383,-0.11080347001552582,0.718822181224823,0.4355926215648651,0.6910120844841003,-0.7228431105613708,1.9206934709359302e-08,3.202513099154203e-08
36.95961810270422,1.4477054436113737,-1.761899606366455,1.9646197534654342,-1.773516398395976,4.7123889366733,1.4051630843740468,-0.11238525062799454,0.7286596298217773,0.4355950951576233,0.7219866514205933,-0.6919068694114685,1.2857259257259557e-08,2.0209503404089446e-08
37.2373674534544,1.4516643944310386,-1.7491602625863891,1.954894777306921,-1.7765307660175287,4.7123889366733,1.3218382791489944,-0.11403919011354446,0.7384846210479736,0.4354613721370697,0.7514857649803162,-0.6597492694854736,1.172977093233385e-08,2.965889223105478e-08
37.577548600354326,1.4556106712415406,-1.736461701975186,1.9452009342547674,-1.7795354835765784,4.7123889366733,1.2387802262512684,-0.1157647967338562,0.7482942938804626,0.4351923167705536,-0.7794663310050964,0.6264441609382629,2.3050382935707603e-08,2.2641993169258967e-08
37.82818373839525,1.4628437599928168,-1.732200554143618,1.942040287577712,-1.7806360178705873,4.712388969812796,1.201045172908314,-0.12080172449350357,0.7508748769760132,0.43500563502311707,0.7933531403541565,-0.608761727809906,7.118267308925397e-09,2.2638500851712706e-08
38.21576865839684,1.4736210603037934,-1.7369778040603625,1.9458785510640186,-1.7796971002102118,4.712389038582858,1.211822541989353,-0.12926727533340454,0.7456271648406982,0.4350036084651947,-0.7933530807495117,0.6087617874145508,1.662798432278123e-08,1.2365692469984424e-08
38.42566397126815,1.4854675322644815,-1.7319148312894272,1.9417870370062627,-1.7806686272226675,4.712389004883043,1.223669031249772,-0.13773667812347412,0.748187243938446,0.4350222945213318,-0.7933530807495117,0.608761727809906,5.0059377088018664e-08,6.596677337711299e-08
38.77252493199565,1.4976000657268231,-1.7235947198707577,1.9350708155443177,-1.7822725849112315,4.712388937151204,1.2358015647121137,-0.14630354940891266,0.7532821893692017,0.4350001811981201,-0.7933530807495117,0.6087617874145508,2.0969869396481045e-08,1.9974725873339594e-08
39.1158935847096,1.4899643105681966,-1.7156802733323746,1.9285446944370994,-1.7836608474629507,4.7123889366733,1.228165809553487,-0.14001992344856262,0.7608897686004639,0.4350230395793915,-0.7933530807495117,0.6087617874145508,5.250243262366894e-08,7.123864520508505e-08
39.330044163724395,1.4815335532162306,-1.7088779510312624,1.9229356497774421,-1.7848540692524664,4.7123889366733,1.2197350522015211,-0.1330990195274353,0.767641544342041,0.43500012159347534,-0.7933530807495117,0.6087617874145508,1.554958117822025e-08,9.874823625466433e-09
39.55072078426417,1.4685082373848724,-1.7098629450686056,1.9237553620916743,-1.7846887875293553,4.7123889366733,1.2067097363701629,-0.12317252159118652,0.768498957157135,0.43500038981437683,-0.7933530807495117,0.6087617874145508,2.0940447598150058e-08,2.2901302187960937e-08
39.95530993986953,1.4554678065283861,-1.7108490821269562,1.9245760256283098,-1.7845233140076402,4.7123889366733,1.1936693055136767,-0.11323470622301102,0.7692290544509888,0.43500006198883057,-0.7933530807495117,0.6087617874145508,2.187173464562875e-08,2.573002078065656e-08
40.28560540693147,1.4623960835188332,-1.7016593981478316,1.9168415597821857,-1.7859784699004173,4.7123889366733,1.2005976447443472,-0.1177365779876709,0.7760045528411865,0.43503376841545105,-0.7933530211448669,0.6087618470191956,1.8400800883000556e-08,1.9849327514975812e-08
40.48793159791136,1.4726258936990406,-1.6925385172823155,1.9091563940762448,-1.787414136115189,4.7123889366733,1.2108275038693583,-0.12492618709802628,0.7822985649108887,0.43500208854675293,0.7933530807495117,-0.6087617874145508,1.4646613699653699e-08,2.6701849620280882e-08
40.69889949646906,1.4856060327911182,-1.6893917915507282,1.90645789818878,-1.787862407779599,4.7123889366733,1.223807601141148,-0.13484664261341095,0.7832242250442505,0.43500828742980957,0.7933529615402222,-0.6087617874145508,1.299074003924261e-08,3.9068375201622985e-08
41.04178821265351,1.4985378355029515,-1.6862567838238873,1.9037694511553669,-1.7883090101375811,4.7123889366733,1.236739362188427,-0.14477479457855225,0.7840219736099243,0.43500596284866333,0.7933529615402222,-0.6087618470191956,1.0130998262525281e-08,2.4631427564258956e-08
41.35785040352132,1.5099945210103143,-1.6864841941823638,1.903919749636509,-1.7882319259604318,4.7123889366733,1.2189135353780687,-0.15375852584838867,0.7821297645568848,0.43503841757774353,-0.8021807074546814,0.5970813035964966,5.340598363545723e-08,7.954778880048252e-08
41.63107868497802,1.5185642266021264,-1.6934130309229414,1.9097275841036234,-1.7871109236869689,4.7123889366733,1.139714481969666,-0.16075585782527924,0.7750364542007446,0.4351261854171753,-0.8276025056838989,0.5613144636154175,1.5850313062060195e-08,1.0076377066070563e-08
41.89603434974705,1.5271650568301522,-1.7003670327664064,1.9155565122632856,-1.7859858500031658,4.7123889366733,1.0602277825389577,-0.16766750812530518,0.7678595781326294,0.43517300486564636,0.8515143394470215,-0.5243311524391174,7.197351159504706e-09,2.3876248533838407e-08
42.16195265581656,1.5357971357367193,-1.7073463000043065,1.9214066181810794,-1.7848566886830595,4.7123889366733,0.9804522907181024,-0.17449191212654114,0.7605994343757629,0.4351789653301239,-0.8738524317741394,0.48619115352630615,1.6417642356714168e-08,1.993344866946245e-08
42.428843686678306,1.5444607906460253,-1.7143510972870322,1.9272781236901517,-1.7837233969094062,4.7123889366733,0.9003849814595801,-0.1812276989221573,0.7532572746276855,0.4351429343223572,0.8945556282997131,-0.4469565749168396,1.2711256935915571e-08,3.600338871478925e-08
42.73388305260787,1.55315622647336,-1.721381590294089,1.9331711676650614,-1.782585947877259,4.7123889366733,0.8200239609880697,-0.18787336349487305,0.745833694934845,0.43506523966789246,-0.9135645031929016,0.406693696975708,1.491767953609724e-08,1.763761225959115e-08
43.038377877525704,1.5529255485881805,-1.7253045248180725,1.9364642719417822,-1.7819561092865601,4.7123889366733,0.7675281972049509,-0.18775932490825653,0.7426315546035767,0.43500015139579773,0.9238793253898621,-0.3826836943626404,6.987322720419797e-09,3.1169761882665625e-08
43.38518296323866,1.540067513595952,-1.7248149382448021,1.9360655941845564,-1.782046997989402,4.7123889366733,0.7546701607781059,-0.17818289995193481,0.7453872561454773,0.4350002706050873,-0.9238793253898621,0.38268375396728516,1.41265728004214e-08,1.763711132696244e-08
43.68394697367309,1.527218088347047,-1.7243256794988189,1.935667183382053,-1.7821378258331464,4.7123889366733,0.741820734095545,-0.16857308149337769,0.7480176687240601,0.43500015139579773,-0.9238793253898621,0.38268381357192993,1.66419411584684e-08,2.496965478826496e-08
43.86697461890375,1.5233313733088618,-1.7318372461201381,1.9417094665739423,-1.7806685079058264,4.7123889366733,0.7379340202638655,-0.16595731675624847,0.7425029873847961,0.4350329339504242,0.9238793253898621,-0.38268375396728516,2.7801945190475408e-09,1.9117598171192185e-08
44.155514924464036,1.5224594692993767,-1.7414820544187275,1.9494734623453438,-1.7787876592236136,4.7123889366733,0.7370621185112602,-0.1656922996044159,0.7347411513328552,0.43500086665153503,0.9238793253898621,-0.38268375396728516,2.5897024968912774e-08,8.613034907511974e-08
44.525543774581244,1.5106986931088355,-1.7381379124961795,1.9468073433438553,-1.7794656821446728,4.7123889366733,0.7253013423207191,-0.156875342130661,0.739373505115509,0.4350024461746216,0.9238793253898621,-0.38268375396728516,4.929423091937224e-09,2.7048086437275742e-08
44.67817683752949,1.5037572484463,-1.7433860668504688,1.9509453675702657,-1.778355552016794,4.7123889366733,0.7183598736462028,-0.15202678740024567,0.7361626029014587,0.4350287616252899,0.9238793253898621,-0.38268378376960754,2.2604496052736067e-09,2.3767949386410692e-08
44.919385209312054,1.5017031661721283,-1.7558851567803717,1.9607716927775178,-1.7756828012793677,4.7123889366733,0.7163057627719793,-0.15121875703334808,0.7262942790985107,0.43501853942871094,0.9238793253898621,-0.38268375396728516,1.8787766897787606e-09,2.835165702208542e-08
45.11867544390759,1.5026105365107896,-1.76790366420816,1.9700058457971878,-1.7728985160305744,4.7123889366733,0.7172131676903031,-0.1525428146123886,0.7164181470870972,0.4350379705429077,-0.9238793253898621,0.3826836943626404,1.6506213285083504e-08,3.727868147507252e-08
45.31121178307137,1.506911573840437,-1.7781329023103212,1.9777673409779524,-1.7704307872505267,4.7123889366733,0.7215142230523206,-0.15615122020244598,0.7074931859970093,0.435029000043869,-0.9238792657852173,0.38268381357192993,1.2399192783618673e-08,2.8810761776298932e-08
45.51042004265389,1.5149082771480906,-1.7864096244265968,1.9839220298165248,-1.7683087081732147,4.7123889366733,0.7295109263599742,-0.16217643022537231,0.6995618343353271,0.4350474774837494,-0.9238793253898621,0.3826836943626404,1.4583529939216078e-08,2.6449161083519357e-08
45.76982937532297,1.522937226186985,-1.7947197214158226,1.9901015366875443,-1.766178072070718,4.7123889366733,0.7375398753988686,-0.168107807636261,0.6915569305419922,0.4350084960460663,0.9238793253898621,-0.3826838731765747,1.5365143601897557e-09,2.6245245976497245e-08
46.011625194425655,1.5364659436487154,-1.7904560912852165,1.9869544690423395,-1.7672946741792022,4.7123889366733,0.7510685928605989,-0.17733046412467957,0.6926441192626953,0.43501901626586914,0.9238793253898621,-0.3826836943626404,3.387271574339934e-09,2.347283434289693e-08
46.21701771528276,1.5506611621075255,-1.784517428301395,1.9825648562912463,-1.7688437753792663,4.7123889366733,0.765263811319409,-0.1870482861995697,0.6948344111442566,0.43501266837120056,-0.9238793253898621,0.38268375396728516,2.2560010748406967e-08,4.292602540090229e-08
46.39634419952867,1.5624033945553657,-1.7854953441569659,1.9832801966760583,-1.768581223025379,4.7123889366733,0.7770060437672491,-0.19520069658756256,0.6918041110038757,0.43502113223075867,-0.9238793253898621,0.38268372416496277,4.1411038154137714e-08,8.14332210552493e-08
46.59556920429108,1.572140535290458,-1.7922357064150238,1.9882486334963112,-1.7668092975875738,4.7123889366733,0.7867431845023416,-0.2019202709197998,0.684450626373291,0.43503034114837646,-0.9238793253898621,0.38268375396728516,3.544224824736375e-08,7.029926507584605e-08
47.00517007573906,1.581915534173981,-1.7990022753020898,1.993236387673037,-1.7650304828772339,4.7123889366733,0.7965181833858644,-0.20854052901268005,0.6770097613334656,0.43500158190727234,-0.9238792657852173,0.38268381357192993,2.2755141770858245e-08,3.767094014506256e-08
47.39222204581052,1.5680324936751595,-1.802444757288609,1.9957304845379416,-1.764082097755619,4.7123889366733,0.7826351428870431,-0.19912943243980408,0.677083432674408,0.4350033700466156,-0.9238793253898621,0.38268372416496277,1.4750255239448506e-08,2.3245213753853022e-08
47.58805826574713,1.5535533901398808,-1.80691053754718,1.9989316911099555,-1.7628175144563887,4.7123889366733,0.7681560393517642,-0.18936681747436523,0.6763279438018799,0.4350157678127289,-0.9238792657852173,0.38268381357192993,1.4826818883761916e-08,2.601116122491476e-08
47.78724406182915,1.5400525275427912,-1.815564855276492,2.005051075101692,-1.7602825353833265,4.7123889366733,0.7546551767546749,-0.1804308146238327,0.6719309091567993,0.4350529611110687,0.9238793253898621,-0.38268381357192993,7.67309504823288e-09,3.307218321424443e-08
47.98674375087172,1.5264078271397314,-1.8243113758606515,2.011235654836362,-1.7577205487153473,4.7123889366733,0.7410104763516149,-0.17155472934246063,0.6673795580863953,0.4350278079509735,0.9238793849945068,-0.3826838433742523,7.111677469140432e-09,4.191016955701343e-08
48.184948827029764,1.51355190413312,-1.834168862358484,2.0180472128498277,-1.754674637948659,4.7123889366733,0.7281545533450035,-0.16340765357017517,0.6617370247840881,0.4350378215312958,-0.9238793253898621,0.38268375396728516,2.819381705876367e-08,6.990641310267165e-08
48.49783644948418,1.5011672528849163,-1.8448265188389579,2.0253164395497323,-1.7512862689841888,4.7123889366733,0.7157699020967998,-0.15578502416610718,0.6553205251693726,0.4350270926952362,0.9238793253898621,-0.38268372416496277,4.466495617805322e-09,2.5249301316421224e-08
48.69074649537461,1.5049202707293696,-1.85105278828129,2.029518757884466,-1.7492623401094622,4.7123889366733,0.7195229199412531,-0.15856580436229706,0.6498428583145142,0.4350097179412842,0.9238793253898621,-0.38268375396728516,2.767013285165376e-09,3.069739662464599e-08
48.913487909942205,1.517969341419549,-1.8547247138930782,2.031953270723241,-1.7480249273364492,4.7123889366733,0.7325719906314324,-0.1671840399503708,0.6448417901992798,0.43501612544059753,-0.9238793253898621,0.38268375396728516,1.4904511402846765e-08,2.478312488563006e-08
49.143687849381415,1.5310603029954049,-1.8584084273340282,2.0343955989767246,-1.7467835421489828,4.7123889366733,0.7456629522072884,-0.1757258027791977,0.6397126913070679,0.43501147627830505,0.9238793253898621,-0.38268372416496277,1.0816261664103877e-08,3.854880148423945e-08
49.36125380453154,1.5523690766873737,-1.8626613131745695,2.041269310099117,-1.7554573624322958,4.699663375847709,0.751376072153067,-0.18296609818935394,0.634881317615509,0.4330981373786926,-0.9268050193786621,0.3754764795303345,-0.004855852108448744,0.005105496384203434
49.77594462391029,1.6144831543490157,-1.8701971314532728,2.06938760980756,-1.8105629659059048,4.627083423385754,0.7245406863666809,-0.1861482411623001,0.6319095492362976,0.4241519570350647,-0.9412722587585449,0.3343326449394226,-0.031929370015859604,0.034766796976327896
50.37674618825021,1.7072869143706195,-1.881456290365892,2.1113987614916065,-1.8928954643206495,4.518642748675097,0.684446318127436,-0.1921200007200241,0.6295350193977356,0.41675522923469543,-0.9559661149978638,0.2732977271080017,-0.07029880583286285,0.08059252053499222
51.049919854115934,1.8145290222420125,-1.8944671418051784,2.159945980479858,-1.9880371986023202,4.393330945228127,0.638114094489649,-0.2016327977180481,0.628208577632904,0.41684266924858093,-0.963023841381073,0.2046799212694168,-0.11130452901124954,0.13528664410114288
51.42511307601621,1.8884805007071956,-1.9034390999205477,2.1934229298872645,-2.0536445617316303,4.30691905611126,0.6061645505408972,-0.21002967655658722,0.6270298361778259,0.4220079779624939,-0.9620574116706848,0.1593276560306549,-0.13737784326076508,0.17374534904956818
51.9903004626834,1.944855809211731,-1.9102786779403687,2.2189433574676514,-2.10365891456604,4.241044823323385,0.5818085074424744,-0.21738967299461365,0.6254450082778931,0.42855924367904663,-0.9583380818367004,0.12616796791553497,-0.15600189566612244,0.2033054679632187
52.15549140074417,1.9614181701074938,-1.8997537945798528,2.2293109678065863,-2.058075048072806,4.191487541905156,0.5602616113887958,-0.197986900806427,0.6068165302276611,0.4127160310745239,-0.9580892324447632,0.10182054340839386,-0.19340023398399353,0.18518632650375366
52.32069563728102,1.9779817865017326,-1.889228138434919,2.23967914286858,-2.0124877686335707,4.141926270944101,0.5387131397062165,-0.17866837978363037,0.588932991027832,0.399974524974823,-0.9556826949119568,0.07580005377531052,-0.23029735684394836,0.1669968068599701
52.48589987381787,1.9945454922643195,-1.8787022143078749,2.2500476433654293,-1.9669001027531783,4.092364999983046,0.5171645228970682,-0.15964537858963013,0.5720769762992859,0.39022937417030334,-0.9510419964790344,0.04823384806513786,-0.26656317710876465,0.14878372848033905
52.65110411035472,2.0111093789344894,-1.8681764736185444,2.2604158149432405,-1.921312604873184,4.0428037290219905,0.4956159291507532,-0.14113910496234894,0.5565016865730286,0.3833346962928772,-0.9441014528274536,0.019255759194493294,-0.30207088589668274,0.13059377670288086
52.816308346891574,2.0276727978121816,-1.8576506044205412,2.270784167625618,-1.8757249961789944,3.993242458060936,0.474067285970777,-0.12337511777877808,0.5424272418022156,0.37910646200180054,-0.9348064661026001,-0.010993425734341145,-0.3366982042789459,0.1124734878540039
52.981512583428426,2.0442363577293206,-1.8471248729959502,2.2811524759553277,-1.830137450029894,3.9436811870998807,0.4525187614585307,-0.10658267140388489,0.5300379395484924,0.3773260712623596,-0.9231142997741699,-0.04236717149615288,-0.37032458186149597,0.09447021037340164
53.14671681996528,2.0608001383826298,-1.8365989938372465,2.2915206672295523,-1.7845500849785065,3.8941199161388256,0.4309702433961673,-0.09098772704601288,0.519479513168335,0.37774473428726196,-0.9089943170547485,-0.07471319288015366,-0.40283358097076416,0.07663147896528244
53.31192105650213,2.077363450912801,-1.8260733415186012,2.3018890427542513,-1.7389626961740285,3.8445586451777705,0.4094217630829719,-0.07680976390838623,0.5108563899993896,0.38008570671081543,-0.8924280405044556,-0.1078750491142273,-0.43411245942115784,0.05900432541966438
53.47712529303898,2.0939269312947997,-1.8155475474815248,2.312257334441707,-1.69337522310261,3.7949973742167153,0.38787320688583105,-0.06425723433494568,0.5042309165000916,0.3840494751930237,-0.873409628868103,-0.1416928470134735,-0.46405282616615295,0.04163605719804764
53.64232952957583,2.1104907030564224,-1.8050218196926933,2.322625573212296,-1.6477878957210035,3.7454361032556602,0.3663247169134655,-0.05352383852005005,0.49962228536605835,0.38931816816329956,-0.8519459962844849,-0.1760043501853943,-0.49255096912384033,0.024573585018515587
53.807533766112684,2.1270542718291514,-1.7944959898797865,2.332993807572917,-1.602200351691263,3.6958748322946056,0.344776164321444,-0.044782936573028564,0.49700701236724854,0.39556047320365906,-0.828056812286377,-0.21064506471157074,-0.5195080041885376,0.007862983271479607
53.972738002649535,2.143618087886272,-1.7839702736895613,2.3433620210499853,-1.5566129024700488,3.6463135613335504,0.32322760351150254,-0.03818559646606445,0.4963187277317047,0.4024355709552765,0.8017745018005371,0.24545074999332428,0.5448305010795593,0.008449968881905079
54.13794223918639,2.1601818951320415,-1.773444400531201,2.3537303515467864,-1.5110252853463801,3.5967522903724953,0.30167900312579504,-0.033855557441711426,0.4974510669708252,0.40959975123405457,0.773144006729126,0.2802567780017853,0.5684302449226379,0.02432079426944256
54.30314647572324,2.1767453754063437,-1.7629186270088775,2.364098610008122,-1.4654381041649776,3.54719101941144,0.2801305557652572,-0.03188696503639221,0.5002589821815491,0.4167104661464691,0.7422231435775757,0.31489992141723633,0.5902256369590759,0.03970552608370781
54.46835071226009,2.1933088469395656,-1.752392931312921,2.3744667372207218,-1.419850801149073,3.497629748450385,0.25858208393062987,-0.03234130144119263,0.5045610070228577,0.42343103885650635,0.7090819478034973,0.34921956062316895,0.6101405024528503,0.05456220358610153
54.63355494879694,2.2098723273215644,-1.7418671107842776,2.384835187888163,-1.3742634075566027,3.44806847748933,0.23703357575070172,-0.03524547815322876,0.5101433992385864,0.42943623661994934,0.6738021373748779,0.3830582797527313,0.6281057000160217,0.06885004043579102
54.79875918533379,2.226435993130513,-1.7313413829691093,2.395203426606078,-1.3286759344851844,3.398507206528275,0.21548504935535226,-0.040590643882751465,0.5167645215988159,0.4344176948070526,0.6364775896072388,0.4162622094154358,0.6440582275390625,0.08252914249897003
54.963963421870645,2.242999526495645,-1.7208155889362806,2.405571771298756,-1.2830885806188075,3.3489459355672198,0.19393652958395646,-0.04833003878593445,0.5241578221321106,0.43808653950691223,0.597213089466095,0.4486829340457916,0.6579421162605286,0.09556231647729874
55.129167658407496,2.2595634046616335,-1.7102897863456126,2.415940162769066,-1.237500695437874,3.299384664606165,0.17238779090070727,-0.0583796501159668,0.5320373773574829,0.44017958641052246,0.5561239719390869,0.4801778495311737,0.6697089076042175,0.10791384428739548
55.29437189494435,2.2761269204563432,-1.6997639433121927,2.426308344191244,-1.1919133368275197,3.24982339364511,0.15083925154848427,-0.07061803340911865,0.540103018283844,0.4404617249965668,0.5133364796638489,0.510610044002533,0.6793164610862732,0.11954998970031738
55.4595761314812,2.292690418545265,-1.689238191004651,2.4366766999684493,-1.146325854759127,3.200262122684055,0.12929071867435754,-0.08488774299621582,0.5480449199676514,0.4387303292751312,0.4689856171607971,0.539851188659668,0.6867305040359497,0.13043928146362305
55.62478036801805,2.309254137417772,-1.678712393333315,2.4470448228683614,-1.100738374816357,3.1507008517229997,0.10774216848902975,-0.10099676251411438,0.5555493235588074,0.4348180294036865,0.4232156276702881,0.5677804350852966,0.6919240355491638,0.14055268466472626
55.7899846045549,2.3258178827052443,-1.6681865860527916,2.4574131675610396,-1.0551509282365055,3.1011395807619446,0.08619364954481838,-0.11871983110904694,0.5623037815093994,0.42859429121017456,0.3761785924434662,0.5942856669425964,0.6948776245117188,0.14986376464366913
55.955188841091754,2.3423813896491894,-1.6576608943453133,2.4677812904629066,-1.0095635277589905,3.05157830980089,0.06464509397433457,-0.13780279457569122,0.5680024027824402,0.41996946930885315,0.32803431153297424,0.6192644834518433,0.6955793499946594,0.15834841132164001
56.120393077628606,2.3589448434692413,-1.647135117187928,2.4781496185278162,-0.9639761807751098,3.002017038839835,0.04309661372625518,-0.15796463191509247,0.5723510980606079,0.4088937044143677,0.27894875407218933,0.6426241397857666,0.694024920463562,0.1659855991601944
56.28559731416546,2.375508420888703,-1.6366093925650222,2.4885179493877576,-0.9183887151801501,2.9524557678787797,0.021548043389119267,-0.17890247702598572,0.5750718116760254,0.39535945653915405,0.22909361124038696,0.664282500743866,0.6902173161506653,0.17275676131248474
56.45079837178792,2.3920717239379883,-1.6260838508605957,2.4988858699798584,-0.8728022575378418,2.902895450592041,-3.192326403222978e-09,-0.20029515027999878,0.5759081840515137,0.3794020116329193,0.17864632606506348,0.684167742729187,0.6841678023338318,0.17864619195461273
56.705099308131196,2.398366245700406,-1.576914353982412,2.4471173979346177,-0.8702031976814834,2.9791857314950247,-1.1799520537441229e-07,-0.20349593460559845,0.5845739841461182,0.38192203640937805,0.20247644186019897,0.6774978041648865,0.6774978637695312,0.2024763822555542
57.01690617656006,2.405976639374214,-1.5174655680689997,2.384526077077274,-0.8670607717421084,3.071425453117917,-2.5679906705209303e-07,-0.20964953303337097,0.5917759537696838,0.3821916878223419,0.23095472157001495,0.6683261394500732,0.668326199054718,0.23095469176769257
57.37607589897127,2.4133227287142813,-1.460081402256204,2.3241085146437688,-0.8640274803402928,3.1604617454291453,-3.907823552149446e-07,-0.21805205941200256,0.5953716039657593,0.37957215309143066,0.2580522894859314,0.6583380699157715,0.6583380699157715,0.2580522894859314
57.68025658362687,2.4161918319472173,-1.4283598646283773,2.2933944536071786,-0.8705415254659055,3.20146278224951,0.07351943885168612,-0.225493386387825,0.5987487435340881,0.37548157572746277,0.2961978018283844,0.6422083377838135,0.6633660793304443,0.2445008009672165
58.264891062704116,2.4149161715610794,-1.4175438602002666,2.287998709944861,-0.8882535999608852,3.1999012326999816,0.2376326982109943,-0.23138828575611115,0.6050170660018921,0.3712233603000641,0.35164523124694824,0.6138926148414612,0.6821088194847107,0.18495666980743408
58.894989417761224,2.413639978730434,-1.4067233413087301,2.2826007141673954,-0.9059730672517007,3.198339031379425,0.4018144563687224,-0.23725169897079468,0.6112861633300781,0.3669232726097107,0.4044184684753418,0.5807744860649109,0.6955388188362122,0.12398581206798553
59.295010693615254,2.413210449562151,-1.4023054263892025,2.2727182732200553,-0.8959595553449873,3.198015198500515,0.4980650262568,-0.2416403889656067,0.6155492067337036,0.3689641058444977,0.430589884519577,0.5615270733833313,0.7005791068077087,0.09202482551336288
59.56195814568885,2.413689439383131,-1.4047757051804146,2.258209075626521,-0.8565540435661232,3.1990155663593263,0.5204797026076227,-0.24435192346572876,0.617548942565918,0.3779529631137848,0.43047666549682617,0.5610519647598267,0.7009977698326111,0.0922635868191719
59.801761416212614,2.4130605774954947,-1.3959195436022396,2.246641283448579,-0.8507880323459464,3.1984591847398107,0.5235324641223132,-0.25052040815353394,0.6235742568969727,0.3780457675457001,0.430460125207901,0.5609865784645081,0.7010560035705566,0.09229596704244614
59.99376202137857,2.4122513296425385,-1.385215607337452,2.2355330783463234,-0.8504630371298788,3.197649803728476,0.5234531468535741,-0.2572445571422577,0.6302682757377625,0.37658408284187317,0.4304611384868622,0.5609877109527588,0.7010545134544373,0.09229571372270584
60.18579229848176,2.4114417485786257,-1.374507263685193,2.2244202993973263,-0.8501379080957644,3.196840089451356,0.5233737969256405,-0.2639475464820862,0.6369636058807373,0.3750247359275818,0.4304618537425995,0.5609890222549438,0.7010530233383179,0.09229549765586853
60.37779595838576,2.410632062384129,-1.3637975294687725,2.213306077365007,-0.8498127368410419,3.1960302700263536,0.5232944366934833,-0.2706262171268463,0.6436579823493958,0.37336817383766174,0.4304627776145935,0.5609903335571289,0.7010515332221985,0.09229545295238495
60.64695825139631,2.409822104830017,-1.3530842059737105,2.2021881304933073,-0.8494874566078688,3.1952201791970842,0.5232150498644023,-0.2772817313671112,0.6503521800041199,0.3716147840023041,0.430463582277298,0.5609914064407349,0.7010500431060791,0.09229526668787003
60.76155114525931,2.4097378435595673,-1.3446120478859271,2.197668058478434,-0.8264662674495716,3.195624479895973,0.523740290827554,-0.27758339047431946,0.6506810784339905,0.368893563747406,0.42284348607063293,0.5661143660545349,0.7002558708190918,0.10178219527006149
61.048333820125514,2.4104219415911925,-1.3383411770624873,2.200055283824458,-0.7788786633648446,3.197325962274188,0.5249181502395315,-0.2711992859840393,0.6443024277687073,0.36561352014541626,0.40671995282173157,0.5764323472976685,0.6982461214065552,0.12147767841815948
61.240230973979884,2.4111262170528565,-1.3318853472836492,2.2025129202375786,-0.729887465777834,3.199077629772168,0.5261307505435763,-0.26469260454177856,0.6378099322319031,0.3628618121147156,0.3897688686847687,0.5865582227706909,0.6956740021705627,0.14165915548801422
61.432302769443446,2.4118539101325056,-1.3252148569582332,2.20505227466276,-0.6792672789498125,3.2008875413557916,0.5273836705978259,-0.25807029008865356,0.6312075853347778,0.36067482829093933,0.37189269065856934,0.596483588218689,0.6924822926521301,0.1623924821615219
61.62426861765092,2.4126063395051935,-1.3183176182851775,2.207677948742403,-0.626926372480427,3.2027589768216096,0.5286791808573176,-0.2513635754585266,0.6245239973068237,0.3591010272502899,0.3530385494232178,0.6061636805534363,0.6886141896247864,0.1836838275194168
61.81616538034981,2.413386311111592,-1.3111679102556781,2.210399734074178,-0.5726695579790906,3.204698915079643,0.5300221125062935,-0.2445990890264511,0.617780864238739,0.3581884503364563,0.3331143260002136,0.6155645251274109,0.6839985847473145,0.20557504892349243
62.00816438364094,2.414197607546589,-1.3037310592369782,2.213230830383814,-0.5162337084967245,3.2067167641653604,0.5314189783028441,-0.23780524730682373,0.611001193523407,0.35799139738082886,0.3120000958442688,0.6246493458747864,0.6785476207733154,0.22812776267528534
62.2042455096739,2.415043239817459,-1.2959794644514242,2.2161817448684524,-0.4574093706868355,3.2088200130285625,0.5328749625087175,-0.23103025555610657,0.6042267084121704,0.35857057571411133,0.2895926237106323,0.6333565711975098,0.6721665263175964,0.25137144327163696
62.40916682396483,2.415926996861593,-1.287878394126892,2.2192656993865967,-0.39593297639955694,3.2110180854797363,0.5343965888023376,-0.22433140873908997,0.597505509853363,0.3599908947944641,0.26576632261276245,0.6416158676147461,0.664742112159729,0.2753455936908722
