Sungjin-Park-dev/lg_sgu_vision_v2/data/square_structure/trajectory/71/glns_trajectory_comp000.csv
time,ur20-shoulder_pan_joint,ur20-shoulder_lift_joint,ur20-elbow_joint,ur20-wrist_1_joint,ur20-wrist_2_joint,ur20-wrist_3_joint,target-POS_X,target-POS_Y,target-POS_Z,target-ROT_X,target-ROT_Y,target-ROT_Z,target-ROT_W
0.0,0.16194060444831848,-1.862472414970398,2.6694846153259277,-0.8070123831378382,-0.6234567761421204,2.5563167582731694e-08,-0.13338719308376312,0.5934339165687561,0.37630727887153625,0.2705978453159332,-0.653281569480896,-0.6532816290855408,0.27059775590896606
0.19751183688640594,0.1779452449273847,-1.834103575064972,2.6674913175583987,-0.8333877062079511,-0.6074521767382637,-5.0834685069834876e-09,-0.1279376894235611,0.5986051559448242,0.3698972463607788,0.27059775590896606,-0.653281569480896,-0.6532816290855408,0.2705978751182556
0.45599591563429204,0.19369992605174413,-1.8061777977154225,2.6655291509758756,-0.8593511013285788,-0.591697536047604,-3.5251467579457386e-08,-0.12283555418252945,0.6038954257965088,0.3632994294166565,0.2705976963043213,-0.6532815098762512,-0.6532816290855408,0.2705978751182556
0.6829113969346575,0.2097149400485522,-1.7950146508547136,2.653062569608129,-0.8580476790514766,-0.5756825299488538,-6.357029019143066e-08,-0.1170031726360321,0.6096617579460144,0.3661119341850281,0.2705976665019989,-0.6532815098762512,-0.6532816290855408,0.2705978751182556
0.8803268046816878,0.2257232829231295,-1.7877530019089831,2.6381308927626623,-0.8503777160081191,-0.5596741856753021,-8.972604308668538e-08,-0.11106930673122406,0.6157292723655701,0.37115243077278137,0.27059778571128845,-0.653281569480896,-0.653281569480896,0.2705978453159332
1.0779349775752118,0.24126995863519463,-1.775485993887926,2.624145007948856,-0.84865883921537,-0.5441274718472889,-7.327033449702042e-08,-0.10421724617481232,0.6221659183502197,0.37419238686561584,0.27059775590896606,-0.653281569480896,-0.6532816290855408,0.2705978751182556
1.2754928031703523,0.2567078586661723,-1.7633048146432007,2.6102569784048457,-0.8469519889160849,-0.5286895339670497,-5.692976183369549e-08,-0.09753178060054779,0.6288366913795471,0.377086877822876,0.27059778571128845,-0.653281569480896,-0.653281569480896,0.27059775590896606
1.4730416135629705,0.27203812663655874,-1.7512085618081497,2.5964657753226192,-0.8452570386689094,-0.5133592284112843,-4.070311460734493e-08,-0.09101864695549011,0.6357338428497314,0.37983864545822144,0.2705976963043213,-0.653281569480896,-0.653281569480896,0.27059781551361084
1.6695066438755086,0.2855835613223711,-1.734046370636108,2.585050085140891,-0.85100356881931,-0.4998137821757234,-7.072332388834859e-08,-0.0838901698589325,0.6424883604049683,0.3795986771583557,0.27059775590896606,-0.653281569480896,-0.6532816290855408,0.27059781551361084
1.867052548541694,0.29876487601833546,-1.7164184965953426,2.5740514990117034,-0.8576328892824476,-0.48663245934186916,-1.0628797420067198e-07,-0.07685159146785736,0.6493674516677856,0.3787635266780853,0.2705978751182556,-0.653281569480896,-0.6532816290855408,0.27059775590896606
2.0645785229047826,0.3118020769042948,-1.6989833514400412,2.563173162507709,-0.8641897301294222,-0.473595250406993,-1.4146378945547466e-07,-0.07000753283500671,0.6564080715179443,0.3777005970478058,0.27059781551361084,-0.6532815098762512,-0.6532816290855408,0.27059775590896606
2.2621169583639196,0.32435184454249205,-1.6818088676363059,2.5523613209689007,-0.8705523673679484,-0.46104549160749,-1.9895181235793593e-07,-0.06324730813503265,0.6635026931762695,0.3764680027961731,0.27059775590896606,-0.653281569480896,-0.6532815098762512,0.2705976963043213
2.4596622111043027,0.33543984744532934,-1.6650978614240413,2.541472139307364,-0.8763740459680491,-0.44995756167996603,-3.4257148122954117e-07,-0.05624011158943176,0.6703511476516724,0.3752197325229645,0.2705978453159332,-0.6532815098762512,-0.6532816290855408,0.27059778571128845
2.688107294062971,0.34643225100262515,-1.6485309353740234,2.5306768427800073,-0.8821455307984513,-0.4389652304687998,-4.849528796505225e-07,-0.049402669072151184,0.6773334741592407,0.37376460433006287,0.270597904920578,-0.6532815098762512,-0.6532816290855408,0.27059775590896606
2.9016825807574915,0.35507073934945566,-1.643305845377876,2.517086054230967,-0.8737800040013267,-0.4303266953214056,-2.3218881254285542e-07,-0.04359996318817139,0.6831427216529846,0.3779962956905365,0.2705978751182556,-0.653281569480896,-0.6532816290855408,0.27059778571128845
3.1469743261290346,0.36295305762608276,-1.6414183616938856,2.50267659594518,-0.8612583007551431,-0.4224442946274487,1.4066395888560416e-07,-0.03818237781524658,0.6886244416236877,0.3840135931968689,0.27059781551361084,-0.6532816290855408,-0.6532815098762512,0.27059775590896606
3.394826264452377,0.3720844050748524,-1.626422024288944,2.4912961371887326,-0.8648742574043418,-0.41331298617903117,1.632149056056576e-07,-0.031100094318389893,0.695454478263855,0.3831161558628082,0.2705978453159332,-0.6532816290855408,-0.653281569480896,0.27059775590896606
3.592420765530506,0.38115905423347396,-1.6115188020232647,2.479986341886525,-0.8684677618841964,-0.4042383757786011,1.8562582916621323e-07,-0.02415609359741211,0.7023993134498596,0.38203954696655273,0.2705978453159332,-0.6532816290855408,-0.653281569480896,0.27059778571128845
3.7899894875997693,0.3901755309499474,-1.5967111158846483,2.4687490472839504,-0.8720382304397073,-0.3952219375718623,2.0789308897387626e-07,-0.017354071140289307,0.7094525694847107,0.38078752160072327,0.2705978751182556,-0.653281569480896,-0.6532815098762512,0.2705977261066437
3.9875762400740773,0.3982019533100558,-1.5828680193592741,2.4569791308226727,-0.8741113743498081,-0.3871955166873502,1.365837306899372e-07,-0.010289743542671204,0.716318666934967,0.3800436854362488,0.2705978453159332,-0.653281569480896,-0.6532815098762512,0.27059775590896606
4.185166010033527,0.40615402603381173,-1.5691236801387134,2.445239517689369,-0.8761160599514521,-0.3792434439635943,6.187378747647748e-08,-0.0033302754163742065,0.7232760190963745,0.379168838262558,0.2705978751182556,-0.653281569480896,-0.653281569480896,0.27059781551361084
4.527044332568457,0.4138828539517254,-1.5555434413401281,2.4339493813037785,-0.8784061118615961,-0.3715146155014625,-1.926872490139222e-08,0.0033456385135650635,0.7301649451255798,0.3780030608177185,0.2705978453159332,-0.653281569480896,-0.653281569480896,0.27059775590896606
4.8766372396100826,0.4107572243478939,-1.5478498014122741,2.4456446241797707,-0.8977943518789632,-0.37464021296597,-4.936483416161447e-07,0.0005494654178619385,0.7273174524307251,0.36896318197250366,0.27059781551361084,-0.6532815098762512,-0.6532816290855408,0.27059778571128845
5.141217813076906,0.4094005107244459,-1.539340666587663,2.4533298053287522,-0.9139882044533426,-0.375996902794267,-8.056395030995327e-07,-0.0007372647523880005,0.7260583639144897,0.3614829182624817,0.27059778571128845,-0.6532814502716064,-0.6532816886901855,0.2705978453159332
5.480924598799306,0.4168838736125386,-1.527092233645711,2.440805281572675,-0.9137125587076982,-0.36851355845069433,-2.9920497710259367e-07,0.006259649991989136,0.7330263257026672,0.36120906472206116,0.27059778571128845,-0.6532815098762512,-0.6532816290855408,0.2705978453159332
5.675227411088844,0.42234286265139565,-1.524585175710362,2.428136572571486,-0.9035510592808128,-0.36305456666232255,-9.862313214771448e-08,0.011479794979095459,0.7382646799087524,0.3656645119190216,0.2705977261066437,-0.653281569480896,-0.653281569480896,0.270597904920578
5.9308495931894525,0.42626984623181613,-1.5293465667492003,2.415380139043159,-0.8860331659606078,-0.3591275652005634,-1.33872044546788e-07,0.015300273895263672,0.7421179413795471,0.373831182718277,0.2705976963043213,-0.653281569480896,-0.653281569480896,0.2705978751182556
6.1884015585730925,0.4330021796577316,-1.5188867868434248,2.402103435201224,-0.8832165737629054,-0.35239528153541655,-3.2305109151812824e-08,0.022294282913208008,0.7490392923355103,0.37471094727516174,0.27059781551361084,-0.653281569480896,-0.653281569480896,0.27059781551361084
6.383392465383432,0.44787500701736843,-1.497092281101108,2.3731397420070834,-0.8760476378612756,-0.36157128953786905,4.5632577917413375e-08,0.02849799394607544,0.7558419108390808,0.3768618404865265,0.2784334123134613,-0.6499806642532349,-0.6499806046485901,0.2784333825111389
6.724256354097408,0.49561864860985755,-1.4294104288554201,2.280799871651902,-0.8513895909212676,-0.43281480585793136,4.136573306243519e-08,0.033073216676712036,0.7626632452011108,0.382272869348526,0.3165877163410187,-0.6322754621505737,-0.6322754621505737,0.3165875971317291
7.093943341639908,0.5473987676815311,-1.3560064267437657,2.180653143782564,-0.8246468338955995,-0.510081592284166,3.673814858664427e-08,0.03882196545600891,0.7703877687454224,0.3841019868850708,0.3566971719264984,-0.6105465292930603,-0.6105465888977051,0.356697142124176
7.434261130809038,0.5950665529811446,-1.2884321091191302,2.0884599853248442,-0.8000279642778072,-0.5812119151221395,3.247808300157885e-08,0.044763386249542236,0.7779660820960999,0.3821127414703369,0.3923126459121704,-0.5882948040962219,-0.5882947444915771,0.39231258630752563
8.010497337117323,0.6356372833251953,-1.2309186458587646,2.009993076324463,-0.7790744940387171,-0.6417519450187683,2.8852280564706234e-08,0.050238072872161865,0.7848830223083496,0.3776896595954895,0.42154017090797424,-0.5677180886268616,-0.5677180886268616,0.42154014110565186
8.169185415441323,0.665208224504835,-1.2358786276073943,1.9626821278736613,-0.8016276313294871,-0.6893583685159683,0.019246650792071628,0.04873344302177429,0.7843762636184692,0.38355329632759094,0.46394082903862,-0.5554569363594055,-0.5462955832481384,0.4216488003730774
8.329068765575219,0.6980678894445197,-1.240614308652756,1.916852287712497,-0.8238398696230507,-0.7373233735561371,0.03848521716573958,0.045333683490753174,0.7838488817214966,0.3886364698410034,0.5055542588233948,-0.5420811176300049,-0.5221880078315735,0.4217612147331238
8.488952115709115,0.7331807561629815,-1.2450815359909835,1.8722492536769066,-0.8459896927166306,-0.7852883785963058,0.05773667281084705,0.041201502084732056,0.7837672829627991,0.3930494785308838,0.5460147857666016,-0.5278339385986328,-0.49588143825531006,0.42114198207855225
8.64883546584301,0.7702620077278529,-1.248643997992003,1.8285609045016427,-0.868348702277085,-0.8332533836364746,0.07709449051953908,0.036888450384140015,0.7845918536186218,0.3966147005558014,0.5850836634635925,-0.51277756690979,-0.46762558817863464,0.4195980727672577
8.808718815976906,0.8096718416405686,-1.2507530504900377,1.7861242561722699,-0.8912631761844179,-0.8812183886766434,0.09658252659572308,0.03206944465637207,0.7865572571754456,0.39896899461746216,0.6225773692131042,-0.4967952370643616,-0.4375768005847931,0.41727495193481445
8.968602166110802,0.8507084643936658,-1.2517401854354486,1.744547380155713,-0.9144706934820243,-0.9291833937168121,0.11610140117382803,0.027307957410812378,0.7899793982505798,0.4006596803665161,0.658404529094696,-0.4800485074520111,-0.40611422061920166,0.4136764109134674
9.128485516244698,0.8925970280152278,-1.2520185732590057,1.7036064215221844,-0.9379134137145042,-0.9771483987569809,0.13567808971701398,0.023092806339263916,0.7951084971427917,0.4022173285484314,0.6924689412117004,-0.4628109335899353,-0.37359628081321716,0.4083118140697479
9.288368866378594,0.9347433261553323,-1.2521731035151824,1.6634135641307342,-0.9612453399131332,-1.0251134037971497,0.15524757459813468,0.01950126886367798,0.8018930554389954,0.4042859673500061,0.7246245741844177,-0.4453206956386566,-0.3403753638267517,0.40094059705734253
9.44825221651249,0.9772547679663327,-1.2524587639873026,1.6241745340802938,-0.9842451767092378,-1.0730784088373184,0.1747330603976843,0.01605716347694397,0.8102353811264038,0.407233864068985,0.7548260688781738,-0.42758581042289734,-0.30667051672935486,0.3916134536266327
9.608135566646386,1.0201219297310884,-1.2520755333659825,1.5861006745593986,-1.0073200709708847,-1.1210434138774872,0.19419780703224482,0.012600809335708618,0.8203155398368835,0.41050219535827637,0.782888650894165,-0.4097103774547577,-0.27270662784576416,0.3805966377258301
9.768018916780282,1.0625498060699916,-1.2509100862159401,1.549551235108158,-1.0303700430306295,-1.169008418917656,0.21352106412854852,0.009398996829986572,0.8319404721260071,0.41399186849594116,0.8085652589797974,-0.3920403718948364,-0.23887154459953308,0.3680582642555237
9.92790147218558,1.1028159856796265,-1.2493414878845215,1.514021873474121,-1.0531543493270874,-1.2169731855392456,0.2326110303401947,0.0077473074197769165,0.845210611820221,0.41835135221481323,0.8317458629608154,-0.37532633543014526,-0.20563827455043793,0.35361263155937195
10.110704246073633,1.1022344548739074,-1.206974660925393,1.4905471248627826,-0.9983135171606714,-1.2225873419771744,0.2111044321097354,0.009569928050041199,0.8419956564903259,0.40945398807525635,0.8208211064338684,-0.36646437644958496,-0.20877417922019958,0.38518816232681274
10.3364283313854,1.1015757799642834,-1.1589829883921983,1.4639557436096797,-0.936191787080676,-1.2289469267451543,0.18674250336357512,0.011901810765266418,0.8388731479644775,0.40066686272621155,0.8070279359817505,-0.35594505071640015,-0.21295374631881714,0.4203088879585266
10.60061821530838,1.100806598037261,-1.1029396707847468,1.4329030807928609,-0.8636477879777177,-1.2363734699388065,0.15829333211815125,0.015088394284248352,0.8361273407936096,0.39200714230537415,0.7890214323997498,-0.34308648109436035,-0.21865858137607574,0.46035340428352356
10.913455858819177,1.0998981892551465,-1.0367521537554258,1.3962296871263753,-0.777972860421971,-1.245144265014534,0.12469467867179987,0.01965266466140747,0.8344368934631348,0.383743554353714,0.765140175819397,-0.3272217810153961,-0.22650067508220673,0.5061459541320801
11.263752835084118,1.0988841113181382,-0.962865482857591,1.3552903213643694,-0.6823319380754959,-1.2549353083767667,0.0871877172201228,0.025982722640037537,0.8349353671073914,0.3765854239463806,0.735180139541626,-0.3088216185569763,-0.23659880459308624,0.555121898651123
11.78250685972235,1.098945291263078,-0.9003209284019227,1.3196894962251793,-0.6011228288353053,-1.2621018826496466,0.05568352793133535,0.03154885768890381,0.8384381532669067,0.3721517026424408,0.7073149681091309,-0.29293516278266907,-0.24622231721878052,0.5943643450737
12.12023051219056,1.1058980783749983,-0.8906969714203945,1.3070691689004295,-0.5867412865441101,-1.2547369128119028,0.05268719995760391,0.025158420205116272,0.8453409671783447,0.374178409576416,0.7040764093399048,-0.29129093885421753,-0.24802568554878235,0.5982551574707031
12.312671930957535,1.1128354205784834,-0.8810943930791116,1.2944768763474654,-0.5723916913843705,-1.2473883035045392,0.04969752802129342,0.01870909333229065,0.8522038459777832,0.37615105509757996,0.7008101940155029,-0.2897079885005951,-0.24977214634418488,0.6021196842193604
12.505173848438957,1.1197601085616897,-0.8715093305440278,1.281907553058393,-0.5580682709371843,-1.2400530985987737,0.046713309465562014,0.012198612093925476,0.8590285778045654,0.3780691623687744,0.6975160241127014,-0.2881857454776764,-0.25146275758743286,0.605959415435791
12.697721437979439,1.1266716787741011,-0.8619424254557048,1.2693620404453183,-0.5437719840369364,-1.2327317891258307,0.043734744059129325,0.005627691745758057,0.8658137321472168,0.3799322545528412,0.6941955089569092,-0.28672417998313904,-0.2530974745750427,0.6097733378410339
12.89012672143052,1.1335636407385552,-0.8524026618477387,1.2568521196752702,-0.5295162559575924,-1.2254312503384348,0.04076462889587607,-0.0009974092245101929,0.8725516200065613,0.3817373514175415,0.690852701663971,-0.28532445430755615,-0.2546749413013458,0.6135576963424683
13.082595837730864,1.1404434419714076,-0.8428797309654,1.2443642724148598,-0.5152856818306142,-1.2181435932084246,0.03779975444252703,-0.007683277130126953,0.8792487978935242,0.3834860324859619,0.6874854564666748,-0.2839849293231964,-0.2561970055103302,0.6173162460327148
13.275128861386278,1.1473111845335906,-0.8333734915372808,1.231898313408541,-0.5010800505473354,-1.21086870962438,0.03484007671556573,-0.014429971575737,0.8859041333198547,0.38517749309539795,0.6840945482254028,-0.2827053666114807,-0.2576639652252197,0.6210486888885498
13.467598368842104,1.154162565732493,-0.8238898992942163,1.2194620526738293,-0.486908262043099,-1.2036111573558388,0.031887449975452745,-0.021232977509498596,0.8925121426582336,0.3868098556995392,0.6806834936141968,-0.2814865708351135,-0.25907501578330994,0.6247523427009583
13.668449498805955,1.1609985098647373,-0.8144276748369111,1.2070538124769286,-0.472768404449938,-1.1963699573110158,0.028941475893319305,-0.02809278666973114,0.8990731835365295,0.3883827328681946,0.6772527694702148,-0.2803279161453247,-0.2604304254055023,0.6284273862838745
13.804285388880293,1.1633710339154415,-0.8039099822483433,1.2020010424684553,-0.4598785275769402,-1.1936005046904692,0.022894400189423892,-0.030611738562583923,0.9013627171516418,0.386800080537796,0.671772837638855,-0.2782532870769501,-0.26264166831970215,0.6342836618423462
14.15204551040708,1.158199090694438,-0.7915486471031096,1.2093749899699155,-0.44903571292939076,-1.1983874835226638,0.011564171290866298,-0.025704950094223022,0.8965098261833191,0.38011157512664795,0.6627103686332703,-0.27449512481689453,-0.2664974629878998,0.6437751650810242
14.607568763702806,1.1529203653335571,-0.7789320945739746,1.216901183128357,-0.4379690329181116,-1.2032732963562012,1.3666607401319197e-08,-0.020708754658699036,0.8916104435920715,0.37352967262268066,0.6532813906669617,-0.27059832215309143,-0.27059832215309143,0.6532813906669617
14.773390780589983,1.155010958482915,-0.7840627261394232,1.2178761578727255,-0.39636213622321076,-1.1535266912900484,0.008435629746350912,-0.042785465717315674,0.9027153253555298,0.3966509699821472,0.6320829391479492,-0.2887146770954132,-0.2832410931587219,0.6609760522842407
14.939214386934353,1.157084982455607,-0.7893086447175961,1.2188101111803173,-0.354565555998371,-1.1037796093867376,0.016914257227145065,-0.06375229358673096,0.9150846600532532,0.4193529784679413,0.6101440191268921,-0.3070829510688782,-0.29485979676246643,0.6681931614875793
15.105037993278723,1.1591507368388414,-0.794645656802581,1.21969976168391,-0.3126552329853802,-1.0540325274834266,0.0254185859174533,-0.08359619975090027,0.9286507368087769,0.4414350986480713,0.5875264406204224,-0.32565999031066895,-0.305441290140152,0.6748806238174438
15.270861599623093,1.1612210746702187,-0.8000230824447194,1.2205511089252823,-0.27075001732767495,-1.0042854455801158,0.03392156955663307,-0.10231325030326843,0.9433374404907227,0.46266356110572815,0.5643009543418884,-0.34439900517463684,-0.31498056650161743,0.6809852719306946
15.436685205967462,1.1633008038973405,-0.8054025915715475,1.221376870689949,-0.2288947561019439,-0.9545383636768048,0.0424132576612389,-0.11990325152873993,0.9590467214584351,0.4828558564186096,0.540511429309845,-0.3632615804672241,-0.323471337556839,0.6864798665046692
15.602508812311832,1.1653943360977732,-0.8107281309425881,1.2222010776545378,-0.1871183804717146,-0.9047912817734938,0.05088770262482172,-0.1363704353570938,0.9756715893745422,0.5018287897109985,0.5161853432655334,-0.38221219182014465,-0.3309047520160675,0.6913526654243469
15.768332418656202,1.167505568187491,-0.8159496093895742,1.2230444878267643,-0.14544552090695037,-0.8550441998701829,0.059339980589220874,-0.15172190964221954,0.9931002855300903,0.5194148421287537,0.49135249853134155,-0.40121695399284363,-0.3372720181941986,0.6955899000167847
15.934156025000572,1.169630369797796,-0.8210694557785372,1.2239202423840005,-0.10384544498162926,-0.805297117966872,0.06777811204846736,-0.16596613824367523,1.0112035274505615,0.5355246663093567,0.4660407602787018,-0.42024779319763184,-0.34256258606910706,0.699177086353302
16.09997963134494,1.1717590696340867,-0.8261216638391198,1.224839955202498,-0.062248472158191334,-0.7555500360635611,0.07621972829583845,-0.17911329865455627,1.0298376083374023,0.5501202940940857,0.4402729570865631,-0.43928036093711853,-0.34676387906074524,0.70210200548172
16.26580323768931,1.1738797813789161,-0.8311443109099838,1.2258237740674724,-0.020563440695612487,-0.7058029541602502,0.08468833413148916,-0.19117572903633118,1.0488497018814087,0.5631814002990723,0.4140595495700836,-0.4582914710044861,-0.34985822439193726,0.7043598890304565
16.43162684403368,1.1759845108514921,-0.8361780669772272,1.2268636564657796,0.02121535256485489,-0.6560558722569392,0.09318186605708342,-0.20216816663742065,1.0680911540985107,0.5746769905090332,0.38746339082717896,-0.47724783420562744,-0.35185039043426514,0.705909252166748
16.597450450378048,1.178068951019623,-0.8412480803842632,1.2279432911972397,0.0630090457495196,-0.6063087903536283,0.10167361702479169,-0.21210937201976776,1.0874143838882446,0.5845522284507751,0.3605860769748688,-0.4961084723472595,-0.3527701497077942,0.7066875100135803
16.763274056722416,1.180129490746787,-0.8463764931280316,1.2290452212602363,0.10472934514704656,-0.5565617084503174,0.11013429131244498,-0.22102110087871552,1.1066675186157227,0.5927692651748657,0.33353474736213684,-0.514832615852356,-0.35265836119651794,0.7066356539726257
16.929097663066788,1.1821679207241376,-0.8515721531524455,1.2301571677245433,0.14631377491018163,-0.5068146265470064,0.11854385796500404,-0.22893261909484863,1.1256976127624512,0.5993059873580933,0.30639970302581787,-0.5333830118179321,-0.3515520393848419,0.7057144641876221
17.094921252609513,1.1842151130354373,-0.8567752471212262,1.2312911725573097,0.18781044242712072,-0.45706754968418895,0.1269227730635155,-0.23590177297592163,1.1443601846694946,0.6041145920753479,0.27918845415115356,-0.5517318248748779,-0.34942883253097534,0.7039497494697571
17.26074477641445,1.186310304509768,-0.8619013586050189,1.2324652417311948,0.22932407580035744,-0.40732049254270697,0.13531178205078853,-0.241996169090271,1.1625165939331055,0.6071406006813049,0.25187236070632935,-0.5698569416999817,-0.34623315930366516,0.7013885974884033
17.426568336774523,1.188485227178887,-0.8668825301817715,1.2336935278968948,0.27093566727149065,-0.35757342443468554,0.14374269193997097,-0.24728015065193176,1.1800273656845093,0.6083422303199768,0.22444193065166473,-0.5877350568771362,-0.34191635251045227,0.69805908203125
17.592391889762116,1.1907305710322278,-0.871727902740598,1.2349508772218607,0.3126649516416156,-0.30782635853840756,0.15222327629982085,-0.2517787516117096,1.1967476606369019,0.6077638864517212,0.1969534456729889,-0.6053397059440613,-0.3364895284175873,0.6939365267753601
17.758215571597777,1.192984075677534,-0.8765445961122316,1.236164143207396,0.35445413329103787,-0.258079253987709,0.16073079182095207,-0.255459725856781,1.2125307321548462,0.6055748462677002,0.1695418804883957,-0.6226397752761841,-0.33005401492118835,0.6889408826828003
17.924039201791928,1.1951765709458362,-0.8814530590103894,1.2372560817232938,0.3962324259771932,-0.20833216492946327,0.16923729764678608,-0.2582777738571167,1.2272385358810425,0.6019873023033142,0.1423483043909073,-0.6396028995513916,-0.3227376639842987,0.6829972863197327
18.089862856771955,1.1972582087144341,-0.886555623396052,1.2381693981209845,0.43795577810032976,-0.1585850684354553,0.17772223861427808,-0.26020461320877075,1.2407398223876953,0.5972175002098083,0.1154874861240387,-0.6561986207962036,-0.31465592980384827,0.6760603189468384
18.255686345183456,1.199234653416531,-0.8919320248768199,1.2388904543010408,0.47968659109309186,-0.10883802191200494,0.1861914206278422,-0.26127976179122925,1.2528934478759766,0.5914739370346069,0.08901418745517731,-0.6723996996879578,-0.30585604906082153,0.6681370139122009
18.42151006735997,1.201139361457508,-0.8976319256983186,1.239434835011494,0.5215246798286639,-0.059090905259050315,0.19466169729126362,-0.26157793402671814,1.2635581493377686,0.5849310159683228,0.06295169144868851,-0.6881826519966125,-0.2963450253009796,0.659258246421814
18.587333872138164,1.2029992374418714,-0.9037067831154615,1.2398088879025924,0.5635583041767075,-0.009343763825592514,0.20314763744965073,-0.26116544008255005,1.272605538368225,0.5777729153633118,0.0373300239443779,-0.7035253047943115,-0.2861382067203522,0.6494486331939697
18.753157668668525,1.2048475261029779,-0.9101170480042173,1.2400390515557258,0.605812943831657,0.04040337513351632,0.2116583384907522,-0.26010626554489136,1.2799416780471802,0.5700682401657104,0.012166415341198444,-0.7184084057807922,-0.27523407340049744,0.6387389898300171
18.9189813943487,1.2067371659274,-0.9166018970183019,1.240210007741243,0.6481714969422583,0.09015049283756928,0.2201910506569751,-0.25846606492996216,1.2855392694473267,0.5615937113761902,-0.01255473680794239,-0.7328159213066101,-0.26357927918434143,0.627175509929657
19.084804968497153,1.2087239889506751,-0.9228524662871972,1.24041990513164,0.6904842282221477,0.13989756508210466,0.2287400025691841,-0.2563105821609497,1.2893928289413452,0.552061140537262,-0.036849331110715866,-0.7467339634895325,-0.25110194087028503,0.6147993803024292
19.250628521859927,1.2108479775995857,-0.9286154574086434,1.2407486777044878,0.7326224046310874,0.18964463109093718,0.23729883974443225,-0.25369083881378174,1.2914927005767822,0.5412586331367493,-0.060712527483701706,-0.7601485848426819,-0.2377462238073349,0.601635217666626
19.41645210730989,1.2130742849308387,-0.93389903722034,1.2411865802626936,0.7745575921951584,0.23939170672592647,0.24585938393241458,-0.2505826950073242,1.2917999029159546,0.5293370485305786,-0.08408035337924957,-0.7730424404144287,-0.22356784343719482,0.5876676440238953
19.582275612484928,1.2152917691902567,-0.93898196220673,1.2416305640998333,0.8163662219579768,0.2891387582784379,0.25441177131627113,-0.24687959253787994,1.2902531623840332,0.5168259739875793,-0.10684164613485336,-0.7853947877883911,-0.20874826610088348,0.5728560090065002
19.748099119697514,1.21738605206777,-0.9441657192477452,1.2419709949372828,0.8581367702285093,0.33888581044221383,0.26294684903679516,-0.24246621131896973,1.2868108749389648,0.5042927265167236,-0.1288965940475464,-0.7971853017807007,-0.19348637759685516,0.5571752190589905
19.913922628986857,1.2192771812144825,-0.9496757110465404,1.2421376115469291,0.8999390864850884,0.38863286322901686,0.2714577460223096,-0.23726370930671692,1.281455159187317,0.49219489097595215,-0.15017656981945038,-0.8083971738815308,-0.17794100940227509,0.5406274199485779
20.079746183609803,1.2209891123817633,-0.9555201952957,1.242188915501557,0.9417928529393449,0.4383799296159012,0.27994347301046235,-0.23132173717021942,1.2741698026657104,0.4806591868400574,-0.17066708207130432,-0.8190200924873352,-0.16212426126003265,0.5232537388801575
20.24556978995417,1.222632088583184,-0.9615256836073425,1.2422925322070122,0.9836753788068403,0.488127011519212,0.2884077942975232,-0.22479936480522156,1.2649301290512085,0.46953433752059937,-0.1903834342956543,-0.8290491104125977,-0.1459181159734726,0.5051133036613464
20.41139345958263,1.224324297549934,-0.9674982554431126,1.2426265359105575,1.0255579979776697,0.5378741124077502,0.2968548026934416,-0.21786656975746155,1.2537115812301636,0.45864081382751465,-0.2093292772769928,-0.8384801745414734,-0.12918518483638763,0.4862542748451233
20.57721725085191,1.2261679898332571,-0.9732658252571976,1.24334464761561,1.0674135644075613,0.5876212497885341,0.3052879271836465,-0.2106683850288391,1.2405006885528564,0.4478439688682556,-0.22748710215091705,-0.8473082780838013,-0.11180680245161057,0.4667092263698578
20.743041006351575,1.2282162264407777,-0.9787113928363783,1.2445165218188428,1.1092140675632476,0.6373683764384344,0.313709960361173,-0.20327481627464294,1.225329041481018,0.43712908029556274,-0.2448129951953888,-0.8555254936218262,-0.0937347337603569,0.44649356603622437
20.908864634566807,1.2304265015497307,-0.9838212999355705,1.2460445476841187,1.15092795092333,0.6871154649030036,0.3221228274972212,-0.1956120729446411,1.2083231210708618,0.4266994893550873,-0.26123717427253723,-0.8631206750869751,-0.07506532222032547,0.4256090521812439
21.074688408482857,1.2327312858500479,-0.9886057828806861,1.2477866634428225,1.1925216073948748,0.7368625970778188,0.3305282427470134,-0.18756598234176636,1.1896530389785767,0.41680556535720825,-0.2766942083835602,-0.8700829148292542,-0.05593595653772354,0.4040633738040924
21.240511827070648,1.2350605188647603,-0.9930676114450703,1.249596674414354,1.2339556165638723,0.7866096226541561,0.33892769289543184,-0.1790178418159485,1.169517159461975,0.40768060088157654,-0.29113101959228516,-0.8764035105705261,-0.03648906573653221,0.38187435269355774
21.406335431729055,1.237349445393339,-0.9972305870606794,1.251337933516645,1.2752053033853268,0.8363567040516782,0.34732322240360547,-0.1698610484600067,1.1481188535690308,0.3995608687400818,-0.3045059144496918,-0.8820770382881165,-0.01686680316925049,0.35907045006752014
21.572159038073423,1.239592028190995,-1.0012572474664434,1.2529894739367613,1.3163555820181192,0.886103785954989,0.35571815099372744,-0.16010120511054993,1.1255455017089844,0.3927578032016754,-0.31677815318107605,-0.8871059417724609,0.002838911721482873,0.33568820357322693
21.737982827828933,1.2417941438574878,-1.0053306669372426,1.2545531204283924,1.3575095792135605,0.9358509228816417,0.3641159936505231,-0.14976346492767334,1.1018723249435425,0.3875759243965149,-0.32791274785995483,-0.8914961218833923,0.022545896470546722,0.31176841259002686
21.903806638409236,1.2439614521694629,-1.0096618929921382,1.256030025182095,1.3987858353094291,0.9855980660557324,0.3725208990985961,-0.13887646794319153,1.0771729946136475,0.3843315541744232,-0.33788001537323,-0.8952578902244568,0.04216490685939789,0.28735437989234924
22.069629857106534,1.2461059703735888,-1.0144369620341718,1.257429369052831,1.4402932717304544,1.0353450316649218,0.3809372261287911,-0.12747426331043243,1.0515294075012207,0.38328883051872253,-0.346657931804657,-0.8984039425849915,0.0616179034113884,0.2624915540218353
22.235453519252534,1.2482725216751727,-1.0195493676487928,1.2588147885418235,1.4820033908788908,1.085092130308722,0.389366932936883,-0.11560367047786713,1.025086522102356,0.3843606412410736,-0.3542361855506897,-0.9009402990341187,0.0809316411614418,0.23721979558467865
22.40127759996935,1.2505287836296106,-1.024692989347998,1.2602900074043613,1.523793655726249,1.1348393545237672,0.39780983505410394,-0.10331690311431885,0.9980365633964539,0.3872319459915161,-0.3605993092060089,-0.9028648138046265,0.10020551085472107,0.21157056093215942
22.567101470868238,1.252952452236443,-1.0295272925446215,1.2619693705148163,1.5655296243576813,1.1845865157934337,0.4062665648891095,-0.09066693484783173,0.9705885052680969,0.3915591537952423,-0.36571478843688965,-0.9041702747344971,0.11955517530441284,0.1855676770210266
22.732925077212606,1.255535178628717,-1.0339558261351434,1.263809263704117,1.607156292623819,1.2343335976967444,0.4147393725948674,-0.07760989665985107,0.9429938793182373,0.3973149359226227,-0.3695550262928009,-0.904857873916626,0.13892973959445953,0.15924738347530365
22.898748961968153,1.2580533429924663,-1.0384350348001976,1.265346039902204,1.6487865179833485,1.284080763123408,0.42323710875552545,-0.06388232111930847,0.9156016707420349,0.40515241026878357,-0.37216442823410034,-0.904965341091156,0.15787115693092346,0.1326952427625656
23.064572687265645,1.2600763674001032,-1.0439067794570953,1.265762037303553,1.6906662252830928,1.333827880712656,0.4317672407498325,-0.04905465990304947,0.8887930512428284,0.41623327136039734,-0.37371546030044556,-0.9045775532722473,0.17557699978351593,0.10606004297733307
23.230397088338613,1.2614678144454956,-1.0506725311279297,1.2648032903671265,1.7328743934631348,1.383575201034546,0.44033148884773254,-0.03306254744529724,0.8627157807350159,0.43080615997314453,-0.3743473291397095,-0.9037531614303589,0.191789448261261,0.07944191247224808
23.371928625653926,1.2692027973304985,-1.083441206577322,1.2944083439526846,1.6904149322685411,1.4062796337042067,0.4524005748478755,-0.030948560684919357,0.8530278205871582,0.43023520708084106,-0.37445494532585144,-0.9090237021446228,0.16962416470050812,0.0684620812535286
23.570500587027016,1.2772879435018065,-1.117693322553191,1.3253536206530028,1.6460333279111667,1.4300118978345824,0.46501602932476066,-0.028399433940649033,0.8434383273124695,0.42988789081573486,-0.37484076619148254,-0.9137118458747864,0.14607539772987366,0.057331159710884094
23.76890435154313,1.2857198150041174,-1.153414314415488,1.3576259619579123,1.599748452278889,1.454761902023295,0.47817248795130135,-0.025406144559383392,0.8339806199073792,0.4298418462276459,-0.375537633895874,-0.9176983833312988,0.12113315612077713,0.04612891003489494
23.96742762337202,1.2944953570969848,-1.1905912409851898,1.3912136760827074,1.5515770736872105,1.480520679715433,0.4918651843400732,-0.021966224536299706,0.8246757388114929,0.43018075823783875,-0.37657812237739563,-0.9208593368530273,0.09479400515556335,0.03494242951273918
24.165850088845435,1.3035657923728483,-1.229017460429808,1.4259300712420193,1.501786944822116,1.5071450549812975,0.5060180098900013,-0.018104614689946175,0.8155727386474609,0.43098825216293335,-0.3779861330986023,-0.9230589866638184,0.06720326840877533,0.02392091229557991
24.364359893749896,1.3128754423228373,-1.2684570949182206,1.4615620422146494,1.4506837004240953,1.5344715951443606,0.5205440880401537,-0.013861635699868202,0.8067019581794739,0.4323379695415497,-0.3797762989997864,-0.9241804480552673,0.03854437172412872,0.013216240331530571
24.577105388194177,1.3223287832378015,-1.3085054654137163,1.4977439793321423,1.3987916965624698,1.562219910234145,0.5352943707734978,-0.009308051317930222,0.7981030344963074,0.4342796802520752,-0.38194382190704346,-0.9241353273391724,0.009141170419752598,0.003012510947883129
24.769558853229363,1.3269128453844303,-1.3282165448940186,1.5183594523089858,1.380653419323969,1.5707963705062866,0.5415155904649509,-0.010729351080954075,0.7892731428146362,0.4350382089614868,0.38268381357192993,0.9238792657852173,4.333156766733737e-08,1.6018514514826165e-08
25.02177075688405,1.3293091603336347,-1.3387879324849503,1.5319574558729026,1.3776267402544202,1.5707963705062866,0.5439118717654434,-0.014839214272797108,0.7802371978759766,0.4350152015686035,0.3826838433742523,0.9238792657852173,-2.4255692565589015e-08,2.737398574481631e-08
25.256318871515422,1.3394926469047235,-1.3423174837601901,1.5364751216212518,1.3766386402769302,1.5707963705062866,0.5540953392258938,-0.023494742810726166,0.7770274877548218,0.43500301241874695,0.38268378376960754,0.9238793253898621,4.438049572286218e-08,1.4465135755870051e-08
25.45485721214357,1.351587530421089,-1.3441366664238719,1.538787246043851,1.3761457319355268,1.5707963705062866,0.5661902071459424,-0.03323814272880554,0.7751275300979614,0.43500444293022156,0.3826838433742523,0.9238793849945068,3.8704012439438884e-08,1.5036167866355754e-08
25.653382439749866,1.363702808756356,-1.3459589166574828,1.5411032692521487,1.3756519924347046,1.5707963705062866,0.5783054698585931,-0.04295545443892479,0.7731015682220459,0.43500304222106934,0.38268381357192993,0.9238793253898621,5.015025550392238e-08,1.1963193990993659e-08
25.850637324737935,1.3754003350449693,-1.348498924157442,1.5443214152000009,1.3749738635692714,1.570796363088171,0.5900029837277402,-0.05242884159088135,0.7703577280044556,0.4350036084651947,0.38268378376960754,0.9238793253898621,-1.585017628258356e-08,2.6916962880818573e-08
26.04926764278355,1.3857277835186794,-1.353307336955619,1.5503905392589346,1.3737130860285471,1.5707963321545901,0.6003304299950474,-0.061159081757068634,0.7656229734420776,0.435006707906723,0.3826838433742523,0.9238793849945068,3.934961867457787e-08,1.4139382109590315e-08
26.234723924919546,1.3913872834645007,-1.3610041830755693,1.5600273311706665,1.3717731032018998,1.5707963302960164,0.6059899463345945,-0.06669775396585464,0.7586110830307007,0.43502745032310486,0.38268381357192993,0.9238792657852173,4.408443388115302e-08,1.129135718258567e-08
26.52464740492139,1.391135841517064,-1.372342258790516,1.5741614226280627,1.3689770874594505,1.570796365205886,0.6057385442770672,-0.06828969717025757,0.7488123178482056,0.43501195311546326,0.38268381357192993,0.9238793253898621,4.5483286470471285e-08,1.2366871970925786e-08
26.78867149593774,1.4020135603608732,-1.3749124681386913,1.5773555697792871,1.3683531999758356,1.5707963705062866,0.6166162188579671,-0.07681118696928024,0.7457934617996216,0.43500038981437683,0.38268378376960754,0.9238793253898621,-1.8999326556468077e-08,2.703648682711446e-08
27.12208080115324,1.4148969779251666,-1.3759141857463144,1.578592646779749,1.368117899972195,1.5707963705062866,0.6294995770330624,-0.0865497961640358,0.7438712120056152,0.4350002408027649,0.38268378376960754,0.9238793253898621,-7.2346826307523315e-09,2.6612195114239512e-08
27.389403811575153,1.4171951565750036,-1.3665511530815764,1.5669432197570452,1.3704042396847715,1.5707963705062866,0.6317978081929223,-0.08699779212474823,0.7518174648284912,0.43503257632255554,0.38268372416496277,0.9238793253898621,3.654787406048854e-08,1.4172850448801455e-08
27.60175280443407,1.4209867715315132,-1.358550183582204,1.5569913181269663,1.3723551274606078,1.5707963705062866,0.6355894820903265,-0.08879858255386353,0.7584328651428223,0.43500015139579773,0.38268381357192993,0.9238792657852173,3.650706048574648e-08,1.6073615327627522e-08
27.90919978527642,1.4337845816046821,-1.3591702946349589,1.5577685067305445,1.3721980881046247,1.5707963705062866,0.6483873125323886,-0.09857181459665298,0.7566943168640137,0.4350004196166992,0.38268381357192993,0.9238792657852173,3.104969792389056e-08,1.6144275249985185e-08
28.10774926452256,1.4465919365640774,-1.3597908681800785,1.558546274978355,1.3720409316252604,1.5707963705062866,0.6611946878758684,-0.10832234472036362,0.7548283338546753,0.4350002706050873,0.38268381357192993,0.9238793253898621,-2.4889473593248113e-08,2.7319202899889206e-08
28.304760161622532,1.4590694004767069,-1.361026756499405,1.5600911210469457,1.3717319949358695,1.5707963653617905,0.6736721575080615,-0.1178530678153038,0.7523386478424072,0.435001939535141,0.3826838433742523,0.9238792657852173,-1.9224520642069365e-08,2.9736954232362223e-08
28.526163707254018,1.4698070091022495,-1.3654707544268379,1.5656353280626012,1.3706317173372111,1.5707963333872257,0.6844096953425152,-0.12631841003894806,0.7471423149108887,0.4350054860115051,0.38268375396728516,0.9238793253898621,4.3663799687010396e-08,1.0802814642829617e-08
28.621243567495444,1.4730625793453291,-1.3646689423401628,1.5645999113265883,1.3708652980869451,1.570796322233021,0.6876652251140204,-0.12868079543113708,0.7474340200424194,0.4350312650203705,0.3826836943626404,0.9238793253898621,4.6612989024197304e-08,7.178595051726688e-09
28.998833038256542,1.4660229263920417,-1.3566489388756449,1.554510986494397,1.3729342569391527,1.5707963397274602,0.6806255734085606,-0.12267773598432541,0.7553417086601257,0.4350670278072357,0.3826836943626404,0.9238793253898621,4.0115445187893783e-08,1.108509728453555e-08
29.19731136445798,1.4589956695785435,-1.348643057852207,1.544439827271302,1.3749995725573372,1.5707963571910935,0.6735983178406928,-0.11658225208520889,0.76317298412323,0.4350493848323822,0.3826836943626404,0.9238793253898621,4.395419139768819e-08,9.063989558910635e-09
29.420032049314646,1.455906935973995,-1.340178020464699,1.533733046950578,1.3772413440204074,1.5707963705062866,0.6705095935327607,-0.11337310075759888,0.7709071636199951,0.4350143373012543,0.3826836943626404,0.9238793253898621,-1.691685369564766e-08,2.610208404973946e-08
29.684033235664163,1.46545692330332,-1.3302420487432711,1.520989730794488,1.3800486884550696,1.5707963705062866,0.6800596159898973,-0.1198132187128067,0.7784598469734192,0.43502315878868103,0.38268375396728516,0.9238793253898621,-1.429687568332838e-08,2.9128850442816656e-08
29.847334475575504,1.4646151940672918,-1.3228344858797476,1.5114370784221944,1.3821937779638398,1.5707963598883095,0.6792179135017972,-0.11847005039453506,0.7850143909454346,0.43501409888267517,0.38268381357192993,0.9238792657852173,-1.0754092727438547e-08,2.4863783920636706e-08
30.089171887867202,1.4549368523741733,-1.317566227563841,1.5045837803459001,1.3837788177242274,1.5707963402275622,0.669539591469426,-0.11033345758914948,0.7907082438468933,0.4350226819515228,0.3826838433742523,0.9238793849945068,-1.3187233527389708e-08,2.6053653456870052e-08
30.35661919046893,1.445292687338002,-1.3123165727921033,1.4977546829875323,1.3853582603108576,1.5707963206362419,0.6598954460245751,-0.10212806612253189,0.7962905168533325,0.4350084960460663,0.38268381357192993,0.9238792657852173,-2.3484545863539097e-08,2.7783178424556354e-08
30.572454222071098,1.435505425332389,-1.3175059112825582,1.5045115989828328,1.383790682806012,1.5707963430541576,0.6501081616010461,-0.09494198113679886,0.7927542924880981,0.4350181519985199,0.3826838433742523,0.9238792657852173,-2.5364395028759645e-08,3.0154176045016357e-08
30.778483080525767,1.4254008223132715,-1.322841959402657,1.5114626937188216,1.382175614253209,1.5707963705062866,0.640003553066713,-0.08760427683591843,0.7890467047691345,0.43500277400016785,0.38268381357192993,0.9238792657852173,3.227625100521436e-08,1.4706932560670793e-08
31.0272246232525,1.414729777932468,-1.3189287239189202,1.5063832687352339,1.3833417335894416,1.5707963705062866,0.6293325788495275,-0.07864680141210556,0.7933223247528076,0.4350031316280365,0.3826838433742523,0.9238793849945068,-2.3527265469169834e-08,2.667143306211983e-08
31.221659612496246,1.4065056083653829,-1.312441265010517,1.497814418055364,1.38542309825215,1.5707963705062866,0.6211084233645685,-0.07118874043226242,0.7995579838752747,0.43508240580558777,0.38268381357192993,0.9238792657852173,3.954402671979551e-08,1.3677540877665706e-08
31.42020752712046,1.3998235932063667,-1.3043348359808438,1.487050960732318,1.388080126545523,1.5707963705062866,0.614426386981756,-0.06463604420423508,0.8070150017738342,0.43517324328422546,0.3826838731765747,0.9238792657852173,2.7809278435597662e-08,1.4462453457042557e-08
31.618739851404776,1.3931473097461735,-1.2962353604836936,1.4762967360874684,1.3907348756932223,1.5707963705062866,0.6077500823159717,-0.05799625813961029,0.8143939971923828,0.43521031737327576,0.38268381357192993,0.9238793253898621,-2.0957156010581457e-08,2.5219923927011223e-08
31.817253754128565,1.3864769965791073,-1.288143127974829,1.465552128450924,1.393387250820902,1.5707963705062866,0.6010797479622778,-0.051270563155412674,0.8216935992240906,0.43519410490989685,0.3826838433742523,0.9238792657852173,9.988347926537244e-08,1.6612161646278878e-09
32.0157887978748,1.3798110898992972,-1.2800562412898455,1.4548146188284363,1.3960378737584063,1.5707963705062866,0.594413820109836,-0.04445863142609596,0.8289139270782471,0.43512433767318726,0.38268381357192993,0.9238792657852173,2.1187855026028046e-08,2.1115935666671248e-08
32.35664487433144,1.3731496631482072,-1.2719747895258195,1.444084325520255,1.3986867153025617,1.5707963705062866,0.5877523722003435,-0.037561651319265366,0.8360542058944702,0.43500182032585144,0.38268381357192993,0.9238792657852173,2.9254312750026656e-08,1.5949673581872048e-08
32.692507184612616,1.384325428285859,-1.2652891148855714,1.4349380623693242,1.4011473331399085,1.5707963705062866,0.5989281517657195,-0.045826107263565063,0.8412883281707764,0.4350535571575165,0.38268381357192993,0.9238792657852173,-1.7122834705673995e-08,2.3854212827245647e-08
32.890984132456644,1.3956468005153817,-1.258651552843308,1.4258539721167245,1.403593890863113,1.5707963705062866,0.6102495387516761,-0.05434562638401985,0.8463775515556335,0.4350721836090088,0.38268381357192993,0.9238792657852173,-1.3768026718707915e-08,2.975921020720307e-08
33.089591931122406,1.406913178869447,-1.252046232940327,1.4168140080811473,1.4060285643652175,1.5707963705062866,0.6215159317904956,-0.062946617603302,0.8513409495353699,0.4350554645061493,0.3826838433742523,0.9238792657852173,3.4366529177987104e-08,1.189515685950937e-08
33.36585873638257,1.4181206938220097,-1.2454754238255767,1.4078212751091714,1.4084505174385045,1.5707963705062866,0.6327234613510891,-0.07162312418222427,0.8561763763427734,0.4350040853023529,0.38268381357192993,0.9238792657852173,-2.7329219776106584e-08,2.9029106229927493e-08
33.633749400322806,1.427177753634785,-1.250305082765558,1.4144810908387584,1.4066203624330862,1.5707963405240724,0.6417805199174134,-0.079970583319664,0.8513708114624023,0.4350092113018036,0.38268381357192993,0.9238793253898621,-2.988559089089904e-08,3.24292663833603e-08
33.85038350481109,1.4338725563026053,-1.2571045067680104,1.4237945770562142,1.4041062921124192,1.5707963186530174,0.6484753210252348,-0.08646982163190842,0.8450007438659668,0.4350298345088959,0.38268381357192993,0.9238792657852173,-2.3615900346385388e-08,2.737256643570163e-08
34.08667074353735,1.4314885034276066,-1.2689116420578659,1.4397762994868653,1.3999316637838466,1.5707963378758003,0.6460912695213415,-0.0858728215098381,0.8350930213928223,0.4351143538951874,0.3826838433742523,0.9238792657852173,-2.449834113349425e-08,2.9315176064415027e-08
34.28519416437785,1.4291145025217786,-1.280668994492159,1.4556906375977916,1.395774637093098,1.5707963570175336,0.6437172699808381,-0.08533253520727158,0.8251816034317017,0.435086727142334,0.3826838731765747,0.9238792657852173,3.2287704954114815e-08,1.4298879413843224e-08
34.513288745942816,1.4307877146673413,-1.289526942937482,1.467668345343502,1.3926548698363463,1.5707963705062866,0.6453904823912613,-0.08779118955135345,0.8173878192901611,0.43500062823295593,0.3826838433742523,0.9238792657852173,2.4073509408140126e-08,1.769095803183518e-08
34.79034896250646,1.4422000090702891,-1.2914805532336302,1.4702714176143612,1.3920054792980707,1.5707963705062866,0.6568027744161519,-0.0973319411277771,0.814644455909729,0.4350006580352783,0.38268381357192993,0.9238793253898621,-2.51146090590737e-08,2.945167665302506e-08
34.986231972089215,1.454251344759372,-1.2909922277280552,1.4696202772087044,1.3921683210256375,1.5707963536865288,0.6688541092121709,-0.10709259659051895,0.8138351440429688,0.43500134348869324,0.3826838433742523,0.9238792657852173,3.645466151169785e-08,1.1851200909518411e-08
35.1847608132271,1.46667077516535,-1.2890378929069022,1.467015479837594,1.3928187835755945,1.5707963267866276,0.6812735396181491,-0.11701448261737823,0.8141358494758606,0.4350009858608246,0.3826838433742523,0.9238792657852173,-3.170020335119261e-08,3.2395217175462676e-08
35.368577179124756,1.4766990662844053,-1.291954045680799,1.4708486203290472,1.3919017802991922,1.570796314870016,0.6913018151783581,-0.1254110336303711,0.810398519039154,0.4350387752056122,0.38268381357192993,0.9238793253898621,-4.709817424952689e-09,2.2353804141062028e-08
35.567116302063866,1.484831455132577,-1.298748702854061,1.479808453913699,1.3897365759345326,1.570796314870016,0.69943417607326,-0.1325054168701172,0.8034549951553345,0.43507954478263855,0.38268381357192993,0.9238793253898621,4.150614785203288e-08,9.471953887896234e-09
35.76561467032711,1.4929791184799461,-1.3055561219583471,1.4887851161293295,1.387567304817416,1.570796314870016,0.707581811414857,-0.13950930535793304,0.7964229583740234,0.43508240580558777,0.38268375396728516,0.9238793253898621,4.04730684522292e-08,1.035586638664654e-08
35.96420585419814,1.5011475061077566,-1.312380856316907,1.4977846112551148,1.3853925159731832,1.570796314870016,0.7157501709656598,-0.14642570912837982,0.7892984747886658,0.43504735827445984,0.38268381357192993,0.9238793253898621,4.120479601965599e-08,6.548595887778674e-09
36.169381989426306,1.5038788267265362,-1.3200395013778388,1.5077970922103692,1.3830386752470194,1.5707963217691938,0.718481494635973,-0.14902950823307037,0.7822033762931824,0.4350244700908661,0.38268378376960754,0.9238793253898621,3.2699848162565104e-08,1.298931806559267e-08
36.43874550750034,1.4940033252848908,-1.3296357700052854,1.5201636403454506,1.3802684448090936,1.5707963446705604,0.7086060684323798,-0.14194229245185852,0.775259256362915,0.4350557029247284,0.38268381357192993,0.9238792657852173,-1.1482020667585857e-08,2.679257526949641e-08
36.73149371086901,1.4840752841191924,-1.3392830927800685,1.532595981091707,1.377483476168391,1.5707963676937668,0.6986781029050156,-0.1349724382162094,0.7681901454925537,0.43501076102256775,0.38268381357192993,0.9238792657852173,-7.653086164793876e-09,2.4161886713613967e-08
36.99443375445462,1.4896624372621448,-1.3469691435983366,1.542360709593158,1.3754048045114653,1.5707963444628301,0.7042651797271754,-0.13980905711650848,0.7606993317604065,0.435019850730896,0.3826838731765747,0.9238792657852173,-1.1489562190547531e-08,2.9681643809453817e-08
37.22493437737017,1.4974215547972356,-1.3543643166949142,1.55173146500648,1.373429222194721,1.5707963149421127,0.7120242000458874,-0.1461837887763977,0.7531074285507202,0.43499988317489624,0.38268378376960754,0.9238793253898621,-1.3772020857061307e-08,2.810214816406642e-08
37.455741976916535,1.5102688647389169,-1.35466397352309,1.5521085770630254,1.373351766966351,1.5707963435185528,0.7248715120258434,-0.15586277842521667,0.7509043216705322,0.4350000321865082,0.3826838433742523,0.9238793849945068,-1.726117027089913e-08,3.0547099072464334e-08
37.654272606193764,1.5231174757760875,-1.3549726161367548,1.5524969742925747,1.3732720099528228,1.5707963705062866,0.7377201249081556,-0.1655106544494629,0.7485688328742981,0.4350000321865082,0.38268381357192993,0.9238792657852173,-6.857800372017664e-08,4.679085918724013e-08
37.85281852778767,1.5359217525098932,-1.3554315213637058,1.5530740810808805,1.3731537654870902,1.5707963705062866,0.7505244002137117,-0.17509585618972778,0.745985209941864,0.43500030040740967,0.3826836943626404,0.9238793253898621,-1.8119099109981107e-08,3.023914985078591e-08
38.0513554528055,1.5487319363208094,-1.355890638300277,1.5536514541094724,1.3730354664708981,1.5707963705062866,0.7633345825957194,-0.18464629352092743,0.7432775497436523,0.43500015139579773,0.38268381357192993,0.9238792657852173,4.393831076754395e-08,5.985240747463649e-09
38.25354744532849,1.5543461633783284,-1.3578581825789855,1.5561100131955992,1.3725444333785735,1.5707963645799035,0.7689488149709329,-0.1888447403907776,0.7405017018318176,0.4350094497203827,0.3826836943626404,0.9238793253898621,3.6698580174743256e-08,9.14634235016365e-09
38.652000223819925,1.5412970942043223,-1.3637360754990604,1.563445233430785,1.3710871516819223,1.5707963432892726,0.7558997686061565,-0.1793183982372284,0.7377399206161499,0.4350247085094452,0.38268381357192993,0.9238792657852173,-1.9941408524459803e-08,3.0295250752487846e-08
38.85201826244288,1.5281416023059682,-1.3696619060436228,1.5708402766396024,1.369617985008172,1.5707963218250043,0.7427442997030549,-0.16982021927833557,0.7348244786262512,0.4350108802318573,0.38268381357192993,0.9238792657852173,4.6350955074103695e-08,9.147826496302969e-09
39.03790068398493,1.5159566992154943,-1.3694829076626391,1.5706296319037318,1.3696496962045341,1.5707963381772485,0.7305593790939784,-0.16084548830986023,0.7369946837425232,0.43500253558158875,0.38268381357192993,0.9238792657852173,-1.2451227604515225e-08,2.8125393569666812e-08
39.358911906987785,1.5047936901491488,-1.3672987331242712,1.5679126369031524,1.3701825804012098,1.5707963705062866,0.719396327273702,-0.1524818390607834,0.7406618595123291,0.4350045919418335,0.38268381357192993,0.9238793253898621,-7.018079628551277e-08,4.5660375036504774e-08
39.707765359733344,1.501994281451684,-1.3789826253036401,1.5823495773110507,1.3674294432686949,1.5707963705062866,0.7165967881797956,-0.15111440420150757,0.7308321595191956,0.43501704931259155,0.3826836943626404,0.9238794445991516,-2.3439778118472532e-08,3.017369110125401e-08
39.90490114719057,1.5018642513635112,-1.3902149320239654,1.5960654400029552,1.3649458625272965,1.5707963472807396,0.7164668445156396,-0.15170003473758698,0.7209928035736084,0.435037225484848,0.38268381357192993,0.9238793253898621,-6.7803971326441115e-09,2.5683684512500804e-08
40.26487910758329,1.502763695982659,-1.4012545472361322,1.6094805945143764,1.3625703232280424,1.5707963151382758,0.7173664590176214,-0.15300975739955902,0.7111520767211914,0.4350006580352783,0.38268381357192993,0.9238792657852173,-1.3819743571730214e-08,2.6756804771821407e-08
40.620709855439195,1.4894173110243736,-1.4008567634259241,1.609002227058955,1.3626508684902976,1.5707963327837595,0.7040199807975128,-0.14347662031650543,0.71347975730896,0.43500015139579773,0.38268381357192993,0.9238793253898621,-1.86891568887404e-08,2.7759394782833624e-08
40.81923793289257,1.475958443581249,-1.4003629920583252,1.6084072565455052,1.3627520289514596,1.570796350838324,0.6905610179304462,-0.13382013142108917,0.7157788276672363,0.43500015139579773,0.3826836943626404,0.9238793253898621,-2.282653710494742e-08,2.889447259235567e-08
41.01776878568722,1.4625069986403425,-1.3998694930033178,1.6078126141555011,1.362853133623102,1.5707963688829316,0.6771094776182236,-0.12413305789232254,0.7179460525512695,0.4350000321865082,0.3826836943626404,0.9238794445991516,-1.0665603511483823e-08,2.4295031764154373e-08
41.21628389913035,1.4488970479098666,-1.3998310570901973,1.607766308103847,1.3628610617365413,1.5707963705062866,0.6634995797610099,-0.11434648931026459,0.7196024656295776,0.43500015139579773,0.38268375396728516,0.9238793253898621,4.41795577899029e-08,1.0030364094859578e-08
41.414296210141906,1.4354312679404915,-1.3994893239845743,1.607353400621228,1.3629322938696329,1.5707963660739124,0.6500338667286274,-0.10460584610700607,0.721375048160553,0.43500062823295593,0.3826838433742523,0.9238793849945068,-7.994302819724908e-08,4.347188564679527e-08
41.612816352726945,1.4229171218006818,-1.3970904752589923,1.6044550131131008,1.3634318326521782,1.5707963354620191,0.6375197839960615,-0.09525929391384125,0.72471684217453,0.43500185012817383,0.38268375396728516,0.9238793253898621,-2.0348295493022306e-08,2.7823821469041832e-08
41.77479797805159,1.4179801962453988,-1.3971017882325214,1.604453240431283,1.363444908834248,1.570796314870016,0.632582901093553,-0.09168143570423126,0.7251707911491394,0.43501290678977966,0.38268381357192993,0.9238793253898621,-1.5431250943720443e-08,2.4211232130255667e-08
42.2204221368478,1.4286504027709848,-1.4020826349705606,1.6104239728192284,1.3624549941469215,1.570796314870016,0.643253107619139,-0.10003422945737839,0.7198159098625183,0.43503865599632263,0.38268381357192993,0.9238792657852173,5.392807267412536e-08,9.311158954972143e-09
42.41906208476884,1.4393664191833062,-1.407084865739393,1.6164203390666279,1.3614608295062698,1.570796314870016,0.6539691240314605,-0.10831890255212784,0.7143378853797913,0.4350431561470032,0.38268381357192993,0.9238792657852173,-1.3703231438455532e-08,2.7183698847466076e-08
42.61761372468335,1.4501131050123688,-1.4121014129756686,1.6224338670137017,1.3604638195499241,1.570796314870016,0.664715809860523,-0.11652127653360367,0.7087452411651611,0.4350268542766571,0.38268381357192993,0.9238793253898621,-4.833995870257013e-09,2.4284604549507094e-08
42.84782958109561,1.4551635881235128,-1.4178005242173126,1.6292264069241869,1.3593703685901228,1.5707963219311183,0.6697663081011674,-0.12067848443984985,0.7031612992286682,0.43501016497612,0.38268381357192993,0.9238792657852173,4.4742506588590913e-08,1.1647347974985678e-08
43.17612477594733,1.4420036213047498,-1.425659265578662,1.6384827100847097,1.3579728067909493,1.5707963515186563,0.6566064046782675,-0.11230266094207764,0.6978322863578796,0.43502065539360046,0.3826838433742523,0.9238792657852173,4.510750528652352e-08,1.2493532430823961e-08
43.37548545113639,1.4352227410004756,-1.4342034589530033,1.6484879848368903,1.35651172541311,1.5707963556554467,0.64982550141749,-0.10858430713415146,0.6911290287971497,0.4350143074989319,-0.3826838433742523,-0.9238792657852173,-9.680847767867817e-08,4.1550123341949075e-09
43.67850415611131,1.4398977703176143,-1.4437878489668952,1.6596171081041646,1.3549669931956014,1.570796314870016,0.6545003556975106,-0.11291451752185822,0.6822556257247925,0.4350002408027649,0.38268372416496277,0.9238793253898621,4.540353160109589e-08,8.711887211632074e-09
43.98304339806431,1.4548005706403944,-1.4394491492917336,1.6545951925173525,1.3556503577132146,1.570796314870016,0.6694031188688,-0.12262758612632751,0.6842867136001587,0.43500491976737976,0.3826836943626404,0.9238793253898621,4.2192777272020976e-08,9.849258297833785e-09
44.180947377633984,1.469631634722887,-1.435844865935883,1.6504167872416873,1.356224536119724,1.570796329940132,0.6842342102670863,-0.1324424296617508,0.6855452060699463,0.4350011944770813,0.3826836943626404,0.9238793253898621,-1.88614173168844e-08,2.883380645357647e-08
44.476358685495306,1.4844119277376928,-1.4333208284361991,1.647478946707161,1.3566382586481394,1.5707963675133563,0.6990146267215218,-0.1423686444759369,0.6857242584228516,0.4350004196166992,0.38268381357192993,0.9238793253898621,-1.5438436307135817e-08,2.916118013729374e-08
44.755661180508135,1.4884370922335657,-1.4426557024314046,1.6581606998184897,1.3552913731192016,1.5707963705062866,0.703039801050094,-0.14580093324184418,0.6769884824752808,0.4351068437099457,0.38268381357192993,0.9238792657852173,-1.68143188261638e-08,2.9155181380247086e-08
44.95418579344153,1.4915297814492516,-1.453011552540109,1.6700150328813617,1.353792890165034,1.5707963705062866,0.70613249026578,-0.1486140638589859,0.6674692630767822,0.4351354241371155,0.38268381357192993,0.9238793849945068,-1.1828176660344525e-08,2.718389069400473e-08
45.15271206412911,1.4946204639112963,-1.4633606830470487,1.6818616740216457,1.3522953795316897,1.5707963705062866,0.7092231727278248,-0.15136878192424774,0.6579330563545227,0.43507227301597595,0.38268381357192993,0.9238792657852173,-1.0698416375021225e-08,2.7930850521329376e-08
45.336715069676295,1.5022363131986667,-1.4704687784285517,1.6899559409793896,1.3513092079554487,1.5707963705062866,0.716839022015195,-0.15680329501628876,0.6505255103111267,0.4350062310695648,0.38268378376960754,0.9238793253898621,-1.464767418468682e-08,2.7447814687775463e-08
45.53550006012507,1.5152314285387043,-1.4737421429903412,1.693610276360507,1.3509282371361206,1.5707963705062866,0.7298341373552326,-0.16540269553661346,0.6455689668655396,0.4350132942199707,0.38268381357192993,0.9238792657852173,-1.914901304189698e-08,3.039378526636938e-08
45.733999732239916,1.5282657850416006,-1.4770253920840108,1.6972756466856076,1.3505461159046899,1.5707963705062866,0.7428684938581289,-0.17392544448375702,0.6404829025268555,0.43501123785972595,0.38268381357192993,0.9238793253898621,-2.0206396555977335e-08,3.050428887263479e-08
46.15133402348725,1.5410516892763468,-1.4801348059479966,1.7007454313436783,1.3501857445779546,1.5707963702576928,0.7556543986077942,-0.1821812391281128,0.635481595993042,0.4350016117095947,0.38268375396728516,0.9238793253898621,-1.2762046530667703e-08,2.766990370162148e-08
46.5803568541658,1.5349104483348812,-1.4711491598698847,1.6906124503927706,1.3513330438358235,1.5707963536358194,0.7495131920956654,-0.17799194157123566,0.6444764137268066,0.43508180975914,0.3826838433742523,0.9238792657852173,4.1571798448103436e-08,8.206030521762386e-09
46.778913765366084,1.5287732987361373,-1.462169500099432,1.680486220112983,1.352479578753958,1.5707963370250198,0.7433760769033214,-0.17370231449604034,0.6534296870231628,0.43509262800216675,0.38268381357192993,0.9238792657852173,4.7633164967919583e-08,6.571856836501411e-09
46.977446145529754,1.5226440428707404,-1.4532013901598302,1.6703730144076092,1.3536246389743083,1.570796320435585,0.73724685540007,-0.1693156361579895,0.6623342633247375,0.435034841299057,-0.3826838731765747,-0.9238792657852173,-9.72684759403819e-08,1.1157730739341787e-08
47.17072383608938,1.5213743839560026,-1.4425441976621394,1.658083954135886,1.355256526128474,1.570796314870016,0.7359771923608346,-0.16801154613494873,0.6719096899032593,0.43506988883018494,0.3826838731765747,0.9238792657852173,4.376849105369729e-08,6.228369819893942e-09
47.36924423944474,1.5225591884652987,-1.4310243219175032,1.6446848373644072,1.3571358143060852,1.570796314870016,0.7371619732947464,-0.1683189421892166,0.6818309426307678,0.4350810945034027,0.3826838433742523,0.9238792657852173,4.498322070389804e-08,5.427412297365208e-09
47.61559595937489,1.5255295106650302,-1.4203239721985448,1.6322204291098286,1.3588999066101368,1.570796318129929,0.7401322718579163,-0.16991817951202393,0.6907166242599487,0.43500372767448425,0.3826838433742523,0.9238792657852173,-1.2394733239773359e-08,2.8411017538587657e-08
47.88654171043022,1.5397566700381833,-1.414888995138771,1.6257635568847175,1.359921750716457,1.5707963419597268,0.7543594074012714,-0.17957906424999237,0.6930133700370789,0.4350169599056244,0.3826838433742523,0.9238792657852173,4.241138640281861e-08,8.136360918342689e-09
48.21614572840632,1.5538775303620733,-1.4094946258264096,1.61935492755622,1.3609359600550666,1.5707963656114792,0.7684802440734091,-0.18926642835140228,0.6951537132263184,0.4350052773952484,0.38268381357192993,0.9238792657852173,3.7744733560884924e-08,1.0782406967280167e-08
48.471613787136135,1.5565057675127052,-1.4173950535134427,1.6286951323427012,1.3594962231305212,1.5707963705062866,0.7711084746427134,-0.1911921203136444,0.6877093315124512,0.43504640460014343,0.38268378376960754,0.9238793253898621,-1.0707499775719498e-08,2.477193028482816e-08
48.81039122351238,1.5561354598441923,-1.428747499613181,1.6421245791217391,1.3574192862372507,1.5707963705062866,0.7707381648508187,-0.19108396768569946,0.6777830123901367,0.4350074529647827,0.38268381357192993,0.9238792657852173,4.806026154824394e-08,5.78486991642535e-09
49.12513594136114,1.5697009912186775,-1.4267976154602504,1.6398444683325333,1.3577495176340038,1.5707963705062866,0.7843036647045439,-0.20025871694087982,0.6768431067466736,0.4350028932094574,0.38268381357192993,0.9238793253898621,4.053731572639663e-08,5.861322538436298e-09
49.37206411990252,1.5878203440140144,-1.4263395520804496,1.639999432218113,1.353501238408666,1.578434739550819,0.7930606593196313,-0.20870426297187805,0.6752843260765076,0.4339483380317688,0.3783578872680664,0.9256497621536255,0.0031755121890455484,0.0027939036954194307
49.7064927193703,1.6262073726674735,-1.4397969721466295,1.6603134553468233,1.322905925301227,1.6283143709935564,0.7703103477863561,-0.209529310464859,0.6675036549568176,0.42787742614746094,0.35007748007774353,0.9361793994903564,0.02406768873333931,0.020847316831350327
49.98460795331432,1.672336554881786,-1.4559685750068425,1.6847245469910732,1.2861399441158141,1.6882540612565444,0.7429716007417536,-0.21028147637844086,0.6592699289321899,0.42240193486213684,0.31613609194755554,0.94648677110672,0.049492985010147095,0.042085543274879456
50.332262401371835,1.7309729748968532,-1.4765248661030697,1.7157543410166525,1.2394054170427315,1.764445502013175,0.7082203613431151,-0.21114195883274078,0.6502963304519653,0.418278306722641,0.27333909273147583,0.9559590816497803,0.08221994340419769,0.06832197308540344
50.76988373419119,1.8062834379638721,-1.502926610974252,1.7556078681647989,1.1793813078937148,1.8623029886000226,0.6635871465153372,-0.21254636347293854,0.6406068205833435,0.41752102971076965,0.21949833631515503,0.9623539447784424,0.12472431361675262,0.10069382190704346
51.201482404638,1.8827448250107959,-1.5297318376465827,1.7960704525170919,1.1184398868098273,1.9616559716071453,0.6182718294250915,-0.21472443640232086,0.6319929957389832,0.4217285215854645,0.16683664917945862,0.9625389575958252,0.1681499183177948,0.13194644451141357
51.88206887491162,1.9446499347686768,-1.55143404006958,1.8288300037384033,1.0691001415252686,2.0420947074890137,0.5815833806991577,-0.2171848565340042,0.6252401471138,0.42855945229530334,0.12616802752017975,0.9583380818367004,0.20330555737018585,0.1560019552707672
52.0473941036725,1.9485875291977304,-1.532993558601042,1.8163802418722628,1.019502572897004,2.057874592141736,0.5686196289234546,-0.2257712483406067,0.658808708190918,0.4254187047481537,0.12368827313184738,0.9543536901473999,0.224281907081604,0.15364806354045868
52.212721319254875,1.9548302097204024,-1.5243276523676201,1.8173000839107765,0.9699044082222915,2.0832920384198736,0.5532245135399898,-0.22792503237724304,0.6823379993438721,0.4231259226799011,0.11949729174375534,0.9492031335830688,0.24547293782234192,0.15645082294940948
52.37804853483725,1.9636033917342233,-1.520441670205378,1.8237641395974316,0.9203062435475792,2.1119166855744176,0.5367737587876383,-0.22893323004245758,0.7006581425666809,0.422110915184021,0.11430509388446808,0.9433621764183044,0.2667747735977173,0.1607276052236557
52.54337575041962,1.9754684833248202,-1.5202499740074324,1.833957970500205,0.8707080788728667,2.1419302842169508,0.519580371469107,-0.23055361211299896,0.7146941423416138,0.422433078289032,0.10806682705879211,0.9369928240776062,0.28815317153930664,0.16532917320728302
52.708702966001994,1.9900281372760034,-1.5222167034484408,1.8473079398818673,0.8211099141981544,2.1726356412740797,0.501816573735063,-0.23306667804718018,0.7250380516052246,0.42313897609710693,0.10094040632247925,0.9302485585212708,0.3090406656265259,0.17012479901313782
52.87403018158437,2.00663692778522,-1.5245570722497785,1.8634842390710966,0.771511749523442,2.2035391902135735,0.4836360549448519,-0.23638686537742615,0.7322722673416138,0.4228869676589966,0.09307289123535156,0.9233447313308716,0.32872217893600464,0.1752527356147766
53.03935739716674,2.0250646917431756,-1.5263472266182754,1.8819386240973441,0.7219135848487296,2.2344269563068173,0.46515855249599325,-0.24057906866073608,0.7369000911712646,0.4211927056312561,0.08452620357275009,0.9163933992385864,0.3470320403575897,0.18068504333496094
53.20468461274911,2.045463409110607,-1.5277435289080943,1.9014699114600053,0.6723154201740171,2.265434855819865,0.4465105998544115,-0.2459540069103241,0.739556074142456,0.4189984202384949,0.07549352943897247,0.9092610478401184,0.3645860552787781,0.1860697865486145
53.370011828331485,2.067692655404623,-1.5287431832266167,1.9206708389526508,0.6227172554993048,2.296525864002158,0.42786627738029137,-0.25279927253723145,0.7410686612129211,0.41726523637771606,0.06635700911283493,0.9017976522445679,0.38193848729133606,0.19099955260753632
53.53533904391386,2.089773159385157,-1.5277272574595038,1.93796483992811,0.5731190908245924,2.3264965173881813,0.40959405617030686,-0.2607816159725189,0.743053674697876,0.4155113101005554,0.058016784489154816,0.8941627740859985,0.39872974157333374,0.1952471286058426
53.70066625949623,2.109201083722147,-1.52279972447445,1.952068632521865,0.52352092614988,2.353919926210515,0.3920631844465802,-0.26926523447036743,0.7471843361854553,0.4127312898635864,0.05137532204389572,0.8866643309593201,0.4143204092979431,0.1988101303577423
53.86599343194184,2.124817394832291,-1.5141069904322917,1.962852273768519,0.47392277441619723,2.3788967801398395,0.37529913542033494,-0.27741503715515137,0.7538771629333496,0.40905821323394775,0.04690174385905266,0.8793107867240906,0.42874476313591003,0.20196716487407684
54.031320591319904,2.1366127920753546,-1.5035295837935,1.9710512214428622,0.4243246266027776,2.4028655936649392,0.35904552790372274,-0.28418585658073425,0.7625008821487427,0.4057392477989197,0.04484483227133751,0.8717793226242065,0.4426026940345764,0.2051643282175064
54.19664771648296,2.1445013647336815,-1.4926638416560636,1.9772175025313425,0.3747264890538607,2.427071942958085,0.3430919530294884,-0.2885856032371521,0.7725730538368225,0.4039265513420105,0.04553369805216789,0.8637492656707764,0.4563683867454529,0.2087859809398651
54.3619750831031,2.149249029402186,-1.4826377562189876,1.982189308979099,0.3251282790678192,2.452340745159737,0.3272231369245894,-0.2903520464897156,0.7832162380218506,0.40410780906677246,0.04875300079584122,0.8550587892532349,0.47022977471351624,0.21302951872348785
54.527302369238136,2.152627170329974,-1.4740412740969686,1.9871285789577549,0.27553009322730737,2.4789904118624215,0.31122135266877243,-0.290161669254303,0.7930992841720581,0.40596726536750793,0.05361457169055939,0.8457659482955933,0.4840990900993347,0.217837855219841
54.69262975811513,2.1560393056495863,-1.4674956343774284,1.9930286863776718,0.22593187656420832,2.507405423620009,0.2948893706494125,-0.2884952127933502,0.8010501861572266,0.40935415029525757,0.05948236957192421,0.8358961939811707,0.49793049693107605,0.22316940128803253
54.85795702422107,2.1605248631743237,-1.4629486932233782,2.0003854287414238,0.17633369673242685,2.5373789948249073,0.27816902183448267,-0.2860802412033081,0.8064229488372803,0.41374868154525757,0.06579197943210602,0.8256152868270874,0.511545717716217,0.228804811835289
55.02328426524474,2.1665393785193134,-1.459207065343189,2.0088710385526785,0.12673552442532587,2.567736552673385,0.26123132066941607,-0.2840113043785095,0.8095251321792603,0.41801929473876953,0.07201696932315826,0.8153098821640015,0.5245891213417053,0.23428493738174438
55.18861149769286,2.1742511284087143,-1.4551134835044781,2.0181005381923227,0.07713735469088995,2.597388159107485,0.24424777053865154,-0.28313809633255005,0.8108623623847961,0.42114490270614624,0.07773008197546005,0.8053441047668457,0.5367894768714905,0.23924052715301514
55.35393855604684,2.182733760012481,-1.4499103271654792,2.0276536315566407,0.02753923718469559,2.625807936598053,0.2273383575967345,-0.28316444158554077,0.811194658279419,0.42263853549957275,0.08310793340206146,0.795871913433075,0.5479699969291687,0.24374133348464966
55.519265665898295,2.1905580135097154,-1.4430619671114953,2.037093117662076,-0.022058895770740192,2.6527653510507516,0.2105955549816738,-0.2832487225532532,0.8113683462142944,0.42230546474456787,0.0886070653796196,0.7869190573692322,0.557995080947876,0.24809017777442932
55.68459308981086,2.1965014961199216,-1.4343691101830138,2.046039636324608,-0.07165712294451043,2.6782543132370855,0.19406515144667363,-0.2825709581375122,0.8120441436767578,0.4202482998371124,0.09468492865562439,0.7784153819084167,0.5668357610702515,0.25258955359458923
55.84992030420446,2.199900858285707,-1.4246125229743065,2.05425308892895,-0.12125528726258983,2.702903307299069,0.17765531257925107,-0.2803466022014618,0.8133662939071655,0.4174143671989441,0.10191412270069122,0.7700594067573547,0.5747495293617249,0.25745850801467896
56.01524737365772,2.2005035727089,-1.4148304524185693,2.0616165306047436,-0.17085340809856855,2.7275110893784285,0.16123957734500563,-0.2759822607040405,0.815180778503418,0.4148811101913452,0.11081072688102722,0.7615068554878235,0.5820212364196777,0.26283004879951477
56.18057466021138,2.198749712625595,-1.4061499817570418,2.068313606846942,-0.22045159406466544,2.7529615847104485,0.1446921342150048,-0.26929759979248047,0.8168923854827881,0.41356849670410156,0.1216302290558815,0.7524614334106445,0.5889010429382324,0.2687067985534668
56.34590168474537,2.1962381805521134,-1.4000736881840987,2.0750108497429305,-0.27004970142486306,2.780453974609689,0.12785957100970136,-0.2607305347919464,0.817147433757782,0.4143867492675781,0.1342867612838745,0.7426708340644836,0.5956934094429016,0.27487510442733765
56.511228820720966,2.1949579227324785,-1.3983651917578772,2.082502177768998,-0.3196478422175406,2.8113767825501363,0.11056331590787348,-0.2509211301803589,0.8142826557159424,0.41831329464912415,0.14870552718639374,0.7319010496139526,0.6027036309242249,0.2809906601905823
56.676556304153216,2.198131353565017,-1.4011362807967873,2.091050839169741,-0.36924608724721475,2.845374456364607,0.09280460434804239,-0.24255907535552979,0.8073146343231201,0.42491522431373596,0.1636895090341568,0.7205623984336853,0.610141932964325,0.2858712077140808
56.8418835542435,2.209660548362453,-1.4062404246051927,2.1002083753562064,-0.41884426227430027,2.8798982484629603,0.07482716361283707,-0.24009297788143158,0.7966112494468689,0.43211203813552856,0.17683039605617523,0.7098404169082642,0.6181597709655762,0.28763875365257263
57.007210810077815,2.232060387233797,-1.4115644213605012,2.1094705069108457,-0.4684424390245953,2.9126417335582624,0.05687626832960228,-0.24655233323574066,0.7829606533050537,0.4381706118583679,0.18627026677131653,0.700795590877533,0.6269011497497559,0.284927636384964
57.17253827512498,2.2613598538915927,-1.4156129105461852,2.118234407201002,-0.5180406785387435,2.9428644650502025,0.039153858287418825,-0.2591763436794281,0.7680858373641968,0.4423188269138336,0.1930069625377655,0.693444550037384,0.6357190012931824,0.27882683277130127
57.337865598354924,2.291217818002439,-1.4172968993716148,2.125932351435093,-0.5676388755077268,2.9705715746142385,0.021821279458552847,-0.2733350694179535,0.7540079355239868,0.4442431628704071,0.1990673542022705,0.6872630715370178,0.6437025666236877,0.27145659923553467
57.50319301261945,2.3170860370633712,-1.416143244394372,2.132574572165727,-0.617237099787084,2.996218309629363,0.004920619093491866,-0.2856255769729614,0.7419625520706177,0.44378235936164856,0.20589584112167358,0.6817476749420166,0.65022212266922,0.26464733481407166
57.66852039845635,2.33732782705776,-1.4126218614410777,2.1393602861951377,-0.6668353155381549,3.0210696526799667,-0.011713873152097834,-0.29398787021636963,0.7315548062324524,0.4407495856285095,0.21404032409191132,0.6765986084938049,0.654930591583252,0.2597438395023346
57.833847319995265,2.3512016781478313,-1.4074722070503647,2.147705066182021,-0.7164333919998284,3.04656036955663,-0.02829688208065942,-0.29677408933639526,0.7219470739364624,0.43496522307395935,0.2238239347934723,0.6715890765190125,0.6575640439987183,0.25783810019493103
57.99917446068442,2.3599898237012895,-1.4011567046864024,2.158247264533812,-0.7660315342065764,3.0733855896313838,-0.04493699665040092,-0.29442882537841797,0.7122399806976318,0.42645955085754395,0.2348664253950119,0.6667330861091614,0.6582444310188293,0.2588801383972168
58.16450183251461,2.3672776636726143,-1.3938371302228343,2.1709494784854724,-0.8156297457556325,3.1015725000268133,-0.061641350794184965,-0.2895733714103699,0.7013242244720459,0.4154459834098816,0.24598154425621033,0.6623615026473999,0.6575010418891907,0.2616539001464844
58.329828891849175,2.3772267578766986,-1.3856241306924917,2.1857450765526547,-0.8652278635560013,3.131104063226339,-0.07840667483373917,-0.28511524200439453,0.6879746913909912,0.4021438658237457,0.2558099031448364,0.6589537858963013,0.6559399366378784,0.26473382115364075
58.495156252202406,2.3913503419117865,-1.3767028993691375,2.202288770738176,-0.9148260716619714,3.161770884866968,-0.09522240269328106,-0.28213852643966675,0.6719739437103271,0.38699379563331604,0.2639417052268982,0.6566839814186096,0.6539114713668823,0.2673959732055664
58.66047934937094,2.408010482788086,-1.3673635721206665,2.2198679447174072,-0.9644230008125305,3.1931099891662598,-0.11206752806901932,-0.27981406450271606,0.6542731523513794,0.37068313360214233,0.2710748016834259,0.6552816033363342,0.6514439582824707,0.2697131931781769
58.710479349370935,2.4087718583256588,-1.3751252500666886,2.232817046621227,-0.9695966506829525,3.1938675736372226,-0.11205846170554844,-0.2730494439601898,0.6474969387054443,0.36948707699775696,0.27108049392700195,0.6553112268447876,0.6514164209365845,0.2697020471096039
58.90358681279037,2.4095315281774172,-1.382870305403904,2.2457382179434764,-0.9747591412428062,3.194623761939734,-0.11204941837247717,-0.2662724256515503,0.6407303810119629,0.36825746297836304,0.2710860073566437,0.6553407907485962,0.6513888835906982,0.26969093084335327
59.09680998372648,2.410289577720206,-1.3905988412193802,2.258631829543908,-0.9799106206644149,3.1953783373591143,-0.11204039432803985,-0.2594831585884094,0.6339739561080933,0.366994708776474,0.27109163999557495,0.65537029504776,0.6513614058494568,0.269679993391037
59.28984446870897,2.4110448612070767,-1.398299176289358,2.2714783934928855,-0.9850433027919985,3.196130159399346,-0.11203140321154473,-0.2526928186416626,0.6272379755973816,0.36570101976394653,0.271097332239151,0.655399739742279,0.6513340473175049,0.2696690857410431
59.482934181120136,2.41179839473249,-1.405981669992724,2.284295192469945,-0.9901640927015539,3.1968802394981526,-0.11202243292710484,-0.24589288234710693,0.6205140352249146,0.36437490582466125,0.2711028754711151,0.6554290652275085,0.6513068079948425,0.2696581184864044
59.70006069494204,2.4125501537802494,-1.4144377555181504,2.2964164136367136,-0.9938156404847486,3.1976285787586294,-0.11201339781140805,-0.23919261991977692,0.6138998866081238,0.3637973666191101,0.2711082696914673,0.6554583311080933,0.6512795686721802,0.2696472704410553
59.92232061072761,2.4132978583570397,-1.4283983659385735,2.3038074729852944,-0.9872318434910579,3.19837306080965,-0.11200380883228807,-0.23325766623020172,0.6079903244972229,0.3686019778251648,0.271113783121109,0.6554872989654541,0.6512524485588074,0.2696366012096405
60.115428185905756,2.4140480282534713,-1.4424050070616892,2.311222902017235,-0.9806263385066075,3.1991199975550506,-0.1119941882365386,-0.22726160287857056,0.6020410656929016,0.3732795715332031,0.2711193263530731,0.6555164456367493,0.651225209236145,0.2696259617805481
60.31583501413747,2.4142423417982957,-1.4586963010633645,2.321778624843102,-0.9724941199820678,3.1934638058448677,-0.10959770717302937,-0.2210489809513092,0.5965696573257446,0.3780069053173065,0.26912805438041687,0.656049370765686,0.6522568464279175,0.2678251266479492
60.56661927117745,2.4087866497722574,-1.5000205284112926,2.3654884928112176,-0.9479255163899912,3.121886596986068,-0.08259767859021273,-0.21334947645664215,0.5945440530776978,0.38336387276649475,0.24658101797103882,0.6621074676513672,0.6631444096565247,0.24708504974842072
60.899830998957846,2.4017529515707112,-1.5532973890167263,2.4218410175229943,-0.9162506817264257,3.0296063724391114,-0.04778815276319048,-0.2059764266014099,0.5890102386474609,0.38543403148651123,0.21768411993980408,0.6707823276519775,0.6742836833000183,0.2191031575202942
61.21947027586626,2.3953959318904827,-1.6014487372356585,2.4727721348894702,-0.8876231316731688,2.946203987700462,-0.016327485216613723,-0.2015867382287979,0.5810182094573975,0.3826116919517517,0.19187697768211365,0.6794122457504272,0.6815005540847778,0.1927153319120407
61.40526067645255,2.3926992768816673,-1.6117358457344009,2.485323710984617,-0.8542260795967535,2.9171519018608136,0.019300140526820213,-0.20090991258621216,0.5782528519630432,0.37750300765037537,0.1838577836751938,0.6843615174293518,0.6814965605735779,0.18277835845947266
61.73362201788942,2.394664777795413,-1.5637706271352525,2.4400397558240825,-0.7937390574636868,2.963581459746271,0.08226752175000271,-0.2038450837135315,0.5858489871025085,0.3723166882991791,0.2004406750202179,0.6834633350372314,0.6737626791000366,0.19683803617954254
61.979604291044915,2.396968248449237,-1.5075577438571637,2.3869691817674354,-0.7228512346973454,3.0179946239993116,0.15606220369665244,-0.20800255239009857,0.5935273766517639,0.3682442307472229,0.2188599556684494,0.6794936060905457,0.6667004823684692,0.21424110233783722
62.25315424382086,2.3995298732382557,-1.4450449807671177,2.3279508921941434,-0.6440188850269136,3.078505970288072,0.2381271895294347,-0.21390874683856964,0.6008421182632446,0.3662695288658142,0.23771801590919495,0.6715273857116699,0.6615124344825745,0.2343979775905609
62.51643698175157,2.4019953519603683,-1.3848785239465542,2.2711477499922847,-0.5681453685151334,3.1367461299558275,0.3171120109086465,-0.22126470506191254,0.6070125102996826,0.36684271693229675,0.25390931963920593,0.6605209708213806,0.6592645049095154,0.2541895806789398
62.74358495351834,2.4041224511221424,-1.3329697328780676,2.222140668698077,-0.5026852645906614,3.1869930023785287,0.38525640243867787,-0.22922387719154358,0.6119101643562317,0.3691737651824951,0.2660887837409973,0.6485701203346252,0.6595262289047241,0.27125391364097595
62.9374277233443,2.405937667828705,-1.2886719838787317,2.180319170996528,-0.44682314194382655,3.2298725088506757,0.44340923338646737,-0.23738235235214233,0.6159399747848511,0.37239718437194824,0.27502331137657166,0.6367051601409912,0.6613644361495972,0.28559717535972595
63.372932415306494,2.407516897643541,-1.2501331550452504,2.1439346688967946,-0.3982233635895456,3.2671774734984047,0.49400191695855633,-0.24561527371406555,0.6194326877593994,0.37603387236595154,0.28161582350730896,0.6252284049987793,0.6641620993614197,0.2977760434150696
63.89926905351225,2.4079294343229996,-1.2253350006936945,2.1454710777354307,-0.3282161392157884,3.2711534424679423,0.5174436756018147,-0.24116981029510498,0.6147525310516357,0.37142419815063477,0.2560570538043976,0.6311824321746826,0.6573469042778015,0.3223949372768402
64.18348092518926,2.4082833890567925,-1.1975817473298769,2.1516435996806687,-0.24295257771268397,3.2720283742464433,0.542052398281736,-0.23527753353118896,0.609086275100708,0.3662864863872528,0.22159956395626068,0.6390994191169739,0.6468389630317688,0.3521999418735504
64.55332378537399,2.4087439878007846,-1.161466638756332,2.159675858000174,-0.131999719657264,3.2731669166638238,0.5740755517402164,-0.22930628061294556,0.6032507419586182,0.36144012212753296,0.1758638620376587,0.6473751068115234,0.6310304403305054,0.3895868957042694
65.25873036348352,2.4096224943744105,-1.0925837755203247,2.1749958992004395,0.07962225377559662,3.2753384749041956,0.6351537704467773,-0.2239023745059967,0.5975246429443359,0.3559904992580414,0.08646535128355026,0.6567671298980713,0.5943166017532349,0.45603564381599426
