Sungjin-Park-dev/lg_sgu_vision_v2/data/sample/ik/74/glns_trajectory_joined.csv
time,ur20-shoulder_pan_joint,ur20-shoulder_lift_joint,ur20-elbow_joint,ur20-wrist_1_joint,ur20-wrist_2_joint,ur20-wrist_3_joint,target-POS_X,target-POS_Y,target-POS_Z,target-ROT_X,target-ROT_Y,target-ROT_Z,target-ROT_W
0.0,1.5,-1.5,2.0,-0.5,1.5,0.0,-0.1509472280740738,1.2132333517074585,0.5874834060668945,-1.9023078667856907e-09,0.7071067094802856,0.7071067094802856,9.91951076834141e-10
0.15681703885396323,1.4657589959150221,-1.516454130555183,2.047045111656189,-0.48712389093543107,1.4724483404483293,0.0,-0.1265162229537964,1.1856184005737305,0.547489583492279,0.003924460615962744,0.722223162651062,0.6916484236717224,0.0008044671267271042
0.31363646189371747,1.4315176447658473,-1.532908308688156,2.0940909385681152,-0.47424759175513737,1.4448965208397215,0.0,-0.10435910522937775,1.1559041738510132,0.5080827474594116,0.00878775492310524,0.7368798851966858,0.6759662628173828,0.0006636037724092603
0.4704558849334717,1.3972763585095336,-1.5493626894052854,2.1411367654800415,-0.4613712571266141,1.4173446808110135,0.0,-0.08463697135448456,1.124265193939209,0.46936944127082825,-0.014578565023839474,-0.7510260343551636,-0.6601114273071289,0.0004185430007055402
0.627275307973226,1.363034833832163,-1.5658170701225933,2.1881825923919678,-0.4484948926936983,1.389792602371857,0.0,-0.06749558448791504,1.0908925533294678,0.43145322799682617,-0.021283412352204323,-0.7646122574806213,-0.6441344618797302,0.00243486394174397
0.7840947310129802,1.328793189944264,-1.582271331639763,2.235228419303894,-0.43561852825816166,1.3622406431315561,0.0,-0.053065888583660126,1.0559914112091064,0.39443501830101013,-0.028886014595627785,-0.7775892615318298,-0.6280855536460876,0.005375670734792948
0.9409141540527345,1.2945517844774217,-1.5987255931495044,2.2822742462158203,-0.42274222342979295,1.3346885646937716,0.0,-0.041462551802396774,1.0197808742523193,0.35841357707977295,-0.03736715391278267,-0.7899091839790344,-0.612014651298523,0.009228982031345367
1.0977335770924888,1.2603103790093408,-1.6151799738704369,2.3293200731277466,-0.40986582919387515,1.3071366054593736,0.0,-0.03278129920363426,0.9824913144111633,0.3234831392765045,-0.046705521643161774,-0.8015248775482178,-0.5959705710411072,0.013979814946651459
1.254553000132243,1.2260689735412598,-1.6316343545913696,2.376365900039673,-0.39698952436447144,1.279584527015686,0.0,-0.02709883078932762,0.9443632364273071,0.28973400592803955,-0.05687718093395233,-0.8123908638954163,-0.580001175403595,0.019610991701483727
1.411372423171997,1.191827329656825,-1.6480884968939955,2.423411726951599,-0.38411315993114553,1.2520324485739662,0.0,-0.024471301585435867,0.9056464433670044,0.25725257396698,-0.06785587966442108,-0.8224626183509827,-0.5641537308692932,0.0261025782674551
1.5681918462117512,1.157585804984318,-1.664542758404643,2.4704575538635254,-0.37123682530113405,1.2244806085511357,0.0,-0.0249343179166317,0.8665966987609863,0.22612085938453674,-0.07961264997720718,-0.8316970467567444,-0.5484743714332581,0.033432308584451675
1.7250112692515054,1.1233445730425529,-1.6809971749481711,2.5175033807754517,-0.35836055592392063,1.1969286697359163,0.0,-0.028501693159341812,0.8274747133255005,0.19641511142253876,-0.09211637824773788,-0.8400527834892273,-0.533007800579071,0.04157587140798569
1.8818306922912595,1.089103048369633,-1.6974515556669298,2.564549207687378,-0.34548422129296,1.1693767105027348,0.0,-0.03516461327672005,0.7885434627532959,0.16820664703845978,-0.10533402860164642,-0.8474901914596558,-0.5177973508834839,0.05050629377365112
2.0386501153310137,1.054861642905096,-1.7139059363838762,2.611595034599304,-0.33260785686058325,1.141824751267741,0.0,-0.04489206522703171,0.7500671148300171,0.14156058430671692,-0.11923007667064667,-0.8539714813232422,-0.5028850436210632,0.060194700956344604
2.195469538370768,1.0206202917496683,-1.7303599953075288,2.6586408615112305,-0.3197315576790921,1.1142728124489032,0.0,-0.05763039365410805,0.712308406829834,0.1165367066860199,-0.13376712799072266,-0.8594606518745422,-0.4883113503456116,0.07060989737510681
2.352287769317627,0.986379086971283,-1.7468141317367554,2.705686330795288,-0.30685532093048096,1.0867209434509277,0.0,-0.07330355048179626,0.6755266189575195,0.09318828582763672,-0.14890575408935547,-0.8639235496520996,-0.4741149842739105,0.08171875774860382
2.49581471706371,1.0294371712951078,-1.742688365199473,2.7063534867308436,-0.32875725679261514,1.1205484683945592,0.0,-0.08240712434053421,0.6755296587944031,0.09171012043952942,-0.13559873402118683,-0.8652225732803345,-0.47693347930908203,0.07441362738609314
2.6802541563902347,1.072295103599187,-1.738581782638668,2.707017777836776,-0.35055735310115543,1.1542187022173906,0.0,-0.0915895476937294,0.6755664348602295,0.09085775911808014,-0.12255752086639404,-0.8659456372261047,-0.4801841378211975,0.06738676130771637
2.8647188718114345,1.1146382866869757,-1.7345245225729338,2.7076740904120653,-0.37209561730799157,1.1874845365384066,0.0,-0.10080930590629578,0.6756095290184021,0.09060820937156677,-0.10989711433649063,-0.8661173582077026,-0.4838160574436188,0.060706622898578644
3.049219592163369,1.156215647320687,-1.730540642461983,2.7083185328616253,-0.3932443386144451,1.2201487221164868,0.0,-0.11002898961305618,0.6756306290626526,0.09092171490192413,-0.09770501405000687,-0.8657771944999695,-0.48777222633361816,0.054422006011009216
3.2337455886099784,1.1968484429686916,-1.7266472691461414,2.7089483347047616,-0.41391259792585905,1.2520708344721834,0.0,-0.11921820789575577,0.6756020784378052,0.09174758195877075,-0.08603926748037338,-0.8649736642837524,-0.491995245218277,0.04856220260262489
3.5573260531303275,1.2364288568496704,-1.722854733467102,2.709561824798584,-0.43404555320739746,1.2831661701202393,0.0,-0.12835413217544556,0.6754990816116333,0.09303110837936401,-0.07493064552545547,-0.8637589812278748,-0.49643194675445557,0.0431390106678009
3.723812987044869,1.2465481737577109,-1.7247277337583007,2.713503747792908,-0.4526192966543185,1.2332200899458767,0.0,-0.1587095409631729,0.6787921190261841,0.10129185020923615,-0.05631028488278389,-0.8589710593223572,-0.5046988129615784,0.0653979629278183
3.8903019077809025,1.256257261282872,-1.726638010398361,2.7169586293334262,-0.4722461189241021,1.1832734137250667,0.0,-0.1885853260755539,0.6811350584030151,0.11073637008666992,-0.03734562546014786,-0.8531405925750732,-0.5129803419113159,0.08722015470266342
4.056790828516936,1.2654994960095505,-1.7285439337648447,2.71982615728308,-0.4930866634171057,1.1333267375042564,0.0,-0.21783451735973358,0.6826555728912354,0.12138578295707703,-0.018007749691605568,-0.8462247848510742,-0.5213475823402405,0.10851742327213287
4.223279749252971,1.2743898142566488,-1.7303076770880113,2.7221521578270123,-0.5148938536748543,1.083380061283446,0.0,-0.24652156233787537,0.6831618547439575,0.1329590380191803,0.001721754902973771,-0.838333249092102,-0.5295945405960083,0.1293206661939621
4.389768669989004,1.2829838111644345,-1.7318400756843306,2.7239443880980816,-0.5375563089807197,1.033433385062636,0.0,-0.27463629841804504,0.6825658082962036,0.1452680081129074,0.021850449964404106,-0.8295243382453918,-0.5376097559928894,0.1496247500181198
4.556257590725038,1.2913326407822248,-1.7331368629874797,2.725277874233034,-0.5609478085721586,0.9834867088418258,0.0,-0.3021785020828247,0.6807308793067932,0.15811598300933838,0.042374879121780396,-0.8198562860488892,-0.5452837944030762,0.1694268435239792
4.7227465114610725,1.299434149136277,-1.7342034826413206,2.726178309842357,-0.585080225856961,0.9335400326210156,0.0,-0.32908159494400024,0.6776325106620789,0.17138509452342987,0.06329279392957687,-0.8093429803848267,-0.5525896549224854,0.18868625164031982
4.889235432197107,1.3072830285528112,-1.7350449428126458,2.7266631664274,-0.6099733218621903,0.8835933564002054,0.0,-0.3552745282649994,0.6732655763626099,0.18495982885360718,0.08460182696580887,-0.7979961633682251,-0.5595060586929321,0.20735862851142883
5.055724352933141,1.3148646980886074,-1.7356698587115962,2.7267239279190343,-0.6356845405600378,0.8336466801793951,0.0,-0.38067296147346497,0.6676687002182007,0.19874940812587738,0.10630671679973602,-0.7858134508132935,-0.5660362243652344,0.22538624703884125
5.222213273669175,1.3222132870190495,-1.7361658599206826,2.7264065853952273,-0.6621539037262203,0.783700003958585,0.0,-0.40524664521217346,0.6607935428619385,0.21262791752815247,0.1284143030643463,-0.7728146314620972,-0.5721415281295776,0.24273714423179626
5.38870219440521,1.3293445350911515,-1.7366037326358235,2.725723243615933,-0.6893766484053374,0.7337533277377748,0.0,-0.42894232273101807,0.6526484489440918,0.22649461030960083,0.15093529224395752,-0.7590030431747437,-0.5778095722198486,0.25936272740364075
5.555191115141244,1.3362711509147065,-1.7370420393203099,2.7246827263867384,-0.7173511512905675,0.6838066515169645,0.0,-0.45170503854751587,0.6432525515556335,0.24023976922035217,0.1738767921924591,-0.7443847060203552,-0.5830233693122864,0.27521249651908875
5.721680035877278,1.3429993082105887,-1.7375146803292534,2.723273580978646,-0.7460913819754644,0.6338599752961543,0.0,-0.4734728932380676,0.6326566338539124,0.2537531554698944,0.1972445249557495,-0.7289648056030273,-0.5877678394317627,0.2902306914329529
5.888168956613312,1.3495363175947606,-1.7379765199807886,2.7214378405605006,-0.775593615235032,0.5839132990753442,0.0,-0.4941790699958801,0.6209552884101868,0.26690590381622314,0.22103187441825867,-0.7127630114555359,-0.5920079350471497,0.30436864495277405
6.054657877349347,1.3559013288641593,-1.7383718926390643,2.7191433796796445,-0.8057991171338295,0.5339666228545339,0.0,-0.5137735605239868,0.6082192659378052,0.27953505516052246,0.2452138364315033,-0.6958228945732117,-0.5956775546073914,0.3175985515117645
6.221146728339095,1.362104496309534,-1.7386532760158353,2.716349631553532,-0.8366833527075789,0.4840199675576094,0.0,-0.5321988463401794,0.5945526957511902,0.2914985120296478,0.26976799964904785,-0.6781784892082214,-0.5987293720245361,0.32988202571868896
6.38763556153443,1.3681573853642488,-1.7387828604574123,2.713032349081601,-0.8682216845295498,0.4340733175990088,0.0,-0.5494034290313721,0.5800612568855286,0.3026537299156189,0.29466721415519714,-0.6598677635192871,-0.6011151671409607,0.34118378162384033
6.554124440875299,1.3740805734830945,-1.7387409821469506,2.709212657037755,-0.9003776690580775,0.38412665379674804,0.0,-0.5653504133224487,0.5648223161697388,0.312843918800354,0.31987375020980835,-0.6409397721290588,-0.6027751564979553,0.3514811396598816
6.72061339307667,1.379897706021353,-1.7385166329418524,2.704930298018598,-0.9331126783399153,0.33417996813633655,0.0,-0.5800082087516785,0.5489125847816467,0.3219160735607147,0.3453436493873596,-0.621448278427124,-0.6036495566368103,0.36075884103775024
6.887102390256328,1.3856312763479242,-1.7381006188891364,2.7002251514650153,-0.9663924055165679,0.284233268982439,0.0,-0.5933449864387512,0.5324252247810364,0.3297330141067505,0.3710290193557739,-0.6014474630355835,-0.6036844849586487,0.3690032660961151
7.053591353238258,1.3913012234306412,-1.7374834701597859,2.6951318038330947,-1.0001883242485,0.2342865800878601,0.0,-0.6053283214569092,0.5154731273651123,0.3361755311489105,0.3968795835971832,-0.580990731716156,-0.6028337478637695,0.3762017488479614
7.220080316003533,1.3969133375939937,-1.7366233501412567,2.6896107754416123,-1.034561502188468,0.18433989125827765,0.0,-0.6159080266952515,0.49826106429100037,0.34117791056632996,0.422869473695755,-0.5601013898849487,-0.6010898351669312,0.38230738043785095
7.386569331700957,1.4024523883078195,-1.7355915246989646,2.683711288908846,-1.0693959822375618,0.1343931865490505,0.0,-0.6250474452972412,0.48091423511505127,0.3446636497974396,0.44892778992652893,-0.5388496518135071,-0.5984131693840027,0.38730689883232117
7.553058198829843,1.4078967554841981,-1.734433845784165,2.677435420907335,-1.1046416627033937,0.08444652641038466,0.0,-0.6327036619186401,0.4636187255382538,0.34659767150878906,0.47500184178352356,-0.5172871947288513,-0.5947911739349365,0.39116576313972473
7.71954700025447,1.4132235894715153,-1.733187138620641,2.670773111291417,-1.140266473804632,0.03449988598299668,0.0,-0.6388386487960815,0.4465816617012024,0.34696534276008606,0.5010426640510559,-0.495464026927948,-0.5902179479598999,0.39384573698043823
7.886035821286832,1.4184139508290672,-1.7318794745556148,2.6637136611444623,-1.1762400004318196,-0.015446760326712054,0.0,-0.6434227228164673,0.430014967918396,0.3457663059234619,0.5269999504089355,-0.47343409061431885,-0.5846869945526123,0.39531296491622925
8.052524643011495,1.4234579121861244,-1.730519895393602,2.6562458942286664,-1.212533230074863,-0.06539340684411085,0.0,-0.6464375853538513,0.41413208842277527,0.34301307797431946,0.55282062292099,-0.45125633478164673,-0.5781888365745544,0.3955433666706085
8.21901343907184,1.4283599607335504,-1.729031068204959,2.64829756980561,-1.2491537709020761,-0.11534004566221469,0.0,-0.6478685140609741,0.3991982936859131,0.33873865008354187,0.5784562826156616,-0.4289853274822235,-0.570715606212616,0.3945169448852539
8.385502216626321,1.433164424841422,-1.7273173497201635,2.6398719029153983,-1.2860495531276492,-0.16528667892855892,0.0,-0.6477322578430176,0.38538858294487,0.33295801281929016,0.6038287281990051,-0.4067036807537079,-0.5622290372848511,0.3922771215438843
8.551991178727853,1.4379100103851497,-1.725319803939884,2.6309976512424718,-1.3231658284975316,-0.2152333675590185,0.0,-0.6460509896278381,0.37285155057907104,0.3257138729095459,0.6288599967956543,-0.38449159264564514,-0.552702784538269,0.3888711631298065
8.718480182969047,1.4426182750237833,-1.7229841224400948,2.6216714933865672,-1.3604770190228548,-0.2651800688313768,0.0,-0.6428420543670654,0.3617667555809021,0.31708651781082153,0.6534833312034607,-0.36241570115089417,-0.5421322584152222,0.3843265175819397
8.88496915868272,1.4472970753359464,-1.7203027022439465,2.6119179073633267,-1.3979590579558103,-0.3151267615454788,0.0,-0.638127326965332,0.3522864878177643,0.3071781098842621,0.6776348352432251,-0.3405408263206482,-0.5305238962173462,0.37866508960723877
9.051458163530102,1.4519400292493074,-1.7173165966071284,2.601790583047208,-1.4355891140780137,-0.36507346299969334,0.0,-0.6319336891174316,0.34453386068344116,0.2961103618144989,0.7012537717819214,-0.3189311921596527,-0.5178945064544678,0.3719022572040558
9.217947168833053,1.4565316069662182,-1.7140772439063041,2.5913437949004186,-1.4733490209043183,-0.4150201645905788,0.0,-0.6242912411689758,0.33862289786338806,0.2840239405632019,0.7242828607559204,-0.29765063524246216,-0.5042679905891418,0.3640497028827667
9.384436093387874,1.4610490118314006,-1.7106534261271784,2.580649332540349,-1.5112159435920307,-0.4649668419570254,0.0,-0.6152356863021851,0.3346390724182129,0.2710721492767334,0.7466648817062378,-0.2767670154571533,-0.4896722435951233,0.355123370885849
9.550925014123909,1.4654882523448145,-1.7071413303561394,2.5698005352727886,-1.5491599588416989,-0.5149135181778357,0.0,-0.604816734790802,0.33261698484420776,0.2574218213558197,0.7683476209640503,-0.25634124875068665,-0.4741344749927521,0.3451486825942993
9.717413934859943,1.4698430995709415,-1.7035872325080907,2.5587758669948237,-1.5872104269764085,-0.5648601943986458,0.0,-0.5930759906768799,0.3326869606971741,0.2432767152786255,0.7893041372299194,-0.23640790581703186,-0.4576951861381531,0.33410391211509705
9.883902768847452,1.474108153193742,-1.7000365764925216,2.547530927725511,-1.6254116220266352,-0.6148068445948988,0.0,-0.5800576210021973,0.33499008417129517,0.22885817289352417,0.8095130324363708,-0.21699608862400055,-0.440395712852478,0.32195186614990234
10.050391512342852,1.478277707138122,-1.6965375675447596,2.5360092670711625,-1.6638163201270317,-0.6647534676435184,0.0,-0.5658096075057983,0.3396686315536499,0.21440210938453674,0.8289536237716675,-0.19813400506973267,-0.4222765862941742,0.30864420533180237
10.216880299703746,1.482347856042902,-1.6931385115493878,2.5241550631973606,-1.7024784731663205,-0.7147001038517868,0.0,-0.5503844022750854,0.34685277938842773,0.20015770196914673,0.8476014733314514,-0.17985382676124573,-0.4033748507499695,0.29413077235221863
10.38336922043978,1.4863270816851522,-1.6898695227351077,2.5119421938561555,-1.7414355257137124,-0.7646467800725971,0.0,-0.5338457822799683,0.356619268655777,0.18637138605117798,0.8654178977012634,-0.16219918429851532,-0.38372114300727844,0.2783905565738678
10.54985812361123,1.4902563937616922,-1.6867075962548277,2.499428303167115,-1.7806731411173788,-0.8145934510240321,0.0,-0.5162817239761353,0.36890941858291626,0.17325332760810852,0.8823353052139282,-0.1452343463897705,-0.36333543062210083,0.26149341464042664
10.716346854644517,1.4941909175227313,-1.6836111021112277,2.4867034314365197,-1.820159130010351,-0.8645400703340181,0.0,-0.4977932572364807,0.38359054923057556,0.16099628806114197,0.8982805609703064,-0.12902361154556274,-0.3422415256500244,0.24354782700538635
10.882835585283583,1.4981941659464364,-1.6805318058234653,2.4738703070155914,-1.8598576853854873,-0.914486689525738,0.0,-0.47849196195602417,0.40048161149024963,0.1497768759727478,0.9131848216056824,-0.11362230032682419,-0.3204715847969055,0.22468020021915436
11.049324501753027,1.5023060717488599,-1.6774366886528844,2.4610154809897042,-1.8997595751206764,-0.9644333644665712,0.0,-0.45848411321640015,0.4194106459617615,0.13976839184761047,0.9269924163818359,-0.09907850623130798,-0.2980715334415436,0.2049919068813324
11.215813228073502,1.506439589430137,-1.6743759900356328,2.4481113351384973,-1.9399819548104016,-1.0143799823627138,0.0,-0.4378141760826111,0.44041112065315247,0.1312156617641449,0.9396824240684509,-0.08544980734586716,-0.2751096189022064,0.1844179779291153
11.382302148809536,1.5104563123793844,-1.6714335525718893,2.435091168495791,-1.980699744354309,-1.064326658583524,0.0,-0.4164944291114807,0.46358346939086914,0.12440446019172668,0.9512390494346619,-0.07281120866537094,-0.25165432691574097,0.16282737255096436
11.548791161997906,1.5141955231567799,-1.6687053075835527,2.4218799044997312,-2.022116841695391,-1.114273362540035,0.0,-0.39451396465301514,0.4890350103378296,0.11965185403823853,0.9616398811340332,-0.06125861033797264,-0.22776669263839722,0.1400657594203949
11.715280230054677,1.5175612649816326,-1.6662354680967217,2.4084622303065513,-2.064343460932934,-1.1642200829570661,0.0,-0.37188521027565,0.5167043805122375,0.11723881959915161,0.9708361029624939,-0.05089465528726578,-0.20349395275115967,0.11609116196632385
11.88176866396897,1.520630688720364,-1.663935664526184,2.3949710647631877,-2.1072420663012124,-1.2141666131313538,0.0,-0.34871605038642883,0.5461488962173462,0.11727851629257202,0.9787493348121643,-0.04179045185446739,-0.17887471616268158,0.09114357084035873
12.048257799424675,1.5235429325713752,-1.661664125625383,2.3816051727428222,-2.1505804689404693,-1.2641133537680656,0.0,-0.32515883445739746,0.5767596960067749,0.11974939703941345,0.9853127002716064,-0.03398213908076286,-0.15395867824554443,0.0655805841088295
12.214746481591154,1.5264126009597738,-1.6592498854054774,2.3686599687823247,-2.194119664124566,-1.3140599584180093,0.0,-0.301366925239563,0.6078248023986816,0.12445810437202454,0.990487277507782,-0.02749425172805786,-0.12881283462047577,0.03982745110988617
12.381235673225742,1.5290720709907362,-1.6567365683911026,2.3561825867660806,-2.237789468449269,-1.3640067159083853,0.0,-0.2773056924343109,0.6390630006790161,0.13143402338027954,0.9942771792411804,-0.022420791909098625,-0.103511281311512,0.013982829637825489
12.547724196597478,1.531009106685408,-1.6542887371927104,2.344259271214306,-2.2816865352669846,-1.413953272919906,0.0,-0.25268417596817017,0.6703172922134399,0.14075052738189697,-0.996691107749939,0.01901083067059517,0.07811394333839417,0.011983765289187431
12.71421351469781,1.5318380579705757,-1.6519138264965953,2.332960016655071,-2.3258221488040682,-1.4639000683500059,0.0,-0.22723610699176788,0.7013049125671387,0.15236195921897888,-0.9977380037307739,0.017461514100432396,0.05265670642256737,0.037961363792419434
12.880702070516746,1.5315996288353606,-1.6489949738970844,2.3225519118539752,-2.3699605754406337,-1.5138466350956865,0.0,-0.20097465813159943,0.7312759160995483,0.1655273139476776,-0.9974672794342041,0.017763961106538773,0.02717994898557663,0.06328166276216507
13.04718777989119,1.5305333137512207,-1.6447049379348755,2.313314437866211,-2.4137637615203857,-1.56379234790802,0.0,-0.1740759313106537,0.7594432234764099,0.1791611909866333,-0.9960004091262817,0.01974872313439846,0.0017352839931845665,0.08712059259414673
13.251018127718572,1.5171008388178118,-1.6539741353398225,2.3490824136806396,-2.4749128658686,-1.5578542380260227,0.0,-0.16704979538917542,0.7577027082443237,0.17229250073432922,-0.9941832423210144,0.02602274902164936,0.003633145708590746,0.10444699972867966
13.465019650184422,1.5029982643010271,-1.6637058675270975,2.3866352185568394,-2.539113322608355,-1.5516198152873975,0.0,-0.15980790555477142,0.7550637722015381,0.16596147418022156,-0.9919065237045288,0.032463438808918,0.005362797528505325,0.12263276427984238
13.688106352600027,1.4882969817668252,-1.6738507488224976,2.425782283071882,-2.6060393333330367,-1.5451207175510873,0.0,-0.15244130790233612,0.7514188885688782,0.1603207290172577,-0.989134669303894,0.0390106737613678,0.006876458413898945,0.14157484471797943
13.918097334817082,1.4731407112528052,-1.684309602659773,2.46614090472543,-2.6750366279981534,-1.538420480128984,0.0,-0.14508266746997833,0.7466983795166016,0.15552619099617004,-0.9858558773994446,0.04557420313358307,0.008125247433781624,0.16107472777366638
14.179076109787635,1.456816076310275,-1.6922694104359395,2.4927794996830253,-2.718238873660607,-1.5318924745329399,0.0,-0.1368260383605957,0.7431443929672241,0.15298008918762207,-0.9833983778953552,0.05274214223027229,0.009298538789153099,0.17337605357170105
14.457819119605272,1.4388189645641616,-1.695822202653036,2.495553271620892,-2.716705973236095,-1.525783903572345,0.0,-0.12685036659240723,0.7429250478744507,0.15287861227989197,-0.9829200506210327,0.061071641743183136,0.0107659213244915,0.17326979339122772
14.746333657432569,1.420737121526702,-1.6993917215914358,2.4983401026140957,-2.715165855840643,-1.5196465731578404,0.0,-0.11687922477722168,0.7425808906555176,0.15278401970863342,-0.9823591709136963,0.06943757832050323,0.01224302127957344,0.1732020378112793
14.986523704306034,1.41510298278389,-1.7071058342162013,2.509516271864933,-2.718372484003864,-1.5177368448690218,0.0,-0.11495810747146606,0.7349532842636108,0.15011486411094666,-0.9821695685386658,0.07204428315162659,0.012703223153948784,0.17317946255207062
15.18609851382747,1.4125565539492468,-1.7158351031950376,2.52275326809461,-2.722749344462246,-1.5168757874898962,0.0,-0.11506787687540054,0.7255552411079407,0.14676225185394287,-0.9820826053619385,0.07322277128696442,0.012910927645862103,0.17316268384456635
15.385690720454601,1.4100135976510277,-1.7245524681677336,2.535972213181084,-2.727120236245142,-1.516015904325055,0.0,-0.11522603034973145,0.7161746621131897,0.143360435962677,-0.9819942116737366,0.07439961284399033,0.013118395581841469,0.17314696311950684
15.585301143751291,1.407474106729321,-1.7332579536787778,2.549173144343427,-2.731485171659171,-1.5151571929534235,0.0,-0.11543243378400803,0.7068119645118713,0.13990962505340576,-0.9819043278694153,0.07557474076747894,0.013325654901564121,0.17313186824321747
15.831570807203617,1.4049390104298922,-1.7419483742332043,2.5623512311216157,-2.735842553495336,-1.5142999675930597,0.0,-0.11568654328584671,0.6974716782569885,0.13641145825386047,-0.9818131327629089,0.07674780488014221,0.013532646931707859,0.17311756312847137
16.066308149749272,1.4072919586225452,-1.739091525896824,2.5747405527701326,-2.7512061050504406,-1.5150958736013627,0.0,-0.11786291003227234,0.6915090084075928,0.12932991981506348,-0.9818981885910034,0.0756591260433197,0.013340583071112633,0.17312900722026825
16.265847867036097,1.4112915640888344,-1.7323538965767722,2.5869076368266963,-2.770311626074802,-1.5164486778030917,0.0,-0.12067190557718277,0.6865020990371704,0.12117022275924683,-0.9820395708084106,0.07380840927362442,0.01301412284374237,0.1731506735086441
16.465462909692757,1.415309985761759,-1.725584569973929,2.5991319611210013,-2.789507029322425,-1.517807846293402,0.0,-0.12348151206970215,0.6812959313392639,0.11313173174858093,-0.9821776747703552,0.07194878906011581,0.012686371803283691,0.17317423224449158
16.700802996540116,1.419345656849291,-1.718786185464602,2.611408759360354,-2.808784830460592,-1.5191728491293128,0.0,-0.1262875646352768,0.6758939623832703,0.10522344708442688,-0.9823123216629028,0.07008108496665955,0.012357305735349655,0.17320002615451813
16.81496027579332,1.4254427561705838,-1.7162737930640484,2.6125149335355,-2.812682811394228,-1.521275272890212,0.0,-0.1293349415063858,0.6751772165298462,0.10392862558364868,-0.9825107455253601,0.0672629326581955,0.011841859668493271,0.17322809994220734
17.151328596766756,1.4342553227749046,-1.7195008517093626,2.5986958616791416,-2.7960169344304022,-1.5243495673725622,0.0,-0.13279606401920319,0.6808024644851685,0.11141324043273926,-0.9827834963798523,0.06319263577461243,0.011080781929194927,0.17326413094997406
17.351017176653908,1.4429962808611974,-1.7227016881543173,2.584989079840049,-2.7794864798474337,-1.527398880974569,0.0,-0.1363539844751358,0.6862401962280273,0.11899355053901672,-0.9830350279808044,0.05915476754307747,0.010326565243303776,0.17330925166606903
17.550606328542994,1.4516607787903613,-1.7258745257855141,2.571402195920933,-2.7631006228179995,-1.5304215211850731,0.0,-0.14000047743320465,0.6914867758750916,0.12665945291519165,-0.98326575756073,0.05515163764357567,0.009579594247043133,0.17336341738700867
17.812078488159102,1.4602487035621898,-1.7290193232236009,2.5579353871185226,-2.7468595770423327,-1.5334174485835597,0.0,-0.1437293440103531,0.6965417861938477,0.13440486788749695,-0.9834761619567871,0.05118343234062195,0.008839976973831654,0.1734263300895691
18.026181191553842,1.4524651861649236,-1.728201284922288,2.5498292755729715,-2.7392339899181124,-1.5307090734212188,0.0,-0.1391238570213318,0.7022084593772888,0.13805973529815674,-0.9832863807678223,0.05478058382868767,0.009506937116384506,0.17336797714233398
18.22574391250826,1.4386430411604818,-1.7259176825333573,2.5437391143282375,-2.734828746209016,-1.5258966456948952,0.0,-0.1313033550977707,0.7080373167991638,0.1401638686656952,-0.982912540435791,0.06116728112101555,0.010694152675569057,0.17328312993049622
18.425309446056854,1.4248959391505254,-1.7236464782462713,2.5376820177009387,-2.7304474193868615,-1.5211103455332304,0.0,-0.12339247763156891,0.7137421369552612,0.1422707736492157,-0.9824939370155334,0.06751787662506104,0.011876667849719524,0.17322233319282532
18.6238452907405,1.4100190695065429,-1.7220958772455222,2.532925294864465,-2.7264163147404687,-1.5160380034801553,0.0,-0.11484161764383316,0.7184995412826538,0.14394143223762512,-0.9820042252540588,0.07440116256475449,0.013112750835716724,0.17309027910232544
18.823449511428844,1.3942328750373423,-1.7211263328548443,2.5292173129878393,-2.722667925267356,-1.510735557936731,0.0,-0.10577671974897385,0.7224592566490173,0.1452654004096985,-0.9814364910125732,0.08171283453702927,0.014394443482160568,0.17291051149368286
19.0230913202963,1.3785136151460198,-1.7201608994007604,2.525525053215877,-2.718935429229966,-1.505455595136368,0.0,-0.09665460139513016,0.7262864112854004,0.14660030603408813,-0.9808100461959839,0.08899125456809998,0.015674443915486336,0.17276109755039215
19.222698912372362,1.3628661796966375,-1.719199877205193,2.5218496641171813,-2.715219987713386,-1.500199757541913,0.0,-0.08748096972703934,0.7299798727035522,0.14794597029685974,-0.9801256656646729,0.0962335392832756,0.01695200428366661,0.17264196276664734
19.422192063530456,1.3472958261341008,-1.7182435891658634,2.5181923806005497,-2.711522849083786,-1.494969811083424,0.0,-0.07826162874698639,0.733538031578064,0.14930135011672974,-0.9793846607208252,0.10343674570322037,0.01822626031935215,0.17255264520645142
19.664331601423473,1.3317896512580363,-1.717291242803902,2.514550171863769,-2.707840949510897,-1.4897614216880215,0.0,-0.06899157166481018,0.7369632720947266,0.15066739916801453,-0.9785868525505066,0.11060643941164017,0.01949779875576496,0.17249266803264618
19.815753996191066,1.3208945426298615,-1.721343706279825,2.5192098230348097,-2.7076996948550605,-1.486112545125223,0.0,-0.06374350190162659,0.7341157793998718,0.14974743127822876,-0.977994978427887,0.11564388871192932,0.020390642806887627,0.17244231700897217
20.065864766351517,1.3148316623654028,-1.730669925233936,2.532613700993841,-2.7112838753450994,-1.4840980462942206,0.0,-0.06287271529436111,0.7247703671455383,0.14635959267616272,-0.977659285068512,0.1184500977396965,0.020885318517684937,0.1723819524049759
20.26524383049422,1.3090442607980097,-1.7400067236508199,2.5459983340835,-2.71485887692624,-1.4821755183209742,0.0,-0.062265243381261826,0.7154315710067749,0.14292478561401367,-0.9773305654525757,0.12112824618816376,0.02135804109275341,0.17232753336429596
20.464821620247896,1.3051939741587795,-1.7493852173521052,2.5592032405758416,-2.7183577651551376,-1.4808996793137468,0.0,-0.06278353184461594,0.7060550451278687,0.13954982161521912,-0.9771082401275635,0.12291033565998077,0.021672090515494347,0.1722872108221054
20.73554942647518,1.3013469535891808,-1.7587557555902424,2.5723969457867923,-2.7218536853939455,-1.479624922558161,0.0,-0.06337275356054306,0.6967064142227173,0.13611143827438354,-0.9768823385238647,0.1246907189488411,0.02198619395494461,0.1722484827041626
20.986122948842485,1.293184006077464,-1.7509720584939785,2.5833045912754544,-2.7398041227823096,-1.4769323519891226,0.0,-0.05999860167503357,0.6939709186553955,0.12796121835708618,-0.9763949513435364,0.12847021222114563,0.022650770843029022,0.1721488982439041
21.185845074968775,1.2841425985571282,-1.740026743147838,2.5939507148554273,-2.7605710156498424,-1.4739510539020904,0.0,-0.0559513233602047,0.6921727061271667,0.11901089549064636,-0.9758358597755432,0.1326552778482437,0.023388154804706573,0.17204612493515015
21.516253917809486,1.2749764110393351,-1.7289303720708296,2.604743765036181,-2.7816245113315254,-1.4709286110743878,0.0,-0.05194739252328873,0.6901305317878723,0.11009940505027771,-0.9752482175827026,0.1368965357542038,0.024137228727340698,0.1719520390033722
21.670547891815296,1.2710264988470106,-1.726136722098126,2.6003153415555693,-2.7796271862501922,-1.4696268232081522,0.0,-0.048918891698122025,0.6935023665428162,0.11118671298027039,-0.9749888181686401,0.13872380554676056,0.02446042001247406,0.17191332578659058
21.914959016333185,1.2702069755696008,-1.7283090499809592,2.586828244109432,-2.7638893098865127,-1.4693576286230334,0.0,-0.046462781727313995,0.7000845670700073,0.11827313899993896,-0.9749347567558289,0.13910306990146637,0.024527277797460556,0.17190398275852203
22.11453131128367,1.2693885486349232,-1.730478471764659,2.573359189447035,-2.748172487356017,-1.4690887941613366,0.0,-0.044033732265233994,0.7065435647964478,0.1254810392856598,-0.974880576133728,0.1394817978143692,0.02459408901631832,0.1718946397304535
22.314106698225103,1.2685712285809974,-1.7326449595158717,2.5599083509951712,-2.732476921027631,-1.468820323284559,0.0,-0.041632406413555145,0.7128781080245972,0.1328079104423523,-0.9748263359069824,0.13986003398895264,0.02466081827878952,0.1718854159116745
22.51368439484652,1.2677550290032382,-1.7348084771969396,2.5464759524969534,-2.716802871983582,-1.4685522204584827,0.0,-0.03925972059369087,0.7190864086151123,0.14025139808654785,-0.974772036075592,0.1402377486228943,0.024727480486035347,0.17187626659870148
22.73567839733655,1.2690162052605918,-1.7340834022020606,2.5330684019564442,-2.704238424749682,-1.4689672648378533,0.0,-0.037788692861795425,0.7259799242019653,0.14677369594573975,-0.9748560786247253,0.13965432345867157,0.0246242955327034,0.1718890219926834
22.966390567387098,1.2765043157253846,-1.7247028138084326,2.519695618958065,-2.700952248456546,-1.4714300439153178,0.0,-0.039033640176057816,0.7352750301361084,0.1501886546611786,-0.9753468632698059,0.13618914783000946,0.02401273511350155,0.17197158932685852
23.19106841669296,1.2839762865601594,-1.7153424440302667,2.506351659221698,-2.6976731550810293,-1.473887514798771,0.0,-0.040416169911623,0.7445734739303589,0.1535327136516571,-0.9758227467536926,0.1327303647994995,0.023403599858283997,0.17206047475337982
23.499541245955143,1.3017768554116123,-1.687270162617821,2.452834659974806,-2.6154792113890664,-1.4905686745414797,0.0,-0.042188968509435654,0.754077136516571,0.15200898051261902,-0.9812910556793213,0.12716558575630188,0.020714636892080307,0.143064945936203
23.871016920120095,1.3246307766625254,-1.6507694493600462,2.382397074953716,-2.5040365091395804,-1.5128463527965723,0.0,-0.04528743773698807,0.7634958028793335,0.15126991271972656,-0.9873400926589966,0.11920426040887833,0.016255734488368034,0.10337107628583908
24.29791015298543,1.3508940961877764,-1.608823479359375,2.3014514559640644,-2.375968539279979,-1.5384474641275592,0.0,-0.04999440908432007,0.7719597220420837,0.15337243676185608,-0.9923580884933472,0.10863753408193588,0.009879939258098602,0.05766740441322327
24.8034003474937,1.3769731858233472,-1.5671717486843275,2.2210736480023456,-2.2487989306475678,-1.5638689907753658,0.0,-0.05563593655824661,0.7781015038490295,0.15873095393180847,-0.9952335357666016,0.09671080857515335,0.0022812040988355875,0.012328516691923141
24.997165568550994,1.3820161963256155,-1.5485232079369022,2.1915333211714083,-2.213806428104522,-1.5707963271995145,0.0,-0.05449289456009865,0.7858603596687317,0.16085243225097656,0.9955484867095947,-0.09424996376037598,1.6899635468803353e-08,3.779221913191577e-08
25.23223462079686,1.3790877284273977,-1.53816533208008,2.1806943532640175,-2.2133253360539533,-1.5707963446972457,0.0,-0.050450678914785385,0.7949844598770142,0.16088804602622986,0.9954094290733337,-0.09570760279893875,1.9220875557834916e-08,3.756684918698738e-08
25.43179601927322,1.3761605358353306,-1.5278119669309882,2.1698601055731075,-2.2128444535121354,-1.570796362187357,0.0,-0.04635794460773468,0.8040843605995178,0.1608313024044037,0.9952682852745056,-0.09716437011957169,2.1109421766141168e-08,2.3641312907329848e-08
25.61943818380159,1.3777270122996326,-1.51705852052925,2.158286729472352,-2.212024514964179,-1.57079636276209,0.0,-0.045772433280944824,0.8134481310844421,0.16086173057556152,0.9953441023826599,-0.09638477116823196,1.604361976603741e-08,9.784359633613349e-08
25.819033705937088,1.3833661350753834,-1.5059489460352375,2.1460503719395247,-2.210897715060078,-1.5707963480023437,0.0,-0.04848608374595642,0.8230514526367188,0.16095253825187683,0.9956119060516357,-0.09357799589633942,9.472802098287048e-09,1.1489713358514564e-07
26.018662215518177,1.388995761313575,-1.4948580805666605,2.1338346209856844,-2.209772812737931,-1.5707963332674537,0.0,-0.05130608379840851,0.832626223564148,0.16093787550926208,0.995871365070343,-0.09077513962984085,2.0449377302611538e-08,2.7198829855024087e-08
26.384705384884697,1.3946121412922592,-1.4837933114099782,2.1216476131491255,-2.2086505572607864,-1.570796318567234,0.0,-0.05423003435134888,0.8421636819839478,0.1608184278011322,0.9961223602294922,-0.08797817677259445,1.780205849399863e-08,3.843313578499874e-08
26.60922444763604,1.401099831151365,-1.4766876310390866,2.1098705105616786,-2.1811206544255075,-1.5739169079535642,0.0,-0.05872047320008278,0.8382226824760437,0.15949612855911255,0.9963377714157104,-0.0847230926156044,0.0005860139499418437,0.011520078405737877
26.80878117087308,1.4078541521698213,-1.4709345497367152,2.0982760254788393,-2.144857650884129,-1.5780700033816109,0.0,-0.06361983716487885,0.8296273946762085,0.15820211172103882,0.9963306784629822,-0.0812549889087677,0.001455770805478096,0.026844322681427002
27.00833554717723,1.414572314083396,-1.4652122674250398,2.086743611209782,-2.108788780512435,-1.5822008653071697,0.0,-0.06840269267559052,0.8209097385406494,0.1573764979839325,0.9960836172103882,-0.0777258574962616,0.0024215220473706722,0.042073898017406464
27.20790003764454,1.4212494546694534,-1.4595249255658085,2.0752816142585684,-2.0729401479027536,-1.5863065040478523,0.0,-0.0730622187256813,0.8120936751365662,0.15701481699943542,0.9956001043319702,-0.07414193451404572,0.003479594364762306,0.05719396099448204
27.407469575880203,1.4278809002318449,-1.4538765050408677,2.0638980575042023,-2.0373368454751146,-1.5903840458423941,0.0,-0.07759218662977219,0.8032032251358032,0.15711119771003723,0.994884729385376,-0.0705096572637558,0.004626146517693996,0.07219011336565018
27.702566291318384,1.434491878812216,-1.448305313024589,2.052667103422057,-2.0022111077598814,-1.594394564483215,0.0,-0.0820225328207016,0.7943105697631836,0.15765443444252014,0.9939509034156799,-0.06682366132736206,0.005846413318067789,0.08695977926254272
27.99850721942683,1.4457691277728388,-1.448451812733246,2.0524665628612913,-2.0016301125874585,-1.5924503569125636,0.0,-0.09195292741060257,0.7933500409126282,0.15783962607383728,0.9943075180053711,-0.06130070611834526,0.005362691357731819,0.08698224276304245
28.33135889014932,1.4570450937607284,-1.4485982957751489,2.052266045115316,-2.001049183512802,-1.5905063705275322,0.0,-0.10187096148729324,0.7922670841217041,0.15802693367004395,0.9946325421333313,-0.055776625871658325,0.004879468120634556,0.08701269328594208
28.59699600762809,1.4479825580009553,-1.4435314712867602,2.049634797298753,-1.9950498183476832,-1.5615267243824802,0.0,-0.10920772701501846,0.793862521648407,0.15537238121032715,0.9939556121826172,-0.061534181237220764,-0.010179070755839348,0.09034423530101776
28.931970948986386,1.4050040489180426,-1.4297040357054591,2.04291230479195,-1.9799272263330818,-1.4870494303467816,0.0,-0.11209526658058167,0.8016016483306885,0.14988648891448975,0.9901604056358337,-0.08654776215553284,-0.04992734268307686,0.09797478467226028
29.1924750649733,1.3643692115412622,-1.4166306274329636,2.036556398186312,-1.9656292881230046,-1.4166334760482067,0.0,-0.11401769518852234,0.810997486114502,0.14726972579956055,0.9845593571662903,-0.11067694425582886,-0.08764760196208954,0.10349591821432114
29.42211050003673,1.3287847793575402,-1.4051820813056803,2.0309904517675466,-1.9531084059084183,-1.3549693495954322,0.0,-0.11474905908107758,0.820913553237915,0.1469840109348297,0.9780290126800537,-0.13210490345954895,-0.12069990485906601,0.10695336759090424
29.66162578781689,1.2978464001950742,-1.395228305477078,2.0261512187059467,-1.942222302698918,-1.301356350656225,0.0,-0.11444851756095886,0.8308095335960388,0.14821726083755493,0.9711087346076965,-0.1509021520614624,-0.14938904345035553,0.10890030115842819
30.017711271260797,1.2602446222131176,-1.371494810735447,2.017524340407722,-1.9062652734730825,-1.2285625788618721,0.0,-0.11895374208688736,0.836539626121521,0.14512237906455994,0.957753598690033,-0.17657901346683502,-0.18977895379066467,0.12454689294099808
30.415462246190103,1.2151785995079423,-1.3382372355145025,2.0060494234975947,-1.853770528904676,-1.1381612195035136,0.0,-0.12464089691638947,0.844174325466156,0.14304685592651367,0.936294436454773,-0.20996128022670746,-0.24038761854171753,0.14656968414783478
30.7377264834366,1.179156113648906,-1.3116535598052028,1.9968772133198105,-1.8118100655582623,-1.0659009778924835,0.0,-0.12670481204986572,0.8537791967391968,0.14452502131462097,0.9157616496086121,-0.23774565756320953,-0.28048524260520935,0.16181954741477966
30.983476715131253,1.151391543292765,-1.2911640150957133,1.9898076713731787,-1.7794687595940735,-1.0102059164796717,0.0,-0.1263917088508606,0.8633362054824829,0.14729362726211548,0.8978888988494873,-0.2596985101699829,-0.31101903319358826,0.17210263013839722
31.358273162069008,1.1284677118228938,-1.2742468122076502,1.983970700511574,-1.7527661440690097,-0.9642212610301395,0.0,-0.1246781274676323,0.8726197481155396,0.1504911184310913,0.8817964792251587,-0.27810779213905334,-0.3359035849571228,0.17961028218269348
31.523167419621323,1.114174577201242,-1.282504845203152,2.0015251388507274,-1.7600445085164065,-0.9426220723436507,0.0,-0.12405762076377869,0.8701449632644653,0.15296396613121033,0.8757813572883606,-0.2865358889102936,-0.3467903733253479,0.1750442534685135
31.739734254129516,1.1040011230295284,-1.3054076742584575,2.0332065726844486,-1.786886589935514,-0.9336510729079234,0.0,-0.12479938566684723,0.8603543043136597,0.1547369658946991,0.8755246996879578,-0.28961265087127686,-0.3503860533237457,0.16373905539512634
31.93927285382925,1.0939132141459387,-1.328117920826308,2.0646216075803303,-1.813502964967185,-0.9247555077070722,0.0,-0.12581755220890045,0.8505555391311646,0.15631388127803802,0.8751850724220276,-0.2925659120082855,-0.35383594036102295,0.15250039100646973
32.138843621410714,1.0839073011381586,-1.3506435754654778,2.0957812968610217,-1.8399029985343582,-0.9159322468527294,0.0,-0.12710656225681305,0.8407576084136963,0.15769599378108978,0.8747658729553223,-0.2953980565071106,-0.35714298486709595,0.1413271576166153
32.3384621099609,1.0739824844046648,-1.372986663389779,2.126688442000402,-1.8660890641845944,-0.9071804970720673,0.0,-0.1286609023809433,0.8309704065322876,0.1588849276304245,0.8742707371711731,-0.2981107532978058,-0.3603094518184662,0.13022153079509735
32.54601299292369,1.065096948158731,-1.3888598888731205,2.1490157017417015,-1.8798906471897279,-0.9038651900143787,0.0,-0.1287618726491928,0.8212488889694214,0.15874938666820526,0.8733890056610107,-0.3012661635875702,-0.3617473244667053,0.12477638572454453
32.75892229881573,1.0574277139446073,-1.3968332389748364,2.160877313250518,-1.8784325461463298,-0.907271271072834,0.0,-0.12691354751586914,0.8115826845169067,0.1571279615163803,0.8720777034759521,-0.30507874488830566,-0.36117297410964966,0.12633861601352692
32.95858949553657,1.0497339604470954,-1.4048320806478405,2.1727768474783318,-1.8769697834128993,-0.910688241701797,0.0,-0.12522485852241516,0.8018828630447388,0.155475914478302,0.8707385659217834,-0.3088863790035248,-0.3606131672859192,0.12791304290294647
33.15817928072501,1.0420255682026611,-1.4128461415527793,2.184699022705771,-1.8755042375108284,-0.9141117137306678,0.0,-0.12369880825281143,0.7921649813652039,0.15379539132118225,0.8693730235099792,-0.31268399953842163,-0.36006879806518555,0.12949763238430023
33.35742235314537,1.0303361766241301,-1.425310097651717,2.2049866057226732,-1.88444412390045,-0.9110707417672336,0.0,-0.12252167612314224,0.7824119925498962,0.15214067697525024,0.8671456575393677,-0.3178163170814514,-0.36204129457473755,0.1264013648033142
33.55690548327256,1.0005086659034814,-1.458055762010417,2.26343967854856,-1.941052019041198,-0.8783855810458608,0.0,-0.12276093661785126,0.7725046277046204,0.15101343393325806,0.8608007431030273,-0.3286552429199219,-0.37506818771362305,0.10164400190114975
33.756391537752634,0.9711820566961668,-1.490251519506757,2.32091113299832,-1.996709282377361,-0.8462493111327838,0.0,-0.12384140491485596,0.7626102566719055,0.15036480128765106,0.8541128039360046,-0.33858612179756165,-0.38719066977500916,0.07703385502099991
33.95590365063835,0.942539077726171,-1.5216967642799146,2.3770428749785335,-2.051069123707657,-0.8148621672326022,0.0,-0.12574128806591034,0.7528194785118103,0.1501554697751999,0.847179114818573,-0.3475785255432129,-0.3983611464500427,0.052773453295230865
34.31211104726381,0.9147089163409632,-1.5522496700286865,2.431581735610962,-2.103886365890503,-0.784365713596344,0.0,-0.1284198760986328,0.7432078719139099,0.15033620595932007,0.8400896787643433,-0.35563668608665466,-0.4085702896118164,0.029020776972174644
34.47577812282557,0.9224860290786991,-1.5511282660803123,2.425989516286269,-2.0547862432219763,-0.74295445943061,0.0,-0.15050733089447021,0.7443809509277344,0.16528619825839996,0.8264703750610352,-0.3600965142250061,-0.43062663078308105,0.04286902770400047
34.639448575983856,0.930263167222331,-1.5500066268804036,2.4203967858308886,-2.005685107274489,-0.7015422779727852,0.0,-0.17125673592090607,0.7460277676582336,0.18100811541080475,0.8119387030601501,-0.36514726281166077,-0.4519121050834656,0.056553591042757034
34.803119029142145,0.938040357439642,-1.5488852220626295,2.414804522974905,-1.9565839713270015,-0.6601301654196097,0.0,-0.19063198566436768,0.7482081651687622,0.19736284017562866,0.7965307831764221,-0.3707849085330963,-0.47238850593566895,0.07004555314779282
34.966789482300435,0.9458175850592883,-1.5477637355216458,2.4092119492316466,-1.907482835379514,-0.6187181115964214,0.0,-0.20860648155212402,0.7509757280349731,0.2142077386379242,0.7802839279174805,-0.37700361013412476,-0.4920199513435364,0.083315908908844
35.130459935458724,0.9535947617183848,-1.546642150990356,2.4036195020676128,-1.8583816994320261,-0.5773060459152541,0.0,-0.22516363859176636,0.7543743848800659,0.23139746487140656,0.7632371187210083,-0.383796751499176,-0.5107722282409668,0.0963360145688057
35.29413038861701,0.9613719886919646,-1.5455207558298596,2.398027113224013,-1.8092805634845388,-0.5358938513001005,0.0,-0.24029596149921417,0.7584387063980103,0.24878539144992828,0.7454308271408081,-0.39115601778030396,-0.528613269329071,0.10907726734876633
35.4578008417753,0.9691492295670694,-1.5443992666028656,2.392434459887951,-1.760179427537051,-0.49448171961943477,0.0,-0.25400465726852417,0.7631945013999939,0.26622384786605835,0.7269066572189331,-0.3990715444087982,-0.5455122590065002,0.12151118367910385
35.62147129493359,0.9769264741426622,-1.543277777623292,2.3868420245254036,-1.7110782915895635,-0.45306961333490076,0.0,-0.26630038022994995,0.7686560153961182,0.2835661768913269,0.7077074646949768,-0.40753254294395447,-0.5614407658576965,0.13361024856567383
35.78514174809188,0.9847036017654641,-1.5421560839720954,2.3812494002741618,-1.661977155642076,-0.4116575879710652,0.0,-0.2772012948989868,0.7748289108276367,0.3006674349308014,0.6878771185874939,-0.4165264368057251,-0.5763723254203796,0.14534658193588257
35.94881220125017,0.9924807835731856,-1.5410346829302184,2.3756567543440195,-1.6128760196945884,-0.37024551113345544,0.0,-0.2867337465286255,0.7817077040672302,0.3173861503601074,0.6674610376358032,-0.42603960633277893,-0.5902822613716125,0.15669308602809906
36.11248265440846,1.0002581034693698,-1.5399131924655924,2.3700643332503595,-1.5637748837471008,-0.3288333581362975,0.0,-0.29493123292922974,0.7892767190933228,0.333584189414978,0.6465050578117371,-0.436056911945343,-0.6031482219696045,0.16762350499629974
36.27615310756675,1.008035279864419,-1.5387917372398319,2.364471839049781,-1.5146737477996133,-0.2874212677490732,0.0,-0.3018334209918976,0.7975103855133057,0.3491291403770447,0.6250559687614441,-0.4465620815753937,-0.6149499416351318,0.17811161279678345
36.43982356072504,1.0158124049576247,-1.5376700957923113,2.358879204910629,-1.4655726118521257,-0.2460091557200233,0.0,-0.3074861168861389,0.8063730597496033,0.3638944625854492,0.6031616926193237,-0.4575374126434326,-0.6256690621376038,0.1881321221590042
36.60349401388333,1.0235896640753541,-1.5365486070603154,2.3532868574890524,-1.416471475904638,-0.2045970233551706,0.0,-0.3119409680366516,0.8158186674118042,0.3777610659599304,0.5808703899383545,-0.46896401047706604,-0.6352894306182861,0.1976606398820877
36.76716446704162,1.0313668445360316,-1.535427169789935,2.3476943014122194,-1.3673703399571506,-0.16318481889675032,0.0,-0.3152535557746887,0.8257922530174255,0.3906177878379822,0.5582308173179626,-0.4808216392993927,-0.6437973976135254,0.20667314529418945
36.930834920199906,1.039143891959881,-1.5343056525103946,2.342101800343525,-1.3182692040096629,-0.12177286189279601,0.0,-0.3174833059310913,0.8362302184104919,0.4023624062538147,0.5352927446365356,-0.493088960647583,-0.6511810421943665,0.21514679491519928
37.094505373358196,1.0469212212453938,-1.533184238896235,2.336509384191909,-1.2691680680621755,-0.0803607549435768,0.0,-0.3186938464641571,0.8470597863197327,0.41290271282196045,0.5121055245399475,-0.5057435035705566,-0.6574311852455139,0.22305962443351746
37.258175826516485,1.054698397094128,-1.5320626521323317,2.330916730855802,-1.2200669321146878,-0.03894861615172508,0.0,-0.31894952058792114,0.8582011461257935,0.4221569299697876,0.4887194335460663,-0.5187617540359497,-0.6625404953956604,0.2303902506828308
37.421846279674774,1.0624755775583574,-1.5309412690481359,2.325324283151337,-1.1709657961672002,0.002463544281253116,0.0,-0.31831806898117065,0.8695665001869202,0.4300539195537567,0.46518436074256897,-0.5321188569068909,-0.6665040254592896,0.2371188849210739
37.58551667865037,1.0702528100666313,-1.52981979499143,2.319731846492838,-1.1218646764745204,0.04387560101573222,0.0,-0.3168673813343048,0.8810620307922363,0.4365348219871521,0.4415507912635803,-0.5457891821861267,-0.6693190336227417,0.24322643876075745
37.74918698730921,1.07803000244404,-1.528698230648582,2.314139175177494,-1.0727635838768699,0.08528764363653239,0.0,-0.31466537714004517,0.8925891518592834,0.4415530264377594,0.4178689122200012,-0.5597459673881531,-0.6709849834442139,0.24869491159915924
37.9128574404675,1.08580724792802,-1.5275768150506628,2.30854683584895,-1.0236624479293823,0.12669980542398382,0.0,-0.31178051233291626,0.9040431976318359,0.4450739920139313,0.39418864250183105,-0.573961615562439,-0.6715037226676941,0.2535077631473541
38.07652796587104,1.0935844351528554,-1.5264552839631669,2.302954276616077,-0.9745612903083216,0.16811187955345702,0.0,-0.3082791566848755,0.9153169393539429,0.44707605242729187,0.3705599308013916,-0.588407576084137,-0.6708790063858032,0.2576494514942169
38.24019868995983,1.1013617011376107,-1.52533371837896,2.297361772535482,-0.9254600730816833,0.20952406744500143,0.0,-0.30422690510749817,0.9262999892234802,0.44755056500434875,0.34703218936920166,-0.603054404258728,-0.6691170930862427,0.26110580563545227
38.40386941404905,1.1091388382500118,-1.5242122269241718,2.2917693465084112,-0.8763588558549195,0.2509362095902373,0.0,-0.29968613386154175,0.936880350112915,0.4465024769306183,0.3236546516418457,-0.6178721189498901,-0.6662263870239258,0.26386377215385437
38.56754004782927,1.1169160728994387,-1.5230907354693834,2.2861766820627616,-0.827257665720853,0.29234835309028573,0.0,-0.29471737146377563,0.9469456076622009,0.44394898414611816,0.3004758358001709,-0.6328296661376953,-0.6622172594070435,0.26591190695762634
38.73121050098756,1.1246933787959201,-1.521969246242322,2.2805842237950325,-0.7781565297733652,0.33376050915407174,0.0,-0.28937751054763794,0.9563827514648438,0.4399205446243286,0.27754369378089905,-0.6478956937789917,-0.6571022868156433,0.267240047454834
38.89488079158677,1.1324704285720033,-1.520847638796102,2.2749918571647156,-0.7290554425936013,0.3751725284136653,0.0,-0.283719003200531,0.9650818109512329,0.43446069955825806,0.2549055218696594,-0.6630379557609558,-0.6508962512016296,0.2678392231464386
39.058551407304144,1.1402477174068253,-1.5197261473413137,2.269399192719066,-0.6799542578783901,0.41658463669233875,0.0,-0.2777915596961975,0.9729342460632324,0.4276248514652252,0.2326076626777649,-0.6782239079475403,-0.6436158418655396,0.26770249009132385
39.22222204108305,1.1480248978692789,-1.5186047642588938,2.263806745018153,-0.6308530677447184,0.4579967666456437,0.0,-0.2716393768787384,0.9798353910446167,0.4194802939891815,0.21069569885730743,-0.6934205293655396,-0.635279655456543,0.26682376861572266
39.38589231362073,1.1558021055917318,-1.517483169877322,2.258214194425546,-0.581751985983415,0.49940888245748133,0.0,-0.2653021216392517,0.9856857061386108,0.4101065993309021,0.18921424448490143,-0.7085942625999451,-0.6259086728096008,0.26519885659217834
39.54956289321372,1.1635793077288168,-1.5163616784225336,2.25262170337537,-0.5326508121055196,0.540821015120214,0.0,-0.25881490111351013,0.9903906583786011,0.39959338307380676,0.1682068109512329,-0.723711371421814,-0.6155252456665039,0.2628249526023865
39.71323361730293,1.17135647735356,-1.5152401869685346,2.2470292773482994,-0.4835495948787557,0.5822331532016044,0.0,-0.25220751762390137,0.993862509727478,0.3880406618118286,0.14771559834480286,-0.7387377619743347,-0.6041539311408997,0.2597009241580963
39.87690419689245,1.1791336765970262,-1.5141187733527364,2.241436709477337,-0.4344484210019008,0.6236453427893744,0.0,-0.24550457298755646,0.9960217475891113,0.37555819749832153,0.12778198719024658,-0.7536392211914062,-0.5918211340904236,0.2558269202709198
40.040574451369665,1.1869109168294425,-1.51299712478574,2.2358442239066836,-0.3853473446587351,0.6650574098329812,0.0,-0.23872587084770203,0.9967964887619019,0.36226409673690796,0.10844574868679047,-0.7683814167976379,-0.578554630279541,0.25120511651039124
40.204244687784694,1.1946880299124456,-1.51187572349455,2.2302515984175404,-0.3362462737342273,0.706469403696986,0.0,-0.2318858802318573,0.9961246252059937,0.3482847213745117,0.08974544703960419,-0.7829299569129944,-0.5643843412399292,0.245838925242424
40.36791518609697,1.2024652559776507,-1.5107541790906176,2.224659156886975,-0.2871451242405435,0.7478815285881513,0.0,-0.22499407827854156,0.9939538836479187,0.33375197649002075,0.07171784341335297,-0.7972506284713745,-0.5493413209915161,0.2397335022687912
40.531585463150854,1.2102424385930177,-1.5096327260891655,2.219066717136536,-0.23804404112437813,0.7892935719342066,0.0,-0.21805498003959656,0.9902430772781372,0.3188049793243408,0.054398633539676666,-0.8113090991973877,-0.5334585905075073,0.23289543390274048
40.69525575826711,1.2180196800052001,-1.5085112383467232,2.213474157903782,-0.1889429525895013,0.8307056541923677,0.0,-0.2110692858695984,0.9849611520767212,0.30358660221099854,0.03782176226377487,-0.8250714540481567,-0.5167703032493591,0.2253333181142807
40.85892638753079,1.2257969363292587,-1.5073897143811714,2.2078816885274484,-0.13984176381039534,0.8721178193664556,0.0,-0.20403213798999786,0.9780908226966858,0.28824383020401,0.022019460797309875,-0.838503897190094,-0.49931231141090393,0.21705672144889832
41.0225970551759,1.23357406260316,-1.5062682771117781,2.2022892408281143,-0.09074056351686358,0.9135299899597933,0.0,-0.1969357430934906,0.9696247577667236,0.2729256749153137,0.007022280246019363,-0.8515729904174805,-0.4811214804649353,0.2080773264169693
41.18626749224736,1.2413513786987709,-1.5051467911025744,2.196696690235507,-0.04163943239542657,0.9549421057714338,0.0,-0.1897687017917633,0.9595699310302734,0.25778305530548096,-0.007140651345252991,-0.8642457127571106,-0.462236225605011,0.198408305644989
41.34993814606357,1.2491285808366452,-1.504025223786181,2.1911040474605423,0.007461763749436433,0.9963542655266666,0.0,-0.18251550197601318,0.9479449987411499,0.24296703934669495,-0.020442519336938858,-0.8764896988868713,-0.4426959156990051,0.1880640983581543
41.51360880072695,1.2569057504621777,-1.502903688985287,2.18551153474126,0.056562960148449665,1.037766381935004,0.0,-0.17515909671783447,0.9347810745239258,0.22862671315670013,-0.03285807743668556,-0.8882730603218079,-0.4225407838821411,0.17706109583377838
41.67727938483215,1.2646830255641286,-1.5017822753679462,2.179919205287478,0.10566413538000968,1.0791786311264822,0.0,-0.16767936944961548,0.9201232194900513,0.2149103879928589,-0.04436393827199936,-0.8995642066001892,-0.4018124043941498,0.16541683673858643
41.84094991475678,1.2724602036686108,-1.5006607115197166,2.174326709840057,0.1547652943573985,1.120590771291522,0.0,-0.16005459427833557,0.9040286540985107,0.20196236670017242,-0.05493868887424469,-0.9103327989578247,-0.38055336475372314,0.15315058827400208
42.00462057111326,1.2802373407841692,-1.4995392092256392,2.1687340670729855,0.2038664912643435,1.1620027793282808,0.0,-0.15226227045059204,0.8865665197372437,0.1899229884147644,-0.0645628347992897,-0.9205487966537476,-0.35880646109580994,0.14028304815292358
42.168291137155634,1.2880146124529024,-1.498417666064408,2.1631416317115066,0.2529676610770568,1.2034149668881067,0.0,-0.1442788541316986,0.8678185343742371,0.17892605066299438,-0.073218934237957,-0.930183470249176,-0.33661559224128723,0.12683634459972382
42.33196123809839,1.295791685615866,-1.4972961450639104,2.157549177151834,0.30206869135988157,1.2448270386377986,0.0,-0.13608050346374512,0.8478785157203674,0.1691005825996399,-0.08089157938957214,-0.9392086863517761,-0.3140255808830261,0.11283385008573532
42.495631519674724,1.3035690056848697,-1.496174638372625,2.1519566314967875,0.35116977583278297,1.2862390799593084,0.0,-0.1276443600654602,0.8268505334854126,0.16056671738624573,-0.08756717294454575,-0.947597324848175,-0.29108116030693054,0.09830056875944138
42.65930175608407,1.3113461985977979,-1.49505315137324,2.1463641843358308,0.4002708467555868,1.3276510968632376,0.0,-0.11894811689853668,0.8048492670059204,0.15343618392944336,-0.09323453158140182,-0.9553235173225403,-0.2678276598453522,0.08326259255409241
42.82297202862701,1.3191232900242076,-1.4939316648321936,2.1407716105914165,0.4493719285184685,1.3690630972361566,0.0,-0.10997094959020615,0.7820004224777222,0.14781197905540466,-0.09788426011800766,-0.9623621106147766,-0.2443111389875412,0.06774742901325226
42.98664214667152,1.3269005226873016,-1.4928101116313164,2.1351792637848783,0.4984729639318236,1.4104751672620006,0.0,-0.10069446265697479,0.7584371566772461,0.14378607273101807,-0.10150903463363647,-0.9686897993087769,-0.2205774486064911,0.051783788949251175
43.150312956053696,1.3346778191588884,-1.4916886229575779,2.1295866026329464,0.5475742067464768,1.4518873564511174,0.0,-0.09110228717327118,0.7343014478683472,0.14144033193588257,-0.10410366952419281,-0.974283754825592,-0.19667275249958038,0.0354013629257679
43.31398140128039,1.3424547910690308,-1.4905670881271362,2.1239941120147705,0.5966747403144836,1.493298888206482,0.0,-0.08118125051259995,0.7097429633140564,0.140844464302063,-0.10566523671150208,-0.9791229367256165,-0.17264388501644135,0.01863151788711548
43.363981401280384,1.3532195154902047,-1.4824887079244158,2.1093532277589873,0.6024929386095337,1.4969048987288476,0.0,-0.08486004173755646,0.7183911800384521,0.14400583505630493,-0.10068432241678238,-0.9796498417854309,-0.17272387444972992,0.01775199919939041
43.562324462191086,1.3639412019590447,-1.4744426671091413,2.094770953919725,0.6082878415292884,1.5004964736628295,0.0,-0.08872509002685547,0.7269754409790039,0.1471238136291504,-0.09572173655033112,-0.9801462292671204,-0.17281749844551086,0.016877533867955208
43.7585314602711,1.371161689318814,-1.4663317227187131,2.079835865743408,0.614631800835641,1.50291896924889,0.0,-0.0907813087105751,0.7359879612922668,0.150408536195755,-0.09237965941429138,-0.9804659485816956,-0.17287874221801758,0.016288787126541138
43.95692358325503,1.3763613735599243,-1.4581659778489666,2.0646642015886267,0.6213083850233088,1.50466672617321,0.0,-0.09179677814245224,0.7452611327171326,0.15378132462501526,-0.08997324854135513,-0.9806897044181824,-0.1729186475276947,0.015864510089159012
44.14266953776858,1.389700441695025,-1.4280058877489332,2.025654530241508,0.6668487927509424,1.51246819821251,0.0,-0.0960446372628212,0.7533882856369019,0.1552506685256958,-0.0848977342247963,-0.9842304587364197,-0.15446782112121582,0.01491206418722868
44.399924898369015,1.4096580667362164,-1.379950026049406,1.9672608275164365,0.7440254009310717,1.5251962317695047,0.0,-0.10315993428230286,0.7602900266647339,0.15555733442306519,-0.07717077434062958,-0.9895821213722229,-0.12084750831127167,0.012950838543474674
44.65528545750853,1.4294686948907493,-1.3322481173899292,1.9092972206811978,0.8206335686729269,1.53783051763346,0.0,-0.11057959496974945,0.7668222188949585,0.1563514769077301,-0.06890980899333954,-0.9937355518341064,-0.08738064765930176,0.01027661096304655
44.90711583361158,1.4490054548187692,-1.285205654610914,1.8521349206032434,0.8961826815038408,1.550290143237486,0.0,-0.11822071671485901,0.7730146646499634,0.1576223373413086,-0.060215648263692856,-0.9966810941696167,-0.054336659610271454,0.006944134831428528
45.154118676478724,1.4681676993315567,-1.2390649855554303,1.7960684093166852,0.9702835343639846,1.5625109205435386,0.0,-0.12601017951965332,0.7789072394371033,0.15934178233146667,-0.05118924006819725,-0.9984434247016907,-0.02193654701113701,0.0030204979702830315
45.34301233365641,1.4826462889412357,-1.2046337172208414,1.753309609475274,1.0221204705175073,1.5707963637375313,0.0,-0.13233821094036102,0.7857658267021179,0.16079705953598022,0.04406072199344635,0.9990288019180298,-5.924677637381137e-08,1.8680546887139826e-08
45.5413346633266,1.487463055798934,-1.1944337180276619,1.7379331358762193,1.0272969198692072,1.5707963418112345,0.0,-0.13527639210224152,0.7952365875244141,0.16083082556724548,0.04165460169315338,0.999131977558136,-3.351373223381415e-08,1.9280566476709282e-08
45.80930475076688,1.4922961557819705,-1.184199131761826,1.7225045223505333,1.032490921989926,1.570796319810588,0.0,-0.1383233219385147,0.8046791553497314,0.16079100966453552,0.0392400324344635,0.9992297291755676,-4.42994654292761e-08,1.9475409729352577e-08
46.03526803047187,1.5016843840081142,-1.1837202916309537,1.7158140317182318,1.0387025563552847,1.570796314870016,0.0,-0.14568586647510529,0.8060294389724731,0.16452881693840027,0.03454907238483429,0.9994029998779297,3.771989298684275e-08,2.321359282575486e-08
46.233669299043484,1.5123828181583416,-1.1860647393265877,1.7116575667106628,1.045203455541002,1.570796314870016,0.0,-0.15427042543888092,0.8049416542053223,0.1693795621395111,0.029202576726675034,0.9995734691619873,-3.840257001286318e-09,2.2517216535788975e-08
46.43210498929746,1.5230674208292203,-1.1884061560010994,1.7075064753922813,1.0516959500338852,1.570796314870016,0.0,-0.1628386229276657,0.8037356734275818,0.1742348074913025,0.023862158879637718,0.999715268611908,9.17678910639097e-09,2.1986078735380943e-08
46.77411630466803,1.5337314217872442,-1.1907430580300515,1.703363388076857,1.058175925904282,1.570796314870016,0.0,-0.17138318717479706,0.8024125695228577,0.17909201979637146,0.018531372770667076,0.9998282790184021,3.90018080054233e-08,2.2696823975820735e-08
46.93942236366301,1.5337544708335957,-1.185574958802004,1.6964141549578828,1.059957068967029,1.570796314870016,0.0,-0.17122505605220795,0.8071737289428711,0.17856022715568542,0.018519869074225426,0.9998285174369812,8.19330594481471e-08,2.347230321220195e-08
47.1410143987467,1.5281624889347811,-1.176446611031216,1.687984171276894,1.0592587259988153,1.570796314870016,0.0,-0.16640911996364594,0.815141499042511,0.175126314163208,0.021315308287739754,0.9997727870941162,-4.5250367008975445e-08,2.054785142036053e-08
47.33932277720472,1.5225851797999888,-1.1673422150712849,1.6795763069738823,1.05856221540806,1.570796314870016,0.0,-0.16152368485927582,0.8230322003364563,0.17163562774658203,0.024103250354528427,0.99970942735672,1.0262445115927221e-08,2.226802386928739e-08
47.53783094298145,1.5170121728996753,-1.158244842076239,1.6711749283439477,1.057866242092863,1.570796314870016,0.0,-0.15656083822250366,0.8308589458465576,0.1680823266506195,0.026888860389590263,0.9996384382247925,2.6862599256105568e-08,2.2325860271621423e-08
47.73609754230878,1.5114559998758739,-1.1491749486907332,1.6627989269964962,1.0571723710411394,1.570796314870016,0.0,-0.15153290331363678,0.8386035561561584,0.1644746959209442,0.029665805399417877,0.9995598793029785,-5.241727407678809e-08,2.073652005663007e-08
48.06774090277086,1.5059020026159389,-1.140108607020808,1.6544262056406858,1.0564787717051372,1.570796314870016,0.0,-0.1464276760816574,0.8462855219841003,0.160803884267807,0.03244144096970558,0.9994735717773438,-3.166849182889564e-08,2.0549521195789566e-08
48.396145963920944,1.4996782258556571,-1.1240263498938772,1.6428664210256887,1.0895971985135766,1.574306340235787,0.0,-0.13995984196662903,0.8392831683158875,0.15840184688568115,0.035512182861566544,0.9991904497146606,-0.018869834020733833,0.0010845423676073551
48.59455183322608,1.4932971269890305,-1.1074903843215564,1.630997084871267,1.12382284100599,1.577933056495491,0.0,-0.13340875506401062,0.8320823311805725,0.15649306774139404,0.03857489675283432,0.9985167384147644,-0.0383664071559906,0.002081004437059164
48.79289649601161,1.4867576040374224,-1.0905438789237552,1.6188330676973368,1.1588982064392468,1.581649813548629,0.0,-0.12678076326847076,0.8248386383056641,0.15509659051895142,0.04161990061402321,0.9974245429039001,-0.058338094502687454,0.0029695273842662573
48.99986529357042,1.480055417642796,-1.0731758478373776,1.6063664839709093,1.1948460330212327,1.5854590208467771,0.0,-0.12007176131010056,0.8175867199897766,0.1542416512966156,0.04463835060596466,0.9958844184875488,-0.07878774404525757,0.0037390603683888912
49.22995812399837,1.470826657339126,-1.0658957141125234,1.6011199048738392,1.209241889989624,1.5881270158717187,0.0,-0.11148510873317719,0.8156187534332275,0.15390679240226746,0.049023356288671494,0.9949881434440613,-0.08704552799463272,0.004288797732442617
49.48885645846144,1.4599936000511533,-1.065488654953962,1.6007928336775052,1.2089662491009856,1.5899979384960745,0.0,-0.10167195647954941,0.8170440196990967,0.15365609526634216,0.054331909865140915,0.9947124123573303,-0.08702104538679123,0.004753215704113245
49.68362995613013,1.4546174435432297,-1.0618817287221698,1.5957634857153207,1.2102925050068467,1.5909265068077685,0.0,-0.09643497318029404,0.8207951188087463,0.1530236005783081,0.056965846568346024,0.9945646524429321,-0.08701208233833313,0.004983904771506786
49.982111140056325,1.4606264338035722,-1.0515957182931006,1.5809191916828607,1.2149621910957251,1.5898889697763314,0.0,-0.10085315257310867,0.8295519351959229,0.15154415369033813,0.054021768271923065,0.9947291016578674,-0.08702416718006134,0.004726134706288576
50.180496240868045,1.466640988386802,-1.041300183021958,1.5660611518392988,1.219636201312295,1.588850471985965,0.0,-0.10539021342992783,0.8382351398468018,0.1499921679496765,0.0510745644569397,0.9948847889900208,-0.08703848719596863,0.004468320403248072
50.37754649566002,1.4726740779744645,-1.0312999437970225,1.5508743102984974,1.224930228019149,1.5878083732347257,0.0,-0.11005797237157822,0.8468419909477234,0.14889392256736755,0.048117827624082565,0.9950319528579712,-0.08705306053161621,0.004209715407341719
50.57590600372739,1.478779680275107,-1.0228224213010964,1.534083122606057,1.2333303789211152,1.5867517366246058,0.0,-0.11490747332572937,0.8553619384765625,0.1503969430923462,0.04512547329068184,0.9951727390289307,-0.08705899864435196,0.003947652876377106
50.77426748619862,1.4849077215598667,-1.0143137426663866,1.5172302248356608,1.2417614016099074,1.58569121671994,0.0,-0.11989019066095352,0.8638086915016174,0.15187785029411316,0.042121682316064835,0.9953046441078186,-0.0870673656463623,0.0036847444716840982
50.97268330202885,1.4910599365420811,-1.0057714992736246,1.5003108463036305,1.2502256827221083,1.5846265133109327,0.0,-0.12500715255737305,0.8721819519996643,0.15333637595176697,0.039105746895074844,0.9954277276992798,-0.08707814663648605,0.0034209026489406824
51.17109509454556,1.4972347527083627,-0.9971978745302719,1.4833293116230244,1.2587210587775068,1.5835578985370278,0.0,-0.1302569955587387,0.8804763555526733,0.15477168560028076,0.036078374832868576,0.9955417513847351,-0.08709145337343216,0.0031561285723000765
51.47494309609563,1.5034322987414996,-0.9885926897625177,1.466285266899707,1.2672477068192165,1.5824853501283596,0.0,-0.13563935458660126,0.8886891007423401,0.1561836302280426,0.033039551228284836,0.9956466555595398,-0.08710721135139465,0.002890567993745208
51.69942114298007,1.498006492969735,-0.9843535365491021,1.4591079563434486,1.2701166704976812,1.5834250054439267,0.0,-0.13005121052265167,0.8934294581413269,0.15605950355529785,0.03569991514086723,0.9955551028251648,-0.08709713816642761,0.003123289905488491
51.8992458573621,1.488777883017498,-0.9815510314102188,1.4551741618837557,1.2711274011925533,1.585022991632816,0.0,-0.12080369889736176,0.8969624638557434,0.15543437004089355,0.04022432491183281,0.9953824877738953,-0.08708275109529495,0.0035191739443689585
52.09483835018093,1.479138798649361,-0.9804674351268152,1.4537896565464192,1.2712765045612595,1.5866896005866755,0.0,-0.11123534291982651,0.898953914642334,0.15508544445037842,0.044949404895305634,0.9951805472373962,-0.08706066012382507,0.003932207357138395
52.29321497595722,1.4689797524293848,-0.981523904368029,1.4555792522311652,1.2703525149256119,1.5884431860030501,0.0,-0.1013169214129448,0.8990440964698792,0.15508458018302917,0.049928776919841766,0.9949442148208618,-0.08702835440635681,0.004367185290902853
52.4916320770126,1.4588080685957328,-0.9825816878320391,1.4573710741306967,1.2694273758686698,1.5901989528382863,0.0,-0.09139608591794968,0.899024486541748,0.15508460998535156,0.054913170635700226,0.9946817755699158,-0.08700273185968399,0.004803163930773735
52.72475851214762,1.4486304352267274,-0.9836400900058144,1.459163944087552,1.2685016956872084,1.5919557466418226,0.0,-0.08148054033517838,0.8988959193229675,0.15508562326431274,0.059899233281612396,0.994393527507782,-0.08698354661464691,0.0052397362887859344
52.95335248653244,1.440242187796384,-0.9914441158914229,1.4708739527822396,1.2644650128938875,1.5933953570898949,0.0,-0.07411660999059677,0.8926530480384827,0.15624630451202393,0.06400778144598007,0.9941353797912598,-0.08698590099811554,0.005594738759100437
53.151703612696636,1.4320027012580399,-0.9998629632719128,1.4834881713109456,1.2601441820743702,1.5948085336696132,0.0,-0.0670890361070633,0.8857629299163818,0.1574699878692627,0.06804243475198746,0.9938646554946899,-0.08699405938386917,0.0059430040419101715
53.354125208957704,1.4237427186842202,-1.00830275285478,1.4961337681869862,1.2558126030242018,1.5962252255797074,0.0,-0.06016956642270088,0.8787569999694824,0.15865221619606018,0.07208599150180817,0.9935762882232666,-0.08700640499591827,0.006292132660746574
53.54863530861871,1.4137017195721597,-1.0114563969689678,1.5008470959154676,1.2539333334987848,1.5979497377238203,0.0,-0.05091094970703125,0.876532256603241,0.15903940796852112,0.07700146734714508,0.9932100772857666,-0.08694463968276978,0.006724298000335693
53.8018816786265,1.4031977100530302,-1.0132727779754782,1.5035537358988968,1.2526739701716947,1.5997542615692846,0.0,-0.041054487228393555,0.8754315376281738,0.15923190116882324,0.08214219659566879,0.9928013682365417,-0.08686977624893188,0.007178915198892355
53.96887419319168,1.398946352322171,-1.0113237839149294,1.5006590056114228,1.253449430656309,1.600486084305074,0.0,-0.03665880858898163,0.8773388266563416,0.158919095993042,0.0842224732041359,0.9926291704177856,-0.08683110028505325,0.007364849094301462
54.31384791075148,1.4066117635837467,-1.002207508033355,1.4871022208654647,1.258098676552783,1.5991734685119887,0.0,-0.04271382465958595,0.8850861191749573,0.15760931372642517,0.08047215640544891,0.9929406642913818,-0.08685313165187836,0.0070372531190514565
54.51224711178698,1.414265752430799,-0.9931048165347284,1.4735656374119996,1.2627409944956174,1.5978628086794109,0.0,-0.04888838902115822,0.8927300572395325,0.15624895691871643,0.07672640681266785,0.9932371377944946,-0.0868786945939064,0.006710486952215433
54.83975260009836,1.4219403669246717,-0.984299587951912,1.4604686887922904,1.2672407225645304,1.5965484255769835,0.0,-0.05524933710694313,0.9000208377838135,0.1548859179019928,0.07296957820653915,0.9935199022293091,-0.08690770715475082,0.006383050233125687
55.17238658714256,1.4309752905264097,-0.987601337846899,1.4652599944422182,1.2659544619466996,1.594992948207804,0.0,-0.0645628273487091,0.8966531157493591,0.15552303194999695,0.0685463398694992,0.9938356280326843,-0.08692576736211777,0.005995473824441433
55.37076433050594,1.4400215633111637,-0.9909072352217632,1.4700573186715058,1.2646665855977568,1.5934355169319712,0.0,-0.07383223623037338,0.8931799530982971,0.15615510940551758,0.06411635875701904,0.9941314458847046,-0.08694896101951599,0.0056076920591294765
55.569094166636084,1.449081743361446,-0.9942182149099398,1.4748620180555636,1.2633767293352323,1.5918756913429433,0.0,-0.08305905014276505,0.889600932598114,0.15678226947784424,0.0596783421933651,0.9944073557853699,-0.08697746694087982,0.005219688173383474
55.804409274571185,1.4581643703762166,-0.997537397684928,1.4796786212777189,1.2620836774013677,1.5903120012225913,0.0,-0.09225020557641983,0.8859125375747681,0.15740498900413513,0.055228348821401596,0.9946635365486145,-0.08701138198375702,0.004831136204302311
56.00842156968609,1.471495800344589,-0.9998657370827843,1.485893397673688,1.2592312400570633,1.6028043037345299,0.0,-0.09817797690629959,0.8805431127548218,0.15639516711235046,0.04804235324263573,0.9949119091033936,-0.08779339492321014,0.011599576100707054
56.25892260773206,1.4953579967408803,-1.000051227298425,1.4956787902142303,1.2526312773953323,1.6483151492871226,0.0,-0.09683850407600403,0.8716444969177246,0.15227177739143372,0.03410229831933975,0.9947393536567688,-0.08994081616401672,0.03523065894842148
56.45761547340179,1.5221892813912299,-1.0002597974020757,1.5066817443560165,1.2452101048461823,1.6994887475351657,0.0,-0.0949985459446907,0.8624861240386963,0.14889007806777954,0.01834738627076149,0.9937016367912292,-0.09163746237754822,0.06183052062988281
56.6609035268347,1.5528782873757276,-1.0004983550873503,1.5192666701210242,1.2367219384486077,1.758019931686351,0.0,-0.09260742366313934,0.8531374335289001,0.14664039015769958,0.0002621448948048055,0.9914166927337646,-0.09264219552278519,0.09225057065486908
56.89979618114743,1.588889608771559,-1.000778285218688,1.5340341672076128,1.2267616911744288,1.8267020286305022,0.0,-0.08964275568723679,0.8437213897705078,0.1461779773235321,-0.02098662406206131,0.9872400760650635,-0.09254421293735504,0.12787574529647827
57.49763265612023,1.6313579082489014,-1.0011084079742432,1.5514495372772217,1.2150155305862427,1.9076991081237793,0.0,-0.08630011230707169,0.8347656726837158,0.1486019790172577,-0.045982908457517624,0.9802417159080505,-0.09065613150596619,0.16968567669391632
57.66355402868095,1.5821576349003685,-1.0096661735685022,1.501673125509006,1.2168089124922292,1.8726766954484273,0.0,-0.06221836805343628,0.8768191337585449,0.1706644594669342,-0.015971092507243156,0.9862021803855896,-0.06731773167848587,0.15039463341236115
57.829476990698865,1.53337898003455,-1.0184558341993672,1.451896236903632,1.2184731691695891,1.8372206839479162,0.0,-0.03497546911239624,0.9176557660102844,0.19591519236564636,0.013142088428139687,0.990252673625946,-0.04266386106610298,0.131934255361557
57.99539995271678,1.48509621969703,-1.0275220629060586,1.402119348298258,1.2199839817012608,1.801251506345714,0.0,-0.004836313426494598,0.95685875415802,0.2244131863117218,0.041183844208717346,0.9924451112747192,-0.01672719232738018,0.11435306817293167
58.1613229147347,1.4372987545797113,-1.0368910997509728,1.352342459692884,1.2213325208740147,1.7647481406350767,0.0,0.027981311082839966,0.9940205812454224,0.25620368123054504,0.0680190920829773,0.9928317070007324,0.0104306535795331,0.09772329777479172
58.32724587675261,1.3899447520321762,-1.0465757189470473,1.30256557108751,1.2225180554798873,1.7277181234712502,0.0,0.06325379014015198,1.0287363529205322,0.29130592942237854,0.09352967888116837,0.9914670586585999,0.03872761130332947,0.08212973922491074
58.49316883877053,1.3429992695662667,-1.0565753831040765,1.252788682482136,1.2235447694139225,1.6901770840730592,0.0,0.10070587694644928,1.0606101751327515,0.3297050893306732,0.11759833246469498,0.9884129166603088,0.06806450337171555,0.06765899807214737
58.659091800788445,1.2963997290932379,-1.0668780012406627,1.2030117938767617,1.2244294224909285,1.652151636508426,0.0,0.14004769921302795,1.08925461769104,0.37134629487991333,0.14012762904167175,0.9837367534637451,0.09832002222537994,0.05440020561218262
58.82501476280636,1.2501363525788305,-1.077537104653101,1.153234905271388,1.2251670834901573,1.6135612858685011,0.0,0.1808355748653412,1.1143306493759155,0.41621360182762146,0.16099601984024048,0.9775142669677734,0.12941794097423553,0.04239087551832199
58.99093772482428,1.204143538671822,-1.088540150008956,1.1034580166660137,1.2257774543238134,1.5744275430016959,0.0,0.22268837690353394,1.1355048418045044,0.46419867873191833,0.18011678755283356,0.969824492931366,0.16122214496135712,0.0317133329808712
59.156860686842194,1.1583844491769886,-1.0998907606874797,1.05368112806064,1.2262702582327858,1.5347475148720844,0.0,0.2651410698890686,1.1524922847747803,0.5151752233505249,0.19739530980587006,0.9607545137405396,0.19360394775867462,0.022434674203395844
59.32278364886011,1.1128204843528597,-1.111601107045553,1.0039042394552657,1.2266520852317877,1.4945069495721968,0.0,0.30768629908561707,1.1650545597076416,0.5689949989318848,0.21274329721927643,0.9503968954086304,0.22643417119979858,0.014613856561481953
59.488706610878026,1.0673989321483988,-1.1236792356251422,0.9541273508498918,1.226932677692564,1.453701590457314,0.0,0.3498038351535797,1.1729974746704102,0.6254703402519226,0.22608724236488342,0.9388493299484253,0.25957146286964417,0.008311554789543152
59.65462957289594,1.022069471282982,-1.1361337092870918,0.9043504622445178,1.227120934936658,1.4123255632770566,0.0,0.3909420669078827,1.1761837005615234,0.6843785047531128,0.23735977709293365,0.9262157678604126,0.2928682863712311,0.003583501558750868
59.82055253491386,0.976786976125639,-1.148975752114024,0.8545735736391438,1.2272240923444677,1.3703690631131629,0.0,0.4305192530155182,1.1745409965515137,0.7454646825790405,0.24649831652641296,0.9126061797142029,0.3261721730232239,0.00047862264909781516
59.986475496931774,0.9315169311788586,-1.1622185545288197,0.8047966850337698,1.227248512628042,1.3278257104804172,0.0,0.46792811155319214,1.1680690050125122,0.8084396123886108,-0.25344428420066833,-0.8981375098228455,-0.35932430624961853,0.0009594222065061331
60.15239845894969,0.8862583643844889,-1.1758928230576637,0.7550197964283958,1.227198120035657,1.2846993149618506,0.0,0.5025143027305603,1.1568491458892822,0.8729971647262573,-0.2581332325935364,-0.8829340934753418,-0.3921656012535095,0.0006923817563802004
60.31832142096761,0.8410215843498107,-1.1900058279991215,0.7052429078230218,1.2270813932474376,1.2410360859361524,0.0,0.5336398482322693,1.1410502195358276,0.9387607574462891,0.26051947474479675,0.8671316504478455,0.42451211810112,0.0013193730264902115
60.48424438298552,0.7958164685009634,-1.204569943440579,0.6554660192176478,1.226904283231412,1.1968699181754447,0.0,0.5606809854507446,1.1209297180175781,1.0053246021270752,0.26056981086730957,0.8508691787719727,0.4561787247657776,0.005098771303892136
60.65016734500344,0.7506526045739482,-1.2196036497371745,0.6056891306122738,1.226672033095143,1.1522247131552756,0.0,0.5830395817756653,1.0968306064605713,1.0722564458847046,0.25826314091682434,0.8342887163162231,0.4869794547557831,0.010652536526322365
60.816090307021355,0.7055358641018918,-1.2351205233624012,0.5559122420068998,1.2263897053751653,1.1071257989786432,0.0,0.6001725196838379,1.0691797733306885,1.1390870809555054,0.2535967230796814,0.8175348043441772,0.5167226195335388,0.01797502487897873
60.98201325056108,0.6604639818619907,-1.2511207163870255,0.5061353589449811,1.2260637974684903,1.0616068328252217,0.0,0.6116188168525696,1.0384843349456787,1.2053024768829346,0.24659234285354614,0.800754964351654,0.5452081561088562,0.027048727497458458
61.14793609191572,0.6154330400337716,-1.2676022088580448,0.45635850653859106,1.2257014948933027,1.0157022534955944,0.0,0.617000162601471,1.0053249597549438,1.2703642845153809,0.23729053139686584,0.7840969562530518,0.5722352266311646,0.03784170746803284
61.31385887411002,0.5704392398830462,-1.2845634046520202,0.4065816718803005,1.225309005975529,0.9694448515338095,0.0,0.616028904914856,0.9703459739685059,1.333720088005066,0.2257489711046219,0.7677067518234253,0.5976059436798096,0.050307005643844604
61.47978175772871,0.5254800396277501,-1.3020037485606717,0.3568048067946932,1.2248927593915735,0.9228666868219334,0.0,0.6085171103477478,0.9342441558837891,1.3948092460632324,0.21204176545143127,0.7517279386520386,0.6211264729499817,0.06438256055116653
61.645704675622774,0.48056102583412424,-1.3199215945470666,0.30702793142647417,1.2244582664712644,0.8760038950633,0.0,0.5943849682807922,0.8977594375610352,1.4530686140060425,0.19625867903232574,0.7363003492355347,0.642608642578125,0.07999051362276077
61.811627449790294,0.43570386215787044,-1.3383129782808205,0.25725109917621763,1.2240104517278902,0.8289018550936164,0.0,0.5736666917800903,0.8616632223129272,1.507939338684082,0.1785043179988861,0.7215587496757507,0.6618708968162537,0.09703570604324341
61.97755031815196,0.39093358739970785,-1.3571733037839269,0.20747423866771683,1.2235538350126758,0.7816071327672353,0.0,0.5465230345726013,0.8267315030097961,1.5588773488998413,0.1588999480009079,0.7076295614242554,0.6787431836128235,0.11540744453668594
62.143473346607315,0.3462748897849723,-1.3764985624233006,0.15769733013111148,1.2230927345861178,0.7341657671701217,0.0,0.5132436752319336,0.7937232255935669,1.6053643226623535,0.13758288323879242,0.6946283578872681,0.6930676102638245,0.13498052954673767
62.309396248733954,0.3017518496839073,-1.3962850330206944,0.10792045949312097,1.2226317559553972,0.6866220285982382,0.0,0.4742441177368164,0.763360857963562,1.6469132900238037,0.11470504850149155,0.6826586127281189,0.7047008872032166,0.1556166559457779
62.47531909328529,0.25738587388031375,-1.416532675616533,0.05814360612771952,1.2221767243097506,0.6390132369360791,0.0,0.4300534129142761,0.7363096475601196,1.6830801963806152,0.09042929857969284,0.6718104481697083,0.713516354560852,0.17716558277606964
62.64124191042026,0.21319345137082762,-1.43724887647621,0.008366760987227648,1.2217361229804267,0.5913631241738789,0.0,0.38129663467407227,0.7131611108779907,1.7134679555892944,0.06492532044649124,0.6621597409248352,0.7194042801856995,0.19946597516536713
62.807164925546175,0.16918985606975923,-1.4584432227199733,-0.04141014355054641,1.2213192029029816,0.5436919188542653,0.0,0.32869088649749756,0.694420576095581,1.7377291917800903,0.03837073594331741,0.6537681818008423,0.7222713828086853,0.22234849631786346
62.973087985641925,0.12539068911580412,-1.4801257648344706,-0.09118706157927155,1.2209349397745055,0.4960197568149443,0.0,0.27303454279899597,0.6804947853088379,1.755568504333496,0.010950762778520584,0.6466823816299438,0.7220415472984314,0.24563764035701752
63.13901103021408,0.08181231112105725,-1.5023069037987322,-0.1409639749509184,1.220592437386073,0.4483669324949786,0.0,0.21519124507904053,0.6716806888580322,1.766749382019043,-0.017143186181783676,0.6409332156181335,0.718656599521637,0.2691532075405121
63.30493401336701,0.03847667493495906,-1.524995016529351,-0.1907408698967976,1.2203000426476134,0.4007563136962355,0.0,0.1560729295015335,0.6681575775146484,1.771098256111145,-0.0457153357565403,0.6365350484848022,0.712077260017395,0.2927100658416748
63.470857103261515,-0.004580974509629859,-1.5481924712971415,-0.24051779686514996,1.2200632667921643,0.35321727765644917,0.0,0.09662275016307831,0.6699782609939575,1.7685086727142334,-0.07456794381141663,0.6334843635559082,0.702286422252655,0.31611862778663635
63.63678006527943,-0.047321854888827355,-1.5719000879678713,-0.29029468547052395,1.2198877483306605,0.3057808505608463,0.0,0.037792012095451355,0.6770623922348022,1.7589472532272339,-0.10350172966718674,0.6317593455314636,0.6892885565757751,0.33918842673301697
63.80270302729735,-0.08970684091866539,-1.5961192781349327,-0.34007157407589794,1.219779000967928,0.25847821973099727,0.0,-0.019485540688037872,0.6891969442367554,1.7424557209014893,-0.13231875002384186,0.6313196420669556,0.6731097102165222,0.3617325723171234
63.96862597182462,-0.13169596082382573,-1.6208523492748403,-0.3898484574340808,1.2197427256159916,0.2113403580347621,0.0,-0.07431615889072418,0.7060413360595703,1.7191494703292847,-0.16082488000392914,0.6321067810058594,0.6537972688674927,0.3835693299770355
64.13454877532783,-0.17324172860113304,-1.6461072182511785,-0.4396252984850413,1.2197849910669905,0.16439453895620737,0.0,-0.12587937712669373,0.7271378040313721,1.6892147064208984,-0.1888362616300583,0.6340441703796387,0.6314194202423096,0.4045223593711853
64.30047203223639,-0.21427496197061194,-1.67190829296704,-0.48940227555760857,1.2199139744489698,0.11765520265980992,0.0,-0.1734749674797058,0.7519246339797974,1.6528956890106201,-0.21619154512882233,0.6370366811752319,0.6060647964477539,0.4244183599948883
64.46639526138345,-0.2547189029947242,-1.6982856848868522,-0.5391792443017304,1.2201382649213022,0.07113458188680605,0.0,-0.21650706231594086,0.7797479629516602,1.6104944944381714,-0.24274201691150665,0.6409715414047241,0.5778396725654602,0.4430948793888092
64.63231805647625,-0.29449429942378946,-1.7252711234349707,-0.5889560828295705,1.2204669275265383,0.024845643875799184,0.0,-0.2544868588447571,0.809877872467041,1.5623679161071777,-0.2683485150337219,0.6457199454307556,0.5468666553497314,0.460403710603714
64.79824138572876,-0.33351889540413554,-1.7528985869657066,-0.6387330816053208,1.2209095565577506,-0.021198481923298543,0.0,-0.2870430648326874,0.8415282964706421,1.5089236497879028,-0.2928837537765503,0.6511378884315491,0.5132834911346436,0.476212739944458
64.96416414872141,-0.37169860472699207,-1.781205337414335,-0.6885099105031149,1.2214735505107155,-0.06698816307644608,0.0,-0.313936710357666,0.8738745450973511,1.45061457157135,-0.31623756885528564,0.657066822052002,0.4772418737411499,0.4904051721096039
65.13008691063774,-0.4089081221647523,-1.8102359522881832,-0.7382867390780173,1.2221597826637978,-0.11252980393827126,0.0,-0.33508655428886414,0.9060691595077515,1.3879235982894897,-0.338329553604126,0.6633328199386597,0.43890634179115295,0.5028756260871887
65.29600968545857,-0.44500651497606775,-1.8400409750816098,-0.7880635715242641,1.2229672012549972,-0.1578330898648699,0.0,-0.35055047273635864,0.9372625946998596,1.3213659524917603,-0.3590976297855377,0.6697479486465454,0.39845141768455505,0.513539731502533
65.46193266620585,-0.4798408194201577,-1.8706767951997372,-0.8378404657484476,1.2238959883518756,-0.20290650567645835,0.0,-0.3605163097381592,0.9666271209716797,1.2514843940734863,-0.37849506735801697,0.6761110424995422,0.3560604155063629,0.5223373174667358
65.6278557577893,-0.5132431328920503,-1.902208129460598,-0.8876173932234814,1.2249466188067821,-0.24775846153021389,0.0,-0.36529672145843506,0.9933754205703735,1.178842544555664,-0.3964918255805969,0.6822080016136169,0.31192293763160706,0.5292357206344604
65.79377840688053,-0.5450153931457601,-1.934717410872745,-0.9373941879508494,1.2261204180504468,-0.29240035522873664,0.0,-0.3653387129306793,1.0167793035507202,1.1040112972259521,-0.4130815267562866,0.6878095865249634,0.2662339210510254,0.5342293381690979
65.95970148774143,-0.5749054815736042,-1.9683234915418035,-0.9871711122091185,1.2274201967831462,-0.336853423688405,0.0,-0.3612402677536011,1.036181926727295,1.0275441408157349,-0.42829230427742004,0.6926654577255249,0.21918855607509613,0.5373421311378479
66.12562417492552,-0.6026206265890661,-2.0031671214828917,-1.036947918364345,1.2288496909761788,-0.38114120644411936,0.0,-0.35370004177093506,1.051009178161621,0.9499861001968384,-0.4421737492084503,0.6965060830116272,0.17098286747932434,0.5386338233947754
66.29154686151962,-0.6278265119683344,-2.0394111782906874,-1.0867247243425737,1.2304139614677854,-0.4252885119321176,0.0,-0.3434893786907196,1.0607783794403076,0.8718747496604919,-0.4547920823097229,0.6990433931350708,0.12181232124567032,0.5382046103477478
66.45747003216164,-0.650152067077792,-2.077238678431899,-1.1365016755351793,1.232118643423089,-0.46932355037378815,0.0,-0.33141785860061646,1.065104603767395,0.7937396764755249,-0.46622365713119507,0.6999714970588684,0.07186863571405411,0.5361998081207275
66.6233934512225,-0.6692649521479932,-2.116825256839904,-1.1862787012534364,1.2339642013922811,-0.5132873326531936,0.0,-0.318208247423172,1.0637153387069702,0.7161283493041992,-0.4765174090862274,0.6989931464195251,0.02132626250386238,0.5328084230422974
66.78931654230196,-0.6848767204024545,-2.1583399697294183,-1.236055628577275,1.2359445607003487,-0.5572378731700369,0.0,-0.3044717311859131,1.0564484596252441,0.639607310295105,-0.48568621277809143,0.6958248019218445,-0.029659060761332512,0.5282584428787231
66.9552390707782,-0.6963825402652107,-2.2021320262310486,-1.285832387120148,1.238060448221011,-0.6012523666826758,0.0,-0.2911166250705719,1.0431842803955078,0.5645949244499207,-0.49384766817092896,0.6900725364685059,-0.08092530071735382,0.5228436589241028
67.12116182313235,-0.7030053890760531,-2.248654788829679,-1.3356092128263908,1.2403105969424615,-0.645436413818122,0.0,-0.27908846735954285,1.0238432884216309,0.491443932056427,-0.5011330246925354,0.6812723278999329,-0.1323171705007553,0.5169388651847839
67.28625451346146,-0.704844548438421,-2.2976388397501473,-1.3851370199251238,1.2426632488533955,-0.6896225760080126,0.0,-0.2682264447212219,0.9987531900405884,0.42132568359375,-0.5072313547134399,0.6693404316902161,-0.18344087898731232,0.5109295845031738
67.45217747547937,-0.7019218762809636,-2.3474157283555215,-1.4327007339558644,1.2450293349990615,-0.7322954399615972,0.0,-0.25893306732177734,0.9693962335586548,0.35706931352615356,-0.5118409991264343,0.6546476483345032,-0.23237524926662445,0.5054274797439575
67.61810043749729,-0.6946201555772672,-2.3971926169608953,-1.477622186547366,1.247361510609722,-0.7728485674031949,0.0,-0.25129929184913635,0.937179684638977,0.29956158995628357,-0.5149264931678772,0.6375950574874878,-0.27830970287323,0.5008661150932312
67.7840233995152,-0.6841456694468059,-2.4469695055662695,-1.5205123870198276,1.2496571903083562,-0.811781129505911,0.0,-0.24423912167549133,0.9028499126434326,0.24831311404705048,-0.5162538886070251,0.6185845136642456,-0.321777880191803,0.4972865879535675
67.94994636153312,-0.6702467617431954,-2.4967463941716432,-1.561151313885366,1.25190499936157,-0.8489211464365909,0.0,-0.23832017183303833,0.867247462272644,0.20305202901363373,-0.5160738229751587,0.5977141261100769,-0.3624630868434906,0.49500107765197754
68.11586932355104,-0.6536033335238105,-2.5465232827770174,-1.6000051525351513,1.254112184907489,-0.8846365757411068,0.0,-0.23292392492294312,0.8308436870574951,0.16331763565540314,-0.5142621994018555,0.5752668380737305,-0.4006992280483246,0.49400654435157776
68.28179228556895,-0.6339583789588974,-2.5963001713823917,-1.6369436973180562,1.2562712458267054,-0.9188187639387948,0.0,-0.22847166657447815,0.7942199110984802,0.12872685492038727,-0.5110288858413696,0.5513451099395752,-0.43624988198280334,0.49452412128448486
68.44771524758687,-0.6116394080859953,-2.6460770599877654,-1.6722019732929738,1.2583851525321315,-0.9516521243857953,0.0,-0.22469455003738403,0.7577369809150696,0.09885028749704361,-0.5063395500183105,0.526165246963501,-0.46924418210983276,0.49656832218170166
68.61363662014759,-0.5873192548751831,-2.6958534717559814,-1.7062045335769653,1.260465145111084,-0.983476996421814,0.0,-0.22099995613098145,0.7216170430183411,0.07333792001008987,-0.5,0.49999985098838806,-0.5,0.4999999701976776
68.66363662014759,-0.5904644367782179,-2.6867799108929247,-1.7063126844169039,1.2514999770320472,-0.9803319307180813,0.0,-0.22105926275253296,0.7254452705383301,0.08240249752998352,-0.4999999403953552,0.4999999403953552,-0.4999999403953552,0.5
68.9431311848143,-0.5936073121447293,-2.677713004175852,-1.7064208750656935,1.2425413836085473,-0.97718923102659,0.0,-0.22103366255760193,0.7292323708534241,0.09148500859737396,-0.4999999403953552,0.5000001192092896,-0.4999999403953552,0.49999988079071045
69.14364047426515,-0.5902539345015727,-2.6701950151423097,-1.7138842363518725,1.242486723814546,-0.9805426371146602,0.0,-0.22107931971549988,0.7252044081687927,0.09728247672319412,-0.49999991059303284,0.5,-0.5,0.49999991059303284
69.347404965742,-0.5826200425004185,-2.6636914390931823,-1.726196803860481,1.2482955813336765,-0.9881764606256536,0.0,-0.22110581398010254,0.7160599827766418,0.10091555863618851,-0.4999999701976776,0.5,-0.5,0.4999999701976776
69.77096604756834,-0.5749748332768279,-2.657178221511692,-1.7385276247142034,1.2541130504669922,-0.9958216012575472,0.0,-0.22100090980529785,0.706922173500061,0.10456079989671707,-0.5,0.4999999403953552,-0.5000000596046448,0.4999999403953552
70.18898798726748,-0.5822929857031633,-2.6549330477597013,-1.7302098107233628,1.24355006183422,-0.9885034637831703,0.0,-0.22115251421928406,0.7157005667686462,0.10870808362960815,-0.4999999403953552,0.4999999403953552,-0.5000001192092896,0.5
70.38606137611221,-0.5896968558004129,-2.652720628344524,-1.7217702973529014,1.2328981290485812,-0.981099609166119,0.0,-0.22118860483169556,0.7246053814888,0.11292682588100433,-0.49999991059303284,0.49999985098838806,-0.5000000596046448,0.4999999701976776
70.58290797858666,-0.597043775970983,-2.6505252266676136,-1.7133956999873594,1.222328130006129,-0.9737527043566746,0.0,-0.2211073338985443,0.7334635853767395,0.11718828231096268,-0.49999991059303284,0.49999991059303284,-0.5000000596046448,0.49999991059303284
70.76784958743248,-0.6031853995174042,-2.6533434655094688,-1.7043464104092068,1.2160971075605047,-0.9676110516211444,0.0,-0.22104057669639587,0.7409465909004211,0.11660820245742798,-0.49999991059303284,0.49999991059303284,-0.5000000596046448,0.49999991059303284
71.01035775766896,-0.6074308802537007,-2.664036933271582,-1.6942410412288456,1.2166852788655158,-0.9633654717197552,0.0,-0.2210730016231537,0.7462160587310791,0.10829569399356842,-0.4999999403953552,0.5,-0.5,0.5000000596046448
71.26787931191575,-0.6116684921951291,-2.6747105812042165,-1.6841544018654555,1.217272360023231,-0.959127760797032,0.0,-0.22100219130516052,0.7514389753341675,0.099953792989254,-0.4999999701976776,0.5,-0.49999985098838806,0.4999999701976776
71.52290012009654,-0.6193547317325009,-2.6771456643395624,-1.6724687547609467,1.208021734493973,-0.9514415409740506,0.0,-0.22111302614212036,0.761172890663147,0.10044115781784058,-0.5,0.4999999403953552,-0.5,0.5
71.71968671746764,-0.6270785447636339,-2.6794305333876336,-1.6607892947692713,1.198627079838539,-0.9437177496622051,0.0,-0.22109854221343994,0.7709874510765076,0.10113873332738876,-0.4999999403953552,0.4999999403953552,-0.4999999403953552,0.5
71.91466016017112,-0.6345981037553073,-2.6808785898539225,-1.6496270228740786,1.1889128279458028,-0.9361982397753957,0.0,-0.2210284173488617,0.7806215882301331,0.10262705385684967,-0.4999999701976776,0.49999991059303284,-0.5,0.4999999701976776
72.11152547292623,-0.6415113885009748,-2.679691156389209,-1.640040574867647,1.178138995881921,-0.9292850908821565,0.0,-0.22107383608818054,0.7896670699119568,0.10650868713855743,-0.4999999403953552,0.5,-0.5,0.4999999403953552
72.31423697122959,-0.6483917080263982,-2.6785093850673305,-1.6304998387596132,1.1674165376236794,-0.9224049065613643,0.0,-0.22100216150283813,0.7986867427825928,0.11044861376285553,-0.4999999403953552,0.5,-0.5,0.49999988079071045
72.51633264749526,-0.6556013865896881,-2.6836126323850755,-1.6172801877117662,1.1593000811190604,-0.9151951480853602,0.0,-0.22107940912246704,0.8083686232566833,0.10885170102119446,-0.49999991059303284,0.5,-0.4999999701976776,0.49999991059303284
72.88225484528252,-0.6628083416887338,-2.6888173527797763,-1.6040129917737591,1.1512375511205402,-0.9079881094907274,0.0,-0.22102734446525574,0.8180683255195618,0.10719408094882965,-0.4999999403953552,0.5,-0.5,0.4999999403953552
73.14101617999198,-0.660394373518016,-2.6941905605032366,-1.6053601320438204,1.157958012259686,-0.9104020384656593,0.0,-0.2210540473461151,0.8148131370544434,0.10104379057884216,-0.5,0.5,-0.5,0.4999999403953552
73.39123447406277,-0.6554884695234932,-2.6996227362416296,-1.6104858928980297,1.1685161056129723,-0.9153079145939256,0.0,-0.2210400104522705,0.8081868290901184,0.09376721829175949,-0.4999999701976776,0.5000000596046448,-0.49999991059303284,0.4999999701976776
73.58544362260368,-0.6552530477208472,-2.7076783104427897,-1.6071657679376679,1.173251590572438,-0.9155432680093257,0.0,-0.22104498744010925,0.8078745603561401,0.08613497763872147,-0.4999999701976776,0.5,-0.49999988079071045,0.4999999701976776
73.8116850966542,-0.6594691586356394,-2.718218880282009,-1.5958027496089144,1.1724290623781577,-0.9113270502185334,0.0,-0.22105371952056885,0.8135610818862915,0.07810340821743011,-0.5,0.5,-0.49999991059303284,0.49999991059303284
74.0118649463512,-0.6641908816790852,-2.7243743664636058,-1.5856007402986894,1.1683824675957268,-0.9066052776594038,0.0,-0.22104737162590027,0.8199664950370789,0.07440857589244843,-0.5,0.5,-0.49999991059303284,0.5
74.27828833172175,-0.6700003996921213,-2.721158066591286,-1.5778686682635876,1.157434041160923,-0.9007958327620704,0.0,-0.2211281955242157,0.8279909491539001,0.08010602742433548,-0.5,0.49999991059303284,-0.5000000596046448,0.5
74.47498848373148,-0.6757794597079056,-2.7179586290563327,-1.570177133744381,1.1465430148652556,-0.8950168454786597,0.0,-0.22110652923583984,0.8359747529029846,0.0858493521809578,-0.5,0.49999991059303284,-0.5,0.5
74.67192105660293,-0.6815700852731883,-2.7149025816855925,-1.5623420575894866,1.135651844900002,-0.8892262732155409,0.0,-0.221012681722641,0.8439989686012268,0.09155542403459549,-0.49999991059303284,0.49999985098838806,-0.5000000596046448,0.5
74.86872866461131,-0.6875739203694153,-2.7130762216599544,-1.553070229057815,1.1245536790740926,-0.8832223179768498,0.0,-0.2210807502269745,0.8525424003601074,0.09643786400556564,-0.5,0.5,-0.4999999701976776,0.5
75.23890764094907,-0.6935493911837253,-2.711258490017644,-1.5438422039874549,1.113507944985432,-0.877246727587672,0.0,-0.22104036808013916,0.861050009727478,0.10137620568275452,-0.5,0.5,-0.5,0.5
75.43466777281506,-0.6916042903519387,-2.7055771064410394,-1.54965341138519,1.1136377932396981,-0.8791918729161959,0.0,-0.22106504440307617,0.8582800030708313,0.10577942430973053,-0.4999999403953552,0.49999988079071045,-0.4999999403953552,0.5000000596046448
75.64104790589602,-0.6853200764391969,-2.697778915006329,-1.563703620595078,1.1198898364400658,-0.8854762212089079,0.0,-0.22105824947357178,0.8493266701698303,0.10986322164535522,-0.5,0.4999999403953552,-0.5,0.5000000596046448
75.83634227307586,-0.6825620011552167,-2.689321190069904,-1.5720022597861305,1.119730764479732,-0.8882343331227066,0.0,-0.22102829813957214,0.8454074263572693,0.11648467928171158,-0.4999999701976776,0.49999991059303284,-0.5,0.4999999701976776
76.0861135478366,-0.6839804783527431,-2.680078066842064,-1.57349020614737,1.1119755876131312,-0.8868157767556564,0.0,-0.2210385501384735,0.8474164605140686,0.1261182576417923,-0.4999999701976776,0.49999988079071045,-0.4999999701976776,0.5
76.3059252172893,-0.6867321156801673,-2.6745561430212783,-1.5711233926016028,1.10408684407852,-0.8840641262366182,0.0,-0.22103369235992432,0.8513081073760986,0.13294048607349396,-0.5,0.4999999403953552,-0.5000000596046448,0.5
76.58134127631915,-0.6934962220130965,-2.6802459329146466,-1.5571497220450221,1.095802938677083,-0.8773002054228012,0.0,-0.22108447551727295,0.8610101342201233,0.1312934309244156,-0.4999999701976776,0.4999999701976776,-0.5,0.4999999701976776
76.63134127631915,-0.7002581357955933,-2.685933828353882,-1.5431807041168213,1.0875217914581299,-0.8705385327339172,0.0,-0.22100019454956055,0.870717465877533,0.12967874109745026,-0.4999999701976776,0.5,-0.5000000596046448,0.4999999701976776
76.79767563033978,-0.7025252081371042,-2.683146832444116,-1.5370162252658657,1.037621485251938,-0.8439023812861907,0.0,-0.22797787189483643,0.8919954299926758,0.15006223320960999,-0.504926323890686,0.47932687401771545,-0.5082076787948608,0.5069712400436401
76.96401231817582,-0.7047891026693656,-2.6803728362152133,-1.5308219035796036,0.987720478901128,-0.8171838172912378,0.0,-0.23564976453781128,0.9137077927589417,0.16945408284664154,-0.510001003742218,0.45834192633628845,-0.5161334872245789,0.5132521390914917
