Sungjin-Park-dev/lg_sgu_vision_v2/data/sample/ik/74/glns_trajectory_comp002.csv
time,ur20-shoulder_pan_joint,ur20-shoulder_lift_joint,ur20-elbow_joint,ur20-wrist_1_joint,ur20-wrist_2_joint,ur20-wrist_3_joint,target-POS_X,target-POS_Y,target-POS_Z,target-ROT_X,target-ROT_Y,target-ROT_Z,target-ROT_W
0.0,-1.2641935348510742,-2.8204128742218018,-0.8233557939529419,-2.8150652090655726,1.7422418594360352,0.0,-0.17449715733528137,0.9343424439430237,0.0869685485959053,0.6425157189369202,0.032881081104278564,0.06224875524640083,0.7630317211151123
0.22339698883963183,-1.234170593889684,-2.804385518522179,-0.8489800048342331,-2.7992024261900292,1.6942590434029086,0.0,-0.17646032571792603,0.9262516498565674,0.09130878746509552,0.642335832118988,0.0613134428858757,0.08859118074178696,0.7588127255439758
0.49345637543491444,-1.197886138520292,-2.78501553497126,-0.8799483412571634,-2.780031338386799,1.636269043386231,0.0,-0.17868344485759735,0.9185974597930908,0.09619970619678497,0.6407045125961304,0.09548798203468323,0.12033972144126892,0.7522620558738708
0.8454205979998098,-1.1506148147107984,-2.7597803549114146,-0.9202938347746038,-2.755055279352682,1.5607197746816686,0.0,-0.18182386457920074,0.9120502471923828,0.1020391434431076,0.6362701654434204,0.13958518207073212,0.16144108772277832,0.7413588762283325
1.320938550986254,-1.08976866784734,-2.7272984325046044,-0.9722252728222067,-2.722906889301564,1.4634751551412808,0.0,-0.18727663159370422,0.9090617895126343,0.10877746343612671,0.6267566084861755,0.1953907161951065,0.2136669158935547,0.7234258651733398
1.7469577995699581,-1.035276216210272,-2.69820834747746,-1.0187339101333377,-2.6941155084109814,1.376385043434436,0.0,-0.1945248693227768,0.9111405611038208,0.11418996006250381,0.614660918712616,0.24419479072093964,0.25953108072280884,0.7037076354026794
2.0518922248476383,-0.9943650129379259,-2.6763684348656778,-1.0536511189905948,-2.6724998533850126,1.3110005515275536,0.0,-0.20199233293533325,0.9153015613555908,0.11794133484363556,0.6034055948257446,0.2799529731273651,0.2932485044002533,0.6866828799247742
2.450128999525836,-0.9613407293902796,-2.658738851547241,-1.0818369388580322,-2.655051294957296,1.2582209745990198,0.0,-0.20954427123069763,0.9200661182403564,0.12081284821033478,0.5929888486862183,0.3081885874271393,0.31994128227233887,0.6715813279151917
2.6164626854891764,-0.9573345583235735,-2.6533477539330237,-1.085901689617877,-2.605151189168294,1.2299685343195412,0.0,-0.20741644501686096,0.9342173337936401,0.10044413805007935,0.6063969135284424,0.3216422200202942,0.3275236189365387,0.6492744088172913
2.78279933845684,-0.9533303824992272,-2.6481563367133525,-1.0900211969216882,-2.555250193277995,1.2017069099239461,0.0,-0.2064248025417328,0.9496152400970459,0.08067938685417175,0.6192078590393066,0.33437293767929077,0.33527007699012756,0.6263946294784546
2.9491359914245057,-0.9493262111995154,-2.6431937563533405,-1.0942029278899708,-2.5053491973876953,1.17343607720015,0.0,-0.2065458595752716,0.9661725163459778,0.06160508841276169,0.6314060091972351,0.3463606834411621,0.3431633412837982,0.6029921770095825
3.115472644392171,-0.9453128839830309,-2.6384710796282076,-1.0984480809448853,-2.4554482014973957,1.1451566070281074,0.0,-0.20775973796844482,0.9837967157363892,0.04331556707620621,0.6429845690727234,0.3575909435749054,0.3511870503425598,0.5791089534759521
3.281809297359835,-0.941284190360855,-2.633976962047553,-1.1027521669159894,-2.4055472056070966,1.1168698599413507,0.0,-0.21004381775856018,1.0023976564407349,0.025919441133737564,0.6539484858512878,0.3680512607097626,0.35932227969169617,0.554776668548584
3.4481459503275005,-0.9372357117023937,-2.6297158273102927,-1.1071184392085407,-2.355646209716797,1.0885755458816206,0.0,-0.21336400508880615,1.0218749046325684,0.009500999003648758,0.6642951965332031,0.37772974371910095,0.36755093932151794,0.530036211013794
3.614482603295166,-0.93316188824954,-2.625686751479725,-1.1115612658426606,-2.3057452138264973,1.0602695750310362,0.0,-0.21767762303352356,1.042120337486267,-0.005860380828380585,0.6740208864212036,0.386618047952652,0.3758571445941925,0.5049294233322144
3.7808192562628316,-0.929057714475936,-2.621887649584102,-1.1160975789488403,-2.2558442179361977,1.0319468320261695,0.0,-0.22293612360954285,1.063021183013916,-0.020095303654670715,0.6831219792366028,0.39470967650413513,0.38422518968582153,0.47949928045272827
3.9471559092304953,-0.9249194637650783,-2.6183161577807796,-1.1207393794529739,-2.2059432220458985,1.0036039728146071,0.0,-0.2290876805782318,1.0844634771347046,-0.033141717314720154,0.6915987730026245,0.4019993543624878,0.3926384449005127,0.45378684997558594
4.113492562198161,-0.920745683473582,-2.6149700368798117,-1.1254942542728708,-2.156042226155599,0.9752387057631877,0.0,-0.2360764741897583,1.1063340902328491,-0.044947072863578796,0.6994545459747314,0.40848231315612793,0.4010797441005707,0.4278324246406555
4.279829215165826,-0.9165387197676769,-2.611843960948335,-1.130363155068661,-2.1061412302652993,0.9468505816091369,0.0,-0.24384260177612305,1.1285228729248047,-0.05546361207962036,0.7066972255706787,0.41415339708328247,0.4095301330089569,0.401672899723053
4.44616586813349,-0.9123017987437022,-2.6089319518765204,-1.1353446695270153,-2.056240234375,0.9184396981793308,0.0,-0.2523238956928253,1.1509206295013428,-0.06465023756027222,0.7133369445800781,0.4190080761909485,0.41797080636024475,0.37534382939338684
4.612502521101155,-0.9080378440224789,-2.606228148242133,-1.1404367932272323,-2.0063392384847005,0.8900063502932511,0.0,-0.2614558935165405,1.1734192371368408,-0.07247491180896759,0.719384491443634,0.42304301261901855,0.42638352513313293,0.3488803207874298
4.778839174068819,-0.9037464168975191,-2.603753250645818,-1.1456516346612977,-1.9564382425944011,0.8615481899901515,0.0,-0.271163672208786,1.1958972215652466,-0.07894861698150635,0.7248393297195435,0.42626065015792847,0.43475446105003357,0.32233259081840515
4.9451758270364845,-0.899427957296865,-2.6015382905081257,-1.151006480585908,-1.9065372467041017,0.8330610583472701,0.0,-0.28136417269706726,1.2182285785675049,-0.08410608768463135,0.7296983003616333,0.4286670386791229,0.44307199120521545,0.295756995677948
5.11151248000415,-0.895093366084471,-2.599532219044587,-1.1564731550569227,-1.8566362508138021,0.8045488467663698,0.0,-0.2919992208480835,1.2403370141983032,-0.08788485825061798,0.7339959740638733,0.430254727602005,0.4513132870197296,0.26915979385375977
5.277849132971815,-0.8907465194369267,-2.59773059543442,-1.1620488428976072,-1.8067352549235025,0.7760110253786331,0.0,-0.3029959499835968,1.2621225118637085,-0.09028788655996323,0.737745463848114,0.4310251772403717,0.4594632387161255,0.24257446825504303
5.44418578593948,-0.8863902004202813,-2.5961535233514406,-1.1677437668532233,-1.7568342590332031,0.7474439002026381,0.0,-0.31427064538002014,1.2834752798080444,-0.09136011451482773,0.7409507632255554,0.43098554015159607,0.46751096844673157,0.21604834496974945
5.610522438907145,-0.8820292497716218,-2.594878775883057,-1.1735982039876551,-1.7069332631429037,0.7188348508422331,0.0,-0.3257089853286743,1.3042609691619873,-0.0912390798330307,0.7435956001281738,0.4301563501358032,0.4754561483860016,0.18966436386108398
5.77685909187481,-0.8776692354812746,-2.5938109755220555,-1.1795606557213572,-1.657032267252604,0.690194977073997,0.0,-0.3372780382633209,1.3244379758834839,-0.0898263156414032,0.7457308173179626,0.42852577567100525,0.4832724630832672,0.16339778900146484
5.943195744842475,-0.873311660582848,-2.592940853911195,-1.1856256049782168,-1.6071312713623047,0.6615240121179456,0.0,-0.3489106595516205,1.343923807144165,-0.08714618533849716,0.747372567653656,0.42609918117523193,0.49094724655151367,0.13727523386478424
6.10953239781014,-0.8689624401638526,-2.5923457225367734,-1.191830552467638,-1.5572302754720053,0.6328030657098171,0.0,-0.3604927957057953,1.3626023530960083,-0.08335757255554199,0.7485064268112183,0.42290163040161133,0.4984854757785797,0.11137504130601883
6.275869050777805,-0.8646250370709521,-2.591961432028269,-1.198139381071077,-1.5073292795817057,0.6040352832618116,0.0,-0.37198343873023987,1.3804304599761963,-0.07841552048921585,0.7491688132286072,0.4189278185367584,0.505868673324585,0.08568740636110306
6.44220570374547,-0.8602987246326372,-2.5917370730125397,-1.2045256197893435,-1.4574282836914063,0.5752286452327009,0.0,-0.3833405375480652,1.3973578214645386,-0.07229878753423691,0.7493898272514343,0.4141749143600464,0.5130775570869446,0.06021203473210335
6.608542356713135,-0.855989444413691,-2.5917143165487624,-1.2110074465078755,-1.407527287801107,0.5463682511936772,0.0,-0.3944719433784485,1.4132999181747437,-0.0651276707649231,0.7491676211357117,0.4086616039276123,0.5201137065887451,0.035002537071704865
6.7748790096808005,-0.851704622737506,-2.591900744067876,-1.2175842005439794,-1.3576262919108073,0.5174432496147655,0.0,-0.40530264377593994,1.428196907043457,-0.05697458237409592,0.748513400554657,0.4023984670639038,0.5269736647605896,0.010090741328895092
6.941215662648466,-0.8474382499561953,-2.5922151172185504,-1.2242167960966646,-1.307725296020508,0.48847762707829606,0.0,-0.41581594944000244,1.4420175552368164,-0.047786347568035126,-0.7474665641784668,-0.395376056432724,-0.5336291193962097,0.014541183598339558
7.107552315616131,-0.8431962166882221,-2.5926812277694737,-1.2309140517780246,-1.2578243001302085,0.45946305142400456,0.0,-0.4259348511695862,1.4546997547149658,-0.03767009824514389,-0.7460323572158813,-0.3876100778579712,-0.5400785207748413,0.03885113447904587
7.273888968583796,-0.8389924897260822,-2.593326736535323,-1.2376820649769997,-1.207923304239909,0.4303891922113489,0.0,-0.4355737864971161,1.4661920070648193,-0.026741042733192444,-0.7442178130149841,-0.37911534309387207,-0.5463223457336426,0.06279584765434265
7.440225621551461,-0.8348141238561715,-2.59406903193044,-1.2444853855824232,-1.1580223083496095,0.40128268813487705,0.0,-0.4447305500507355,1.4764717817306519,-0.01495349407196045,-0.7420591115951538,-0.36988431215286255,-0.5523312091827393,0.08639443665742874
7.606562274519126,-0.8306676169379592,-2.5949245951492763,-1.2513286950758191,-1.10812131245931,0.3721376734786608,0.0,-0.4533388018608093,1.4854952096939087,-0.0024145394563674927,-0.7395642399787903,-0.3599325120449066,-0.5581028461456299,0.10961036384105682
7.772898927486791,-0.8265739830266265,-2.5959219260028075,-1.258213580136016,-1.0582203165690105,0.3429447003699662,0.0,-0.46131283044815063,1.493232250213623,0.010753385722637177,-0.7367420196533203,-0.34927308559417725,-0.5636394023895264,0.13240133225917816
7.93923563118124,-0.8225153351643824,-2.596992340537812,-1.26511437628047,-1.0083193054606758,0.3137305868711551,0.0,-0.4686582088470459,1.4996627569198608,0.024562910199165344,-0.733622133731842,-0.3379056751728058,-0.568912923336029,0.15477849543094635
8.105572416152903,-0.8185017140248446,-2.598150279602252,-1.272031992958122,-0.9584182699691771,0.2844926056934397,0.0,-0.4753152132034302,1.5047630071640015,0.03890302777290344,-0.7302145957946777,-0.3258454501628876,-0.573921263217926,0.17670775949954987
8.271909085071936,-0.8145651906891992,-2.5994184927818096,-1.2789561010785027,-0.9085172692934673,0.25523575688562894,0.0,-0.48119884729385376,1.5085285902023315,0.053653016686439514,-0.7265359163284302,-0.3131007254123688,-0.5786624550819397,0.19814947247505188
8.438245786747693,-0.8106771767952284,-2.600742220973202,-1.2858763672781153,-0.8586162587907402,0.22597466616037953,0.0,-0.486330509185791,1.510941505432129,0.06879550218582153,-0.7226051092147827,-0.2996825575828552,-0.5831152200698853,0.21910923719406128
8.604582571188907,-0.8068535841583401,-2.6021345258573816,-1.2927885891181299,-0.8087152234583761,0.19671077415828572,0.0,-0.4906562566757202,1.5119988918304443,0.08421827107667923,-0.7184346318244934,-0.28560492396354675,-0.5872774720191956,0.2395549714565277
8.770919355524137,-0.8031276450753607,-2.6036081916330684,-1.2996760063826367,-0.7588141881578068,0.16745735135155077,0.0,-0.49410611391067505,1.5117173194885254,0.0998099148273468,-0.7140443325042725,-0.270874947309494,-0.5911443829536438,0.2594529092311859
8.93725613983698,-0.7994558939913144,-2.6051249007927813,-1.3065488535928558,-0.708913152863954,0.1382153110788201,0.0,-0.49672457575798035,1.5100754499435425,0.11551938951015472,-0.7094417810440063,-0.2555190920829773,-0.5947026014328003,0.27880290150642395
9.103592924140337,-0.7958561271634224,-2.606697619428357,-1.3134018974279853,-0.6590121175729472,0.10899149121320446,0.0,-0.4984692633152008,1.5070878267288208,0.131229966878891,-0.7046412825584412,-0.23955421149730682,-0.5979499220848083,0.29757410287857056
9.269929598924373,-0.7923426915609759,-2.6083358975818145,-1.320231799752927,-0.6091111151377362,0.07980380295546566,0.0,-0.49930959939956665,1.5027732849121094,0.14682263135910034,-0.6996594071388245,-0.22300106287002563,-0.6008805632591248,0.31573694944381714
9.436266294313565,-0.7888777138813402,-2.61001044038254,-1.3270487752336981,-0.5592101065209781,0.05064229017353336,0.0,-0.4992935061454773,1.4971270561218262,0.16223983466625214,-0.6945013403892517,-0.20588690042495728,-0.6034865379333496,0.33329036831855774
9.602603078927093,-0.7854784860787022,-2.611733790032777,-1.333848257676698,-0.5093090711369199,0.021520693470961735,0.0,-0.49839577078819275,1.4901796579360962,0.1773630529642105,-0.6891829371452332,-0.18823295831680298,-0.6057649254798889,0.35020580887794495
9.768939756509516,-0.7821533339208605,-2.6135106204762533,-1.340628479851087,-0.459408067862193,-0.007540455128579801,0.0,-0.49661070108413696,1.4819633960723877,0.19208216667175293,-0.6837213635444641,-0.17006459832191467,-0.6077089309692383,0.36646008491516113
9.935276348367447,-0.7788718060362142,-2.615318827676095,-1.34739729877391,-0.40950709030481386,-0.03656048623110543,0.0,-0.4939878582954407,1.4724901914596558,0.2063400149345398,-0.678119957447052,-0.15140774846076965,-0.6093156337738037,0.38205158710479736
10.101612802662506,-0.775650131051116,-2.6171699795533243,-1.3541504190719782,-0.35960615401629614,-0.06551925243646953,0.0,-0.4905204772949219,1.4618053436279297,0.22002345323562622,-0.6723962426185608,-0.13228781521320343,-0.6105811595916748,0.396955668926239
10.26794925620546,-0.7724950466038208,-2.619068886505697,-1.3608858425454915,-0.3097052179534101,-0.09439523808746704,0.0,-0.48621994256973267,1.4499562978744507,0.2330310195684433,-0.6665675044059753,-0.11273305863142014,-0.6114996075630188,0.4111535847187042
10.4342857092041,-0.769380547497113,-2.6209967605890845,-1.3676104190704852,-0.2598042820538178,-0.12321464619037978,0.0,-0.48114264011383057,1.436966896057129,0.24531260132789612,-0.6606352925300598,-0.09276852011680603,-0.612071692943573,0.42464467883110046
10.60062216140688,-0.7663199269563041,-2.622962971580929,-1.3743205437170105,-0.20990334639298408,-0.15195372309720548,0.0,-0.47530001401901245,1.4228956699371338,0.25676774978637695,-0.6546180844306946,-0.07242286205291748,-0.6122931241989136,0.43740949034690857
10.766958612431093,-0.7633215213177245,-2.624973348148686,-1.381013740664604,-0.16000241108572022,-0.1805856006665203,0.0,-0.4687167704105377,1.407804250717163,0.26730385422706604,-0.6485341787338257,-0.05172738805413246,-0.6121582388877869,0.4494328200817108
10.933295095860284,-0.7603615535688192,-2.6270104764485476,-1.387696412311398,-0.11010146605696294,-0.2091498011400759,0.0,-0.46145498752593994,1.391723394393921,0.27688685059547424,-0.6423817873001099,-0.03070409968495369,-0.6116729974746704,0.460715651512146
11.099631638348217,-0.7574480704573385,-2.629079636054086,-1.3943663150947418,-0.060200503310582965,-0.23763128911293413,0.0,-0.45354539155960083,1.374717116355896,0.28543955087661743,-0.6361757516860962,-0.009381766431033611,-0.610835611820221,0.47124531865119934
11.265968433411986,-0.7545968198867198,-2.631190245967732,-1.4010194095419544,-0.0102994647914523,-0.26600094656972445,0.0,-0.4450146555900574,1.356859803199768,0.29287970066070557,-0.629934549331665,0.01220793928951025,-0.6096433401107788,0.48100772500038147
11.43230522398176,-0.7517831628837337,-2.6333250564980504,-1.4076623333366327,0.039601572379479894,-0.2943026068852673,0.0,-0.435934841632843,1.3381863832473755,0.2991880774497986,-0.6236553192138672,0.034044232219457626,-0.6081030964851379,0.4900057315826416
11.598641967940157,-0.7490080297420583,-2.6354844514843516,-1.4142948355377214,0.08950259556699892,-0.3225344330157342,0.0,-0.4263538420200348,1.3187581300735474,0.3043125867843628,-0.6173484325408936,0.05609941482543945,-0.606216311454773,0.498232364654541
11.764978497353036,-0.7462961222372321,-2.6376838678617855,-1.42091045294265,0.1394035543908626,-0.3506496632223853,0.0,-0.4162997603416443,1.298667073249817,0.3081769347190857,-0.611036479473114,0.07833826541900635,-0.6039789319038391,0.5056745409965515
11.931315036487767,-0.7436198051838663,-2.639908791564239,-1.4275167963840094,0.1893045161312817,-0.37869491873224187,0.0,-0.40585455298423767,1.2779473066329956,0.3107730448246002,-0.6047160029411316,0.10073868185281754,-0.6013993620872498,0.5123368501663208
12.097651572764324,-0.7409775427036666,-2.642159791009475,-1.4341144115166815,0.23920547701424857,-0.4066711986113686,0.0,-0.3950762450695038,1.2566626071929932,0.31206655502319336,-0.5983961820602417,0.12327245622873306,-0.5984801054000854,0.5182155966758728
12.26398807922376,-0.7383742379785776,-2.644444264526126,-1.4407023591552788,0.2891064289520794,-0.43456416050685037,0.0,-0.3840191066265106,1.2348859310150146,0.31201809644699097,-0.5920901298522949,0.14590725302696228,-0.5952227711677551,0.5233070254325867
12.430324845003407,-0.7358085594664664,-2.64676867345688,-1.4472814310474407,0.33900745868597343,-0.4623667117491716,0.0,-0.37274545431137085,1.2126860618591309,0.31059813499450684,-0.5858087539672852,0.16861003637313843,-0.591630220413208,0.5276100039482117
12.596661734419229,-0.7332683777518759,-2.6491252635745512,-1.4538543883424966,0.3889085255107199,-0.49010219166446295,0.0,-0.36132675409317017,1.1901136636734009,0.307806134223938,-0.5795555114746094,0.19135794043540955,-0.587708592414856,0.5311271548271179
12.762998534498381,-0.7307534845482722,-2.651516317110401,-1.4604195228522232,0.4388095655344655,-0.5177691133836757,0.0,-0.3498246669769287,1.1672354936599731,0.3036312758922577,-0.573340117931366,0.21412310004234314,-0.5834609270095825,0.5338591933250427
12.929334871594985,-0.728264006172892,-2.6539442582255495,-1.46697350620245,0.48871046666344664,-0.5453662001028529,0.0,-0.3383020758628845,1.144117832183838,0.298068106174469,-0.5671718120574951,0.2368781566619873,-0.5788910984992981,0.5358076691627502
13.095671606295102,-0.7258077171758389,-2.656422713063256,-1.4735045828800482,0.5386114870734815,-0.5728747439462872,0.0,-0.3268175721168518,1.1208393573760986,0.2911059558391571,-0.561063826084137,0.25959280133247375,-0.5740004777908325,0.5369752645492554
13.262008409982021,-0.7233768213662481,-2.6589428116900424,-1.4800105118135178,0.5885125281795572,-0.6003171876369474,0.0,-0.31543970108032227,1.097450852394104,0.2827671766281128,-0.5550192594528198,0.28224819898605347,-0.5687947273254395,0.5373657941818237
13.428345236727925,-0.7209720934698757,-2.6615069708807098,-1.4864848030916793,0.638413576203328,-0.6276925236151308,0.0,-0.3042312264442444,1.0740164518356323,0.27306413650512695,-0.5490467548370361,0.30481934547424316,-0.5632773637771606,0.5369835495948792
13.594681980037217,-0.7185935575972202,-2.6641144490603574,-1.4929240503245609,0.6883145991961159,-0.6549988559041063,0.0,-0.29325470328330994,1.0505986213684082,0.26201683282852173,-0.5431550741195679,0.3272808790206909,-0.5574511289596558,0.5358337759971619
13.761018713424948,-0.7162406241486626,-2.666761651822292,-1.4993275849790577,0.7382156192124353,-0.6822334432544461,0.0,-0.28257110714912415,1.0272578001022339,0.24965278804302216,-0.5373529195785522,0.3496077060699463,-0.5513190627098083,0.5339227914810181
13.927355403447972,-0.7139121886329332,-2.6694423384560175,-1.5056958316409252,0.7881166262193428,-0.7093925095110447,0.0,-0.272241473197937,1.004052758216858,0.23600620031356812,-0.5316492915153503,0.3717743456363678,-0.544883131980896,0.5312581062316895
14.093691843358798,-0.7116065495889847,-2.672147868503461,-1.5120294210983498,0.8380175581925903,-0.7364712106212179,0.0,-0.2623254954814911,0.9810410737991333,0.22111882269382477,-0.5260533094406128,0.3937568962574005,-0.5381442308425903,0.527848482131958
14.26002852081441,-0.7093209823608795,-2.674871989327304,-1.518328803487372,0.8879185614292741,-0.7634658988913091,0.0,-0.2528820335865021,0.9582780003547668,0.2050340622663498,-0.5205737948417664,0.4155302941799164,-0.5311045050621033,0.5237034559249878
14.426365062186441,-0.707050928904086,-2.677613248881982,-1.5245946081643436,0.9378195238408835,-0.7903752740286988,0.0,-0.24396982789039612,0.935814619064331,0.18779684603214264,-0.5152188539505005,0.43706825375556946,-0.5237681269645691,0.5188330411911011
14.592701579053923,-0.7047891026693656,-2.6803728362152133,-1.5308219035796036,0.987720478901128,-0.8171838172912378,0.0,-0.23564976453781128,0.9137077927589417,0.16945408284664154,-0.510001003742218,0.45834192633628845,-0.5161334872245789,0.5132521390914917
14.759038266889956,-0.7025252081371042,-2.683146832444116,-1.5370162252658657,1.037621485251938,-0.8439023812861907,0.0,-0.22797787189483643,0.8919954299926758,0.15006223320960999,-0.504926323890686,0.47932687401771545,-0.5082076787948608,0.5069712400436401
14.925372620910595,-0.7002581357955933,-2.685933828353882,-1.5431807041168213,1.0875217914581299,-0.8705385327339172,0.0,-0.22100019454956055,0.870717465877533,0.12967874109745026,-0.4999999701976776,0.5,-0.5000000596046448,0.4999999701976776
14.975372620910596,-0.6934962220130965,-2.6802459329146466,-1.5571497220450221,1.095802938677083,-0.8773002054228012,0.0,-0.22108447551727295,0.8610101342201233,0.1312934309244156,-0.4999999701976776,0.4999999701976776,-0.5,0.4999999701976776
15.250788679940442,-0.6867321156801673,-2.6745561430212783,-1.5711233926016028,1.10408684407852,-0.8840641262366182,0.0,-0.22103369235992432,0.8513081073760986,0.13294048607349396,-0.5,0.4999999403953552,-0.5000000596046448,0.5
15.470600349393141,-0.6839804783527431,-2.680078066842064,-1.57349020614737,1.1119755876131312,-0.8868157767556564,0.0,-0.2210385501384735,0.8474164605140686,0.1261182576417923,-0.4999999701976776,0.49999988079071045,-0.4999999701976776,0.5
15.720371624153891,-0.6825620011552167,-2.689321190069904,-1.5720022597861305,1.119730764479732,-0.8882343331227066,0.0,-0.22102829813957214,0.8454074263572693,0.11648467928171158,-0.4999999701976776,0.49999991059303284,-0.5,0.4999999701976776
15.915665991333729,-0.6853200764391969,-2.697778915006329,-1.563703620595078,1.1198898364400658,-0.8854762212089079,0.0,-0.22105824947357178,0.8493266701698303,0.10986322164535522,-0.5,0.4999999403953552,-0.5,0.5000000596046448
16.12204612441468,-0.6916042903519387,-2.7055771064410394,-1.54965341138519,1.1136377932396981,-0.8791918729161959,0.0,-0.22106504440307617,0.8582800030708313,0.10577942430973053,-0.4999999403953552,0.49999988079071045,-0.4999999403953552,0.5000000596046448
16.31780625628068,-0.6935493911837253,-2.711258490017644,-1.5438422039874549,1.113507944985432,-0.877246727587672,0.0,-0.22104036808013916,0.861050009727478,0.10137620568275452,-0.5,0.5,-0.5,0.5
16.687985232618434,-0.6875739203694153,-2.7130762216599544,-1.553070229057815,1.1245536790740926,-0.8832223179768498,0.0,-0.2210807502269745,0.8525424003601074,0.09643786400556564,-0.5,0.5,-0.4999999701976776,0.5
16.88479284062682,-0.6815700852731883,-2.7149025816855925,-1.5623420575894866,1.135651844900002,-0.8892262732155409,0.0,-0.221012681722641,0.8439989686012268,0.09155542403459549,-0.49999991059303284,0.49999985098838806,-0.5000000596046448,0.5
17.081725413498265,-0.6757794597079056,-2.7179586290563327,-1.570177133744381,1.1465430148652556,-0.8950168454786597,0.0,-0.22110652923583984,0.8359747529029846,0.0858493521809578,-0.5,0.49999991059303284,-0.5,0.5
17.27842556550799,-0.6700003996921213,-2.721158066591286,-1.5778686682635876,1.157434041160923,-0.9007958327620704,0.0,-0.2211281955242157,0.8279909491539001,0.08010602742433548,-0.5,0.49999991059303284,-0.5000000596046448,0.5
17.544848950878556,-0.6641908816790852,-2.7243743664636058,-1.5856007402986894,1.1683824675957268,-0.9066052776594038,0.0,-0.22104737162590027,0.8199664950370789,0.07440857589244843,-0.5,0.5,-0.49999991059303284,0.5
17.745028800575554,-0.6594691586356394,-2.718218880282009,-1.5958027496089144,1.1724290623781577,-0.9113270502185334,0.0,-0.22105371952056885,0.8135610818862915,0.07810340821743011,-0.5,0.5,-0.49999991059303284,0.49999991059303284
17.971270274626082,-0.6552530477208472,-2.7076783104427897,-1.6071657679376679,1.173251590572438,-0.9155432680093257,0.0,-0.22104498744010925,0.8078745603561401,0.08613497763872147,-0.4999999701976776,0.5,-0.49999988079071045,0.4999999701976776
18.165479423166996,-0.6554884695234932,-2.6996227362416296,-1.6104858928980297,1.1685161056129723,-0.9153079145939256,0.0,-0.2210400104522705,0.8081868290901184,0.09376721829175949,-0.4999999701976776,0.5000000596046448,-0.49999991059303284,0.4999999701976776
18.415697717237787,-0.660394373518016,-2.6941905605032366,-1.6053601320438204,1.157958012259686,-0.9104020384656593,0.0,-0.2210540473461151,0.8148131370544434,0.10104379057884216,-0.5,0.5,-0.5,0.4999999403953552
18.67445905194725,-0.6628083416887338,-2.6888173527797763,-1.6040129917737591,1.1512375511205402,-0.9079881094907274,0.0,-0.22102734446525574,0.8180683255195618,0.10719408094882965,-0.4999999403953552,0.5,-0.5,0.4999999403953552
19.040381249734505,-0.6556013865896881,-2.6836126323850755,-1.6172801877117662,1.1593000811190604,-0.9151951480853602,0.0,-0.22107940912246704,0.8083686232566833,0.10885170102119446,-0.49999991059303284,0.5,-0.4999999701976776,0.49999991059303284
19.242476926000172,-0.6483917080263982,-2.6785093850673305,-1.6304998387596132,1.1674165376236794,-0.9224049065613643,0.0,-0.22100216150283813,0.7986867427825928,0.11044861376285553,-0.4999999403953552,0.5,-0.5,0.49999988079071045
19.445188424303527,-0.6415113885009748,-2.679691156389209,-1.640040574867647,1.178138995881921,-0.9292850908821565,0.0,-0.22107383608818054,0.7896670699119568,0.10650868713855743,-0.4999999403953552,0.5,-0.5,0.4999999403953552
19.642053737058635,-0.6345981037553073,-2.6808785898539225,-1.6496270228740786,1.1889128279458028,-0.9361982397753957,0.0,-0.2210284173488617,0.7806215882301331,0.10262705385684967,-0.4999999701976776,0.49999991059303284,-0.5,0.4999999701976776
19.83702717976212,-0.6270785447636339,-2.6794305333876336,-1.6607892947692713,1.198627079838539,-0.9437177496622051,0.0,-0.22109854221343994,0.7709874510765076,0.10113873332738876,-0.4999999403953552,0.4999999403953552,-0.4999999403953552,0.5
20.033813777133222,-0.6193547317325009,-2.6771456643395624,-1.6724687547609467,1.208021734493973,-0.9514415409740506,0.0,-0.22111302614212036,0.761172890663147,0.10044115781784058,-0.5,0.4999999403953552,-0.5,0.5
20.288834585314014,-0.6116684921951291,-2.6747105812042165,-1.6841544018654555,1.217272360023231,-0.959127760797032,0.0,-0.22100219130516052,0.7514389753341675,0.099953792989254,-0.4999999701976776,0.5,-0.49999985098838806,0.4999999701976776
20.546356139560807,-0.6074308802537007,-2.664036933271582,-1.6942410412288456,1.2166852788655158,-0.9633654717197552,0.0,-0.2210730016231537,0.7462160587310791,0.10829569399356842,-0.4999999403953552,0.5,-0.5,0.5000000596046448
20.788864309797276,-0.6031853995174042,-2.6533434655094688,-1.7043464104092068,1.2160971075605047,-0.9676110516211444,0.0,-0.22104057669639587,0.7409465909004211,0.11660820245742798,-0.49999991059303284,0.49999991059303284,-0.5000000596046448,0.49999991059303284
20.97380591864309,-0.597043775970983,-2.6505252266676136,-1.7133956999873594,1.222328130006129,-0.9737527043566746,0.0,-0.2211073338985443,0.7334635853767395,0.11718828231096268,-0.49999991059303284,0.49999991059303284,-0.5000000596046448,0.49999991059303284
21.17065252111754,-0.5896968558004129,-2.652720628344524,-1.7217702973529014,1.2328981290485812,-0.981099609166119,0.0,-0.22118860483169556,0.7246053814888,0.11292682588100433,-0.49999991059303284,0.49999985098838806,-0.5000000596046448,0.4999999701976776
21.367725909962267,-0.5822929857031633,-2.6549330477597013,-1.7302098107233628,1.24355006183422,-0.9885034637831703,0.0,-0.22115251421928406,0.7157005667686462,0.10870808362960815,-0.4999999403953552,0.4999999403953552,-0.5000001192092896,0.5
21.785747849661416,-0.5749748332768279,-2.657178221511692,-1.7385276247142034,1.2541130504669922,-0.9958216012575472,0.0,-0.22100090980529785,0.706922173500061,0.10456079989671707,-0.5,0.4999999403953552,-0.5000000596046448,0.4999999403953552
22.209308931487758,-0.5826200425004185,-2.6636914390931823,-1.726196803860481,1.2482955813336765,-0.9881764606256536,0.0,-0.22110581398010254,0.7160599827766418,0.10091555863618851,-0.4999999701976776,0.5,-0.5,0.4999999701976776
22.413073422964604,-0.5902539345015727,-2.6701950151423097,-1.7138842363518725,1.242486723814546,-0.9805426371146602,0.0,-0.22107931971549988,0.7252044081687927,0.09728247672319412,-0.49999991059303284,0.5,-0.5,0.49999991059303284
22.613582712415457,-0.5936073121447293,-2.677713004175852,-1.7064208750656935,1.2425413836085473,-0.97718923102659,0.0,-0.22103366255760193,0.7292323708534241,0.09148500859737396,-0.4999999403953552,0.5000001192092896,-0.4999999403953552,0.49999988079071045
22.893077277082178,-0.5904644367782179,-2.6867799108929247,-1.7063126844169039,1.2514999770320472,-0.9803319307180813,0.0,-0.22105926275253296,0.7254452705383301,0.08240249752998352,-0.4999999403953552,0.4999999403953552,-0.4999999403953552,0.5
23.089876465934488,-0.5873192548751831,-2.6958534717559814,-1.7062044143676758,1.260465145111084,-0.9834769368171692,0.0,-0.22100001573562622,0.7216171026229858,0.07333792746067047,-0.5,0.5,-0.5,0.5
